P3
400 200
255
134 154 180
134 154 181
134 154 181
134 154 181
134 154 181
134 154 181
134 154 181
134 154 181
135 155 181
134 154 181
134 154 181
134 154 181
133 154 181
133 154 181
133 154 181
134 154 181
134 154 181
134 154 181
133 154 181
133 154 181
134 154 181
133 154 181
133 154 181
134 154 181
134 154 181
134 154 181
133 154 181
134 154 181
133 154 181
134 154 181
134 154 181
134 154 181
134 154 181
134 154 181
134 155 181
133 154 181
133 154 181
134 154 181
134 154 181
134 154 181
133 154 181
134 154 181
133 154 181
134 154 181
133 154 181
134 154 181
135 155 181
134 154 181
133 154 181
134 154 181
134 154 180
134 154 181
133 154 181
134 154 181
134 154 181
135 155 181
133 154 181
134 154 181
133 154 181
135 155 181
134 154 181
135 155 181
134 154 181
133 154 181
134 154 181
135 155 181
132 153 181
133 154 181
134 154 181
135 155 181
134 154 181
135 155 181
134 154 181
133 154 181
134 154 181
134 154 180
134 154 181
134 155 181
135 155 181
133 154 181
133 154 181
134 154 181
134 154 181
134 154 181
134 154 181
134 154 181
134 154 181
134 154 181
133 154 181
133 154 181
133 154 181
134 154 181
134 154 181
134 154 181
134 154 181
134 154 181
133 154 181
134 154 181
133 154 181
133 154 181
134 154 181
134 154 181
134 154 181
134 154 181
134 154 181
134 154 181
134 154 181
134 154 181
134 154 181
134 154 181
134 154 181
134 154 181
134 154 181
134 154 181
134 154 181
134 154 181
133 154 181
135 155 181
134 154 181
133 154 181
134 154 181
134 154 181
134 154 181
135 155 181
133 154 181
134 154 181
133 154 181
135 155 181
134 154 181
133 154 181
134 155 181
134 154 181
133 154 181
133 154 180
134 154 181
133 154 181
134 154 181
134 154 181
133 154 181
134 154 181
134 154 181
133 154 181
133 154 181
134 154 181
134 155 181
133 154 181
134 154 181
134 154 181
134 154 181
134 155 181
134 154 181
134 154 181
134 154 181
134 154 181
135 155 181
134 154 181
133 154 181
134 154 181
134 155 181
133 154 181
134 154 181
134 154 181
133 154 180
134 154 181
134 155 181
133 154 181
134 154 181
134 154 181
134 154 181
135 155 181
133 154 181
134 154 181
134 154 181
134 154 181
133 154 181
134 154 181
133 154 181
134 154 181
134 155 181
134 154 181
133 154 180
134 154 181
133 154 181
134 154 181
134 154 181
134 154 181
133 154 181
133 154 181
134 154 181
134 154 181
133 154 181
134 154 181
134 154 181
134 154 181
133 154 181
133 154 181
133 154 181
134 154 181
133 154 181
135 155 181
133 154 181
134 154 181
134 154 181
133 154 181
134 154 181
134 154 181
134 154 181
134 154 181
135 155 181
133 154 181
134 154 181
134 154 181
134 155 181
134 154 181
134 154 181
135 155 181
134 155 181
134 154 181
133 154 181
134 154 181
134 154 181
133 154 181
134 154 181
133 154 181
134 154 181
134 154 181
134 154 181
133 154 181
133 154 181
133 154 180
133 154 181
134 154 181
133 154 181
134 154 181
135 155 181
134 155 181
134 154 181
134 154 181
133 154 181
134 154 181
134 154 181
134 154 181
134 154 181
133 154 181
133 154 181
134 154 181
133 154 181
134 154 181
134 154 181
133 154 181
133 154 181
133 154 181
134 154 181
133 154 181
134 154 181
134 154 181
133 154 181
133 154 181
133 154 181
134 154 181
134 154 181
134 154 181
134 154 181
134 154 181
134 154 181
134 154 181
134 154 181
133 154 181
133 154 181
133 154 181
134 154 181
135 155 181
134 154 181
134 154 181
133 154 181
133 154 181
135 155 181
134 154 181
133 154 181
133 154 181
134 154 181
134 154 181
133 154 181
134 155 181
134 154 181
134 154 181
134 154 181
134 154 181
134 154 181
134 154 181
133 154 181
134 154 181
133 154 181
134 154 181
134 154 181
133 154 181
135 155 181
133 154 181
133 154 181
134 154 181
134 154 181
134 154 181
134 154 181
134 154 181
135 155 181
133 154 181
133 154 181
134 154 181
134 154 181
134 154 181
134 154 181
133 154 181
133 154 181
134 154 181
134 154 181
133 154 181
134 154 181
134 154 181
133 153 180
134 154 181
133 154 181
134 154 181
134 154 181
133 154 181
135 155 181
134 154 181
133 154 181
134 154 181
134 154 181
134 154 181
134 154 181
134 154 181
134 154 181
134 154 181
134 154 181
133 154 181
134 155 181
133 154 181
135 155 181
134 154 181
135 155 181
134 154 181
134 154 181
133 154 181
133 154 181
134 154 181
133 154 181
133 154 181
134 154 181
135 155 181
133 154 181
134 154 181
134 154 181
134 154 180
134 154 181
133 154 181
134 154 181
134 154 181
134 154 181
133 154 181
134 154 181
134 154 181
134 154 181
134 154 181
134 154 181
134 154 181
134 154 181
133 154 181
134 154 181
134 154 181
134 154 181
133 154 181
135 155 181
134 154 181
135 155 181
134 154 181
134 154 181
133 154 181
133 154 181
134 155 181
134 154 181
134 154 181
134 154 180
133 154 181
133 154 181
133 153 180
133 154 181
134 154 181
134 154 181
134 154 181
133 154 181
134 154 180
134 154 181
134 154 181
134 154 181
134 154 181
133 154 181
134 154 181
133 154 181
133 154 181
134 154 181
134 154 181
134 154 181
134 154 181
135 154 180
134 154 181
133 154 181
133 154 181
134 154 181
134 154 181
134 154 181
134 154 181
133 154 181
133 154 181
134 154 181
135 155 181
133 154 181
134 154 181
134 154 181
135 155 181
134 154 180
135 155 181
134 154 181
135 155 181
134 154 181
134 154 181
133 154 181
134 154 181
133 153 180
133 154 181
135 155 181
133 154 181
134 154 181
134 154 181
134 154 181
134 154 181
134 155 181
133 154 181
135 155 181
133 154 181
133 154 181
133 154 181
134 154 181
134 154 180
134 154 181
133 154 181
134 154 181
133 154 181
134 154 181
133 154 181
134 154 181
133 154 181
134 154 181
134 154 181
134 154 181
133 154 181
134 154 181
133 154 181
135 155 181
134 154 181
134 154 181
134 154 181
135 155 181
134 154 181
133 154 181
134 154 181
133 154 181
134 154 181
134 154 181
133 154 181
133 154 181
134 154 181
133 154 181
134 154 181
134 154 181
133 154 181
133 154 181
133 154 181
135 155 181
134 154 181
133 154 181
134 154 181
134 154 181
134 154 181
134 154 181
134 154 181
134 154 181
133 154 181
134 154 181
134 154 181
134 154 181
134 155 181
134 154 181
133 154 181
133 154 181
134 154 181
134 154 181
134 154 181
133 154 180
134 154 181
134 154 181
134 154 181
134 154 181
133 154 181
134 154 181
133 154 181
133 154 181
134 154 181
134 154 181
133 154 181
134 154 180
134 154 181
134 154 181
134 154 181
133 154 181
133 154 181
133 154 181
135 155 181
135 155 181
134 154 181
133 154 181
134 154 180
133 154 181
134 154 181
133 154 181
133 154 181
133 154 181
134 154 181
134 154 180
134 154 181
134 154 181
134 154 181
134 154 181
134 154 181
134 154 181
133 154 181
133 154 181
134 154 181
134 154 181
134 154 181
133 154 181
133 154 181
133 154 181
133 154 181
134 155 181
133 154 181
133 154 181
134 154 181
134 154 181
134 154 181
134 154 181
134 154 181
134 154 181
134 154 181
134 154 181
133 154 181
133 154 181
133 154 181
133 154 181
134 154 181
134 154 181
134 154 181
135 155 181
134 154 181
134 154 181
133 154 181
134 154 181
134 154 180
133 154 181
134 154 181
134 155 181
134 154 181
134 154 181
134 154 181
135 155 181
134 154 181
134 154 181
134 155 181
133 154 181
134 154 180
134 154 181
135 155 181
134 154 181
133 154 181
134 154 181
135 155 181
133 154 181
134 154 181
133 154 181
134 155 181
134 154 181
134 154 181
134 154 181
134 154 181
134 154 181
134 154 181
134 154 181
134 154 181
133 154 181
134 154 181
132 153 181
133 154 181
134 154 181
134 154 181
135 155 181
134 154 181
134 154 181
134 154 181
134 154 181
133 154 181
134 154 181
134 154 181
134 154 181
134 154 181
133 154 181
133 154 181
134 154 181
133 154 181
134 154 181
134 154 181
135 155 181
134 155 181
134 154 181
134 155 181
134 154 181
134 154 181
134 154 181
134 154 181
133 154 180
135 155 181
133 154 181
134 154 181
133 154 181
134 154 181
133 154 181
133 154 181
134 154 181
133 154 180
135 155 181
134 154 181
133 154 181
135 155 181
134 154 181
133 154 181
133 154 181
134 154 181
133 154 181
134 154 181
133 154 181
133 154 181
134 154 181
133 154 181
133 154 181
133 154 181
135 155 181
134 154 181
134 154 181
134 154 181
134 154 180
134 154 181
133 154 181
134 154 181
134 154 181
134 154 180
133 154 181
133 154 181
134 154 181
135 155 181
134 154 181
133 154 181
133 154 181
133 154 181
133 154 181
134 154 181
134 154 181
133 154 181
134 154 181
134 154 181
134 154 181
133 154 181
133 154 181
133 154 181
134 154 181
134 154 181
134 154 181
134 154 181
134 154 181
134 154 181
134 154 181
134 154 181
133 154 181
134 154 181
133 154 181
133 154 181
134 154 181
134 154 181
133 154 181
134 154 181
133 154 181
133 154 181
134 154 181
134 154 181
134 154 181
134 154 181
134 154 181
133 154 181
134 154 181
133 154 181
134 154 181
134 154 181
134 154 181
134 154 181
134 154 181
134 154 181
134 154 181
133 154 181
134 154 181
133 154 181
133 154 181
134 154 181
133 154 181
134 154 181
134 154 181
134 154 181
134 154 181
133 154 181
134 154 181
134 154 181
134 154 181
134 154 181
133 154 181
134 154 181
133 154 181
134 154 181
134 154 181
134 154 181
134 154 181
134 154 181
134 154 181
133 154 181
134 154 181
135 155 181
134 154 181
134 154 181
134 154 181
134 155 181
134 154 181
133 154 180
133 154 181
133 154 181
134 154 181
133 154 181
134 154 181
133 154 181
134 154 181
133 154 181
134 154 181
133 154 181
134 154 181
135 155 181
133 154 181
133 154 180
135 155 181
134 154 181
134 154 181
135 155 181
134 154 181
134 154 181
133 154 181
133 154 181
134 154 181
134 154 181
134 154 181
134 154 181
135 155 181
134 154 181
133 154 181
134 154 181
134 154 181
134 154 181
133 154 181
134 154 181
134 154 181
133 154 181
134 154 181
133 154 181
133 154 181
134 154 181
135 155 181
135 155 181
134 154 181
133 154 181
134 154 181
133 154 181
133 154 181
134 154 181
134 154 181
134 154 181
134 154 181
133 154 180
134 154 181
134 154 181
134 155 181
134 154 181
133 154 181
133 154 181
133 154 181
134 154 181
134 154 181
134 154 181
134 154 181
134 154 181
133 154 181
133 154 181
134 154 181
133 154 181
133 154 181
133 154 181
134 154 181
134 154 181
133 154 181
133 154 181
134 154 181
134 154 181
135 155 181
134 154 180
133 154 181
134 154 181
134 154 181
134 154 181
133 154 181
133 154 181
134 155 181
134 154 181
133 154 181
133 154 181
133 154 181
133 154 181
134 154 180
134 154 181
133 154 181
133 154 181
134 154 180
134 154 181
133 154 181
134 154 181
133 154 181
133 154 181
134 154 181
134 154 181
135 155 181
134 154 181
134 154 181
134 154 181
134 154 181
134 154 181
133 154 181
134 154 181
133 154 181
133 154 181
133 154 181
134 154 181
134 154 181
134 154 181
135 155 181
134 154 181
134 154 181
134 154 181
133 154 181
133 154 181
133 154 180
134 154 181
133 154 181
133 154 181
133 154 181
135 155 181
135 155 181
134 154 181
134 154 181
134 154 180
134 154 181
134 154 181
134 154 181
133 153 180
134 154 181
134 155 181
134 154 181
133 154 181
134 154 181
132 153 181
134 154 181
133 154 181
134 154 181
134 154 181
134 154 181
134 154 181
134 154 181
133 154 181
134 155 181
132 153 181
134 155 181
133 154 181
133 154 181
133 154 181
134 154 181
134 154 181
134 154 181
133 154 181
134 154 181
132 153 181
133 154 180
135 155 181
133 154 181
135 155 181
134 154 181
134 154 181
133 154 181
133 154 181
134 154 181
134 154 181
134 154 181
134 155 181
134 154 181
134 154 181
134 154 181
134 154 181
135 155 181
134 154 181
133 154 181
135 155 181
134 154 181
134 154 181
134 154 181
134 154 181
134 154 181
133 154 181
134 155 181
134 155 181
132 153 180
135 155 181
134 154 181
134 155 181
133 154 181
134 154 180
134 154 181
134 154 181
134 154 181
133 154 181
134 154 181
134 154 181
134 154 181
133 154 181
134 154 181
134 154 181
134 154 181
134 154 181
134 154 181
134 154 181
133 154 181
134 154 181
133 154 181
134 154 181
133 154 181
133 154 181
134 154 181
134 154 180
133 154 181
133 154 181
133 154 181
134 154 181
134 154 181
134 154 181
133 154 180
135 155 181
134 154 181
134 154 181
133 154 181
133 154 181
134 154 180
134 154 181
134 154 181
134 154 181
134 154 181
134 154 181
134 154 181
134 154 181
134 154 181
133 154 181
134 154 181
133 154 181
134 154 181
134 154 181
134 154 181
134 154 181
134 154 181
135 155 181
133 154 181
134 154 181
134 154 181
133 154 181
133 154 181
134 154 181
133 154 181
134 154 181
133 154 181
134 154 181
133 154 181
133 154 181
134 154 181
134 154 181
135 155 181
134 154 181
134 154 181
134 154 181
134 154 181
133 154 181
133 154 181
134 154 181
134 154 181
133 154 181
133 154 181
133 154 181
135 155 181
135 155 181
133 154 181
133 154 181
133 154 181
134 155 181
134 154 181
134 154 181
134 154 181
134 154 181
133 154 181
133 154 181
133 154 181
135 155 181
134 154 181
133 154 181
134 154 181
134 154 181
134 154 181
133 154 181
134 154 181
134 154 181
134 154 181
134 154 181
133 154 181
134 154 181
135 155 181
134 154 181
134 154 181
133 154 180
133 154 181
133 154 181
134 154 181
133 154 181
134 154 181
134 154 181
133 154 181
132 153 181
134 154 181
134 154 181
134 154 181
134 154 181
133 154 181
134 154 181
134 154 181
133 154 181
133 154 181
135 155 181
134 154 181
134 154 181
134 154 181
134 154 181
133 154 181
134 154 181
133 154 181
133 154 181
134 154 181
134 154 181
132 153 180
134 154 181
133 154 181
134 154 181
133 154 181
134 154 181
134 154 180
134 154 181
134 155 181
134 154 181
135 155 181
134 154 181
134 154 181
134 154 181
133 154 181
134 154 181
133 154 181
133 154 181
133 154 181
134 154 181
135 155 181
134 154 181
134 154 181
134 154 180
134 154 181
134 154 181
134 154 181
134 154 181
134 154 181
135 155 181
133 154 181
134 154 181
134 154 181
134 154 181
133 154 181
133 154 181
134 154 181
134 154 181
133 154 181
135 155 181
134 154 181
133 154 181
134 154 181
134 154 181
134 154 181
134 154 181
134 154 181
133 154 181
133 154 181
133 154 181
134 154 181
133 154 181
133 154 181
133 154 181
134 154 181
133 154 181
134 155 181
135 155 181
134 154 181
134 154 181
134 154 181
134 154 181
134 154 181
134 154 181
134 154 181
134 154 181
135 155 181
134 154 181
134 154 181
134 154 181
134 154 181
133 154 181
134 154 181
134 154 181
134 154 181
133 154 181
133 154 181
133 154 181
133 154 181
133 154 181
134 154 181
134 154 181
134 154 181
133 154 181
134 154 181
133 154 181
134 154 181
134 154 181
133 154 180
134 154 181
134 154 181
134 154 181
134 154 181
134 154 181
133 154 181
134 154 181
134 154 181
135 155 181
134 154 181
134 154 181
133 154 181
134 154 181
134 154 181
134 154 181
135 155 181
134 154 181
134 154 181
134 155 181
135 155 181
134 154 181
134 154 181
134 155 181
134 154 181
133 154 181
134 154 181
134 154 181
134 154 181
134 154 181
135 155 181
134 154 181
133 154 181
134 154 181
133 154 181
134 154 181
135 155 181
133 154 181
133 154 181
134 154 181
133 154 181
134 155 181
134 154 181
135 155 181
134 154 181
133 154 181
134 154 181
134 154 181
134 154 181
134 154 181
134 154 181
134 154 181
134 154 181
134 154 181
133 154 181
133 154 181
134 154 181
134 154 181
133 154 181
134 154 181
133 154 181
134 154 181
134 154 180
133 154 181
134 154 181
134 154 181
133 154 181
133 154 181
133 154 181
134 155 181
134 154 181
134 155 181
133 154 181
133 154 181
134 154 181
134 154 181
133 154 181
134 154 181
134 154 181
133 154 181
135 155 181
133 154 181
134 154 181
134 154 181
134 154 181
133 154 181
134 154 181
134 154 181
133 154 181
134 154 181
133 154 181
133 154 181
133 154 181
133 154 181
134 154 181
134 154 181
134 154 180
134 154 181
134 154 181
133 154 181
134 154 181
134 154 181
133 154 181
133 154 181
133 154 181
133 154 181
133 154 180
134 154 181
134 154 181
133 154 181
133 154 181
134 154 181
133 154 181
135 155 181
134 154 181
133 154 181
134 154 181
134 154 181
134 154 181
134 154 181
133 154 181
134 154 181
134 154 181
135 155 181
134 154 181
135 155 181
133 154 181
133 154 181
134 154 181
134 154 181
134 155 181
133 154 181
134 154 181
133 154 181
134 154 181
134 154 181
134 154 181
132 153 180
135 155 181
134 155 181
133 154 181
133 154 181
133 154 181
134 155 181
133 154 181
133 154 181
133 154 181
132 153 181
134 154 181
134 154 181
134 154 181
133 154 181
135 155 181
133 154 181
134 154 181
133 154 181
134 154 181
134 154 181
134 154 181
135 155 181
135 155 181
135 155 181
133 154 181
133 154 181
133 154 181
135 155 181
134 154 181
134 154 181
134 154 181
135 155 181
133 154 181
133 154 181
134 154 181
133 154 181
134 154 181
134 154 181
134 154 181
134 154 180
134 154 181
133 154 181
134 154 181
134 154 181
133 154 181
134 154 181
134 154 181
134 154 180
134 154 181
133 154 181
133 154 181
134 154 181
133 154 181
134 154 181
133 154 181
134 154 181
134 154 181
133 154 181
135 155 181
134 154 181
134 154 181
134 154 181
135 155 181
134 154 181
133 154 181
134 154 181
134 154 181
134 154 181
134 154 181
133 154 181
133 154 181
134 154 181
134 155 181
133 154 181
134 154 181
134 154 181
133 154 181
134 154 181
134 154 181
134 154 181
133 154 181
135 155 181
135 155 181
134 154 181
134 154 181
133 154 181
134 154 181
134 154 181
133 154 181
134 154 181
134 154 181
133 154 181
135 155 181
135 155 181
134 154 181
133 154 181
134 154 181
134 154 181
134 154 181
134 154 181
134 154 181
133 154 181
134 154 181
133 154 181
133 154 181
133 154 181
134 154 181
134 154 181
134 154 181
133 154 181
134 154 181
134 154 181
134 154 181
134 154 181
135 155 181
133 154 181
133 154 181
133 154 181
134 154 181
134 154 181
133 154 181
134 154 181
133 154 181
134 154 181
134 154 181
134 154 181
134 154 181
133 154 181
134 154 181
134 154 181
133 154 181
133 154 181
134 154 181
134 154 181
134 154 181
135 155 181
134 154 181
134 154 181
134 154 181
134 154 181
134 154 180
133 154 181
133 154 181
134 154 181
133 154 181
134 154 181
134 154 181
133 154 181
133 154 181
134 154 181
133 154 181
134 154 180
133 154 181
134 154 181
134 154 181
133 154 181
133 154 181
134 154 181
134 154 181
134 154 181
134 154 181
133 154 181
134 154 181
135 155 181
134 154 181
134 154 181
134 154 181
133 154 181
133 154 181
134 155 181
135 155 181
134 154 181
133 154 181
133 154 181
134 154 181
134 154 181
134 154 181
133 153 180
134 154 181
133 154 181
134 154 181
134 154 181
134 154 181
133 154 181
133 154 181
133 154 181
134 154 181
134 154 181
134 154 181
134 154 181
134 154 181
133 154 181
134 154 181
135 155 181
133 154 181
133 154 181
135 155 181
133 154 181
134 154 181
133 154 181
134 154 181
134 154 181
134 154 181
134 154 181
133 154 181
134 154 181
134 154 181
134 154 181
134 154 181
134 154 181
134 154 181
134 154 181
133 154 181
132 153 181
133 154 181
134 154 181
133 154 181
133 154 181
133 154 181
134 154 181
134 154 181
133 154 181
134 154 181
135 155 181
133 154 181
134 154 181
133 154 181
133 154 181
133 154 181
133 154 181
133 153 180
134 154 181
133 154 181
134 154 181
133 154 181
133 154 181
132 153 181
133 154 181
134 154 181
133 154 181
133 154 181
133 154 181
134 154 181
133 154 181
134 154 181
133 154 181
134 155 181
133 154 181
134 154 181
133 154 181
133 154 181
134 154 181
134 154 181
135 155 181
134 154 181
134 154 181
134 154 181
133 154 181
133 154 181
133 154 181
134 154 181
134 154 181
134 154 181
133 154 181
134 154 181
134 154 181
134 154 181
133 154 181
133 154 181
134 154 181
133 154 181
134 154 181
133 154 180
135 155 181
134 154 181
133 154 181
133 154 181
134 155 181
134 154 181
134 154 181
133 154 181
134 154 181
133 154 181
134 154 181
134 155 181
134 154 181
134 154 181
134 154 181
134 154 181
133 154 181
133 154 181
134 154 181
134 154 181
133 154 181
133 154 180
134 154 181
133 154 181
134 154 181
134 154 181
134 154 180
134 154 181
133 154 181
135 155 181
134 154 181
133 154 181
133 154 181
135 155 181
134 154 181
134 154 181
135 155 181
134 154 181
133 154 181
133 154 181
134 154 181
134 154 181
134 154 181
134 155 181
134 154 181
134 154 181
134 154 181
133 154 181
134 154 181
134 154 180
134 154 181
133 154 181
134 154 181
133 154 181
134 154 181
134 154 181
135 155 181
133 154 181
133 154 181
133 154 181
134 154 181
135 155 181
134 154 181
133 154 181
133 154 181
134 154 181
133 154 181
133 154 181
134 154 181
133 154 181
133 154 181
134 154 181
133 154 181
134 155 181
134 154 181
134 154 181
134 154 181
134 154 180
134 154 181
134 154 181
134 154 181
134 154 181
133 154 181
134 154 181
133 154 181
136 155 181
134 154 181
133 154 181
134 154 180
133 154 181
134 154 181
133 154 181
134 154 181
134 154 181
134 154 181
133 154 181
134 154 181
134 154 181
134 154 180
133 154 181
135 155 181
134 154 181
134 154 181
134 154 181
134 154 181
133 154 180
134 155 181
134 154 181
134 155 181
133 154 181
134 154 181
134 154 181
133 154 181
133 154 181
134 154 181
134 154 181
134 154 181
133 154 181
133 154 181
133 154 181
134 154 181
134 154 181
133 154 181
133 154 180
132 153 180
134 154 181
134 154 181
133 154 181
134 154 181
134 154 181
134 154 181
133 154 181
133 154 181
133 154 181
132 153 180
134 154 181
134 154 181
133 154 181
133 154 181
134 154 181
133 154 181
134 154 181
134 154 180
134 154 181
133 154 180
133 154 181
134 154 181
133 154 181
133 154 181
133 154 181
135 155 181
134 154 181
133 154 181
133 154 181
134 154 181
134 154 181
134 154 180
133 154 181
133 154 181
134 154 181
134 154 181
134 154 181
133 154 181
134 154 181
133 154 181
134 154 181
134 155 181
133 154 181
135 155 181
133 154 181
134 154 181
133 154 181
134 154 181
135 155 181
134 154 181
134 154 181
134 155 181
134 154 181
133 154 181
134 154 181
134 154 181
134 154 181
134 154 181
134 154 181
133 154 181
134 154 181
134 154 181
134 154 181
133 154 181
134 154 181
133 154 181
132 153 181
134 154 181
134 154 181
135 155 181
135 155 181
134 154 181
134 154 181
134 154 181
134 154 181
134 154 181
134 154 181
134 155 181
135 155 181
134 154 181
134 154 181
134 154 181
133 154 181
134 154 181
134 154 181
133 154 181
134 154 181
134 154 181
134 154 181
133 154 181
133 154 181
134 154 181
133 154 181
134 154 181
133 154 181
134 154 181
134 154 181
134 154 181
134 154 181
134 154 181
134 154 181
133 154 180
134 154 181
134 154 181
134 154 181
134 154 181
133 154 181
133 154 181
135 155 181
134 154 181
134 154 181
132 153 181
134 154 181
134 154 181
134 154 181
134 154 181
133 154 181
134 154 181
134 154 181
134 154 181
134 154 181
134 154 181
134 154 181
135 155 181
134 154 181
134 154 181
134 154 181
134 154 181
134 154 181
134 154 181
134 154 181
134 155 181
135 155 181
134 154 181
134 155 181
134 154 181
135 155 181
134 154 181
134 154 181
133 154 181
134 155 181
133 154 181
134 154 181
134 154 181
133 154 181
133 154 181
134 154 181
134 154 181
134 154 181
134 154 181
134 154 181
134 154 181
134 154 181
134 154 181
132 153 180
134 155 181
133 154 181
134 154 181
133 154 181
134 154 181
134 154 181
135 155 181
135 155 181
134 154 181
134 154 181
134 154 181
135 155 181
133 154 181
134 154 181
133 154 181
134 154 181
134 154 181
133 154 181
134 154 181
134 154 181
134 154 181
133 154 181
133 154 181
134 154 181
134 155 181
134 154 181
134 154 181
134 154 181
135 155 181
133 154 181
134 154 181
134 154 181
134 155 181
134 154 181
134 154 181
134 154 181
134 154 181
134 154 181
134 154 181
134 154 181
134 154 181
134 154 181
135 155 181
133 154 181
133 154 181
133 154 181
134 154 181
134 154 181
134 154 181
133 154 181
134 154 181
134 154 181
133 154 181
134 154 181
134 154 181
134 154 181
134 154 181
133 154 181
134 154 181
133 154 181
133 154 181
134 154 181
134 154 181
134 154 181
134 154 181
134 154 181
133 154 181
134 154 181
133 154 181
133 154 181
133 154 181
133 154 181
134 154 181
134 154 181
133 154 180
133 154 181
133 154 181
134 154 181
134 154 181
134 154 181
135 155 181
133 154 181
134 154 181
133 154 181
134 154 181
133 154 181
134 154 181
134 154 181
134 154 181
134 154 181
134 154 181
134 154 181
134 154 181
134 154 181
134 154 181
133 154 181
133 154 181
133 154 181
134 154 181
134 154 181
134 154 181
133 154 181
134 154 181
133 154 181
133 154 181
134 154 181
134 154 181
134 154 181
133 154 181
133 153 180
134 154 181
133 154 181
135 155 181
134 154 181
134 154 181
134 154 181
133 154 181
133 154 181
134 154 181
134 155 181
134 154 181
134 154 181
133 154 181
134 154 181
134 154 181
133 154 181
134 154 181
133 154 181
134 154 181
134 154 181
133 154 181
135 155 181
134 154 181
133 154 181
134 154 181
134 154 181
134 155 181
133 154 181
133 154 181
133 154 181
134 154 181
133 154 181
135 155 181
133 154 181
133 154 181
134 154 181
134 154 181
134 154 181
134 154 181
133 154 181
135 155 181
134 155 181
134 154 181
134 154 181
134 154 181
134 154 181
134 154 181
134 154 181
133 154 181
134 154 181
133 154 181
134 154 181
134 154 181
135 155 181
134 154 181
133 154 181
134 154 181
134 154 181
134 154 181
133 154 181
133 154 181
135 155 181
133 154 181
134 154 181
133 154 180
134 154 181
134 154 181
135 155 181
134 155 181
133 154 181
134 154 181
134 154 181
133 154 181
133 154 181
134 154 181
133 154 180
134 154 181
134 154 181
135 155 181
134 154 181
134 154 181
135 155 181
134 154 181
133 154 181
134 154 181
134 154 181
133 154 181
134 154 181
134 154 181
134 154 181
134 154 181
134 154 181
134 154 181
134 154 180
133 154 181
133 154 181
134 154 181
134 154 180
134 154 181
133 154 181
134 154 181
134 154 181
133 154 181
134 155 181
133 154 181
133 154 181
134 154 181
134 154 181
134 154 181
134 154 181
134 155 181
133 154 180
134 154 181
134 154 181
134 154 181
134 154 181
134 154 181
134 154 181
134 154 180
133 154 181
134 154 181
133 154 181
134 154 181
133 154 181
134 154 181
134 154 181
134 154 181
134 154 181
134 154 181
134 154 181
134 154 181
134 154 181
134 154 181
133 154 181
134 154 181
134 154 181
134 154 181
133 154 181
134 154 181
134 154 181
134 154 181
134 154 181
133 154 181
134 154 181
133 154 181
133 154 181
134 154 181
134 154 181
134 154 181
134 154 181
133 154 181
133 154 181
134 154 181
134 154 181
133 154 181
134 154 181
133 154 181
133 154 181
134 154 181
134 154 181
133 154 181
134 154 181
134 154 181
133 154 181
134 154 181
134 154 181
134 154 181
134 155 181
134 154 181
133 154 181
134 154 180
134 154 181
135 155 181
135 155 181
134 154 181
134 154 181
133 154 181
133 154 181
134 154 181
133 154 181
134 154 181
133 154 181
134 155 181
134 154 181
134 154 181
133 154 181
134 154 181
133 154 181
134 154 181
134 154 181
134 154 181
134 154 181
133 154 181
133 154 181
133 154 181
133 154 181
134 154 181
134 154 181
134 154 181
134 154 181
134 154 181
134 154 181
134 154 181
134 154 181
132 153 181
134 154 181
132 154 181
134 154 181
134 154 181
134 154 181
133 154 181
134 154 181
133 154 181
135 155 181
133 154 181
134 154 181
134 154 181
134 154 181
134 154 181
133 154 181
134 154 181
134 154 181
135 155 181
134 154 181
134 154 181
134 154 181
133 154 181
134 154 181
134 154 181
135 155 181
134 154 181
133 154 181
134 154 181
134 154 181
134 154 181
134 154 181
133 154 181
133 154 181
134 154 181
134 154 181
133 154 181
134 154 181
133 154 181
133 154 181
133 154 181
135 155 181
133 154 181
134 155 181
134 154 181
135 155 181
134 154 181
134 154 181
133 154 181
134 154 181
133 154 181
133 154 181
134 154 181
133 154 181
134 154 181
134 154 181
134 154 181
133 154 181
134 154 181
134 154 181
134 154 181
134 154 181
134 154 181
134 154 181
135 155 181
133 154 181
134 154 181
133 154 181
134 154 180
134 154 181
134 154 181
134 154 181
134 154 181
134 154 181
134 154 181
134 154 181
133 154 181
133 154 181
133 154 180
134 154 181
134 154 181
133 154 181
134 154 181
134 154 181
133 154 181
133 154 181
133 154 181
134 154 181
134 154 181
134 154 181
134 154 181
133 154 181
133 154 181
134 154 181
134 154 181
134 154 181
134 154 181
134 154 181
133 154 181
134 154 181
134 155 181
134 154 181
134 154 181
133 154 181
133 154 181
134 154 181
133 154 181
133 154 181
134 154 181
133 154 181
133 154 181
134 154 181
133 154 181
134 154 181
134 154 181
134 154 181
134 154 181
133 154 181
133 154 181
134 154 180
134 154 181
133 154 181
134 154 181
133 154 181
134 154 181
133 154 181
133 154 181
133 154 181
134 154 181
134 154 181
134 154 181
133 153 180
133 154 181
134 154 181
134 154 181
135 155 180
134 154 181
133 154 181
134 154 181
133 154 181
133 154 181
133 154 181
133 154 181
134 154 181
134 154 181
133 154 181
134 154 181
134 154 181
134 154 181
133 154 181
134 154 180
133 154 181
134 154 181
133 154 181
133 154 181
133 154 181
133 154 181
134 154 181
134 154 181
134 154 181
134 154 181
133 154 181
134 154 181
133 154 181
133 154 181
134 154 181
134 154 181
134 154 181
134 154 181
134 154 181
134 154 181
134 154 181
133 154 181
135 155 181
134 154 181
134 154 181
134 154 181
134 154 181
134 154 181
134 154 181
132 153 181
134 154 181
135 155 181
135 155 181
133 154 181
133 154 181
133 154 181
133 154 181
133 154 181
133 153 180
134 154 181
134 154 181
134 154 181
134 154 181
135 155 181
134 154 181
133 154 181
134 154 181
134 154 181
134 154 181
135 155 181
134 154 181
134 154 181
133 154 181
134 154 180
134 155 181
135 155 181
133 154 181
134 154 181
134 154 181
134 154 181
134 154 181
133 154 181
133 154 181
133 154 181
133 154 181
133 154 181
134 155 181
133 154 181
134 155 181
133 154 181
133 154 181
135 155 181
134 154 181
134 154 181
133 154 181
133 153 180
134 154 181
134 154 181
133 154 181
134 154 181
134 154 181
133 154 181
135 155 181
133 154 181
133 154 181
135 155 181
133 154 181
133 154 181
133 154 181
134 154 181
135 155 181
134 154 181
135 155 181
134 154 181
134 154 181
133 154 181
134 154 181
133 154 181
133 154 181
133 154 181
134 154 181
133 154 181
134 154 181
134 154 181
133 154 181
133 154 181
134 154 181
134 154 181
134 154 181
133 154 181
133 154 181
133 154 181
134 154 181
134 154 181
135 155 181
134 155 181
134 154 181
133 154 181
133 154 181
133 154 181
133 154 181
135 155 181
133 154 181
133 154 181
134 154 181
135 155 181
133 154 181
134 154 181
133 154 181
133 154 181
133 154 181
134 154 181
134 154 181
134 154 181
134 154 181
134 154 181
134 154 181
133 154 181
134 154 180
134 154 181
134 154 181
133 154 181
134 155 181
134 154 181
134 154 181
134 154 181
133 154 181
132 153 180
133 154 181
134 154 181
134 154 181
134 154 181
134 154 181
134 154 181
133 154 181
133 154 181
134 154 181
134 154 181
134 154 181
134 154 181
135 155 181
134 154 181
134 154 181
133 154 181
135 155 181
134 154 181
133 154 181
133 154 181
133 154 181
134 154 181
134 154 181
134 154 180
134 154 181
134 154 181
134 154 181
134 154 181
133 154 181
134 154 181
134 154 181
133 154 181
134 154 181
134 154 181
134 154 181
134 154 181
135 155 181
134 154 181
133 154 181
133 154 181
134 154 181
134 154 181
134 154 181
134 154 181
133 154 181
134 154 181
134 154 181
133 154 181
133 154 181
134 154 181
134 154 181
135 154 180
134 154 181
133 154 181
135 155 181
133 154 181
134 154 181
135 155 181
134 154 181
134 154 181
134 154 181
134 154 181
133 154 181
133 154 181
134 154 181
134 154 181
133 154 181
134 154 181
134 154 181
134 154 181
134 154 181
133 154 181
134 154 181
134 154 181
132 153 180
134 154 181
134 154 181
133 154 181
134 154 181
134 154 181
133 154 181
134 154 181
133 154 181
134 154 181
134 154 181
134 154 181
133 154 180
134 154 181
134 154 181
133 153 180
134 154 181
134 154 181
133 154 181
134 154 181
134 154 181
134 154 181
134 154 181
134 154 181
134 154 181
133 154 181
134 154 181
133 154 181
134 154 181
134 155 181
135 155 181
134 154 180
135 155 181
135 155 181
134 154 181
134 155 181
134 154 180
134 154 181
133 154 181
134 154 181
134 154 181
133 154 181
133 153 180
134 154 181
134 154 181
134 154 181
135 155 181
134 154 181
134 154 181
134 154 181
134 154 181
134 154 181
134 154 181
135 155 181
134 154 181
134 154 181
133 154 181
134 154 181
134 154 181
134 155 181
134 154 181
134 154 181
134 155 181
134 154 181
134 154 181
134 154 181
134 154 181
134 154 181
134 154 181
133 154 181
134 154 181
135 155 181
134 154 181
133 154 181
134 154 181
133 154 181
134 154 181
134 154 181
133 154 181
134 154 181
134 154 181
134 154 181
134 154 181
134 154 181
133 154 181
134 154 181
134 155 181
134 154 181
134 154 181
133 154 181
133 154 181
133 154 181
133 154 181
134 154 181
133 154 180
133 154 181
134 154 180
134 155 181
134 154 181
134 154 181
134 154 181
134 154 181
133 154 181
134 154 181
133 154 181
134 154 181
134 154 181
133 154 181
134 154 181
133 154 181
133 154 181
133 154 181
134 154 181
133 154 181
134 154 181
134 154 181
134 154 181
133 154 181
134 154 181
134 154 181
133 154 181
134 155 181
134 154 181
134 154 181
134 154 181
134 154 181
134 154 181
134 154 181
133 154 181
134 154 181
134 155 181
133 154 181
133 154 181
134 154 181
134 155 181
134 154 180
134 154 181
134 154 181
135 155 181
133 154 181
134 154 181
133 154 181
134 154 180
134 154 181
133 154 181
133 154 181
133 154 180
133 154 181
133 154 181
134 154 181
134 154 181
133 154 181
135 155 181
133 154 181
133 154 181
134 154 181
134 154 181
134 154 181
134 154 181
134 154 181
133 154 181
134 154 181
134 154 181
133 154 181
134 154 181
133 154 181
134 154 181
134 154 181
134 154 181
134 154 181
135 155 181
133 154 181
133 154 181
135 155 181
133 154 181
133 154 181
134 154 181
133 154 181
134 154 181
134 154 181
133 154 181
134 155 181
133 154 181
134 154 181
133 154 181
134 154 181
135 155 181
134 154 181
134 154 181
133 154 181
133 154 181
134 154 181
133 154 181
134 154 181
134 154 181
134 154 181
135 155 181
134 154 181
133 154 181
133 154 181
134 154 181
134 154 181
134 154 181
133 154 181
133 154 181
134 154 181
134 154 181
133 154 181
133 154 181
133 154 181
134 154 181
134 154 181
134 154 181
134 154 181
134 154 181
135 155 181
134 154 181
134 154 181
133 154 181
133 154 181
134 154 181
133 154 181
133 154 181
134 154 181
134 154 181
133 154 181
134 154 181
133 154 181
134 154 181
134 154 181
134 154 181
134 154 181
133 154 181
133 154 181
132 154 181
133 154 181
134 154 181
134 154 181
134 154 181
133 153 180
135 155 181
134 154 181
134 154 181
134 154 181
134 155 181
135 155 181
133 154 181
133 154 181
134 154 181
134 154 181
134 154 181
134 154 181
133 154 181
135 155 181
134 154 181
134 154 180
134 154 181
133 154 180
133 154 181
134 154 181
133 154 181
133 154 181
134 154 181
133 154 181
133 154 181
134 154 181
134 154 181
134 154 181
135 155 181
134 154 181
133 154 181
133 154 181
134 154 181
133 154 181
134 154 181
134 154 181
134 154 181
134 154 181
133 154 181
133 154 181
134 154 181
133 154 181
134 154 181
134 154 181
134 154 181
134 154 181
133 154 181
134 154 181
134 154 181
133 154 181
134 154 181
133 154 181
134 154 181
134 154 181
134 154 181
133 154 181
134 154 181
134 154 181
134 154 181
134 154 181
134 154 181
133 154 181
134 154 181
134 154 181
134 154 180
132 153 180
133 154 181
133 154 181
134 154 181
133 154 181
134 154 181
134 154 181
134 154 181
134 154 181
133 154 181
134 154 181
133 154 181
134 154 181
134 154 181
134 154 181
134 154 181
134 154 181
134 154 181
134 154 181
134 154 181
133 154 180
134 154 181
134 154 181
133 154 181
134 154 181
134 154 181
133 153 180
133 154 181
135 155 181
133 154 181
134 154 181
134 154 181
133 154 181
134 154 181
134 154 181
134 154 181
133 154 181
133 154 181
134 154 181
134 154 181
134 154 181
134 154 181
133 154 181
133 154 180
134 154 181
133 154 181
133 154 181
133 154 181
134 154 181
134 154 181
134 154 181
133 154 181
133 154 181
135 155 181
134 154 181
133 154 180
132 153 181
133 154 181
133 154 181
133 154 181
134 154 181
134 154 181
134 154 181
134 154 181
133 154 181
134 154 181
134 154 181
134 154 181
133 154 181
134 154 181
133 154 181
134 154 181
134 154 181
134 155 181
134 154 180
134 154 181
134 154 181
134 154 181
133 154 181
133 154 181
134 154 181
134 154 181
133 154 181
134 154 181
133 154 181
134 154 181
133 154 181
133 154 181
134 154 181
134 154 180
133 154 181
134 154 181
134 154 181
134 154 181
133 154 181
134 154 181
133 154 181
135 155 181
134 154 181
135 155 181
134 154 181
134 154 181
134 154 181
134 154 181
134 154 180
134 154 181
134 154 181
134 154 181
134 154 181
132 153 180
134 154 181
134 154 181
133 154 181
134 154 181
133 154 181
134 154 181
134 154 181
134 154 181
133 154 181
134 154 181
134 154 181
133 154 181
134 155 181
135 155 181
134 154 181
134 154 181
134 154 181
134 154 181
134 154 181
134 154 181
134 154 181
134 154 181
133 154 181
135 155 181
134 154 181
133 154 181
133 154 181
133 154 181
134 154 181
134 154 181
134 155 181
135 155 181
133 154 181
133 154 181
134 154 181
134 154 181
133 154 181
134 154 181
134 154 181
134 154 181
133 154 181
133 154 181
134 154 181
134 154 181
133 154 181
134 154 181
134 154 180
134 155 181
134 154 181
134 154 181
134 154 181
134 154 181
133 154 181
133 154 181
134 154 181
133 154 181
133 154 181
134 154 181
134 154 181
134 154 181
134 154 181
134 154 181
135 155 181
134 154 181
134 154 181
134 154 180
134 154 181
134 154 181
134 154 181
133 154 181
134 154 181
134 154 181
133 154 181
134 154 181
133 154 180
134 155 181
134 154 181
133 154 181
133 154 181
133 154 181
134 154 181
134 154 181
133 154 181
134 154 181
134 154 181
134 154 181
132 154 181
134 154 181
133 154 181
134 154 181
134 154 181
134 154 181
133 154 181
133 154 181
134 154 181
134 154 181
134 154 181
134 154 181
133 154 181
134 154 181
134 154 181
134 154 181
134 154 181
134 154 181
135 155 181
134 154 181
133 154 181
134 154 181
133 154 181
134 154 181
134 154 181
134 154 181
134 154 181
133 154 181
134 154 181
133 154 181
134 154 181
133 154 181
133 154 180
134 154 181
133 154 181
133 154 181
133 154 181
134 154 181
134 154 181
134 154 180
134 154 181
134 154 181
133 154 181
134 154 181
134 154 181
133 154 181
134 154 181
134 154 181
133 154 181
134 154 181
133 154 181
134 154 181
134 154 181
135 155 181
133 154 181
134 154 181
134 154 181
135 155 181
134 154 181
134 154 181
133 154 181
134 154 180
134 154 181
134 154 181
134 154 181
133 154 180
134 154 181
134 154 181
135 155 181
134 154 181
134 154 180
134 154 181
134 154 181
133 154 181
133 154 181
134 154 181
134 154 181
133 154 181
133 154 181
133 154 181
134 154 181
133 154 181
134 154 181
135 155 181
134 154 181
134 154 181
133 154 181
134 154 181
133 154 181
134 154 181
133 154 181
134 154 181
135 155 181
133 154 181
134 154 181
134 155 181
133 154 181
133 154 181
134 154 181
133 154 181
133 154 181
133 154 180
133 154 181
134 154 181
134 154 181
134 154 181
133 154 181
134 154 181
134 154 180
133 154 181
133 154 181
134 154 181
133 154 181
133 154 181
134 154 181
134 154 181
133 154 181
134 154 181
134 154 181
134 154 181
134 154 181
134 154 181
134 154 181
134 154 181
134 154 181
134 154 181
134 154 181
135 155 181
133 154 181
134 154 181
133 154 181
133 154 181
134 154 181
133 154 181
134 154 181
133 154 181
134 154 181
133 154 181
133 154 181
134 154 181
134 154 181
134 154 181
134 154 181
133 154 181
133 154 181
134 154 181
134 154 181
134 154 181
134 154 181
133 154 181
134 154 181
134 154 181
133 154 181
134 154 181
133 154 181
134 154 181
134 154 181
134 154 181
133 154 181
133 154 180
135 155 181
134 154 181
134 154 181
134 154 181
134 154 181
133 154 181
134 154 181
134 154 181
134 154 181
134 154 181
134 154 181
134 154 181
134 154 181
134 154 181
134 154 181
133 154 181
134 154 181
134 154 181
134 154 181
133 154 181
134 154 181
134 154 181
134 154 181
133 154 181
134 154 181
134 155 181
134 154 181
134 154 181
133 154 181
134 154 181
133 154 181
133 154 181
133 154 181
134 154 181
133 154 181
133 154 181
134 154 181
134 154 181
134 154 181
134 154 181
134 154 181
133 154 180
134 154 181
133 154 181
134 154 181
134 154 181
133 154 181
133 154 181
133 154 181
133 154 181
134 154 181
133 154 181
133 154 181
133 154 180
133 154 181
133 154 181
133 154 181
135 155 181
134 154 181
134 154 181
134 154 181
133 154 181
133 154 181
135 155 181
133 154 181
134 154 181
134 154 181
134 154 181
134 154 181
134 154 181
133 154 181
133 154 181
134 154 181
134 154 181
134 154 181
134 154 181
133 154 181
134 154 181
134 154 181
134 154 181
134 154 181
133 154 181
133 154 181
133 154 181
134 154 181
135 155 181
134 154 181
135 155 181
134 154 181
133 154 181
134 154 181
134 154 181
134 154 181
135 155 181
133 154 181
133 154 181
134 154 181
133 154 181
133 154 181
134 154 181
134 154 181
134 154 181
133 154 181
134 154 181
133 154 181
133 154 181
134 154 181
134 154 181
134 154 181
134 154 181
133 154 181
133 154 181
133 154 180
134 154 181
135 155 181
134 154 181
134 154 181
134 154 181
134 154 181
134 154 181
133 154 181
134 154 181
134 154 181
134 154 181
134 154 181
134 154 181
133 154 181
134 154 181
134 154 181
135 155 181
133 154 181
134 154 181
133 154 181
134 154 181
134 154 181
134 154 181
134 154 181
134 154 181
134 155 181
135 155 181
135 155 181
134 154 181
133 154 181
133 154 181
133 154 181
134 154 181
134 154 181
133 154 181
134 154 181
133 154 180
134 154 181
134 154 181
134 154 181
135 155 181
133 154 181
133 154 181
133 154 181
134 154 181
135 155 181
133 154 181
134 154 180
132 153 181
135 155 181
133 154 181
134 154 181
133 154 181
134 154 181
134 154 181
135 155 181
133 154 181
134 155 181
134 154 181
134 154 181
134 154 181
133 154 181
134 154 181
134 154 181
135 155 181
134 154 181
133 154 181
134 154 181
134 154 181
133 154 181
134 155 181
133 154 181
133 154 181
134 154 181
134 154 181
135 155 181
133 154 181
134 154 181
134 154 181
135 155 181
134 154 181
134 154 181
134 154 181
133 154 181
134 154 181
134 154 181
134 154 181
134 154 181
134 154 181
133 154 181
134 154 181
133 154 181
133 154 181
133 154 181
135 155 181
134 154 180
134 154 181
134 154 181
134 154 181
134 154 181
134 154 181
134 155 181
134 154 181
134 154 181
134 154 181
134 154 181
133 154 181
133 154 181
134 154 181
133 154 181
133 154 181
133 154 181
134 154 181
132 153 180
134 154 181
134 154 181
133 154 181
133 154 181
134 154 181
134 155 181
135 155 181
134 155 181
134 154 181
134 154 181
133 154 181
134 154 181
133 154 181
134 154 181
133 154 180
133 154 181
134 154 181
134 154 181
133 154 181
134 154 181
134 154 181
134 154 181
134 154 181
134 154 181
134 154 181
134 154 181
134 154 181
133 154 181
134 155 181
134 154 181
134 154 181
134 154 180
133 154 181
134 154 181
133 154 181
133 154 181
134 154 181
134 154 181
133 154 181
133 154 181
134 154 181
134 154 181
134 154 181
134 154 181
134 154 181
134 154 181
134 154 181
133 154 181
134 154 181
133 154 181
134 154 181
134 154 181
133 154 181
134 154 181
133 154 181
133 154 181
134 154 181
134 154 181
134 154 181
134 154 181
133 154 181
134 154 181
133 154 181
134 154 181
133 154 181
134 154 181
134 154 181
133 154 181
134 154 181
133 154 181
134 154 181
134 154 181
134 154 181
133 154 181
133 154 181
134 154 181
134 154 181
134 154 181
134 154 180
135 155 181
135 155 181
134 154 181
134 154 181
135 155 181
134 154 181
134 154 181
134 154 181
134 154 181
134 154 181
134 154 181
135 155 181
134 154 181
134 154 181
133 154 181
133 154 181
134 154 181
134 154 181
133 154 181
134 154 181
134 154 181
134 154 181
134 154 181
133 154 181
134 154 181
134 154 181
134 154 181
134 154 181
134 154 181
134 154 181
134 154 181
134 154 181
134 154 181
133 154 181
134 154 181
133 154 181
134 154 181
134 154 181
134 154 180
133 154 181
134 154 181
133 154 181
134 154 181
134 154 181
133 154 181
134 154 181
134 154 181
134 154 181
134 154 181
134 154 181
134 154 181
134 154 181
133 154 181
134 154 181
133 154 181
134 154 181
133 154 181
134 154 181
134 154 181
134 154 181
133 154 181
134 154 181
134 155 181
133 154 181
133 154 181
134 154 181
133 154 181
134 154 181
134 154 181
133 154 181
134 154 181
133 154 181
132 153 181
134 154 181
133 154 181
133 154 181
134 155 181
133 154 181
134 154 181
134 154 181
134 154 181
134 154 181
135 155 181
134 154 181
134 154 181
134 155 181
134 154 181
135 155 181
134 155 181
133 154 181
134 154 180
133 154 181
134 154 181
134 154 181
134 154 181
134 154 181
134 154 181
134 154 181
134 154 181
134 154 181
134 154 181
133 154 181
133 154 181
135 155 181
134 154 181
133 154 181
133 154 181
134 154 181
133 154 181
134 154 181
134 154 181
134 154 181
134 154 181
134 154 181
133 154 181
134 154 181
134 154 181
135 155 181
134 154 181
134 154 181
134 154 181
133 154 181
133 154 181
134 154 181
134 154 181
134 154 181
133 154 181
134 154 181
134 154 181
133 154 181
134 154 181
133 154 181
134 154 181
133 154 181
134 154 181
134 154 181
134 154 181
134 154 181
134 154 181
134 154 181
134 154 181
134 154 181
134 154 181
132 153 181
133 154 181
134 154 181
135 155 181
134 155 181
134 154 181
134 154 181
133 154 181
133 154 181
133 154 181
133 154 181
135 155 181
134 154 181
134 154 181
133 154 180
135 155 181
134 154 181
134 154 181
134 155 181
133 154 181
134 154 181
135 155 181
134 155 181
133 154 181
133 154 181
132 153 181
134 154 181
134 154 181
134 154 180
134 154 181
134 154 181
133 154 181
133 154 181
134 154 180
133 154 181
134 154 181
134 154 181
133 154 181
133 154 181
133 153 180
133 154 181
134 154 181
133 154 181
134 154 181
134 154 181
134 154 181
133 154 181
133 154 181
134 154 181
134 154 181
133 154 181
134 154 181
134 154 181
134 154 181
133 154 181
133 154 181
134 154 181
134 154 181
134 154 181
133 154 181
134 154 181
134 154 181
134 154 181
134 154 181
133 154 181
134 154 180
134 154 181
134 154 181
135 155 181
134 154 181
134 154 181
133 154 181
134 154 181
133 154 181
134 154 181
134 154 181
134 154 181
133 154 181
133 154 181
133 154 181
134 154 181
134 154 181
133 154 180
133 154 181
134 154 181
134 154 181
134 154 181
133 154 181
133 154 181
135 155 181
134 154 181
134 154 181
133 154 181
133 154 181
134 154 181
133 154 181
134 154 181
134 154 181
134 154 181
134 154 181
134 154 181
134 154 181
134 154 181
134 155 181
134 154 180
134 155 181
134 154 181
133 154 181
133 154 181
133 154 181
133 154 181
134 154 180
134 154 181
133 154 180
134 154 181
134 154 181
133 154 181
133 154 181
135 155 181
134 154 181
134 154 181
134 154 181
135 155 181
134 154 181
134 154 181
133 154 181
132 153 180
134 154 181
134 154 181
133 154 181
133 154 181
134 154 181
134 154 180
135 155 181
133 154 181
133 154 181
134 154 181
134 154 181
133 154 181
134 154 181
134 154 181
135 155 181
134 154 181
134 154 181
133 154 181
132 153 180
134 154 181
134 154 181
133 154 180
134 154 181
134 154 181
134 154 181
133 154 181
135 155 181
133 154 181
134 154 181
134 154 181
134 154 181
135 155 181
134 154 181
134 154 181
133 154 181
134 154 181
133 154 181
134 154 181
135 155 181
134 154 181
134 154 181
134 154 181
134 154 181
135 155 181
134 154 181
133 154 181
133 154 181
134 154 181
133 154 181
133 154 181
133 154 181
134 154 181
134 154 181
134 154 181
134 154 181
133 154 181
134 154 180
134 155 181
133 154 181
134 154 181
134 154 181
134 154 181
133 154 181
134 154 181
134 154 181
134 154 181
133 154 181
134 154 181
134 154 181
134 154 181
134 154 181
134 154 181
133 154 181
134 154 181
134 154 181
133 154 181
134 154 181
133 154 181
135 155 181
134 155 181
134 154 181
134 154 181
134 154 181
133 154 181
134 154 181
134 154 181
134 154 181
133 154 181
134 154 181
133 154 181
134 154 181
133 154 181
134 154 181
134 154 181
134 154 181
133 154 181
133 154 181
134 154 181
134 154 181
134 154 181
134 154 181
134 154 181
134 154 181
133 154 181
135 155 181
133 154 181
134 154 181
134 154 181
134 154 181
134 154 181
134 154 181
133 154 181
134 154 181
133 154 181
134 154 181
134 154 181
134 154 181
133 154 181
133 154 181
134 154 181
134 154 181
133 154 181
134 154 181
133 154 181
135 155 181
133 154 181
133 154 181
134 155 181
135 155 181
134 154 181
134 154 181
133 154 181
133 154 181
134 154 181
134 154 181
134 154 181
133 154 181
134 154 181
134 154 181
134 154 181
134 154 181
134 154 181
133 154 181
134 154 181
133 154 181
135 155 181
134 154 181
134 154 181
134 154 181
134 154 181
134 154 181
134 154 181
134 154 181
134 154 181
134 154 181
133 154 181
135 155 181
134 154 181
134 154 181
133 154 181
134 154 181
134 154 181
133 154 181
134 154 181
133 154 181
134 154 181
133 154 181
134 155 181
134 154 181
134 154 181
134 154 181
134 154 181
133 154 181
133 154 181
134 154 181
133 154 181
134 154 181
133 154 181
134 154 181
134 154 180
134 154 181
134 154 181
134 154 181
134 154 181
134 154 181
135 155 181
134 154 181
134 154 181
134 154 181
134 154 181
134 154 181
134 154 181
134 154 181
133 154 180
134 155 181
134 154 181
133 154 181
134 154 181
133 154 181
134 154 181
134 154 181
133 154 181
134 154 181
133 154 181
133 154 181
134 154 181
134 154 181
135 155 181
134 154 181
134 154 181
134 154 181
134 154 181
133 154 181
133 154 181
133 154 181
133 154 181
134 154 181
134 154 181
134 154 181
134 154 181
133 154 181
133 154 181
134 155 181
133 154 181
133 154 181
133 154 181
135 155 181
135 155 181
134 154 181
134 154 181
133 154 181
134 154 181
134 154 181
133 154 181
134 154 181
133 154 181
134 154 181
133 154 181
133 154 181
134 154 181
133 154 181
134 154 181
134 154 180
133 154 181
134 154 181
133 154 181
135 155 181
134 154 181
134 154 181
135 155 181
133 154 181
133 154 181
133 154 181
134 154 181
134 154 181
134 154 181
134 154 180
134 154 181
134 154 181
133 154 181
134 154 181
133 154 181
135 155 181
134 154 181
133 154 181
134 154 181
134 154 181
134 154 181
134 154 181
134 154 181
134 154 181
134 154 181
133 154 181
134 154 181
133 154 181
134 154 181
134 154 181
133 154 181
133 154 181
134 154 181
134 154 181
133 154 181
134 154 181
133 154 181
134 154 181
134 154 181
133 154 181
133 154 181
134 154 181
133 154 181
133 154 181
134 154 181
133 154 181
134 154 181
133 153 180
134 154 181
134 154 181
134 154 181
134 154 181
133 154 181
135 155 181
135 155 181
133 154 181
133 154 181
133 154 181
134 154 181
133 154 181
134 154 181
134 154 181
134 154 181
134 154 181
134 154 181
133 154 181
133 154 181
133 154 181
133 154 181
135 155 181
134 154 181
133 154 181
133 154 181
134 154 180
134 154 181
133 154 180
134 154 181
134 154 181
134 154 181
134 154 181
134 154 181
134 154 181
134 154 181
133 154 181
133 154 181
134 154 181
133 154 181
133 154 180
134 154 181
134 154 181
135 155 181
134 154 181
133 154 181
135 155 181
134 154 181
133 154 181
133 154 181
134 154 181
134 154 181
134 154 181
133 154 181
134 154 181
134 154 181
133 154 181
133 153 180
134 154 181
134 154 181
133 154 181
134 154 181
134 154 181
134 154 181
133 154 181
133 154 181
133 154 181
133 154 181
134 154 181
134 154 181
134 154 181
134 154 181
135 155 181
133 154 181
134 154 181
133 154 181
134 154 181
133 154 181
133 154 181
133 154 181
134 154 181
133 154 181
134 154 181
134 154 181
134 154 181
133 154 181
134 154 181
134 154 181
134 154 181
134 154 181
134 154 181
134 154 181
133 154 181
133 154 181
134 154 181
134 154 181
134 154 181
134 154 181
133 154 181
134 154 181
134 154 181
134 154 181
134 154 181
134 154 181
134 154 181
133 154 181
134 154 181
134 154 181
134 155 181
134 154 181
134 154 181
134 154 181
133 154 180
133 154 181
134 154 181
134 154 181
133 154 181
134 154 181
134 154 180
133 154 181
134 154 181
134 155 181
134 154 181
133 154 181
133 154 181
133 154 181
133 154 181
134 154 181
133 154 181
133 154 181
134 154 181
134 154 181
134 154 181
134 154 181
134 154 181
133 154 181
134 154 181
134 154 181
134 154 181
134 154 181
134 154 181
133 154 181
133 154 181
134 154 181
134 154 181
135 155 181
133 154 181
133 154 181
133 154 181
133 154 181
133 154 180
135 155 181
134 154 181
134 154 181
134 154 181
134 154 181
133 154 181
134 154 181
133 154 181
134 154 181
134 154 181
133 154 181
133 154 181
133 154 180
134 154 181
133 154 181
134 154 181
134 154 181
135 155 181
134 154 181
133 154 181
134 154 181
133 154 181
134 154 181
134 154 181
133 154 181
134 154 181
134 154 181
133 154 181
135 155 181
134 154 181
134 154 181
134 154 181
134 154 181
135 155 181
133 154 181
134 154 181
134 154 181
134 154 181
135 155 181
134 154 181
133 154 181
134 154 181
133 154 181
134 155 181
134 154 181
135 155 181
134 154 181
135 155 181
134 154 181
134 154 181
134 154 181
134 155 181
133 154 181
133 154 181
134 154 181
134 154 181
135 155 181
134 154 181
134 154 181
134 154 181
135 155 181
134 154 181
133 154 181
134 154 180
134 154 181
133 154 181
133 154 181
134 154 181
134 154 181
132 154 181
135 155 181
134 154 181
134 154 181
134 154 181
134 154 181
134 154 181
134 154 181
133 154 181
133 154 181
134 154 181
134 154 181
134 154 181
134 154 181
134 154 181
133 154 181
134 154 181
134 154 181
133 154 181
134 154 181
134 154 181
134 154 181
134 154 181
134 154 181
134 154 181
134 154 181
134 154 181
134 154 181
134 154 181
134 154 181
135 155 181
133 154 181
133 154 181
134 154 181
134 154 181
134 154 181
134 154 181
133 154 181
133 154 181
134 154 181
134 154 181
133 154 181
134 154 181
133 154 181
134 154 181
133 154 181
134 154 181
134 154 181
133 154 181
133 154 181
134 154 181
134 154 181
135 155 181
133 154 181
134 154 181
134 154 181
134 154 181
133 154 181
134 154 181
134 155 181
134 154 181
133 154 181
133 154 181
133 154 181
134 154 181
134 155 181
134 154 181
134 154 181
135 155 181
134 154 181
134 154 181
134 155 181
135 155 181
134 154 181
134 154 181
134 154 181
133 154 181
133 154 181
134 154 181
134 154 181
135 155 181
133 154 180
134 154 181
132 153 181
133 154 181
134 154 181
133 154 181
134 154 181
134 154 181
133 154 181
134 154 181
134 154 180
134 154 181
133 154 181
133 154 181
134 154 181
134 154 181
134 154 181
135 155 181
134 154 181
133 154 181
134 154 181
133 154 181
133 154 181
134 154 181
134 155 181
134 154 181
133 154 181
133 154 181
133 154 181
135 155 181
135 155 181
133 154 181
134 154 181
133 154 181
134 154 181
133 154 181
134 154 181
133 154 181
133 154 181
134 154 181
134 154 181
134 154 181
134 154 181
135 155 181
134 154 181
134 154 181
134 154 181
134 155 181
134 154 181
134 154 181
134 154 181
134 154 181
134 154 181
133 154 181
134 154 181
134 154 181
134 154 181
133 154 181
134 154 181
134 154 181
134 154 181
134 154 181
134 154 181
134 154 181
134 154 181
133 154 181
133 154 181
134 154 181
133 154 181
134 154 181
134 154 181
134 154 181
133 154 181
133 154 181
133 154 181
135 155 181
133 154 181
133 154 181
133 154 180
134 154 181
134 154 181
134 154 181
134 155 181
134 154 181
134 154 181
134 154 181
133 154 181
134 154 181
134 154 181
134 154 181
134 154 181
134 154 181
133 154 181
134 154 181
134 154 181
134 154 181
134 154 181
134 154 181
133 154 180
134 154 181
134 154 181
133 154 180
134 154 181
133 154 181
134 154 181
134 155 181
134 154 181
134 154 181
134 154 181
133 154 181
134 154 181
134 154 181
133 154 181
134 154 181
134 154 181
135 155 181
134 154 181
134 154 181
134 154 181
133 154 181
135 155 181
134 154 181
133 154 180
134 154 181
133 154 181
134 154 181
133 154 181
133 154 181
134 154 180
134 154 181
134 154 181
134 154 181
134 154 181
132 153 181
134 155 181
134 154 181
134 154 180
133 154 181
134 154 181
133 154 181
134 154 181
134 154 181
134 154 181
135 155 181
134 154 181
134 154 181
135 155 181
133 154 181
134 154 181
133 154 181
133 154 181
135 155 181
134 155 181
133 154 181
133 154 181
135 155 181
133 154 181
134 154 181
134 154 181
134 154 181
133 154 181
134 155 181
134 154 181
134 154 181
134 154 181
133 154 181
134 154 181
133 154 181
133 154 181
134 154 181
133 154 181
135 155 181
133 154 181
134 154 181
133 154 181
134 154 181
134 154 181
133 154 181
133 154 181
134 154 181
134 154 181
133 154 181
134 154 181
133 154 181
134 154 181
133 154 181
134 154 181
134 154 181
134 154 181
134 154 181
133 154 181
133 154 181
133 154 181
134 154 181
134 154 181
132 153 181
134 155 181
134 154 181
134 154 181
134 154 181
134 154 181
134 154 181
134 154 181
134 155 181
134 154 181
135 155 181
134 154 181
134 154 181
134 154 181
134 154 181
134 154 181
134 154 181
134 154 181
133 154 181
133 154 181
134 154 181
134 154 181
134 154 181
133 154 181
134 154 181
133 154 181
134 154 181
133 154 181
134 154 181
133 154 181
134 155 181
133 154 181
132 153 181
134 154 180
134 154 181
133 154 180
134 154 181
134 154 181
135 155 181
135 155 181
134 154 181
134 154 181
134 154 181
135 155 181
133 154 181
134 154 181
134 154 181
133 154 181
134 154 181
134 154 181
133 154 181
133 154 181
134 154 181
133 154 181
134 154 181
134 154 181
133 154 181
134 154 181
134 154 181
133 154 181
134 154 181
134 154 181
134 154 181
134 154 181
133 154 181
133 154 181
134 154 181
133 154 181
134 154 181
133 154 181
134 155 181
134 154 181
134 154 181
134 154 181
133 154 181
134 154 181
134 154 181
134 154 181
133 154 181
134 154 181
133 154 181
134 154 181
134 154 180
133 154 181
133 154 181
133 154 181
133 154 181
134 154 181
134 154 181
134 154 181
134 154 181
134 154 181
134 154 181
134 154 181
133 154 181
134 154 181
133 153 180
134 154 181
133 154 181
134 154 181
132 153 181
134 154 181
133 154 180
133 154 181
134 154 181
134 154 181
134 154 181
133 154 181
134 154 181
133 154 181
134 154 181
133 154 180
134 154 181
134 154 181
134 154 181
133 154 181
134 154 181
134 154 181
133 154 181
135 155 181
133 154 181
134 154 181
133 154 181
134 154 181
134 154 181
133 154 180
134 154 181
133 154 181
133 154 181
134 154 181
133 154 181
134 155 181
133 154 181
134 154 181
135 155 181
134 155 181
134 154 181
134 154 181
134 154 181
134 154 180
133 154 181
132 154 181
134 154 181
134 154 181
134 155 181
133 154 181
135 155 181
134 155 181
134 154 181
134 154 181
134 154 181
133 154 181
135 155 181
134 154 181
132 153 181
134 154 181
134 155 181
133 154 181
134 154 180
135 155 181
134 154 181
133 154 181
133 154 181
134 154 181
133 154 181
134 154 181
134 154 181
134 154 181
134 154 181
133 154 180
134 154 181
134 154 181
133 154 181
134 154 181
133 154 181
134 154 181
135 155 181
133 154 181
134 154 181
133 154 181
134 154 181
134 155 181
133 154 181
134 154 181
134 154 181
133 154 181
134 154 181
133 154 181
134 154 180
134 154 181
134 154 181
133 154 181
133 154 181
134 154 181
134 154 181
134 154 181
134 154 181
134 154 181
134 154 181
134 154 181
133 154 181
134 154 181
133 154 181
134 154 181
134 154 181
133 154 181
133 154 181
134 154 181
135 155 181
134 154 181
133 154 181
134 154 181
134 154 181
134 154 181
134 154 181
133 154 180
134 154 181
133 154 181
135 155 181
134 154 181
134 154 181
133 154 181
135 155 181
134 154 181
133 154 181
134 154 181
135 155 181
133 154 181
133 154 181
134 154 181
133 154 181
134 154 181
133 154 181
134 154 181
133 154 181
134 154 181
134 154 181
134 154 181
134 154 181
133 154 181
134 154 181
134 155 181
134 154 181
134 154 181
134 154 181
134 154 181
134 154 181
133 154 181
134 155 181
134 154 181
134 154 181
133 154 181
134 154 181
134 154 181
134 154 181
133 154 181
134 154 181
133 154 181
134 154 181
134 154 181
134 154 180
133 154 181
133 154 181
134 154 181
134 154 181
133 154 181
133 154 181
133 154 181
135 155 181
133 154 181
133 154 181
134 154 181
134 154 181
134 154 181
134 154 181
134 154 181
134 154 181
133 154 181
133 154 181
133 154 181
134 154 181
134 154 181
134 154 181
135 155 181
134 154 181
133 154 181
134 154 181
134 154 181
134 154 181
133 154 181
134 154 181
135 155 181
133 153 180
133 154 180
133 154 180
133 154 181
133 154 181
135 155 181
134 154 181
135 155 181
133 154 181
134 154 181
133 154 181
135 155 181
134 154 181
133 154 181
133 154 181
133 154 181
134 155 181
134 154 181
134 154 180
133 154 181
134 154 181
134 154 181
133 154 181
133 154 181
134 154 181
135 155 181
135 155 181
133 154 181
134 154 181
134 154 181
133 154 181
134 154 181
134 154 180
134 154 181
134 154 181
133 154 181
134 154 181
134 154 181
133 154 181
134 154 181
135 155 181
134 154 181
134 154 181
134 154 181
134 154 181
135 155 181
133 154 181
135 155 181
135 155 181
134 154 181
134 154 181
134 154 181
134 154 181
134 154 181
134 154 181
133 154 181
134 154 181
134 154 181
133 154 181
134 154 181
134 154 181
134 154 181
134 154 181
134 154 181
134 154 181
134 154 181
133 154 181
133 154 181
133 154 181
134 154 181
133 154 181
133 154 181
134 154 181
134 154 181
134 154 181
134 154 181
134 154 181
134 155 181
133 154 181
134 154 181
134 154 181
133 154 181
133 154 181
133 154 181
134 154 181
133 154 181
134 154 181
134 154 181
133 154 181
133 154 181
133 154 181
134 154 181
134 154 181
134 154 181
134 154 181
134 154 181
133 154 181
135 155 181
134 154 181
134 155 181
134 154 181
133 154 181
135 155 181
133 154 181
134 154 181
134 154 181
133 154 181
134 154 181
133 154 181
135 155 181
134 154 181
133 154 181
134 154 181
133 154 181
134 154 181
134 154 181
134 154 181
134 154 181
134 154 181
134 154 181
134 154 181
134 154 181
135 155 181
133 154 181
134 154 181
134 155 181
134 154 181
133 154 181
133 154 180
133 154 181
133 154 181
134 154 181
134 154 181
134 154 181
134 154 181
133 154 181
133 154 181
133 154 181
133 154 181
134 154 181
133 154 181
135 155 181
133 154 181
133 154 181
134 154 181
133 154 181
134 154 181
133 154 181
134 154 181
134 154 181
133 154 181
133 154 181
133 154 180
134 154 181
133 154 181
134 154 181
133 154 181
133 154 181
133 154 181
134 154 181
133 153 180
135 155 181
134 154 181
134 154 181
134 154 181
134 154 181
134 154 181
133 154 181
133 154 181
134 154 181
134 154 181
133 154 181
134 154 181
134 154 180
134 154 181
135 155 181
133 154 181
134 154 181
134 154 181
133 154 180
134 154 181
134 154 181
133 154 181
134 154 181
133 154 181
134 154 181
134 154 181
135 155 181
134 154 181
133 154 181
133 154 181
134 154 181
133 154 181
134 154 181
133 154 181
133 154 181
133 154 181
134 154 181
134 154 181
133 154 181
134 154 181
134 154 181
133 154 180
134 154 181
134 154 181
133 154 181
135 155 181
133 154 181
134 154 181
135 155 181
134 154 181
133 154 181
134 154 181
133 154 181
133 154 181
134 154 181
135 155 181
133 154 181
134 154 181
134 154 181
134 154 181
135 155 181
134 154 181
134 154 181
134 154 181
133 154 181
133 154 181
134 154 181
134 154 181
133 154 181
134 154 181
134 155 181
134 154 181
133 154 181
134 154 181
135 155 181
134 154 181
134 154 180
134 154 181
134 154 181
133 154 181
134 154 181
134 154 181
133 154 181
133 154 181
135 155 181
135 155 181
134 154 181
133 154 181
135 155 181
134 154 181
133 154 181
133 154 181
134 154 181
134 154 181
134 154 181
134 154 181
133 154 181
133 154 180
133 154 181
134 154 181
133 154 181
134 155 181
133 154 181
134 154 181
134 154 181
134 154 181
134 154 181
134 154 181
133 154 181
134 155 181
134 154 181
134 154 181
133 154 181
135 155 181
134 154 181
133 154 180
134 154 181
133 154 181
134 154 181
134 154 181
134 154 181
134 154 181
133 154 181
134 154 181
133 154 181
133 154 181
133 154 181
133 154 181
133 154 181
133 154 181
134 154 181
133 154 181
134 154 181
133 154 181
134 154 181
134 154 181
135 155 181
135 155 181
133 154 181
134 154 181
134 154 181
134 154 181
134 154 181
134 154 181
134 154 181
134 154 181
134 154 181
133 154 181
134 154 181
134 154 181
134 154 181
134 154 181
133 154 181
134 154 181
135 155 181
133 154 181
134 154 181
134 154 181
134 154 181
133 154 181
134 155 181
135 155 181
133 154 181
134 154 181
134 154 181
134 154 181
133 154 181
134 155 181
134 154 181
134 154 181
133 154 181
134 154 181
134 154 181
134 154 181
133 153 180
134 154 181
133 154 181
134 154 181
134 154 181
134 154 181
134 154 181
134 154 181
134 154 181
134 154 181
134 154 181
134 154 180
134 155 181
134 154 181
133 154 181
134 154 181
133 154 181
134 154 181
133 154 181
134 154 181
135 155 181
134 154 181
133 154 181
134 154 181
134 154 181
134 154 181
133 154 181
134 154 181
133 154 181
135 155 181
133 154 181
134 154 181
134 154 181
133 154 181
134 154 181
134 154 181
132 153 181
134 154 181
134 154 181
133 154 181
134 154 181
134 154 181
134 154 181
133 154 181
134 154 181
134 154 181
134 154 181
134 155 181
134 154 181
133 154 181
134 154 181
133 154 181
133 154 181
134 154 181
134 154 181
134 154 181
133 154 181
134 154 181
134 154 181
134 154 181
134 154 181
133 154 181
134 155 181
133 154 181
134 154 181
133 154 181
133 154 181
134 154 181
133 154 181
134 154 181
134 154 181
133 154 181
134 154 181
135 155 181
134 154 181
133 154 181
134 154 181
134 154 181
134 154 181
133 154 181
134 154 181
134 154 181
134 154 181
134 154 181
134 154 181
133 154 181
134 154 180
134 154 181
134 154 181
134 154 181
134 154 181
133 154 181
134 154 181
134 154 181
134 154 181
134 154 181
133 154 181
133 154 181
134 154 181
134 154 181
134 154 181
133 154 181
134 154 181
134 154 181
134 154 181
133 154 180
134 154 181
133 154 181
134 154 181
133 154 181
134 154 181
134 154 181
133 154 181
133 154 181
133 154 181
133 154 181
133 154 181
134 154 181
134 154 181
134 154 181
134 154 180
135 155 181
134 154 181
134 154 181
134 154 181
134 154 181
134 154 181
134 154 181
134 154 181
134 154 181
134 154 181
134 154 181
134 154 181
134 154 181
133 154 180
134 154 181
133 154 181
134 154 181
134 154 181
133 154 181
134 154 181
134 154 181
134 154 181
134 154 181
134 154 181
134 155 181
134 154 181
134 154 181
134 154 181
133 154 181
133 154 180
134 154 181
134 154 181
133 154 181
133 154 181
134 154 181
133 154 181
134 154 181
135 155 181
133 154 181
134 154 181
133 154 181
134 154 181
134 154 181
134 154 181
134 154 181
134 154 181
133 154 181
133 154 181
134 154 181
134 154 181
134 154 181
134 154 181
134 154 181
133 154 181
134 154 181
134 154 181
134 154 181
133 154 181
135 155 181
133 154 181
133 154 181
133 154 181
133 154 181
134 154 181
134 154 181
134 154 181
134 154 181
134 154 181
134 154 181
134 154 181
135 155 181
135 155 181
134 154 181
134 154 181
133 154 181
134 154 181
134 154 181
133 154 180
133 154 181
134 154 181
135 155 181
133 154 181
134 154 181
134 154 181
134 154 181
134 154 181
134 154 181
134 154 181
134 154 181
133 154 181
134 154 181
134 154 181
134 155 181
134 154 181
135 155 181
133 154 181
134 154 181
133 154 181
134 154 181
134 154 181
134 154 181
134 154 181
134 154 181
134 154 181
135 155 181
134 154 181
134 154 181
134 155 181
133 154 181
134 154 181
133 154 181
133 154 181
133 154 181
133 154 181
133 154 181
133 154 181
134 154 181
133 154 181
133 154 181
134 154 181
134 154 181
134 154 181
134 154 181
134 154 181
135 155 181
134 154 181
134 154 181
134 154 181
134 154 181
135 155 181
133 154 181
133 154 181
134 154 181
134 154 181
134 154 181
133 154 181
134 154 181
134 154 181
135 155 181
134 154 181
135 155 181
134 154 181
134 154 181
134 154 181
134 154 181
134 154 181
133 154 181
134 154 181
134 155 181
133 154 180
134 154 181
134 154 181
134 154 181
134 154 181
133 154 180
134 154 181
134 155 181
134 154 181
134 154 181
134 154 181
133 154 181
134 154 181
133 154 181
134 154 181
133 154 181
134 154 181
134 154 181
133 154 181
135 155 181
134 154 181
135 155 181
135 155 181
133 154 181
133 154 181
133 154 181
134 154 181
135 155 181
132 153 181
134 154 181
134 154 181
134 154 181
134 155 181
134 154 181
134 154 181
134 154 181
133 154 181
133 154 181
134 154 181
134 154 181
134 154 181
134 154 181
133 154 181
134 154 181
135 155 181
134 154 181
134 154 181
133 154 181
134 154 181
134 154 181
135 155 181
133 154 180
134 154 181
133 154 181
134 154 181
133 154 181
134 154 181
133 154 181
134 154 181
133 154 181
134 154 181
134 154 181
134 154 181
134 155 181
134 154 181
133 154 181
133 154 181
134 154 181
133 154 181
134 154 181
134 154 181
134 154 181
134 154 181
133 154 181
134 154 181
134 154 181
134 154 181
134 154 181
134 154 181
133 154 181
134 154 180
133 154 180
135 155 181
134 154 181
134 154 181
134 154 181
133 154 181
133 154 181
135 155 181
133 154 180
134 154 181
134 154 181
135 155 181
134 154 181
134 154 181
135 155 181
133 154 181
133 154 180
134 154 181
134 154 181
134 154 181
134 154 181
133 154 181
134 154 181
134 154 181
133 154 181
134 154 181
133 154 181
133 154 181
134 154 181
133 154 181
134 154 181
134 154 181
134 154 181
133 154 181
134 154 181
133 154 181
134 154 181
134 154 181
134 154 181
133 154 181
134 154 181
134 154 181
133 154 181
134 154 181
134 154 181
133 154 181
134 154 181
134 154 181
133 154 181
134 154 181
134 154 181
134 154 181
134 154 181
134 154 181
134 154 181
134 154 181
134 154 181
133 154 181
134 154 181
133 154 181
134 154 181
133 154 181
134 154 181
134 154 181
133 154 181
133 154 181
133 154 181
134 154 181
134 154 181
134 154 181
135 155 181
134 154 181
134 154 181
134 154 181
134 154 181
135 155 181
134 155 181
134 154 181
134 154 181
134 154 181
133 154 181
134 154 181
134 154 181
134 154 181
133 154 181
135 155 181
134 154 181
134 154 181
134 154 181
134 154 181
134 154 180
133 154 181
133 154 181
133 154 181
134 154 181
134 154 181
134 154 181
133 154 181
133 154 181
134 154 181
135 155 181
134 154 181
135 155 181
133 154 181
133 154 181
134 154 181
134 154 181
134 154 181
133 154 181
133 154 181
135 155 181
134 154 181
134 154 181
134 154 181
134 154 181
133 154 181
133 154 181
134 154 181
133 154 181
133 154 181
133 154 180
134 155 181
135 155 181
133 154 181
134 154 181
134 154 181
134 154 181
134 154 181
134 154 181
134 154 181
134 154 181
134 154 181
134 154 181
133 153 180
133 154 181
134 154 181
134 154 181
134 154 181
133 154 181
134 154 181
134 154 181
134 154 181
134 154 181
133 154 181
134 154 181
134 154 181
133 154 181
134 154 181
134 154 181
133 154 181
134 154 181
134 154 181
134 154 181
133 154 181
133 154 181
135 155 181
132 153 181
134 154 181
134 154 181
134 154 181
134 155 181
134 154 181
135 155 181
134 154 181
135 155 181
134 154 181
133 154 181
133 154 181
134 154 181
134 154 181
133 154 181
134 154 181
134 154 181
134 154 181
134 154 181
134 154 181
134 154 181
134 154 181
134 154 181
133 154 180
135 155 181
134 154 181
133 154 181
133 154 181
134 154 181
133 154 181
134 154 181
133 154 181
133 154 181
133 154 181
134 154 181
133 154 181
133 154 181
133 154 181
134 154 181
134 154 181
133 154 181
135 155 181
134 154 181
134 154 181
134 154 181
134 154 181
133 154 181
134 154 181
134 154 181
134 154 181
134 154 181
133 154 181
134 154 181
134 154 181
134 154 181
133 154 181
133 154 180
134 154 181
134 154 181
134 154 181
134 154 181
133 154 181
133 154 181
133 154 180
134 154 181
134 154 181
133 154 181
133 154 181
134 154 181
133 154 181
134 155 181
133 154 181
133 154 181
135 155 181
135 155 181
134 154 181
134 154 181
134 154 181
134 154 181
134 154 181
133 154 181
134 154 181
134 154 181
134 155 181
134 154 181
134 154 181
133 154 181
134 154 181
133 154 181
134 154 181
134 154 181
134 154 181
133 154 181
133 154 181
134 155 181
134 154 181
133 154 180
133 154 181
134 154 181
135 155 181
134 154 181
134 154 181
133 154 181
134 155 181
133 154 181
134 154 181
134 154 181
133 153 180
133 154 181
134 154 181
134 154 181
134 154 181
134 154 181
133 154 181
133 154 181
133 154 181
134 154 181
134 154 181
133 154 180
134 154 181
134 154 181
134 154 181
134 154 181
134 154 181
133 154 181
134 154 181
134 154 181
134 154 181
134 154 181
134 154 181
133 154 181
133 154 181
134 154 181
133 154 181
133 154 181
133 154 181
134 154 181
133 154 181
134 154 181
133 154 181
134 154 181
134 154 181
133 154 181
134 154 181
134 154 181
134 154 181
134 154 181
134 154 181
133 154 181
134 154 181
134 154 181
134 154 181
135 155 181
134 154 181
133 154 181
134 154 181
134 154 181
134 154 181
133 154 181
134 154 181
134 154 181
134 154 181
134 154 181
134 154 181
133 154 181
134 154 181
133 154 181
133 154 181
134 155 181
134 155 181
134 154 181
134 154 181
134 154 181
134 154 181
134 154 181
134 154 181
134 154 181
133 154 181
133 154 181
132 153 181
134 154 181
133 154 181
132 153 181
134 154 181
133 154 181
134 154 181
133 154 181
133 154 181
134 154 181
133 154 181
134 154 181
134 154 181
134 154 181
133 154 181
134 155 181
134 154 181
134 154 181
134 154 181
133 154 181
133 154 181
133 154 181
133 154 181
134 154 181
134 154 181
134 154 181
134 154 181
134 154 181
133 154 181
133 154 181
134 154 181
133 154 181
134 154 181
133 154 181
133 154 181
134 154 181
134 154 181
135 155 181
134 154 181
134 154 181
134 154 181
133 154 181
134 154 181
134 154 181
134 154 181
134 154 181
134 154 181
134 154 181
134 154 181
133 154 181
133 154 181
134 154 181
134 154 181
133 154 181
134 154 181
134 154 181
133 154 181
133 154 181
135 155 181
134 154 181
133 154 181
134 154 181
134 154 181
134 154 181
133 154 181
134 154 181
134 154 181
134 154 181
133 154 181
134 154 181
134 154 181
134 154 181
134 154 181
134 154 181
134 154 181
134 154 181
134 154 181
132 153 181
133 154 181
134 154 181
133 154 181
133 154 181
135 155 181
134 154 181
134 154 181
134 154 181
134 154 181
135 155 181
133 154 181
135 155 181
135 155 181
133 154 181
134 154 181
134 154 181
134 154 181
133 154 181
133 154 181
134 154 181
133 154 181
133 154 181
133 154 181
134 154 181
134 154 181
133 154 181
134 154 181
134 154 181
133 154 181
134 154 181
134 154 181
134 154 181
134 155 181
134 154 181
134 154 181
134 154 181
134 154 181
133 154 181
134 154 181
134 154 181
134 154 181
133 154 181
133 154 181
134 154 181
134 154 181
135 155 181
134 154 181
134 154 181
133 154 181
134 154 181
133 154 181
133 154 181
133 154 181
134 154 181
134 154 181
133 154 181
134 154 181
133 154 181
134 154 181
134 154 181
135 155 181
134 154 181
134 154 181
133 154 181
134 154 181
133 154 181
134 154 181
133 154 181
134 154 181
134 154 181
134 154 181
134 154 181
134 154 181
134 154 181
134 154 181
134 155 181
134 154 181
134 154 181
134 154 180
134 154 181
134 154 181
133 154 181
134 154 180
133 154 181
134 154 181
134 154 181
134 154 181
134 154 181
133 154 181
133 154 181
134 154 181
133 153 180
134 154 181
135 155 181
134 154 181
134 154 181
133 154 181
134 154 181
134 154 181
134 154 181
134 154 181
134 154 181
133 154 181
134 154 181
134 154 181
134 154 181
135 155 181
135 155 181
133 154 181
133 154 181
133 154 181
133 154 181
134 154 181
134 154 181
134 155 181
134 154 181
133 154 181
133 154 181
133 154 181
134 154 181
135 155 181
134 154 181
135 155 181
135 155 181
133 154 180
135 155 181
135 155 181
134 155 181
134 154 181
134 154 181
134 154 181
133 154 181
134 154 181
133 153 180
133 154 181
134 154 181
134 154 181
133 154 181
134 154 181
133 154 181
133 154 181
133 153 180
133 154 181
134 154 181
134 154 181
135 155 181
133 154 181
133 154 181
134 154 181
134 154 181
134 154 181
134 154 180
134 154 181
132 153 181
134 154 181
134 154 181
134 154 181
134 154 181
134 154 181
134 154 181
135 155 181
133 154 181
134 154 181
134 154 181
134 154 181
133 154 181
134 154 181
134 154 181
133 154 181
133 154 181
134 154 181
134 155 181
133 154 181
134 154 181
134 154 181
134 154 181
133 154 181
135 155 181
134 154 181
134 154 181
133 154 181
133 154 181
134 154 180
133 154 181
133 154 181
133 154 181
134 155 181
134 154 181
133 154 181
133 154 181
134 154 181
134 154 181
134 154 181
134 154 181
133 154 181
134 154 181
134 154 181
133 154 181
134 154 181
133 154 181
134 154 181
134 155 181
133 154 181
133 154 181
133 154 181
133 154 181
134 154 181
134 154 181
133 154 181
133 154 181
134 154 181
134 154 181
135 155 181
135 155 181
134 154 181
134 154 181
134 154 181
134 155 181
133 154 181
133 154 181
134 154 181
134 154 181
134 154 181
134 154 181
134 154 181
134 154 181
134 154 181
135 155 181
134 154 181
134 154 181
134 154 180
134 154 181
134 154 181
134 154 181
133 154 180
134 154 181
134 154 181
133 154 181
133 153 180
133 154 181
134 154 181
133 154 181
134 154 181
132 153 181
134 154 180
133 154 181
133 154 181
134 154 181
134 154 181
133 154 181
135 155 181
134 154 181
134 154 181
134 154 181
133 154 181
134 154 181
134 154 181
133 154 181
133 154 181
134 154 181
134 155 181
134 155 181
134 154 181
134 154 181
133 154 181
133 154 181
134 154 181
133 154 181
135 155 181
133 154 181
133 154 181
134 155 181
134 154 181
134 154 181
134 154 181
134 154 181
134 154 181
134 154 181
133 154 181
134 154 181
134 154 181
133 154 181
134 154 181
134 154 181
134 154 181
134 155 181
134 154 181
134 154 181
134 154 181
133 154 181
134 154 181
133 154 181
133 154 181
133 154 181
134 154 181
133 154 181
133 154 181
133 154 181
134 154 181
133 154 181
133 154 181
133 153 180
134 154 181
133 153 180
134 154 181
134 154 181
133 154 181
134 154 181
135 155 181
134 154 181
134 154 181
135 155 181
134 154 181
134 154 181
134 154 181
134 154 181
134 154 181
133 154 180
133 154 181
133 154 181
134 154 181
134 154 181
134 154 181
134 154 181
135 155 181
133 154 181
134 154 181
134 154 181
134 154 181
134 154 181
134 154 181
133 154 181
135 155 181
134 154 181
135 155 181
134 154 181
134 154 181
133 154 181
134 154 181
133 154 181
134 154 181
133 154 181
133 154 181
134 155 181
133 154 181
135 155 181
134 154 181
134 154 181
133 154 180
133 154 181
134 154 181
134 154 181
133 154 181
134 154 181
134 154 181
134 154 181
134 154 181
132 154 181
134 154 180
133 154 180
134 154 181
133 154 181
133 154 181
133 154 181
134 154 181
134 154 181
134 154 181
134 155 181
133 154 181
134 154 181
134 154 181
134 154 181
133 154 181
134 154 181
133 154 181
133 154 181
134 154 181
133 154 181
134 154 181
134 154 181
134 154 181
133 154 181
134 154 181
134 154 181
133 154 181
134 154 181
134 154 181
133 154 181
134 154 181
134 154 181
134 154 180
133 154 181
134 154 181
134 154 181
133 154 181
134 154 181
134 154 181
134 154 181
134 154 181
134 154 181
134 154 181
134 154 181
133 154 181
133 154 181
134 154 181
134 154 181
134 154 181
133 154 181
133 154 181
134 154 181
133 154 181
133 154 181
134 154 181
134 154 181
133 154 181
133 154 181
133 154 181
134 154 181
134 154 181
132 154 181
133 154 181
134 155 181
134 155 181
133 154 181
134 154 181
134 154 181
133 154 181
134 154 181
134 154 181
134 154 181
133 154 181
134 155 181
133 154 181
134 154 181
133 154 181
135 155 181
134 155 181
134 154 181
133 154 181
135 155 181
134 154 181
133 154 181
134 154 181
133 154 181
134 154 181
134 154 181
134 154 181
133 154 181
134 154 181
133 154 181
134 154 181
134 154 181
134 154 181
133 154 181
133 154 181
134 154 181
134 154 181
134 155 181
134 154 181
134 154 181
134 154 181
134 155 181
133 154 180
134 154 181
134 154 181
134 155 181
134 154 181
134 154 181
134 154 181
134 154 181
134 154 181
134 154 181
134 154 181
134 154 181
133 154 181
134 154 181
133 154 181
134 154 181
135 155 181
134 154 181
133 154 181
134 154 181
134 154 181
133 154 181
134 154 181
134 154 181
134 154 181
133 153 180
134 155 181
134 154 180
133 154 181
134 154 181
133 154 181
135 155 181
134 154 180
135 155 181
134 154 181
134 154 181
134 154 181
133 154 181
134 154 181
134 154 181
134 154 181
134 154 181
134 155 181
133 154 181
134 154 181
133 154 181
134 155 181
133 154 181
134 154 181
134 154 181
134 154 181
134 154 181
134 154 181
134 155 181
133 154 181
134 154 181
134 154 181
133 154 181
134 154 181
134 154 181
133 154 181
133 154 181
133 154 181
134 154 181
133 154 181
133 154 181
134 154 181
133 154 181
133 153 180
133 154 181
134 154 181
134 154 181
134 154 181
135 155 181
134 154 180
134 154 181
134 154 181
134 154 181
134 154 181
133 154 181
134 154 181
134 154 181
133 154 181
134 154 181
134 154 181
133 154 181
134 154 181
135 155 181
134 154 181
133 154 181
133 154 181
134 154 181
134 154 181
134 154 181
134 154 181
134 154 181
134 154 181
134 154 181
134 154 181
134 154 181
134 155 181
133 154 181
133 154 181
134 154 181
134 154 181
134 154 181
133 154 181
134 154 181
133 154 181
134 154 181
133 154 181
135 155 181
134 154 181
135 155 181
135 155 181
134 154 181
134 154 181
134 154 181
134 154 181
133 154 181
134 154 181
133 154 181
135 155 181
134 154 181
135 155 181
134 154 181
134 155 181
133 154 181
134 154 181
133 154 181
133 154 181
133 154 181
134 155 181
134 154 181
134 154 181
133 153 180
134 154 181
134 154 181
134 154 181
134 155 181
134 154 181
133 154 181
133 154 181
134 154 181
134 154 181
134 154 181
134 154 181
133 154 181
133 154 181
134 154 181
135 155 181
133 154 181
134 154 181
134 154 181
133 154 181
135 155 181
133 154 180
133 154 181
134 154 181
134 154 181
134 154 181
133 154 181
135 155 181
134 154 181
133 154 181
133 154 181
135 155 181
134 154 181
134 154 181
134 154 181
133 154 181
133 154 181
133 154 181
133 154 181
134 154 181
134 154 181
134 154 181
133 154 181
133 154 181
134 154 181
134 154 181
134 154 181
134 154 181
135 155 181
134 154 181
134 154 181
133 154 181
134 154 181
133 154 180
134 154 181
134 154 181
134 154 181
134 154 181
133 154 181
134 154 181
134 154 181
134 154 181
134 154 181
133 154 181
133 154 180
133 154 181
134 154 181
134 154 181
133 154 180
134 154 181
134 154 181
133 154 180
133 154 181
134 154 181
133 154 181
134 154 181
134 154 181
134 154 181
133 154 180
133 154 181
133 154 181
134 154 181
133 154 181
134 154 181
134 154 181
134 154 181
135 155 181
134 154 181
133 154 181
134 154 181
134 154 181
133 154 181
134 155 181
134 154 181
134 154 181
135 155 181
134 154 181
134 154 181
133 154 181
134 154 181
133 154 181
134 154 181
133 154 181
134 154 181
134 154 181
134 154 181
133 154 181
134 154 181
135 155 181
134 154 181
134 154 181
134 154 181
133 154 181
134 154 181
133 154 181
134 154 181
134 154 181
134 155 181
134 154 181
133 154 181
134 154 181
134 154 181
133 154 181
134 154 181
135 155 181
134 154 181
134 154 181
134 154 181
134 154 181
135 155 181
134 154 181
133 154 181
133 154 181
134 154 181
133 154 181
133 154 181
134 155 181
133 154 181
134 154 181
133 154 181
133 154 180
133 154 181
133 154 181
134 154 181
134 154 181
133 154 181
134 154 181
133 154 181
135 155 181
134 154 181
133 154 181
134 154 181
134 154 181
133 154 180
133 154 181
133 154 181
134 154 181
133 154 181
134 154 181
134 154 181
134 154 181
134 154 181
134 155 181
133 154 180
134 154 181
133 154 181
134 154 181
134 154 181
134 154 181
135 155 181
134 154 181
133 154 181
134 154 181
134 155 181
134 154 181
134 154 181
134 154 181
135 155 181
133 154 180
134 154 181
133 154 180
134 154 181
133 154 181
133 154 181
134 154 181
134 154 181
134 154 181
133 154 180
134 154 181
134 154 181
134 154 181
134 154 181
135 155 181
134 154 181
135 155 181
134 154 181
135 155 181
133 154 181
133 154 181
134 154 181
133 154 181
134 154 181
134 154 181
134 154 181
134 154 181
134 154 180
133 154 181
134 154 181
134 154 181
134 154 181
133 154 181
134 154 181
133 154 181
133 154 181
133 154 181
134 154 181
134 155 181
134 154 180
133 154 181
134 154 181
134 154 181
134 154 181
134 154 181
134 154 181
133 154 181
133 154 181
133 154 181
134 154 181
134 154 181
134 154 181
133 154 181
134 154 181
133 154 181
134 154 181
134 154 181
133 154 181
134 154 181
134 154 181
134 154 181
134 154 181
133 154 181
133 154 181
134 155 181
134 154 181
133 154 181
133 154 181
134 154 181
134 154 181
134 154 181
134 154 181
134 154 181
133 154 181
134 154 181
134 154 181
134 154 181
133 154 181
133 154 181
133 154 181
133 154 181
134 154 181
135 155 181
134 154 181
134 154 181
135 155 181
134 154 180
134 154 181
133 154 181
134 154 181
133 154 181
133 154 181
133 154 181
134 154 181
134 154 181
134 154 181
134 154 181
134 154 181
134 154 181
134 154 181
134 154 181
133 154 181
133 154 181
133 154 181
135 155 181
133 154 181
133 154 181
133 154 181
135 155 181
134 154 181
134 154 181
134 154 181
135 155 181
134 154 181
134 154 181
133 154 180
134 154 181
133 154 181
133 154 181
134 154 181
134 154 180
134 154 181
134 154 181
134 154 181
133 154 181
134 154 181
135 155 181
134 154 181
134 154 181
134 154 181
134 154 181
133 154 181
134 154 181
133 154 181
133 154 181
133 154 181
133 154 181
133 154 181
134 154 181
133 154 181
135 155 181
134 154 181
134 154 181
134 154 181
134 154 181
134 154 181
133 154 181
134 154 181
134 154 181
133 154 181
134 154 181
134 154 181
135 155 181
134 154 180
133 154 181
134 154 181
134 154 181
133 154 181
134 154 181
134 154 181
134 154 181
134 155 181
134 154 181
134 154 181
134 154 181
135 155 181
133 154 181
133 154 181
133 154 181
133 154 181
134 154 181
134 154 181
133 154 181
133 154 181
134 155 181
135 155 181
134 154 181
134 154 181
134 154 181
134 154 181
133 154 181
134 154 181
134 154 181
133 154 181
134 154 181
134 154 180
134 154 181
134 154 181
133 154 181
133 153 180
134 154 181
134 154 181
133 154 181
133 154 181
133 154 181
134 154 181
134 154 181
135 155 181
134 154 181
134 154 181
133 154 181
133 154 181
133 154 180
134 155 181
134 154 181
134 154 181
134 154 181
134 154 181
134 154 181
134 154 181
134 154 181
134 154 181
135 155 181
134 154 181
133 154 181
134 154 181
133 154 181
133 154 181
133 154 181
134 154 181
135 155 181
134 154 181
133 153 180
133 154 181
134 154 181
134 154 181
133 154 181
133 154 181
134 154 181
133 154 181
134 154 181
134 154 181
134 154 181
133 154 181
134 154 181
134 154 181
133 154 181
133 154 181
133 154 181
134 154 180
134 154 181
134 154 181
133 154 181
134 154 181
133 154 181
134 155 181
135 155 181
133 154 181
134 154 181
134 154 181
133 154 181
134 154 181
134 154 181
133 154 181
133 154 181
133 154 181
133 154 181
134 155 181
134 154 181
134 154 181
135 155 181
134 154 181
133 154 181
133 154 181
134 154 181
133 154 181
133 154 181
133 154 181
133 154 181
134 154 181
133 154 181
134 154 181
133 154 181
133 154 181
134 154 181
134 154 181
134 154 181
133 154 181
134 154 181
134 154 181
134 154 181
134 154 181
133 154 181
133 154 181
133 154 180
133 154 181
134 154 181
133 154 181
134 154 181
134 154 181
134 154 181
134 154 181
134 154 181
133 154 180
133 154 181
133 154 181
133 154 180
133 154 181
132 153 180
134 154 181
135 155 181
134 154 181
134 154 181
133 154 181
133 154 181
133 154 181
133 154 181
133 154 181
134 154 181
134 154 181
133 154 181
134 154 181
133 154 181
133 154 181
133 154 181
133 153 180
134 154 181
135 155 181
134 154 181
134 154 181
134 154 181
134 154 181
133 154 181
133 154 181
134 154 181
134 154 181
134 154 181
133 154 181
135 155 181
134 154 181
134 154 181
134 154 181
133 154 181
134 154 181
133 154 181
134 154 181
134 154 181
134 154 181
134 154 180
133 154 181
134 154 181
134 154 181
133 154 181
133 154 181
133 154 181
133 154 181
134 154 181
134 154 181
133 154 181
133 154 181
134 154 181
134 154 181
133 154 181
134 154 181
133 154 181
133 154 181
133 154 181
133 154 181
134 154 181
134 154 181
134 154 181
133 154 181
134 154 181
133 154 181
134 154 181
133 154 181
133 154 181
133 154 181
135 155 181
133 154 181
134 154 181
133 154 181
134 154 181
134 154 181
133 154 181
134 154 181
133 154 181
134 154 181
134 154 181
133 154 181
133 154 181
134 154 181
135 155 181
134 154 181
133 154 181
135 155 181
133 154 181
134 154 181
134 154 180
134 154 181
134 154 181
134 154 181
134 154 181
134 154 181
134 154 181
134 154 181
134 154 181
134 154 181
134 154 181
134 154 181
133 154 181
133 154 181
134 154 181
134 154 181
135 155 181
134 154 181
134 154 181
134 154 181
133 153 180
134 154 181
133 154 180
134 154 181
134 154 181
134 154 181
134 154 181
134 154 181
134 154 181
133 154 181
134 154 181
133 154 181
134 154 181
133 153 180
134 154 181
134 154 181
135 155 181
133 154 181
133 154 181
134 154 181
133 154 181
134 154 181
134 154 181
133 154 181
135 155 181
134 154 181
134 154 181
134 154 181
133 154 181
134 154 181
133 154 181
134 154 181
135 155 181
134 154 181
134 154 181
133 154 181
134 154 181
133 154 181
132 153 180
133 154 181
134 154 181
134 154 181
134 154 181
133 154 181
134 154 181
134 155 181
133 154 181
134 154 181
133 154 181
133 154 180
133 154 181
134 154 181
134 154 181
134 155 181
134 154 181
134 154 181
133 154 181
134 154 181
133 154 181
134 154 181
134 154 181
133 154 181
133 154 181
133 154 181
133 154 181
133 154 181
133 154 181
134 154 181
134 154 181
134 154 181
135 155 181
133 154 181
133 154 181
133 154 181
133 154 181
134 154 181
134 154 181
134 154 181
134 154 181
134 154 181
134 154 181
134 154 181
133 154 181
133 154 181
134 154 181
134 155 181
133 154 181
134 154 181
134 154 180
133 154 181
133 154 181
134 154 181
133 154 181
134 155 181
135 155 181
133 154 181
134 154 181
133 154 181
134 154 181
134 154 181
133 154 181
134 154 180
134 154 181
134 154 180
134 154 181
134 154 181
134 154 181
134 154 181
135 155 181
133 154 181
134 154 181
133 154 181
134 155 181
134 154 181
134 154 181
134 154 181
134 154 181
133 154 181
133 153 180
133 154 181
135 155 181
133 154 181
134 154 181
134 154 181
133 154 181
134 154 181
133 154 181
133 154 181
133 154 180
133 154 181
134 154 181
134 154 181
135 155 181
133 154 181
134 154 181
133 154 181
134 155 181
135 155 181
134 154 181
134 154 181
134 154 181
135 155 181
133 154 181
134 154 181
134 154 181
133 154 181
134 154 181
134 154 181
134 154 181
134 155 181
134 154 181
133 154 181
133 154 181
134 154 181
133 154 181
135 155 181
133 154 180
134 154 180
134 154 181
133 154 181
134 154 181
134 154 181
133 154 181
135 155 181
134 154 181
134 155 181
133 154 181
134 154 181
134 154 180
134 154 181
134 154 181
134 154 181
133 154 180
135 155 181
134 154 181
134 154 181
133 154 181
133 154 181
133 154 181
133 154 181
133 154 181
134 154 181
133 154 181
135 155 181
134 155 181
134 154 181
133 154 181
134 154 181
133 154 181
133 154 181
134 154 181
135 155 181
133 154 181
134 154 181
134 154 181
133 154 181
134 154 181
135 155 181
135 155 181
133 154 181
134 154 181
134 154 181
133 154 181
133 154 181
134 154 181
134 154 181
135 155 181
133 154 181
134 154 181
134 154 181
134 154 181
134 154 181
134 154 181
134 154 181
134 154 181
134 154 181
133 154 181
134 154 181
133 154 181
133 154 181
135 155 181
133 154 181
135 155 181
135 155 181
134 155 181
134 154 181
134 154 180
134 154 181
135 155 181
134 154 181
133 154 181
134 154 181
133 154 181
133 154 181
133 154 181
134 154 181
134 154 181
133 154 181
134 154 181
134 154 181
133 154 181
134 154 181
133 154 181
134 154 181
134 154 181
134 154 181
133 154 181
133 154 181
134 154 181
133 154 181
133 154 181
134 154 181
134 154 181
133 154 181
134 154 181
134 154 181
135 155 181
134 154 181
134 154 181
134 154 181
135 155 181
133 154 181
134 154 181
133 154 181
134 154 181
133 154 181
134 154 181
134 154 181
134 154 181
135 155 181
133 154 181
133 154 181
134 154 181
135 155 181
134 154 181
133 154 181
134 154 181
133 154 181
134 154 181
133 154 181
135 155 181
134 154 181
133 154 181
133 154 181
133 154 181
134 154 181
133 154 181
134 154 181
133 154 181
134 154 181
136 155 181
134 154 181
134 154 181
134 154 181
133 154 181
133 154 181
134 154 181
134 154 181
134 154 181
135 155 181
134 154 181
132 154 181
134 154 181
134 154 181
134 154 181
135 155 181
133 154 181
134 154 181
134 154 181
134 154 181
133 154 181
134 154 181
134 154 181
133 154 181
134 154 181
135 155 181
135 155 181
133 154 181
135 155 181
133 154 181
134 154 181
133 154 181
133 154 181
134 155 181
133 154 181
133 154 181
134 154 181
134 154 181
134 155 181
133 154 181
133 154 181
134 154 181
133 154 181
135 155 181
133 154 181
133 154 181
134 154 181
134 154 181
134 154 181
134 154 181
135 155 181
134 154 181
133 154 181
133 154 181
134 154 181
133 154 181
134 154 181
133 154 181
134 154 181
133 154 181
134 154 181
134 155 181
134 154 181
134 154 181
134 154 181
135 155 181
135 155 181
134 154 181
133 154 181
133 154 181
134 154 181
134 154 181
134 154 181
133 154 181
134 154 181
134 154 181
134 154 181
134 154 181
133 154 181
134 154 181
134 154 181
134 154 181
134 154 181
133 154 181
134 154 181
135 155 181
134 154 181
134 154 181
133 154 181
132 153 181
133 154 181
133 154 180
135 155 181
133 154 181
134 154 181
133 154 181
134 154 181
133 154 181
134 154 181
134 154 181
134 154 181
133 154 181
134 155 181
134 154 181
135 155 181
133 154 181
133 154 181
134 154 181
133 154 181
133 154 181
134 154 180
134 154 181
134 154 181
133 154 181
134 154 181
133 154 181
134 154 181
133 154 181
133 154 181
134 154 181
134 154 181
134 154 181
135 155 181
134 154 181
133 154 181
134 154 181
134 154 181
134 154 181
134 154 181
133 154 180
134 155 181
134 154 181
133 154 181
134 154 181
134 154 181
134 154 181
133 154 180
133 154 181
133 154 181
134 154 181
133 154 181
132 154 181
133 154 181
134 154 181
133 154 181
134 154 181
133 154 181
134 154 181
134 154 181
133 154 181
133 154 181
133 154 181
134 154 181
134 154 181
134 154 181
134 154 181
133 154 181
134 154 181
134 154 181
133 154 181
134 155 181
134 154 181
133 154 181
133 154 181
134 154 181
134 154 181
133 154 181
134 154 181
134 154 181
133 154 181
134 154 181
134 154 181
133 154 181
134 154 181
133 154 181
135 155 181
134 154 181
134 154 181
134 154 181
134 154 181
134 154 181
133 154 181
134 154 181
135 155 181
134 154 181
134 154 181
134 155 181
134 154 181
133 154 181
134 154 181
134 154 181
134 154 181
134 154 181
133 154 181
134 154 181
133 154 181
134 154 181
134 154 181
133 154 181
134 154 181
135 155 181
134 155 181
134 154 181
134 154 181
133 154 181
133 154 181
134 154 181
133 154 181
133 154 181
134 154 181
134 154 181
134 154 181
134 154 180
133 154 181
134 154 181
134 154 181
134 154 181
134 154 181
134 154 181
133 154 181
133 154 181
133 154 181
134 154 181
133 154 180
133 154 181
134 154 181
134 154 181
134 154 181
134 154 181
133 154 181
133 154 181
134 154 181
134 154 181
134 154 181
133 154 181
134 154 181
134 154 181
133 154 181
134 154 181
133 154 181
133 154 181
134 154 181
134 154 181
133 154 181
133 154 181
134 154 181
134 154 181
134 154 181
133 154 181
134 154 181
134 154 181
133 154 181
134 154 181
133 154 181
133 154 181
134 154 181
133 154 181
134 154 181
134 154 181
134 154 181
133 154 181
135 155 181
134 154 181
134 154 181
133 154 181
134 154 181
134 154 181
133 154 181
133 154 181
134 154 181
134 154 181
134 154 181
135 155 181
134 154 181
133 154 181
134 154 181
135 155 181
133 154 181
134 154 181
134 154 181
134 154 181
132 153 181
133 154 181
133 154 181
134 154 181
134 154 181
134 155 181
134 154 181
135 155 181
134 154 180
133 154 181
134 154 181
134 154 181
134 154 181
134 154 181
135 155 181
133 154 181
133 154 181
134 154 181
134 154 181
134 154 181
134 155 181
134 154 181
134 154 181
133 154 181
134 154 181
134 154 181
134 154 181
134 154 181
134 154 181
134 155 181
134 154 181
132 154 181
133 154 180
134 154 181
134 154 181
134 154 181
134 154 181
134 154 181
133 154 181
134 154 181
133 154 181
134 154 181
133 154 181
133 154 181
134 154 181
134 154 181
134 154 181
135 155 181
134 154 181
134 154 180
134 154 181
133 154 181
133 154 181
134 154 181
133 154 181
133 154 181
133 154 181
134 154 181
133 154 180
134 154 181
135 155 181
134 154 181
134 154 181
134 154 181
134 154 181
133 154 181
135 155 181
133 154 181
133 154 181
134 154 181
133 154 181
134 154 181
134 154 181
134 154 181
134 154 181
134 154 181
133 154 181
134 154 181
133 154 181
134 154 181
134 154 181
134 154 181
133 154 181
134 154 181
133 154 181
133 154 181
133 154 181
134 155 181
133 154 181
133 154 181
133 154 181
133 154 181
133 154 181
134 154 181
133 154 180
133 154 181
134 154 181
133 154 180
135 155 181
134 154 181
134 154 181
133 154 181
133 154 181
133 154 181
133 154 181
133 154 181
134 154 181
134 154 181
133 154 181
134 154 181
134 154 181
134 154 181
134 154 181
134 154 181
134 154 181
134 154 181
134 154 181
133 154 181
133 154 181
134 154 181
134 154 181
134 155 181
134 154 181
134 154 181
134 154 181
133 154 181
133 154 181
133 154 181
133 154 181
135 155 181
134 154 181
133 154 181
134 154 181
133 154 181
134 154 181
135 155 181
133 154 181
134 154 181
134 154 181
133 154 180
134 154 181
133 154 181
133 154 181
133 154 181
134 154 181
133 154 181
133 154 181
134 154 181
136 155 181
133 154 181
134 154 181
133 154 181
134 155 181
134 154 181
134 154 181
134 154 181
134 154 181
134 154 181
134 154 181
134 154 181
135 155 181
134 154 181
134 154 181
135 154 180
134 154 181
134 154 181
134 154 181
134 154 181
134 154 181
133 154 181
134 154 181
135 154 180
133 154 181
134 154 181
133 154 180
134 155 181
133 154 181
135 155 181
135 155 181
134 154 181
134 154 181
135 155 181
133 153 180
135 155 181
133 154 181
133 154 181
134 154 181
134 154 181
134 154 181
133 154 181
134 154 181
135 155 181
133 154 181
134 154 181
134 154 181
133 154 181
134 154 181
134 154 181
133 154 181
134 154 181
133 154 181
134 154 181
134 154 181
133 154 181
133 154 181
134 154 181
133 154 180
134 154 181
134 154 181
134 154 181
133 154 180
134 154 181
134 154 181
134 154 181
133 154 181
133 154 181
134 154 181
133 154 181
133 154 181
134 154 181
133 154 181
134 154 181
134 155 181
132 153 180
133 154 181
133 154 181
134 154 181
134 155 181
135 155 181
134 154 181
134 154 181
133 154 181
134 154 181
134 154 181
133 154 181
134 154 181
134 154 181
134 154 181
133 154 181
134 154 181
134 154 181
135 155 181
133 154 181
134 154 181
134 154 181
134 154 181
133 154 181
134 154 181
134 154 181
134 154 181
133 154 181
133 154 181
134 154 181
134 154 181
134 154 181
134 154 181
133 154 181
134 154 181
134 154 181
134 154 181
134 154 181
134 154 181
133 154 181
134 154 181
133 154 181
134 154 181
134 154 181
133 154 181
133 154 181
134 154 181
134 154 181
133 154 181
133 154 181
134 154 181
133 154 181
134 155 181
134 155 181
134 154 180
134 154 181
134 154 181
134 154 181
134 154 181
134 154 181
134 154 181
133 154 181
133 154 181
134 154 181
134 154 181
133 154 181
132 154 181
134 154 181
134 154 181
134 154 181
135 155 181
134 154 181
134 154 181
134 154 181
134 154 181
134 154 181
134 154 181
134 154 181
134 154 181
133 154 181
133 154 181
133 154 181
133 154 181
133 154 181
134 154 181
134 154 181
133 154 181
134 154 181
133 154 181
134 154 181
134 154 181
134 154 181
133 154 181
134 154 181
133 154 181
134 154 181
133 154 181
134 154 181
133 154 181
134 155 181
133 154 181
133 154 181
133 154 181
133 154 181
133 154 181
135 155 181
134 154 181
134 154 181
134 154 181
134 154 181
134 154 181
132 153 180
134 154 181
133 154 181
133 153 180
134 154 181
135 155 181
133 154 181
134 154 181
133 154 181
133 154 181
134 154 181
134 154 181
134 154 181
134 154 181
134 154 181
133 154 181
133 154 180
134 155 181
134 154 181
134 154 181
134 154 181
133 154 181
134 154 181
133 154 181
133 154 181
134 154 181
134 154 181
133 154 181
133 154 181
133 154 181
133 154 181
134 154 181
134 154 181
134 154 181
133 154 180
134 154 181
134 154 181
134 154 181
134 154 181
134 154 181
134 154 181
134 154 181
135 155 181
134 154 181
133 154 181
133 154 181
133 154 181
133 154 181
134 154 181
134 154 181
134 154 181
134 154 181
132 153 180
134 154 181
134 154 181
134 154 181
134 154 181
134 154 181
133 154 181
134 154 181
134 154 181
133 154 181
133 154 181
134 154 181
134 154 181
133 154 181
134 154 181
133 154 181
133 154 181
134 154 181
134 154 181
134 154 181
133 154 181
134 154 181
133 154 181
134 154 181
134 154 181
133 154 181
134 154 181
134 154 181
134 154 181
134 154 181
134 154 181
134 154 181
133 154 181
133 154 181
134 154 181
134 154 181
133 154 181
135 155 181
134 154 181
134 154 181
134 154 181
134 155 181
134 154 181
134 154 181
133 153 180
133 154 181
134 154 181
133 154 181
134 154 181
133 154 181
133 154 181
134 154 181
134 154 181
134 154 181
134 154 181
135 155 181
134 154 180
134 154 181
135 155 181
133 154 181
133 154 181
134 154 181
134 154 181
134 155 181
133 154 181
134 154 181
134 154 181
133 154 181
135 155 181
133 154 180
134 154 181
133 154 180
135 155 181
135 155 181
134 154 181
134 154 181
134 154 181
134 154 181
133 154 181
134 154 181
134 154 181
133 154 181
133 154 181
133 154 181
134 154 181
134 154 181
134 154 181
134 154 181
133 154 181
133 154 181
134 154 181
134 154 181
134 154 181
134 154 181
134 154 181
135 155 181
134 154 181
134 154 181
134 154 181
134 154 181
134 154 181
134 154 181
135 155 181
134 154 181
134 154 181
133 154 181
133 154 181
134 154 181
134 154 181
134 154 181
133 154 181
134 154 181
134 154 181
134 154 181
133 154 181
134 154 181
134 154 181
133 154 181
134 154 181
134 154 181
134 154 181
135 155 181
133 154 181
133 154 181
133 154 181
134 154 181
133 154 181
134 155 181
134 154 181
133 154 181
134 154 181
135 155 181
133 154 181
133 154 181
135 155 181
134 154 181
134 154 181
134 154 181
135 155 181
134 154 181
133 154 181
134 154 181
134 154 181
134 154 181
134 154 181
134 155 181
134 154 181
133 154 181
132 153 181
134 154 181
133 154 181
134 154 181
134 154 181
134 154 181
134 154 181
134 154 181
135 155 181
133 154 181
134 154 180
133 154 181
133 154 181
134 154 181
134 155 181
134 154 181
133 154 181
133 154 181
134 154 181
133 154 181
135 155 181
134 154 181
134 154 181
134 154 181
134 154 181
133 154 181
133 154 181
133 154 181
134 154 181
134 154 181
134 154 181
133 154 181
134 154 181
134 154 181
133 154 181
134 154 181
134 154 181
134 154 181
133 154 181
133 154 181
134 154 180
134 154 181
133 154 181
134 155 181
133 154 181
134 154 181
134 154 181
134 154 181
133 154 181
134 154 181
134 155 181
134 154 181
133 154 181
134 154 181
134 155 181
134 154 181
134 154 181
133 154 181
134 154 181
133 153 180
134 154 181
134 154 181
133 154 181
134 154 181
134 154 181
133 154 181
134 154 181
133 154 181
133 154 181
134 154 181
133 154 181
134 154 181
133 154 181
134 154 181
133 154 181
133 154 181
134 154 181
134 154 181
134 154 181
134 154 181
134 154 181
134 154 181
134 154 181
133 154 181
134 154 181
134 154 181
133 154 181
133 154 181
134 154 181
134 154 181
133 154 181
134 154 181
134 154 181
133 154 181
134 154 181
134 154 181
134 154 181
133 154 181
133 154 181
133 154 181
134 154 181
134 154 181
133 154 181
134 154 181
135 155 181
134 154 181
133 154 181
134 154 181
136 155 181
134 154 181
134 154 181
134 155 181
134 154 181
134 154 181
134 154 181
134 154 181
133 154 181
133 154 181
134 154 181
134 154 181
134 155 181
133 154 180
134 154 181
134 154 181
133 154 181
134 155 181
134 154 181
134 154 181
133 154 181
134 154 181
133 154 181
133 154 181
134 154 181
135 155 181
133 154 181
133 154 181
133 154 180
134 154 181
134 154 181
134 154 181
134 154 181
134 154 181
134 154 181
134 154 181
134 154 181
134 154 181
134 154 181
134 154 181
134 154 181
134 154 181
134 154 181
135 155 181
134 154 181
134 154 181
133 154 181
133 154 181
133 154 181
134 154 181
134 155 181
134 154 181
134 154 181
134 154 181
134 154 181
133 154 181
133 154 181
134 154 181
133 154 181
133 154 181
134 154 181
134 154 181
134 154 181
134 154 181
134 154 181
134 154 181
134 154 181
134 154 181
134 154 181
134 154 181
133 154 181
134 154 181
133 154 181
133 154 181
134 154 181
134 154 181
133 154 181
134 154 181
134 154 181
135 155 181
134 154 181
133 154 181
134 154 181
133 154 181
133 154 181
134 154 181
135 155 181
134 154 181
134 155 181
133 154 181
133 154 180
133 154 181
134 154 181
135 155 181
133 154 181
133 154 181
134 154 181
134 155 181
134 154 181
133 153 180
134 154 181
134 154 181
134 154 181
133 154 181
133 154 181
134 154 181
133 154 181
134 154 181
133 154 181
134 154 181
134 155 181
133 154 181
133 154 181
134 155 181
134 154 181
133 154 181
134 154 181
134 154 181
134 155 181
133 154 181
133 154 181
134 154 181
134 154 181
134 154 181
134 154 181
133 154 181
134 155 181
134 155 181
133 154 181
133 154 181
134 154 180
134 154 180
133 154 181
133 154 181
134 154 181
133 154 181
135 155 181
134 154 181
134 154 181
134 154 181
134 154 181
134 154 181
134 154 181
132 153 181
133 154 181
133 154 181
133 154 181
134 154 181
134 154 181
133 154 181
134 154 181
134 154 181
135 155 181
133 154 181
134 154 181
133 154 181
134 154 181
133 154 181
134 154 181
134 154 181
134 154 181
134 154 181
134 154 181
135 155 181
134 154 181
133 154 181
134 154 181
133 154 181
133 154 181
133 154 181
133 154 181
134 154 181
133 154 181
134 154 181
133 154 181
134 154 181
133 154 181
134 154 181
134 154 181
133 154 181
134 154 181
134 154 181
134 154 181
134 154 181
134 154 181
134 154 181
135 155 181
134 154 181
135 155 181
134 154 181
134 154 181
133 154 180
134 154 181
134 154 181
133 154 181
135 155 181
134 154 181
133 154 181
134 154 181
134 154 181
134 154 181
134 154 181
133 154 181
134 154 181
134 154 181
134 154 181
133 154 181
133 154 180
134 154 181
133 154 181
133 154 181
134 154 181
134 154 181
134 154 181
134 154 181
134 154 181
134 154 181
133 154 181
133 154 181
134 154 181
133 154 181
134 155 181
134 154 181
134 154 181
134 154 181
133 154 181
133 154 181
133 154 181
134 154 181
133 154 181
134 154 181
134 154 181
135 155 181
134 154 181
134 154 181
134 154 181
134 154 181
134 154 181
134 154 181
134 154 181
134 155 181
133 154 181
135 155 181
134 154 181
134 154 181
134 155 181
134 154 181
133 154 181
134 154 181
134 154 181
133 154 181
134 154 181
134 154 181
133 154 181
134 154 181
135 155 181
135 155 181
133 154 181
133 154 181
133 154 180
134 154 181
133 154 181
134 154 181
134 154 181
134 154 181
133 154 181
134 154 181
134 154 181
134 154 181
135 155 181
134 154 181
134 154 181
134 154 181
134 154 181
134 154 181
134 154 181
133 154 181
134 154 181
134 154 180
134 154 181
134 154 180
133 154 181
134 154 181
134 154 181
134 154 181
133 154 181
134 154 181
134 154 181
134 154 181
133 154 181
134 154 181
133 154 181
133 154 181
133 154 181
134 154 181
134 154 181
134 155 181
134 154 181
134 154 181
134 154 181
134 154 181
134 154 181
134 154 181
134 154 181
134 155 181
134 154 181
134 154 180
134 154 181
133 154 181
134 154 181
133 154 181
134 154 181
133 154 181
134 154 181
133 154 180
134 154 181
133 154 181
134 154 181
134 154 181
134 154 181
135 155 181
133 154 181
134 154 181
133 154 181
134 154 181
134 154 181
134 154 181
135 155 181
134 154 181
134 155 181
133 154 181
135 155 181
134 154 181
134 154 181
134 154 181
134 154 181
134 154 181
133 154 181
133 154 181
133 154 181
135 155 181
134 154 181
135 155 181
134 154 181
134 154 181
134 154 181
133 154 181
133 154 181
134 154 181
133 154 181
134 154 181
134 154 181
134 154 181
134 154 181
134 154 181
133 154 181
134 154 181
134 154 181
135 155 181
134 154 181
134 154 181
134 154 181
133 154 181
134 154 181
133 154 181
133 154 181
134 154 181
134 154 181
133 154 181
135 155 181
135 155 181
134 154 181
134 154 181
134 154 181
133 154 181
134 154 181
134 154 181
135 155 181
134 154 181
133 154 181
133 154 181
132 153 181
134 154 181
133 154 181
135 155 181
133 154 181
134 154 181
134 154 181
134 154 181
134 154 181
134 154 181
134 154 181
134 154 181
134 154 181
133 154 181
135 155 181
134 154 181
133 154 180
134 154 181
133 154 181
134 154 181
134 154 180
134 154 180
135 155 181
134 154 181
134 154 181
134 154 181
134 154 181
133 154 180
134 154 181
134 154 181
133 154 180
134 154 181
133 154 180
133 154 181
134 154 181
134 154 181
133 154 181
134 154 181
134 154 181
134 154 181
134 154 181
133 154 181
134 154 181
134 154 181
134 154 181
135 155 181
133 154 181
134 154 181
133 154 181
133 154 181
133 154 181
134 154 181
133 154 180
133 154 181
134 154 181
135 155 181
134 154 181
133 154 181
134 154 181
135 155 181
133 154 181
133 154 181
134 154 181
133 154 181
133 154 180
134 154 181
135 155 181
134 154 181
133 154 181
134 154 181
134 154 181
133 154 181
133 154 181
134 154 181
134 154 181
134 154 181
134 154 181
133 154 181
134 154 181
134 154 181
133 154 181
133 154 181
134 154 181
134 154 181
134 154 181
135 155 181
133 154 180
133 154 181
134 154 181
133 154 181
133 154 181
134 154 180
134 154 181
135 155 181
133 154 181
134 154 181
134 154 181
133 154 180
134 154 181
133 154 181
134 154 181
134 154 181
134 155 181
134 154 181
134 154 181
134 154 181
133 154 181
134 155 181
134 154 181
133 154 181
134 154 181
134 154 181
133 154 181
134 154 181
133 154 181
134 154 181
134 154 181
134 154 181
134 154 181
134 154 181
133 154 181
134 154 180
133 154 181
133 154 181
134 154 181
134 154 181
133 154 181
133 154 181
134 154 181
133 154 180
133 154 181
134 154 181
134 154 181
134 154 181
133 154 181
134 154 181
133 154 181
134 154 181
134 154 181
134 154 181
133 154 181
134 154 181
134 154 181
134 154 181
134 154 181
134 154 181
135 155 181
134 154 181
134 154 181
134 154 181
133 154 181
134 154 181
133 154 181
134 154 181
134 154 181
134 154 181
133 154 181
134 154 181
133 154 181
134 154 181
134 154 181
133 154 181
134 154 181
133 154 181
133 154 181
134 154 181
134 154 181
134 154 181
134 154 181
133 154 180
134 154 181
134 154 181
134 154 181
134 154 181
133 154 181
133 154 181
133 154 181
134 154 181
134 154 181
134 154 181
134 154 181
133 154 181
134 154 181
134 154 181
134 154 181
134 154 181
133 154 181
133 154 181
134 154 181
133 154 180
134 154 181
134 154 181
134 154 181
134 154 181
134 154 181
134 154 181
134 154 181
134 154 181
133 154 181
134 154 181
134 154 181
134 154 181
133 154 181
134 154 181
134 154 180
134 154 181
133 154 181
133 154 181
134 154 181
134 154 181
134 154 181
134 155 181
134 154 181
134 154 181
134 154 181
134 154 181
134 154 181
133 154 181
134 154 181
134 154 181
134 154 181
134 154 181
132 153 181
134 154 181
134 154 181
133 154 181
134 154 181
133 154 181
133 154 181
134 154 181
134 154 181
134 154 181
133 154 181
134 154 181
134 154 181
134 154 181
135 155 181
133 154 181
134 154 181
134 154 181
134 154 181
134 154 181
134 154 181
134 154 181
134 154 181
133 154 181
134 154 181
134 154 181
134 154 181
133 154 181
134 154 181
134 154 181
133 154 181
132 153 181
133 154 181
135 155 181
135 155 181
134 154 181
134 154 181
133 154 181
133 154 181
133 154 181
134 154 181
134 154 181
134 154 181
134 154 181
134 154 181
133 154 181
134 154 181
134 154 181
134 154 181
134 154 181
134 154 181
135 155 181
134 154 181
133 154 181
133 154 181
133 154 181
134 154 181
133 154 181
134 154 181
135 155 181
133 154 181
134 154 181
134 154 181
133 154 181
134 154 181
134 155 181
134 154 181
134 154 181
134 154 181
134 154 181
134 154 181
133 154 181
134 154 181
133 154 181
134 154 181
134 154 181
133 154 181
134 154 181
134 154 181
134 154 181
134 154 181
134 154 181
134 154 181
134 154 181
134 154 181
133 154 181
134 154 181
133 154 181
133 154 181
134 154 181
133 154 181
133 154 181
133 154 181
134 154 181
134 154 181
135 155 181
135 155 181
135 155 181
134 154 181
135 155 181
135 155 181
133 154 181
134 154 181
133 154 181
133 154 181
133 153 180
134 154 181
133 154 181
134 154 181
135 155 181
135 155 181
133 154 181
134 154 181
134 154 181
134 154 181
134 154 181
133 154 181
134 154 181
134 154 181
134 154 181
134 154 181
134 155 181
133 154 181
133 154 181
134 154 180
133 154 181
134 154 181
134 154 181
133 154 181
134 154 180
133 154 181
133 154 181
134 154 181
134 154 181
133 154 181
134 154 181
135 155 181
133 154 181
134 155 181
134 154 181
133 154 181
134 154 181
134 154 181
135 155 181
134 154 181
134 154 181
134 154 180
134 154 181
134 154 181
134 154 181
133 154 181
134 154 181
134 154 180
134 154 181
134 154 181
133 154 181
133 154 181
134 154 181
134 155 181
133 154 181
134 154 181
133 154 181
134 154 181
134 154 181
133 154 181
133 154 181
133 154 181
134 154 181
133 154 181
133 154 181
134 154 181
135 155 181
134 154 181
133 154 181
134 154 181
134 154 181
133 154 181
134 154 181
133 154 181
134 154 181
134 154 181
134 155 181
134 154 181
133 154 181
133 154 181
134 154 181
134 154 181
134 154 181
133 154 181
134 154 181
134 154 181
134 154 181
134 154 181
134 154 181
134 154 181
133 154 181
134 154 181
133 154 181
134 154 181
133 154 181
134 154 181
133 154 181
133 154 181
134 154 181
134 154 181
134 154 181
134 154 181
134 154 181
134 154 180
134 154 181
134 154 181
134 154 181
133 154 181
134 154 181
133 154 181
134 154 181
134 154 181
133 154 181
133 154 181
134 154 181
134 154 181
134 154 181
134 154 181
133 154 181
133 154 181
134 154 181
134 154 181
134 154 181
134 154 180
133 154 181
133 154 181
133 154 181
133 154 180
133 154 181
135 155 181
134 154 181
134 154 181
134 154 181
134 154 181
133 154 181
134 154 181
134 154 181
133 154 181
133 154 181
134 154 181
133 154 181
134 154 181
133 154 181
134 154 181
134 154 181
134 154 181
133 154 181
135 155 181
134 154 181
134 154 181
134 154 181
134 154 181
134 154 181
133 154 181
134 154 181
134 154 181
134 154 181
134 154 181
133 154 181
134 154 181
134 154 181
134 154 181
134 154 181
133 154 181
134 154 181
133 154 181
134 154 181
134 154 181
134 154 181
134 154 181
134 154 181
134 154 181
135 155 181
133 154 181
134 154 180
133 154 181
134 154 181
133 154 181
133 154 181
134 154 181
134 154 181
134 154 181
133 154 181
133 154 181
134 154 181
133 154 181
134 155 181
134 154 181
134 154 181
133 154 181
134 154 181
134 154 181
134 154 181
133 154 181
133 154 181
134 154 181
134 154 180
133 154 181
134 154 181
134 154 181
134 154 181
134 154 181
134 154 181
134 154 181
133 154 181
134 154 181
134 154 181
133 154 181
133 154 181
133 154 181
134 154 181
133 154 180
133 154 181
133 154 181
134 154 181
133 154 181
134 154 181
134 154 181
133 154 181
134 154 180
134 154 181
133 154 181
134 154 180
135 155 181
134 154 181
134 154 181
133 154 181
134 154 181
134 154 181
133 154 181
134 154 180
133 154 181
134 154 181
134 154 181
134 154 181
134 154 181
134 154 181
134 154 181
132 153 181
134 154 181
134 154 181
134 154 181
133 154 181
133 154 181
134 155 181
134 154 181
133 154 181
134 154 181
134 154 181
134 154 181
133 154 181
134 154 181
134 154 181
134 154 181
135 155 181
133 154 181
134 154 181
135 155 181
133 154 181
134 154 181
134 154 181
134 154 181
134 154 181
134 154 181
135 155 181
133 154 181
134 154 181
133 154 181
133 154 181
134 154 181
134 154 181
133 154 180
134 155 181
133 154 181
134 154 181
134 154 181
133 154 181
134 154 181
134 154 181
133 154 181
133 154 181
134 154 181
134 154 181
134 154 181
133 154 181
134 154 181
133 154 181
134 154 181
133 154 181
133 154 181
134 154 181
133 154 181
134 154 181
134 154 181
133 154 181
133 154 181
134 154 181
133 154 181
134 154 181
135 155 181
134 155 181
134 154 181
134 154 181
134 154 181
133 154 181
133 154 181
133 154 181
134 154 181
133 154 181
134 154 181
132 153 181
134 154 181
134 154 181
135 155 181
134 154 181
134 154 181
134 154 181
133 154 181
133 154 181
134 154 181
134 154 181
133 154 181
134 154 181
134 154 181
135 155 181
134 154 181
133 154 181
134 154 181
134 154 181
134 155 181
133 154 181
134 154 181
133 154 181
134 154 181
134 154 181
134 154 181
134 154 181
133 154 181
134 154 181
133 154 181
133 154 181
134 154 181
134 154 181
134 154 181
133 154 181
134 154 181
134 154 181
134 154 181
132 153 181
134 154 181
134 154 181
133 154 181
133 154 181
134 154 181
133 154 181
134 154 181
134 155 181
133 154 181
133 154 181
134 154 181
133 154 181
133 154 181
133 154 181
134 154 181
134 154 181
134 154 181
134 154 181
133 154 181
132 153 181
134 154 181
134 154 181
135 155 181
134 154 181
134 154 181
133 154 181
133 154 181
134 154 181
133 154 181
134 154 181
133 154 181
133 154 181
133 154 181
134 154 181
134 154 181
134 154 181
133 154 181
134 154 181
134 155 181
133 154 180
133 154 181
134 154 181
134 154 181
134 154 181
133 154 181
135 155 181
134 154 181
134 154 181
133 154 181
134 154 181
134 154 181
134 154 181
134 154 181
135 155 181
135 155 181
134 154 181
134 154 181
134 154 181
134 154 181
134 154 181
134 154 181
134 154 181
135 155 181
135 155 181
135 155 181
135 155 181
134 154 181
134 154 181
135 155 181
134 154 181
134 155 181
133 154 181
134 154 181
134 154 181
135 155 181
134 155 181
134 154 181
134 154 181
134 154 181
134 154 181
133 154 181
134 155 181
134 154 181
134 155 181
133 154 181
135 155 181
134 154 181
134 155 181
135 155 181
133 154 181
134 154 181
134 154 181
134 154 181
134 154 181
134 154 181
133 154 181
133 154 181
133 154 180
133 154 181
134 154 181
134 154 181
133 154 181
134 154 181
135 155 181
133 154 181
134 154 181
134 155 181
134 154 181
133 154 181
134 154 181
134 154 181
133 154 181
134 154 181
133 154 181
133 154 181
134 154 181
134 154 181
134 154 181
134 154 181
135 155 181
133 154 181
134 154 181
134 154 181
133 154 181
134 154 181
134 154 181
134 154 181
133 154 181
135 155 181
133 154 181
133 154 181
134 154 181
135 155 181
134 154 181
133 154 181
134 154 181
134 154 180
134 154 181
133 154 180
135 155 181
133 154 181
134 154 181
133 154 181
133 154 181
134 154 181
135 155 181
134 154 181
134 154 181
134 154 181
134 154 181
133 154 181
133 154 181
133 154 181
135 155 181
133 154 181
134 154 181
133 154 181
134 154 181
133 154 181
135 155 181
134 154 181
133 154 181
133 154 181
134 154 181
133 154 181
133 154 181
133 154 181
133 154 181
134 154 181
134 154 181
134 154 181
134 154 181
134 154 181
133 154 181
134 154 181
133 154 181
134 154 181
134 154 181
134 154 181
134 154 181
135 155 181
134 154 181
134 154 181
134 154 181
135 155 181
134 154 181
133 154 181
134 154 181
134 154 181
134 154 181
134 154 181
134 154 181
134 154 181
134 155 181
133 154 181
134 154 181
135 155 181
134 154 181
135 155 181
133 154 181
134 154 181
134 154 181
134 154 181
134 154 181
133 154 181
134 154 181
134 154 181
134 154 181
134 154 181
134 154 181
134 154 181
133 154 181
134 154 181
135 155 181
133 154 181
134 154 181
134 154 181
134 154 181
133 154 181
134 154 181
133 154 181
135 155 181
133 154 181
134 154 181
134 154 181
134 154 181
133 154 181
135 155 181
134 154 181
134 154 181
134 154 181
134 154 181
134 154 181
133 154 181
134 154 181
134 154 181
134 154 181
134 154 181
134 154 181
134 154 180
134 154 181
134 154 181
134 154 181
134 154 181
134 154 180
134 154 181
134 154 181
134 154 181
134 154 181
134 154 181
135 155 181
134 154 181
134 154 181
134 154 181
134 154 181
134 154 181
134 154 181
134 154 181
134 154 181
133 154 181
135 155 181
134 154 181
134 154 181
133 154 181
134 154 181
133 154 181
134 154 181
135 155 181
134 154 181
133 154 181
135 155 181
133 154 181
133 154 181
134 154 181
134 154 181
133 154 181
134 154 181
133 154 181
134 154 181
134 154 181
134 154 181
133 154 181
134 154 181
134 154 181
133 154 181
134 154 181
135 155 181
134 154 181
133 154 181
134 154 181
134 154 181
135 155 181
134 154 181
133 154 181
134 154 181
134 154 181
134 154 181
134 154 181
134 154 181
134 154 181
134 154 181
133 154 181
134 154 181
134 154 181
134 154 181
135 155 181
134 154 181
133 154 181
134 154 181
134 155 181
134 154 181
134 155 181
134 154 181
134 154 181
133 154 181
133 154 181
134 154 181
135 155 181
133 154 181
133 154 181
133 153 180
134 154 181
134 154 181
133 154 181
134 154 181
134 154 181
134 154 181
134 154 181
134 154 181
135 155 181
134 154 181
134 154 181
134 154 181
134 154 181
133 154 181
134 154 181
134 154 181
134 154 181
133 154 181
134 154 181
134 154 181
134 154 181
133 154 181
134 154 181
134 154 181
134 154 181
133 154 181
133 154 181
134 154 181
134 154 181
134 154 181
133 154 181
134 154 181
134 154 181
134 154 181
135 155 181
133 154 181
134 154 181
134 154 180
134 154 181
134 154 181
133 154 181
133 154 181
134 154 181
133 154 181
134 154 181
134 154 181
133 154 181
134 154 181
133 154 181
134 154 181
134 154 181
134 154 181
134 154 181
134 154 181
134 155 181
134 154 181
134 154 181
134 154 181
134 155 181
134 154 181
134 154 181
134 154 181
135 155 181
133 154 181
134 154 181
134 154 181
134 154 181
135 155 181
134 154 181
133 154 181
135 155 181
133 154 181
134 154 181
133 154 181
134 154 181
134 154 181
133 154 181
133 154 181
134 154 181
134 154 181
134 154 181
133 154 181
133 154 181
133 154 181
134 154 181
134 154 181
134 154 181
133 154 181
133 154 181
134 154 181
134 154 181
133 154 181
134 154 181
134 154 181
133 154 181
134 154 181
134 154 181
134 154 181
133 154 181
134 154 181
133 154 181
134 154 181
132 153 181
134 154 181
134 154 181
134 154 181
134 154 181
134 154 181
135 155 181
133 154 181
133 154 181
135 155 181
134 154 181
134 154 181
134 154 181
134 154 181
133 154 181
133 154 181
133 154 181
135 155 181
133 154 181
135 155 181
134 154 181
133 154 181
133 154 181
134 154 181
134 155 181
133 154 181
134 154 181
133 154 181
134 154 181
134 154 181
134 154 181
133 154 181
133 154 181
134 154 180
134 154 181
134 154 181
134 154 181
134 154 181
133 154 181
133 154 181
134 154 181
134 154 181
133 154 181
134 154 181
134 154 181
133 154 181
134 154 181
134 154 181
133 154 181
134 154 181
134 154 181
134 154 181
133 154 181
134 154 181
134 154 181
133 154 181
134 154 181
133 154 181
134 154 181
134 154 181
134 154 181
134 154 181
133 154 181
134 154 180
134 154 181
134 154 181
133 154 181
133 154 181
133 154 181
133 154 181
134 154 181
133 154 181
134 154 181
134 154 180
134 154 181
133 154 181
134 154 181
134 154 181
134 154 181
134 154 181
134 154 181
134 154 181
133 154 181
134 154 181
135 155 181
133 154 181
134 154 181
133 154 181
133 154 181
133 154 181
133 154 181
133 154 181
134 154 181
134 154 181
134 154 181
135 155 181
135 155 181
134 154 181
134 154 181
134 154 181
134 154 181
134 154 180
133 154 181
133 154 181
134 154 181
133 154 181
134 154 181
134 154 181
135 155 181
134 154 181
134 154 181
133 154 181
134 154 181
134 154 181
134 154 181
133 154 181
134 154 181
134 154 181
133 154 181
134 154 181
133 154 180
134 154 181
133 154 181
135 155 181
134 154 181
133 154 181
133 154 181
134 154 181
133 154 181
133 154 181
133 154 181
133 154 181
133 154 180
134 154 181
133 154 181
134 154 181
135 155 181
133 154 181
134 154 181
134 154 181
133 154 181
135 155 181
133 154 181
134 154 181
134 154 181
133 154 181
134 154 181
133 154 181
133 154 180
134 154 181
134 154 181
133 154 181
133 154 181
134 154 181
134 154 181
134 154 181
134 154 181
134 154 181
134 154 181
133 154 181
134 154 181
133 154 181
133 153 180
133 154 181
134 154 181
134 154 181
134 154 181
134 154 181
134 154 181
134 154 181
134 154 181
134 154 181
134 154 181
134 154 181
134 154 181
134 154 181
134 154 181
134 154 181
134 154 181
134 154 181
133 154 181
134 154 181
133 154 181
134 154 181
133 154 181
134 154 181
133 154 181
135 155 181
134 154 181
134 154 181
133 154 181
134 155 181
134 154 181
133 154 181
134 154 181
134 155 181
134 154 181
134 154 181
134 154 181
133 154 181
134 154 181
135 154 180
134 154 181
133 154 181
134 154 181
134 154 181
133 154 181
134 154 181
134 154 180
134 154 181
134 154 181
134 154 181
134 154 181
134 154 181
134 154 181
134 154 181
133 154 181
133 154 181
134 154 181
134 154 180
134 154 181
134 155 181
135 155 181
134 154 181
134 154 181
133 154 181
133 154 181
134 154 181
134 154 181
134 154 181
134 154 181
134 154 180
133 154 181
134 154 181
134 154 181
133 154 181
134 154 181
134 154 181
134 154 181
134 154 181
134 154 181
133 154 181
135 155 181
134 154 181
134 154 181
134 154 181
134 154 181
134 154 180
134 154 181
134 154 181
133 154 181
134 154 181
133 154 181
134 154 181
133 154 181
134 154 181
134 154 181
133 154 181
133 154 181
134 154 181
133 154 181
133 154 181
134 154 181
133 154 181
133 154 181
134 154 181
134 154 181
134 154 181
134 154 181
134 154 181
134 154 181
134 154 181
134 154 181
133 154 181
133 154 180
134 154 181
134 154 181
133 154 181
134 154 181
134 154 181
134 154 181
133 154 181
133 154 181
133 154 181
134 154 181
133 154 181
134 154 181
134 154 181
134 154 181
134 155 181
135 155 181
133 154 181
133 154 181
133 154 181
134 154 181
134 154 181
133 154 181
134 154 181
134 154 181
134 154 181
134 154 181
134 154 181
134 154 181
134 154 181
133 154 181
134 154 181
134 154 181
134 154 181
134 154 181
134 154 181
133 154 180
134 154 181
133 154 181
133 154 181
134 154 181
135 155 181
133 154 181
133 154 180
133 154 181
134 154 181
134 154 181
133 154 181
134 154 181
133 154 181
134 154 181
134 155 181
133 154 181
133 154 181
133 154 181
135 155 181
133 154 181
134 154 181
134 154 180
134 154 181
134 154 181
133 154 181
134 154 181
134 154 181
133 154 181
134 154 181
135 155 181
134 154 181
134 154 181
134 154 181
133 154 180
134 154 181
133 154 181
134 154 181
133 154 181
134 154 181
133 154 181
134 154 180
134 154 180
134 155 181
134 154 181
134 154 181
134 154 181
134 154 181
133 154 181
134 154 181
134 154 181
134 154 181
133 154 181
134 154 181
133 154 181
134 154 181
134 154 181
134 154 181
133 154 181
134 154 181
134 154 181
134 154 181
134 154 181
134 154 181
133 154 181
133 154 181
133 154 181
134 154 181
135 155 181
134 154 181
133 154 181
134 154 181
133 154 181
133 154 181
133 154 180
134 154 181
133 154 181
134 154 181
134 154 181
134 154 180
134 154 181
134 154 181
135 155 181
134 154 181
134 154 181
135 155 181
134 154 181
134 154 181
134 154 181
133 154 181
133 154 181
134 154 181
134 154 181
134 154 181
134 155 181
134 154 181
134 154 181
134 154 181
134 154 181
133 154 181
134 154 181
134 154 181
134 154 181
134 154 181
135 155 181
134 154 181
133 154 181
134 154 181
133 154 181
133 154 181
135 155 181
134 154 181
134 154 181
134 154 181
134 154 181
134 154 181
135 155 181
134 154 181
133 154 181
134 154 181
134 154 181
133 154 181
133 154 181
134 154 181
134 154 181
134 154 181
134 154 181
133 154 181
133 154 181
134 154 181
134 154 181
133 154 181
133 154 181
134 154 181
135 155 181
133 154 181
133 154 181
134 154 181
133 154 181
133 154 181
134 154 181
134 154 181
133 154 181
133 154 180
135 155 181
133 154 181
134 154 181
133 154 180
134 155 181
134 154 181
134 154 181
134 154 181
134 154 181
134 154 181
133 154 181
134 154 181
134 154 181
133 154 181
134 154 181
135 155 181
134 154 181
133 154 180
134 154 181
133 154 181
134 154 181
133 154 181
133 154 181
133 154 180
134 154 181
133 154 181
134 154 181
134 154 181
134 154 181
134 154 181
134 154 181
133 154 181
134 154 181
134 154 181
134 155 181
134 154 181
134 154 181
133 154 181
134 154 181
134 154 181
134 154 181
133 154 181
134 155 181
134 154 181
134 154 181
135 155 181
134 154 181
133 154 181
134 154 181
134 154 181
134 154 181
133 154 181
135 155 181
134 154 181
133 154 181
134 154 181
134 154 181
134 154 181
136 155 181
133 154 181
134 154 181
134 154 181
133 154 181
134 154 181
134 154 181
134 154 181
134 154 181
134 154 180
133 154 181
133 154 181
134 154 181
134 154 181
133 154 181
134 154 181
133 154 181
134 154 181
134 154 181
134 154 181
134 154 181
134 154 181
135 155 181
133 154 181
133 154 181
133 154 181
133 154 181
133 154 181
134 154 181
134 154 181
134 154 181
135 155 181
133 154 181
135 155 181
135 155 181
134 154 181
133 154 181
133 154 181
134 154 181
133 154 181
133 154 181
133 154 181
133 154 181
134 154 181
134 154 181
135 155 181
133 154 181
134 154 181
134 154 181
134 154 181
134 154 181
133 154 180
134 154 181
133 154 181
134 154 181
134 155 181
133 154 181
134 154 181
134 154 181
135 155 181
134 154 181
133 154 181
134 154 181
134 154 181
135 155 181
133 154 180
134 155 181
134 154 181
134 154 181
134 154 181
133 154 181
134 154 181
133 154 181
134 154 181
134 154 180
134 154 181
135 155 181
135 155 181
134 154 181
134 154 181
134 154 181
134 154 181
134 154 181
135 155 181
135 155 181
133 154 181
134 154 181
133 154 181
134 154 181
135 155 181
133 154 181
133 154 181
135 155 181
134 154 181
134 154 181
134 154 181
134 154 181
133 154 181
134 155 181
133 154 181
134 154 181
134 154 181
133 154 181
134 154 181
134 154 181
134 154 181
134 154 181
134 154 181
134 154 181
134 154 181
134 154 181
134 154 181
133 154 181
133 154 181
134 154 181
133 154 181
134 154 181
134 154 181
134 154 181
135 155 181
133 154 181
133 154 181
134 154 181
135 155 181
134 154 181
134 155 181
134 154 181
133 154 181
133 154 181
133 154 181
133 154 181
134 154 181
133 154 181
134 154 181
135 155 181
134 154 181
133 154 181
134 154 181
134 154 181
133 154 181
134 154 181
133 154 181
134 154 181
134 154 181
134 154 181
133 154 181
134 154 181
134 154 181
134 154 181
134 154 181
135 155 181
134 154 181
134 154 181
133 154 181
133 154 181
133 154 180
133 154 181
134 155 181
133 154 181
133 154 181
133 154 181
133 154 181
134 154 181
134 154 181
134 154 181
133 154 181
133 154 181
134 154 181
134 154 181
134 154 181
133 154 181
135 155 181
134 154 181
134 154 181
134 154 181
134 154 181
134 154 181
134 154 181
133 154 181
134 154 180
134 154 181
133 154 181
133 154 181
133 154 181
134 154 181
134 154 181
133 154 181
133 154 181
134 154 181
134 154 181
134 154 181
133 154 181
134 154 181
134 154 181
134 154 181
135 155 181
135 155 181
134 154 181
135 155 181
135 155 181
133 154 181
134 154 181
133 154 181
134 154 181
134 154 181
133 154 181
133 154 181
134 154 181
133 154 180
133 154 181
133 154 181
134 154 181
134 154 181
134 154 181
134 154 181
134 154 181
134 154 181
134 154 181
133 154 181
134 154 181
133 154 181
134 154 181
134 154 181
133 154 181
134 154 181
134 154 181
134 154 181
134 154 181
134 154 181
135 155 181
134 154 181
133 154 181
133 154 181
133 154 181
134 154 181
134 154 181
134 154 181
134 154 181
133 154 181
134 154 181
134 154 181
135 155 181
134 154 181
132 153 181
134 154 181
133 154 181
133 154 181
134 154 181
135 155 181
134 154 181
135 155 181
134 154 181
134 154 181
133 154 181
133 154 181
134 154 181
134 154 181
134 154 181
133 154 181
134 154 181
134 154 181
134 154 181
133 154 181
133 154 181
133 154 180
134 154 181
133 154 181
135 155 181
135 155 181
134 154 181
134 154 181
134 154 181
133 154 181
134 154 181
133 154 181
134 154 181
133 154 181
133 154 181
134 154 181
134 154 181
133 154 181
134 154 181
134 154 181
134 154 181
133 154 181
134 154 181
133 154 181
134 154 181
134 154 181
133 154 181
134 154 181
134 154 181
133 154 181
133 154 181
133 154 181
135 155 181
134 154 181
134 154 181
135 155 181
134 154 181
134 154 181
134 154 181
134 154 181
134 154 181
134 154 181
134 154 181
134 154 181
134 154 180
134 154 181
134 154 181
134 154 181
134 154 181
134 154 181
134 154 181
134 154 181
133 154 181
133 154 181
134 154 181
133 154 181
133 154 181
133 154 181
134 154 181
134 154 181
134 154 181
134 154 181
134 154 181
133 154 181
133 154 181
133 154 181
134 154 181
135 155 181
134 154 181
134 154 181
134 154 181
133 154 181
134 154 181
135 155 181
134 154 181
134 154 181
133 154 181
134 154 181
134 154 181
134 154 181
134 154 181
134 154 181
134 154 181
134 155 181
133 154 181
134 155 181
133 154 181
133 154 181
134 154 181
134 154 181
134 154 181
133 154 181
133 154 180
133 154 181
133 154 181
134 154 181
134 154 181
133 154 181
135 155 181
134 154 181
134 154 181
134 154 181
134 154 181
134 154 181
134 154 181
133 154 181
133 154 181
133 154 181
134 154 181
134 154 181
133 154 181
132 153 181
134 154 181
133 154 181
134 154 181
134 154 181
134 154 181
134 154 181
133 154 181
133 154 180
133 154 181
133 154 181
134 154 181
134 154 181
133 154 181
134 154 181
133 154 180
133 154 181
133 154 181
134 154 181
134 154 181
134 154 181
135 155 181
134 154 181
134 154 181
134 154 181
134 154 181
133 154 181
134 155 181
135 155 181
134 154 181
134 154 181
134 154 181
134 154 181
134 154 181
134 154 181
134 154 181
134 154 181
133 154 181
134 154 181
134 154 181
134 154 181
134 154 181
133 154 181
134 154 181
134 154 181
134 154 181
133 154 181
134 154 181
135 155 181
133 154 181
134 154 181
134 154 181
134 154 181
134 154 181
134 154 181
134 154 181
133 154 181
133 154 181
134 154 181
133 154 181
134 154 181
134 154 181
134 154 181
134 154 181
134 154 181
134 154 181
134 154 181
133 154 181
134 154 181
133 154 181
134 154 180
134 154 181
134 154 181
133 154 181
134 154 181
133 154 181
134 154 181
133 154 181
134 154 181
134 154 181
134 154 181
134 154 181
134 154 181
134 154 181
135 155 181
133 154 181
134 154 181
133 154 181
133 154 181
133 154 181
134 154 181
134 154 181
135 155 181
134 154 181
135 155 181
134 154 181
134 154 181
133 154 181
134 154 181
133 154 181
135 155 181
133 154 181
134 154 181
133 154 181
135 155 181
133 154 181
133 154 181
134 154 181
134 154 181
133 154 181
135 155 181
133 154 181
133 154 181
133 154 181
133 154 181
134 154 181
133 154 181
134 154 181
133 154 181
133 154 181
134 154 181
135 155 181
134 154 181
134 154 181
134 154 181
134 154 181
133 154 181
134 154 181
134 154 181
133 154 181
133 154 181
134 154 181
135 155 181
134 154 181
134 154 181
134 154 181
133 154 181
134 154 181
133 154 181
133 154 181
133 154 181
134 154 181
134 155 181
134 154 181
135 155 181
134 154 181
134 154 181
134 154 181
134 154 181
134 154 181
134 155 181
134 154 181
134 154 181
134 154 181
134 154 181
134 155 181
134 154 181
134 154 181
133 154 181
134 154 181
134 154 181
135 155 181
133 154 180
134 155 181
134 154 181
133 154 180
133 154 181
134 154 181
134 154 181
134 154 181
134 154 181
134 154 181
134 154 181
134 154 181
134 154 181
133 154 181
133 154 181
134 154 181
134 154 181
133 154 181
133 154 181
132 153 181
134 154 181
134 154 180
134 154 181
133 154 181
134 154 181
134 154 181
133 154 181
134 154 181
134 154 181
134 154 181
133 154 181
134 154 181
134 154 181
133 154 181
135 155 181
133 154 181
134 154 181
134 154 181
133 154 181
133 154 181
134 154 181
133 153 180
134 154 181
134 154 181
133 154 181
134 154 181
134 154 181
134 154 181
134 154 181
134 154 181
133 154 181
134 154 181
134 154 181
134 154 181
134 154 181
134 154 181
134 154 181
134 154 181
134 154 181
134 154 181
134 154 181
134 154 181
134 154 181
133 154 181
134 154 181
133 154 181
134 154 181
133 154 181
133 154 181
134 154 181
134 154 181
134 154 181
134 154 181
133 154 181
134 154 181
134 154 181
134 154 181
134 154 181
133 154 181
134 154 181
134 154 181
134 154 181
134 154 181
134 154 181
134 154 181
134 154 181
133 154 181
134 154 181
134 154 181
134 154 181
133 154 181
134 154 181
133 154 181
134 154 181
133 154 181
134 154 181
133 154 181
133 154 181
134 154 181
133 154 181
135 155 181
133 154 181
135 155 181
134 154 181
134 154 181
134 154 181
134 154 181
133 154 181
134 154 181
133 154 181
134 154 181
134 154 181
134 154 181
133 154 181
133 154 181
133 154 181
135 155 181
133 154 181
134 154 181
134 154 181
134 154 181
133 154 181
133 154 181
134 154 181
134 155 181
134 154 181
133 154 181
133 154 181
133 154 181
133 154 181
133 154 181
134 154 181
133 154 181
134 154 181
133 154 181
134 154 181
134 154 181
134 154 181
134 154 181
134 154 181
133 154 181
133 154 181
135 155 181
135 155 181
133 154 181
134 154 181
135 155 181
134 154 181
134 154 181
134 154 181
134 154 181
134 154 181
134 154 181
134 154 181
134 154 181
134 154 181
133 154 181
133 154 181
134 154 181
134 154 181
134 154 181
133 154 181
134 155 181
135 155 181
134 155 181
134 154 181
134 154 181
134 154 181
133 154 181
134 154 181
134 154 181
133 154 181
134 154 181
134 154 181
133 154 181
134 154 181
134 154 181
133 154 181
133 154 181
133 154 181
134 154 181
134 154 181
133 154 181
133 154 181
134 154 181
135 155 181
134 154 181
133 154 181
135 155 181
134 154 181
133 154 181
134 154 181
133 154 181
134 154 181
135 155 181
134 154 181
133 154 181
133 154 181
133 154 181
134 154 181
134 154 181
133 154 181
134 154 181
133 154 181
134 154 181
133 154 181
134 154 181
133 154 181
134 154 181
133 154 181
134 154 181
134 154 181
134 154 181
133 154 181
134 155 181
134 154 181
133 154 181
134 154 181
134 154 181
134 154 181
134 154 181
134 154 181
133 154 181
134 154 181
134 154 181
134 154 181
134 154 181
134 154 181
133 154 181
133 154 181
134 154 181
134 154 181
134 154 181
134 154 181
133 154 181
134 154 181
134 154 181
134 154 181
135 155 181
134 154 181
133 154 181
134 154 181
134 154 181
134 154 181
135 155 181
134 154 181
134 154 181
133 154 181
134 154 181
133 153 180
134 154 181
134 154 181
133 154 181
134 154 181
134 154 181
134 154 181
134 154 181
134 154 181
133 154 181
134 154 181
134 154 181
133 154 181
134 154 181
134 154 181
133 154 181
134 154 181
133 154 181
134 154 181
134 154 181
133 154 181
133 154 181
134 154 181
133 154 181
134 154 181
134 154 180
134 154 181
134 154 181
134 154 181
134 155 181
133 154 181
134 154 181
134 154 181
133 154 181
134 154 181
134 154 181
134 155 181
134 154 181
134 154 181
134 154 181
133 154 181
133 154 181
134 154 181
134 155 181
134 154 181
133 154 181
135 155 181
133 154 181
133 154 181
133 154 181
134 154 181
133 154 181
135 155 181
133 154 180
134 154 181
134 154 181
134 154 181
134 154 181
134 154 180
134 154 181
134 154 181
134 154 181
134 154 181
134 154 181
134 154 181
134 154 181
134 154 181
135 155 181
133 154 181
133 154 181
134 155 181
133 154 181
134 154 181
134 154 181
134 154 181
133 154 181
134 154 181
134 154 180
134 154 181
134 155 181
135 155 181
134 154 181
134 154 181
134 154 181
133 154 181
133 154 181
134 154 181
134 154 181
133 154 181
133 154 181
134 154 181
134 154 181
134 154 181
133 154 180
133 154 181
135 155 181
134 154 181
134 154 181
134 154 181
133 154 181
134 154 181
133 154 181
133 154 181
134 154 181
133 154 181
134 154 181
135 155 181
134 154 181
133 154 181
133 154 181
134 154 181
134 154 181
134 154 181
134 154 181
134 154 181
133 154 181
133 154 181
134 154 181
134 154 181
134 154 181
134 154 181
133 154 181
134 154 181
134 154 181
133 154 181
134 154 181
134 154 180
135 155 181
133 154 181
133 154 181
133 154 181
134 154 181
133 154 181
134 154 181
134 155 181
135 155 181
133 154 181
133 154 181
134 154 181
134 154 181
133 154 181
133 154 181
134 154 181
134 154 181
133 154 181
133 154 181
135 155 181
134 154 181
133 154 181
134 154 181
133 154 181
133 154 181
134 154 181
135 155 181
133 154 181
134 154 181
134 154 181
133 154 181
134 154 181
134 154 181
134 154 181
134 154 181
133 154 181
133 154 181
135 155 181
134 154 181
134 154 181
134 154 181
135 155 181
134 154 181
134 154 181
134 154 181
133 154 181
134 154 181
135 155 181
134 154 181
134 155 181
134 154 181
133 154 181
134 154 181
134 154 181
133 154 181
134 154 181
133 154 181
134 154 181
134 154 181
135 155 181
133 154 181
134 154 181
134 154 181
133 154 181
134 154 181
134 154 181
134 154 181
134 154 181
134 154 181
134 154 181
134 154 181
133 154 181
134 154 181
134 154 181
135 155 181
133 154 180
134 154 180
134 154 181
134 154 181
133 154 181
134 154 181
134 154 181
133 154 181
134 154 181
134 154 181
133 154 181
133 154 181
134 154 181
134 154 181
134 154 181
134 154 181
135 155 181
135 155 181
134 154 181
134 154 181
134 154 181
134 155 181
135 155 181
133 154 180
134 154 181
133 154 181
134 154 181
134 154 181
133 154 181
133 154 181
134 154 181
133 154 181
134 154 181
133 154 181
133 154 181
134 154 181
134 154 181
134 154 181
134 154 181
134 154 181
134 154 181
133 154 181
133 154 181
135 155 181
135 155 181
135 155 181
134 155 181
133 154 181
133 154 181
133 154 181
134 155 181
134 154 181
133 154 181
134 154 181
134 154 181
134 154 181
134 154 181
133 154 181
134 154 181
134 154 181
134 154 181
134 154 181
134 154 181
134 154 181
134 154 181
134 154 181
134 154 181
133 154 181
134 154 181
134 154 181
133 154 181
134 154 181
134 154 181
134 154 181
135 155 181
134 154 181
134 154 181
133 154 181
134 154 181
134 154 181
134 154 181
133 154 181
134 154 181
134 154 181
133 154 181
134 154 181
135 155 181
133 154 181
134 154 181
134 154 181
133 154 181
135 155 181
133 154 181
134 154 181
134 154 181
133 154 181
134 154 181
134 154 181
134 154 181
133 154 180
134 154 181
134 155 181
134 154 181
134 154 181
134 154 181
134 154 181
134 154 181
133 154 181
134 154 181
134 154 181
133 154 181
134 154 181
134 154 181
134 154 181
134 155 181
134 154 181
134 154 181
135 155 181
134 154 181
134 154 181
134 154 181
134 155 181
134 154 181
134 154 181
133 154 181
133 154 181
133 154 181
134 154 181
133 154 181
134 154 181
133 154 181
134 154 181
135 155 181
133 154 181
135 155 181
134 154 181
133 154 181
134 154 181
133 154 181
135 155 181
134 154 181
134 154 181
134 154 181
134 154 181
134 154 181
133 154 181
134 154 181
133 154 181
133 154 181
134 154 181
133 154 181
134 154 181
134 154 181
133 154 181
134 154 181
134 154 181
134 154 181
133 154 181
133 154 181
133 154 180
133 154 181
134 154 181
134 154 181
134 154 181
133 154 181
133 154 181
133 154 181
133 154 181
134 154 181
134 154 181
134 154 181
133 154 181
134 154 181
134 154 181
134 154 181
134 154 181
134 154 181
134 154 180
134 154 181
134 154 181
134 154 181
134 154 181
133 154 181
134 154 181
133 154 181
134 154 181
135 155 181
133 154 181
133 154 181
133 154 181
133 154 181
133 154 181
134 154 181
133 154 181
135 155 181
133 154 181
134 154 181
134 154 181
133 154 181
134 154 181
134 154 181
133 154 181
133 154 181
134 154 181
135 155 181
134 154 181
134 154 181
134 154 181
134 154 181
134 154 181
134 154 181
133 154 181
134 154 181
134 154 181
134 154 181
133 154 181
134 154 181
134 154 181
134 154 181
135 155 181
134 154 181
133 154 181
135 155 181
133 154 181
133 154 181
134 154 181
135 155 181
134 154 181
134 154 181
134 154 181
134 154 181
134 154 181
133 154 181
134 154 181
133 154 181
134 154 181
135 155 181
135 155 181
133 154 181
134 154 181
134 154 181
134 154 181
134 154 181
133 154 181
134 154 181
134 154 181
134 154 181
134 154 181
135 155 181
134 154 181
133 154 181
134 154 181
134 154 181
134 154 181
134 154 181
134 155 181
133 154 181
134 154 181
134 154 181
133 154 181
134 154 181
134 154 181
133 154 181
133 154 181
134 154 181
133 154 181
133 154 181
134 154 181
133 154 181
134 154 181
134 154 181
135 155 181
134 154 181
134 154 181
133 154 181
133 154 181
134 154 181
134 154 181
133 154 181
134 154 180
134 155 181
133 154 181
133 154 181
134 154 181
133 154 181
132 153 181
134 154 181
134 154 181
135 155 181
133 154 181
133 154 181
134 154 181
133 154 181
134 154 181
135 155 181
134 154 181
134 154 181
134 154 181
134 154 181
134 154 181
133 154 181
134 154 181
134 154 181
134 154 181
134 154 181
133 154 181
134 154 181
133 154 181
133 154 181
133 154 181
134 154 181
134 154 181
134 154 181
134 154 181
134 154 181
134 154 181
133 154 181
134 154 181
133 154 180
135 155 181
133 154 181
134 154 181
133 154 181
133 154 181
134 154 181
134 154 181
134 154 181
134 154 181
134 155 181
134 154 180
133 154 181
134 154 181
134 154 181
134 154 181
134 154 181
133 154 181
133 154 181
134 154 181
134 154 181
134 154 181
134 154 181
134 154 181
134 154 181
134 154 181
135 155 181
133 154 181
134 154 181
134 154 181
135 155 181
133 154 181
133 154 181
134 154 181
134 154 181
133 154 181
134 154 181
133 154 180
134 154 181
132 153 181
134 154 181
134 154 181
133 154 181
134 154 181
133 154 181
133 154 181
133 154 181
133 154 181
133 154 181
133 154 181
134 154 181
134 154 181
133 154 180
134 154 181
134 154 181
134 154 181
133 154 181
134 154 181
134 154 181
134 154 181
134 154 181
134 154 181
134 155 181
134 154 181
134 154 181
134 154 181
134 154 181
134 154 181
134 154 181
135 155 181
133 154 181
133 154 181
134 154 181
134 154 181
133 154 181
134 154 181
133 154 181
134 154 181
134 154 181
134 155 181
134 154 181
134 154 181
134 154 181
133 154 181
134 154 181
134 154 181
133 154 181
134 154 181
134 154 181
134 154 181
134 154 181
134 154 181
135 155 181
133 154 181
133 154 181
134 154 181
134 154 181
134 154 181
134 154 181
135 155 181
134 154 181
133 154 181
133 154 181
134 154 181
134 154 180
134 154 181
134 154 180
134 154 181
133 154 181
135 155 181
134 154 181
134 154 181
134 154 181
133 154 181
133 154 181
134 154 181
135 155 181
134 154 181
133 154 181
134 154 181
134 154 181
134 154 181
134 154 181
134 154 181
133 154 181
133 154 181
134 155 181
134 154 181
135 155 181
134 154 181
134 154 181
134 154 181
134 154 181
133 154 181
134 154 180
133 154 181
134 154 181
134 154 181
134 154 181
134 154 181
133 154 181
135 155 181
133 154 181
133 154 181
133 154 181
133 154 181
133 154 181
135 155 181
133 154 181
134 154 181
133 154 181
135 155 181
133 154 181
133 154 181
133 154 181
134 154 181
134 154 181
134 154 181
133 154 181
133 154 181
133 154 181
133 154 181
134 155 181
133 154 181
134 154 181
133 154 181
133 154 181
134 154 181
133 154 181
133 154 181
134 154 181
134 154 181
134 155 181
134 154 181
133 154 181
133 154 181
133 154 181
135 155 181
133 154 181
134 154 181
134 154 181
133 154 181
132 153 181
133 154 181
133 154 181
134 154 181
133 154 181
133 154 181
134 154 181
133 154 181
133 154 181
134 155 181
133 154 181
134 154 181
133 154 181
134 154 181
133 154 181
134 155 181
134 154 181
133 154 181
134 154 181
134 154 181
134 154 181
134 154 181
134 154 181
134 154 181
134 154 181
134 154 181
133 154 181
134 154 181
133 154 181
134 154 181
134 154 181
135 155 181
134 154 181
134 154 181
133 154 181
134 154 181
134 155 181
134 154 181
134 154 181
134 154 181
133 154 181
134 154 181
134 154 181
134 154 181
133 154 181
134 154 181
134 154 181
135 155 181
134 154 181
134 154 181
134 154 181
134 154 181
134 154 181
133 154 181
134 154 181
133 154 181
135 155 181
134 154 180
134 154 181
134 154 181
134 154 181
133 154 181
133 154 181
134 154 181
135 155 181
134 154 181
135 155 181
134 154 181
134 154 181
134 154 181
134 154 181
133 154 181
134 154 181
134 155 181
134 154 181
133 154 181
134 154 181
134 154 181
134 154 181
134 154 181
134 154 181
133 154 181
133 154 181
133 154 181
133 154 181
134 154 181
135 155 181
133 154 181
134 154 181
134 154 181
133 154 181
134 154 181
133 154 181
134 154 181
134 154 181
134 154 181
133 154 181
134 154 181
133 154 181
134 155 181
134 154 181
134 154 181
134 154 181
134 154 181
134 154 181
134 154 181
134 154 181
134 154 181
133 154 181
134 154 181
134 154 181
134 154 181
134 154 181
134 154 181
134 154 181
134 154 181
133 154 181
134 154 181
134 154 181
135 155 181
133 154 181
133 154 181
134 154 181
134 154 181
133 154 181
134 154 180
134 154 181
135 155 181
134 154 181
134 154 181
134 154 181
134 154 181
134 154 180
133 154 181
135 155 181
134 154 181
134 154 181
133 153 180
134 154 181
133 154 181
134 154 181
133 154 181
133 154 181
134 154 181
135 155 181
134 154 181
134 154 181
134 154 181
134 154 181
134 154 181
134 154 181
133 154 181
134 155 181
135 155 181
133 154 181
134 154 181
134 154 181
134 154 181
134 154 181
134 154 181
133 154 181
133 154 181
134 154 181
134 154 181
133 154 181
134 154 181
133 154 180
134 154 181
134 154 181
134 154 181
133 154 181
134 154 181
133 154 181
133 154 181
134 155 181
134 154 181
133 154 181
134 154 181
134 154 181
134 154 181
135 155 181
133 154 181
134 154 181
135 155 181
134 154 181
134 154 181
133 154 181
135 155 181
134 154 181
133 154 180
133 154 181
134 154 181
134 154 181
134 154 181
135 155 181
133 154 181
133 154 181
134 154 181
134 154 181
133 154 181
135 155 181
133 154 181
134 154 181
134 154 181
134 154 181
134 154 181
134 154 181
134 154 181
134 154 181
133 153 180
133 154 181
133 154 181
133 154 181
134 154 181
134 154 181
134 154 181
134 154 181
134 154 181
134 154 181
133 154 181
133 154 181
134 154 181
134 154 181
134 154 181
134 154 181
134 154 181
133 154 181
134 154 181
134 154 181
134 154 181
134 154 181
133 154 181
134 154 181
134 154 181
134 154 181
134 154 181
133 154 181
133 154 181
134 154 181
133 154 181
133 154 181
134 154 181
134 154 181
134 154 181
134 154 181
134 154 181
134 154 181
134 154 181
133 154 181
133 154 181
133 154 181
134 154 181
133 154 181
133 154 181
133 154 181
135 155 181
135 155 181
133 154 181
133 154 181
135 155 181
135 155 181
133 154 181
134 154 181
134 154 181
134 154 181
134 154 181
134 154 181
134 154 181
134 154 181
135 155 181
134 154 181
134 154 181
134 154 181
133 154 181
134 154 181
134 154 181
133 154 181
134 154 181
134 154 180
133 154 181
134 154 181
134 154 181
134 154 181
134 154 181
133 154 181
134 154 181
134 154 181
134 154 181
135 155 181
134 154 180
134 154 181
133 154 181
133 154 181
133 154 181
134 154 181
134 154 181
133 154 181
134 154 181
133 154 181
134 154 181
133 154 181
133 154 181
134 154 181
134 155 181
134 154 181
133 154 181
133 154 181
134 154 181
134 154 181
133 154 181
134 154 181
134 154 181
133 154 181
134 154 181
134 154 181
133 154 181
134 154 180
135 155 181
134 154 181
134 154 181
134 154 181
134 154 181
134 154 181
134 155 181
134 154 181
133 153 180
135 155 181
133 153 180
133 154 181
133 154 181
134 154 181
134 154 181
133 154 181
134 154 181
134 154 181
133 154 181
134 154 181
134 154 181
134 154 181
134 154 181
134 154 181
133 154 181
134 154 181
134 154 181
134 155 181
134 155 181
133 154 181
134 154 181
134 154 181
133 154 181
133 154 181
133 154 181
133 154 181
134 154 181
134 154 181
134 154 181
134 154 181
134 154 181
133 154 181
134 154 181
134 154 181
134 154 181
134 154 181
133 154 181
134 154 181
134 154 180
133 154 181
133 154 181
134 154 181
133 154 181
133 154 181
134 154 181
134 154 181
134 154 180
134 154 181
133 154 181
134 154 181
134 154 181
133 154 181
133 154 181
134 154 181
134 154 181
134 154 181
134 154 181
134 154 181
134 154 181
134 154 181
133 154 181
134 154 181
134 154 181
134 154 181
133 154 181
134 154 181
133 154 181
134 154 181
134 154 181
134 154 181
134 154 181
134 154 181
134 154 181
134 154 181
134 154 181
134 154 181
134 154 181
134 154 181
135 155 181
134 154 181
134 154 181
135 155 181
134 154 181
133 154 181
133 154 181
133 154 181
134 154 181
134 154 181
133 153 180
134 154 181
133 154 181
133 154 181
134 155 181
133 154 181
134 154 181
134 154 181
133 154 181
133 154 181
133 154 181
133 154 181
134 154 181
134 154 181
134 154 181
135 155 181
134 154 181
134 154 181
133 154 181
134 154 181
133 154 180
134 155 181
134 154 181
134 154 181
133 154 181
133 153 180
133 154 181
134 154 181
134 154 181
133 154 181
134 154 181
134 154 181
134 154 181
134 154 181
135 155 181
134 155 181
133 154 181
134 154 181
134 154 181
135 155 181
134 154 180
133 154 180
133 154 181
134 154 181
134 154 181
134 154 181
134 154 181
134 154 181
133 154 181
134 154 181
134 154 181
135 155 181
134 154 181
133 154 181
134 154 181
133 154 181
134 154 181
134 154 181
133 154 180
134 154 181
134 154 181
133 154 181
134 154 181
133 154 181
134 154 181
134 154 181
133 154 181
133 154 181
134 154 181
133 154 181
134 154 181
134 154 181
133 154 181
133 154 181
134 154 181
134 154 181
134 154 181
134 154 181
133 154 181
133 154 181
134 154 181
134 154 181
133 154 181
135 155 181
134 154 181
134 154 181
133 154 181
135 155 181
135 155 181
133 154 181
133 154 181
134 154 181
134 154 180
134 154 181
134 154 181
134 154 180
134 154 181
133 154 181
134 154 181
134 154 181
134 154 181
134 154 181
134 154 181
133 153 180
133 154 181
133 154 181
133 154 181
134 154 181
134 154 181
133 154 181
134 154 181
134 154 181
134 154 181
134 154 181
134 154 181
134 154 181
134 154 181
134 154 181
133 153 180
134 154 181
134 154 181
134 154 181
135 155 181
135 155 181
133 154 181
134 154 180
133 154 181
134 154 181
134 154 181
134 154 181
134 154 181
133 154 181
133 154 181
134 154 181
134 154 180
134 154 181
134 154 181
134 154 181
134 155 181
135 155 181
134 154 181
134 154 181
134 154 181
133 154 181
133 154 181
134 154 181
134 154 181
133 154 180
134 154 181
135 155 181
134 154 181
134 154 181
133 154 181
133 154 181
134 154 181
134 154 181
135 155 181
134 154 181
133 154 181
133 154 181
134 154 181
133 154 180
134 154 181
133 154 181
134 154 181
134 154 181
134 154 180
134 154 181
133 154 181
134 154 181
133 154 181
134 154 181
134 154 181
133 154 181
133 154 181
134 154 181
133 154 181
134 154 181
133 154 181
134 154 181
134 154 181
133 154 181
134 154 181
133 154 181
134 154 181
134 154 181
133 154 181
133 154 181
134 154 181
134 154 181
134 154 181
134 154 181
134 154 181
134 154 181
134 154 181
134 154 181
134 154 181
134 154 181
134 154 181
134 154 181
134 154 181
133 154 181
134 154 181
134 154 181
134 154 181
134 154 180
133 154 181
133 154 181
134 154 181
134 154 181
134 154 181
134 154 181
133 154 181
134 154 181
135 155 181
134 154 181
134 154 181
133 154 181
134 154 181
134 154 181
134 154 181
134 154 181
133 154 180
134 154 181
135 155 181
134 154 181
135 155 181
134 154 181
134 155 181
134 154 180
134 154 181
134 154 181
135 155 181
134 154 180
134 155 181
133 154 181
135 155 181
134 154 181
134 154 181
134 154 181
134 154 180
134 154 180
134 154 181
134 154 181
134 154 181
135 155 181
134 154 181
133 154 181
134 155 181
134 154 181
134 154 181
134 154 181
134 154 181
133 154 181
134 154 181
133 154 181
134 154 181
134 154 181
133 154 181
134 155 181
134 154 181
134 154 181
134 155 181
134 154 181
134 154 181
134 154 181
134 154 181
133 154 181
133 154 181
133 154 181
134 154 181
134 154 181
133 154 181
133 154 181
135 155 181
134 154 181
134 154 181
134 154 181
134 154 181
134 154 181
134 155 181
134 154 181
134 155 181
133 154 181
134 154 181
134 154 181
134 154 181
134 154 181
135 155 181
134 154 181
133 154 181
134 154 181
133 154 181
133 154 181
134 154 181
133 154 181
134 154 181
134 154 181
134 154 181
134 154 181
133 154 181
134 154 181
134 154 181
133 153 180
133 154 181
134 154 181
134 154 181
133 154 181
133 153 180
134 154 181
133 154 181
134 154 181
134 154 181
133 154 181
133 154 181
133 154 181
133 154 181
134 154 181
133 153 180
133 154 181
134 154 181
134 154 181
134 154 181
133 154 181
134 154 181
133 154 181
133 154 181
134 154 181
134 154 181
134 154 181
134 154 181
133 154 181
134 154 181
133 153 180
133 154 181
134 154 181
134 154 181
135 155 181
133 154 181
134 154 181
134 154 181
133 154 181
134 154 181
134 154 181
134 154 181
133 154 181
133 154 181
133 154 180
133 154 181
133 154 181
134 154 181
134 154 181
133 154 181
134 154 181
133 154 181
134 154 181
133 154 181
134 154 181
133 154 181
133 154 181
134 154 181
134 154 181
134 154 181
134 154 181
134 154 181
134 155 181
133 154 181
133 154 181
134 154 181
133 154 181
134 154 181
133 154 181
134 154 181
134 154 181
135 155 181
133 154 181
134 154 181
134 154 181
133 154 181
134 154 181
133 154 180
133 154 181
134 154 181
133 154 181
133 154 181
133 154 181
134 154 181
134 154 181
134 154 181
135 155 181
133 154 180
133 154 181
134 154 181
134 154 181
133 154 181
134 154 181
134 154 181
133 154 181
133 154 181
134 154 181
134 154 181
134 154 181
134 154 181
133 154 181
133 154 181
133 153 180
133 154 181
134 154 181
133 154 181
134 154 181
133 154 181
132 153 181
134 154 181
134 154 181
134 154 180
135 155 181
134 154 181
134 154 181
134 154 181
134 154 181
133 154 181
134 154 181
134 154 181
133 154 181
135 155 181
134 154 181
134 154 181
134 154 181
134 154 181
135 155 181
134 154 181
134 155 181
135 155 181
134 154 181
134 154 181
134 155 181
133 154 181
134 154 181
134 154 181
134 154 181
134 154 181
134 154 181
135 155 181
134 154 181
134 154 181
134 154 181
135 155 181
134 154 181
134 154 181
134 154 181
133 154 181
134 154 181
135 155 181
134 154 181
133 154 181
134 154 181
134 154 181
134 154 181
134 154 181
135 155 181
134 154 181
133 154 181
134 154 181
134 154 181
134 154 181
134 154 181
134 154 181
134 154 181
133 154 181
133 154 181
135 155 181
134 154 181
133 154 181
133 154 181
134 155 181
133 154 181
133 154 181
134 154 181
134 154 181
134 154 181
135 155 181
133 154 181
134 154 181
133 154 181
135 155 181
134 154 181
135 155 181
133 154 181
134 154 181
133 154 181
135 155 181
134 154 181
133 154 181
134 154 181
134 154 181
134 154 181
133 154 181
134 154 181
134 154 181
134 154 181
134 154 181
133 154 181
134 154 181
134 154 181
133 154 181
134 154 181
133 154 181
134 154 181
134 154 181
134 154 181
133 154 181
135 155 181
134 154 181
134 154 181
134 154 181
133 154 181
134 154 181
133 154 181
134 154 181
134 154 181
134 154 181
133 154 181
133 154 181
134 154 181
134 154 181
134 154 181
135 155 181
134 154 181
133 154 181
133 154 181
134 154 181
134 154 181
134 154 181
135 155 181
135 155 181
133 154 181
133 154 180
135 155 181
134 154 181
134 154 181
134 154 180
134 154 181
135 155 181
134 154 181
134 154 181
134 154 181
134 154 181
134 154 180
133 153 180
134 154 181
133 154 181
134 154 181
134 154 181
134 154 181
133 154 181
133 154 181
133 154 181
134 154 181
134 154 181
134 154 181
134 154 181
134 155 181
134 154 181
134 154 181
133 154 181
134 154 181
133 154 181
134 154 181
134 154 181
134 154 181
133 154 181
134 154 181
134 154 181
134 154 181
134 154 181
134 154 181
134 154 181
134 154 181
133 154 181
134 154 181
134 154 181
133 154 181
134 154 181
134 154 181
134 154 181
133 154 181
134 154 181
134 154 181
134 154 181
134 154 181
134 154 181
134 154 181
133 154 181
133 154 181
134 154 181
133 154 181
133 154 181
134 154 181
134 154 181
133 154 181
133 154 181
134 154 181
135 155 181
134 154 180
133 154 181
134 154 181
134 154 181
134 154 181
134 154 181
134 154 181
134 154 181
134 154 181
132 153 181
134 154 181
133 154 181
134 154 181
134 154 181
134 154 181
133 154 181
134 154 181
134 154 181
134 154 181
133 154 181
133 154 181
134 154 181
133 154 181
134 154 181
134 155 181
134 154 181
134 154 181
134 154 181
133 154 181
134 154 181
133 154 181
135 155 181
134 154 181
133 154 180
134 154 181
134 154 181
134 154 181
134 154 181
134 154 181
134 154 181
133 154 181
134 154 181
134 154 181
133 154 181
134 154 181
134 154 181
134 154 181
134 154 181
133 154 181
133 154 181
134 154 181
134 154 181
133 154 181
133 154 181
135 155 181
134 154 181
133 154 181
134 154 181
133 154 181
133 154 181
133 153 180
134 154 181
133 154 181
134 154 181
134 154 181
134 154 181
134 154 181
133 154 181
134 154 181
133 154 181
133 154 181
133 154 181
134 154 181
134 154 181
134 154 181
134 154 181
133 154 180
133 154 181
133 154 181
133 154 181
133 154 181
134 154 181
133 154 181
134 155 181
134 154 181
135 155 181
134 154 181
134 154 181
134 154 181
134 154 181
134 154 181
133 154 181
135 155 181
132 153 181
134 154 181
134 154 181
133 154 181
134 154 181
134 154 181
133 154 181
134 154 181
134 154 181
134 154 181
134 154 181
134 154 181
134 154 181
134 154 181
134 154 181
134 154 181
134 154 181
134 154 181
134 154 181
134 154 181
134 154 181
134 154 181
133 154 181
133 154 181
134 154 181
134 154 181
134 154 181
133 154 180
133 154 181
133 154 181
134 154 181
134 154 181
133 154 181
134 154 181
134 154 181
134 154 181
133 154 181
135 155 181
134 154 181
134 154 181
134 154 181
134 154 181
133 154 181
135 155 181
134 154 181
134 154 181
134 154 181
134 154 180
134 154 181
134 154 181
133 154 181
133 154 181
134 154 181
135 155 181
134 154 181
133 154 181
134 154 181
133 154 181
135 155 181
134 154 180
133 154 181
135 155 181
134 154 181
134 154 181
134 154 181
135 155 181
133 154 181
134 154 181
134 154 181
134 154 181
134 154 181
134 154 181
134 154 181
133 154 181
133 154 181
133 154 181
134 154 181
134 154 181
134 154 181
133 154 181
133 154 181
133 153 180
133 154 181
133 154 181
134 154 181
134 154 181
133 154 181
134 154 181
134 154 181
134 155 181
133 154 181
134 154 181
134 154 181
133 154 181
134 154 181
134 154 181
133 154 180
134 154 181
134 154 181
134 154 181
134 154 181
134 154 181
134 154 181
134 154 181
133 154 181
133 154 181
133 154 181
133 154 181
134 155 181
133 154 181
134 154 181
134 154 181
134 154 181
133 154 181
134 154 181
133 154 181
134 154 181
133 154 181
134 154 181
134 154 181
134 154 181
133 154 181
135 155 181
133 154 181
134 154 180
134 154 181
133 154 181
134 154 181
133 154 181
134 154 181
134 155 181
134 154 181
133 154 181
133 154 181
134 154 181
134 154 181
134 154 181
133 154 181
134 154 181
134 154 181
134 154 181
134 154 181
134 154 181
134 154 181
133 154 181
134 154 181
133 154 181
133 154 181
134 154 181
135 155 181
134 154 181
133 154 181
134 154 181
134 154 181
134 154 181
133 154 181
135 155 181
134 154 181
134 154 181
134 154 181
134 154 181
134 154 181
133 154 181
133 154 181
133 154 181
134 154 181
133 154 181
134 154 180
133 154 181
133 154 181
134 154 181
134 154 181
133 154 181
133 154 181
134 154 181
133 154 181
133 154 181
134 154 181
133 154 181
133 154 181
134 154 181
134 154 181
134 154 181
133 154 181
134 154 181
134 155 181
133 154 181
134 154 181
132 153 180
133 154 181
134 154 181
134 154 181
134 154 181
134 154 181
133 154 181
133 154 181
133 154 181
134 154 181
133 154 181
134 154 181
134 154 181
134 154 181
134 154 181
133 153 180
134 154 181
135 155 181
134 154 181
133 154 181
134 154 181
134 154 181
134 154 181
133 154 181
134 154 181
133 154 180
133 154 181
134 154 181
133 154 181
134 154 181
134 154 181
133 154 181
133 154 181
134 154 180
134 154 181
133 154 181
135 154 180
133 154 181
133 154 181
134 154 181
134 154 181
134 154 181
134 154 181
133 154 181
134 154 181
134 154 181
133 154 181
133 154 181
134 154 181
134 154 181
133 154 181
133 154 181
133 154 181
133 154 180
134 154 181
134 154 181
135 155 181
134 154 181
134 154 181
134 154 181
135 155 181
134 154 181
134 154 181
133 154 181
135 155 181
134 154 181
133 154 181
134 154 181
134 154 181
133 154 181
135 155 181
134 154 181
133 154 181
134 154 180
134 154 181
133 154 181
134 154 181
133 154 181
133 154 181
134 154 181
133 154 181
133 154 181
133 154 181
133 154 181
133 154 181
134 154 181
133 154 181
133 154 181
134 154 181
133 153 180
134 154 181
133 154 181
134 154 181
133 154 181
133 154 181
134 154 181
134 154 180
134 154 181
134 154 181
134 154 181
134 154 181
134 154 181
134 154 181
134 155 181
134 154 181
133 154 181
133 154 181
134 154 181
134 154 181
135 155 181
134 154 181
134 154 181
133 154 181
133 154 181
134 154 181
133 154 181
134 154 181
134 154 181
134 154 181
134 154 181
135 155 181
134 154 181
134 154 181
133 154 181
134 154 181
133 154 181
133 154 181
133 154 181
134 154 181
133 154 181
133 154 181
134 154 181
133 154 180
133 154 181
133 154 181
134 154 181
134 154 181
134 154 181
134 154 181
134 154 180
133 154 181
133 154 181
133 154 181
133 154 181
135 155 181
134 155 181
133 154 181
134 154 181
134 154 181
134 154 181
134 154 181
133 154 181
133 154 181
135 155 181
135 155 181
133 154 181
134 154 181
133 154 181
133 154 181
134 154 181
133 154 181
135 155 181
134 154 181
134 154 181
134 154 181
134 154 181
134 154 181
134 154 181
135 155 181
134 154 181
134 154 181
133 154 181
133 154 181
134 154 181
134 154 181
134 154 181
133 154 181
134 154 181
134 154 181
133 154 181
135 155 181
134 154 181
133 154 181
134 154 181
134 154 181
134 154 181
133 154 181
133 154 181
134 154 181
135 155 181
134 154 181
133 154 181
134 154 181
133 154 181
134 154 181
134 154 181
135 155 181
134 154 181
134 154 181
134 154 181
134 154 181
133 154 181
134 154 181
134 154 181
134 154 181
134 154 181
134 154 181
132 153 181
134 154 181
134 155 181
134 154 181
134 154 181
133 154 181
134 155 181
134 154 181
133 154 181
134 154 181
134 154 181
133 154 181
133 154 180
133 154 181
134 154 181
133 154 181
133 154 181
134 154 181
134 154 181
134 154 181
134 154 181
134 154 181
134 154 181
135 155 181
133 154 181
134 154 181
134 154 181
133 154 181
134 154 181
134 154 181
133 154 181
133 154 181
134 154 181
134 154 181
134 154 181
134 154 181
133 154 181
134 154 181
134 155 181
133 154 181
134 154 181
134 154 181
133 154 180
135 155 181
133 154 181
133 154 181
134 154 181
133 154 181
134 154 181
134 154 181
134 154 181
134 154 181
133 154 181
134 154 181
135 155 181
134 154 181
133 154 181
134 154 181
133 154 181
134 154 181
133 154 181
134 155 181
134 154 181
133 154 181
134 154 181
134 154 181
132 153 180
133 154 181
134 154 181
134 154 181
133 154 181
134 154 181
134 154 181
133 154 181
133 154 181
134 154 181
134 154 181
133 154 181
134 154 181
133 154 181
133 154 181
134 154 181
134 154 181
133 154 181
133 154 181
134 154 181
133 154 181
134 154 181
134 154 181
133 154 181
134 154 181
134 154 181
133 154 181
134 154 181
134 154 181
134 154 181
134 154 181
133 154 181
133 154 181
134 154 181
133 154 180
133 154 181
134 154 181
134 154 181
134 154 181
134 154 181
134 154 181
134 154 181
135 155 181
135 155 181
134 154 181
134 154 181
133 154 181
135 155 181
134 154 180
134 154 181
134 154 181
133 154 181
133 154 181
134 154 181
134 154 181
133 154 181
134 154 181
133 154 181
134 154 181
134 154 181
133 154 181
134 154 181
133 154 181
134 154 181
134 154 181
134 154 181
134 154 181
134 154 181
134 154 181
135 155 181
133 154 181
135 155 181
133 154 181
135 155 181
133 154 181
134 154 181
133 154 181
135 155 181
135 155 181
134 154 181
134 154 181
133 154 181
133 154 181
133 154 181
133 154 181
134 155 181
134 154 181
134 154 181
134 154 181
133 154 181
133 154 181
135 155 181
133 154 181
134 154 181
135 155 181
134 154 181
134 154 181
133 154 181
134 154 181
133 154 181
133 154 181
133 154 181
133 154 181
134 154 181
133 154 181
133 154 181
134 154 181
134 154 181
133 154 181
133 154 181
134 154 181
134 154 181
134 154 181
134 154 181
133 154 181
134 154 181
134 154 181
134 154 181
133 154 181
134 154 181
134 154 181
135 155 181
134 154 181
134 154 181
133 154 181
133 154 181
134 154 181
134 154 181
134 154 181
134 154 180
134 154 181
133 154 181
134 154 181
133 154 181
134 154 181
134 155 181
133 154 181
134 154 181
134 155 181
133 154 181
134 154 181
134 154 181
133 154 181
133 154 181
134 154 181
134 154 180
134 154 181
134 154 181
133 154 181
133 154 181
133 154 181
133 154 180
134 154 181
135 155 181
134 154 181
133 154 181
133 154 181
134 154 181
134 154 181
134 154 181
133 154 181
134 154 180
134 154 181
134 154 180
133 154 181
134 154 181
134 154 181
134 154 181
133 154 181
134 154 181
134 154 181
134 155 181
134 155 181
133 154 181
135 155 181
134 154 181
134 154 181
133 154 181
134 154 181
133 154 181
134 154 181
134 154 181
133 154 181
134 154 181
134 154 180
134 154 181
134 154 181
134 154 181
134 154 181
134 154 181
133 154 181
134 154 181
134 154 181
133 154 181
134 154 181
134 154 181
133 154 181
133 154 181
134 154 181
134 154 181
133 154 181
134 154 181
133 154 181
133 154 181
133 154 181
134 154 181
134 154 181
134 154 181
133 154 181
134 154 181
134 154 181
134 154 181
133 154 181
133 154 181
133 154 181
134 154 181
134 154 181
133 154 181
134 154 181
134 154 181
134 154 181
134 154 181
134 154 181
133 154 181
133 154 181
133 154 181
133 154 181
134 154 181
135 155 181
133 154 181
135 155 181
135 155 181
133 154 181
133 154 181
134 154 181
134 154 181
134 154 181
134 154 181
133 154 181
133 154 181
133 154 181
134 154 181
133 154 181
133 154 181
135 155 181
133 154 181
133 154 181
134 154 181
133 154 181
134 154 181
134 154 181
133 154 181
133 154 181
132 154 181
133 154 180
133 154 180
133 154 181
133 154 181
134 154 181
133 154 181
134 154 181
134 154 181
134 154 181
134 154 181
134 154 181
134 154 181
134 154 181
133 154 181
134 154 181
134 154 181
134 154 181
134 154 181
133 154 181
134 154 181
133 154 181
134 154 181
133 154 181
134 154 181
132 153 181
133 154 181
134 154 181
134 154 181
134 154 180
133 154 181
134 154 181
133 154 181
132 153 181
134 154 181
134 154 181
134 155 181
134 154 181
134 154 181
134 154 181
134 154 181
134 154 181
133 154 181
134 154 180
134 154 181
134 154 181
134 154 181
135 155 181
133 154 180
134 154 181
134 154 181
133 154 181
134 154 181
133 154 181
134 154 181
133 154 181
133 154 181
133 153 180
133 154 181
133 154 181
134 154 181
134 154 181
134 154 181
134 154 181
133 154 181
134 154 181
135 155 181
134 154 181
133 154 182
133 153 182
133 153 183
132 152 185
131 152 187
131 152 189
133 153 185
133 154 183
134 154 182
134 154 181
134 154 181
132 153 181
134 154 181
134 155 181
134 154 181
134 154 181
134 154 181
135 155 181
133 154 181
133 154 180
134 154 181
134 154 181
134 154 181
133 154 181
133 154 181
134 154 181
133 154 181
133 154 181
134 154 180
134 154 181
134 154 181
134 154 181
134 154 181
133 154 181
135 155 181
134 154 181
133 154 180
133 154 181
133 154 181
134 154 180
133 154 181
134 154 181
134 154 181
132 153 180
134 154 181
134 154 181
134 154 181
134 154 181
133 154 181
134 154 181
134 154 181
134 154 181
134 154 181
133 154 181
134 154 181
134 154 181
133 154 181
133 154 181
134 154 181
133 154 181
134 154 181
134 154 181
134 154 181
134 154 181
133 154 181
134 154 181
134 154 181
134 154 181
133 154 181
134 155 181
134 154 181
133 154 181
134 154 181
135 155 181
133 154 181
133 154 181
134 154 181
133 154 181
133 154 181
134 155 181
134 154 181
133 154 181
133 154 181
134 154 181
134 154 181
134 154 181
133 154 181
133 154 181
134 154 181
134 154 181
133 154 181
134 154 181
135 155 181
133 154 181
134 154 181
133 154 181
133 154 181
134 154 181
133 154 181
135 155 181
133 154 181
133 153 180
134 154 181
134 154 181
134 154 181
134 154 181
134 154 181
134 154 180
134 154 181
134 154 181
133 154 181
134 154 181
133 154 181
134 155 181
134 154 181
134 154 181
134 154 181
134 154 181
134 154 181
134 154 181
133 154 181
134 154 181
134 154 181
134 154 181
135 155 181
135 155 181
133 154 181
135 155 181
134 154 181
133 154 181
133 154 181
133 154 181
133 154 181
134 154 181
134 154 181
134 155 181
134 155 181
134 154 181
134 154 181
134 154 181
134 154 181
133 154 181
134 154 181
132 153 181
133 154 181
133 154 181
134 154 181
134 154 181
134 154 181
134 154 181
134 154 181
134 154 180
134 154 181
134 154 181
133 154 181
134 154 181
134 154 181
133 154 181
134 154 181
134 154 181
134 154 181
134 154 181
134 154 181
134 154 181
135 155 181
134 154 181
134 154 181
134 154 181
134 154 181
134 154 181
134 154 181
134 154 181
134 154 181
134 154 181
135 155 181
133 154 181
133 154 181
134 154 181
133 154 180
133 154 181
134 154 181
133 154 181
133 154 181
134 154 181
134 154 181
134 154 181
133 154 181
135 155 181
134 154 181
134 154 181
133 154 181
134 154 181
134 154 181
134 154 181
134 154 181
134 154 181
134 154 181
134 154 180
133 154 181
134 154 181
134 154 181
134 154 181
134 154 181
134 154 181
133 154 181
134 154 181
134 154 181
134 155 181
133 154 181
134 154 181
134 154 181
134 154 181
134 154 181
134 154 181
134 154 181
134 154 181
132 153 181
134 155 181
134 154 181
133 154 181
134 154 181
133 153 180
134 154 181
134 154 181
133 154 181
134 154 181
135 155 181
134 154 181
133 154 181
134 154 181
133 154 181
133 154 181
135 155 181
133 154 180
134 154 181
134 154 180
133 154 181
134 154 181
134 154 181
135 155 181
134 155 181
133 154 180
133 154 181
133 154 181
133 154 181
133 154 180
134 154 181
133 154 181
134 154 181
133 154 181
134 154 181
134 154 181
134 154 181
133 154 181
134 154 181
134 154 181
133 154 181
134 154 181
134 154 181
133 154 181
134 154 181
133 154 181
133 154 181
134 154 181
134 154 181
133 154 181
134 154 181
135 155 181
134 154 181
134 154 181
134 154 181
134 154 181
134 154 181
133 154 181
133 154 181
133 154 181
133 154 181
133 154 181
134 154 181
134 154 181
134 154 181
134 154 181
134 154 181
135 155 181
134 154 181
134 154 181
134 154 181
134 154 181
134 154 181
134 154 181
134 155 181
134 154 181
134 154 181
134 154 181
134 154 181
134 154 181
135 155 181
134 154 181
134 154 181
135 155 181
133 154 181
134 154 181
133 154 181
134 154 181
134 154 181
133 154 181
134 154 181
134 154 181
133 154 181
134 154 181
134 154 181
134 154 181
133 154 181
133 154 181
134 154 181
134 155 181
133 154 181
134 154 181
133 154 181
134 154 181
134 154 181
134 154 181
135 155 181
134 154 181
134 154 181
134 154 181
134 154 181
133 154 181
134 154 181
134 154 181
133 154 181
134 154 181
134 154 181
133 154 181
134 154 181
133 154 181
133 154 181
134 154 181
133 154 181
133 154 181
133 154 181
133 154 181
134 154 181
134 154 181
134 154 181
134 154 181
134 154 181
135 155 181
135 155 181
133 154 181
133 154 180
134 154 181
134 154 181
134 154 181
134 154 181
134 154 181
134 154 181
134 154 181
134 154 181
134 154 181
134 154 181
134 154 181
134 154 181
133 154 181
134 154 181
134 154 181
134 154 181
134 154 181
134 154 181
135 155 181
134 155 181
134 154 181
133 153 180
134 154 181
134 154 181
134 154 181
134 154 181
134 154 181
133 154 181
133 154 181
133 154 180
134 154 181
134 154 181
133 154 181
134 154 181
134 154 181
133 154 181
133 154 180
133 154 181
134 154 181
134 154 181
133 154 181
132 153 181
133 154 182
133 153 185
132 153 185
133 153 185
131 151 189
131 151 190
129 150 195
130 149 198
130 150 196
128 147 202
126 146 206
126 146 208
127 146 205
127 146 207
128 147 203
130 149 196
133 153 187
132 152 185
133 154 182
134 154 181
134 154 181
134 154 181
134 154 181
133 154 181
134 154 181
133 154 181
134 154 181
135 155 181
133 154 181
134 154 181
133 154 181
133 154 181
134 154 181
133 154 181
134 154 181
133 154 181
134 154 181
133 154 180
133 154 181
134 154 181
134 154 181
133 154 181
133 154 181
134 154 181
134 154 181
134 154 181
134 154 181
133 154 181
134 154 181
133 154 180
133 154 181
133 154 181
134 154 181
134 154 181
132 153 181
133 154 181
134 154 181
134 154 181
134 154 181
134 154 181
135 155 181
134 154 181
133 154 181
134 154 181
134 154 180
134 154 181
133 154 181
134 154 181
133 154 181
135 155 181
135 155 181
134 154 181
134 154 181
134 154 181
134 154 181
134 154 181
134 154 181
134 154 181
133 154 181
134 154 181
134 154 181
133 154 181
133 154 181
134 154 181
133 154 181
133 154 180
134 154 181
133 154 181
135 155 181
133 154 181
133 154 181
134 155 181
133 154 181
134 154 181
134 154 181
134 154 181
133 154 180
135 155 181
134 154 181
134 154 181
133 154 181
134 154 181
133 154 181
134 154 181
134 154 181
134 154 181
133 154 181
133 154 181
134 154 181
135 155 181
134 154 181
134 154 181
133 154 181
134 154 181
133 154 181
134 154 181
134 154 181
134 154 181
134 154 181
133 154 181
134 154 181
134 154 181
134 154 181
134 154 181
134 154 181
133 154 181
134 155 181
133 154 181
134 154 181
134 154 181
134 154 181
134 154 181
134 154 181
133 154 181
134 154 181
134 154 181
134 154 181
135 155 181
134 154 181
134 154 181
134 154 181
134 154 181
133 154 180
134 154 181
133 154 181
135 155 181
134 154 181
134 154 181
133 154 181
134 154 181
135 155 181
134 154 181
133 154 181
134 154 181
133 154 180
134 154 181
134 154 181
134 154 181
134 154 181
133 154 181
134 154 181
134 154 181
133 153 180
133 154 181
134 154 181
134 154 181
133 154 181
133 154 181
134 154 181
133 154 181
133 154 181
133 154 181
134 154 181
134 154 181
134 154 181
134 154 181
134 154 181
133 154 181
133 154 181
134 154 180
133 154 181
134 154 181
134 155 181
134 154 181
134 154 181
134 154 181
133 154 181
134 154 181
133 154 181
133 154 181
134 154 181
134 154 181
134 154 181
134 154 181
133 154 181
133 154 181
134 154 181
134 154 181
134 154 181
134 154 181
134 154 180
134 154 181
134 154 181
134 154 181
134 154 181
134 154 181
134 154 181
133 154 181
134 154 181
134 154 180
134 154 181
134 154 181
135 155 181
135 155 181
133 154 181
135 155 181
134 154 180
134 154 181
134 154 181
134 154 181
134 154 181
134 154 181
134 154 181
135 155 181
134 154 181
133 154 181
134 154 181
135 155 181
133 154 181
134 154 181
133 154 181
134 154 181
134 154 181
134 154 181
134 154 181
134 154 181
134 154 181
133 154 181
133 154 181
135 155 181
134 154 181
133 154 181
134 154 181
134 154 181
133 154 181
133 154 181
133 154 181
133 154 181
134 154 181
133 154 181
133 154 181
133 154 181
134 154 181
134 154 181
134 154 181
134 154 181
133 154 181
134 154 181
134 154 181
134 154 181
134 154 181
134 155 181
133 154 181
134 154 181
133 154 181
134 154 181
134 154 181
134 154 181
134 154 181
134 154 181
133 154 181
133 154 181
134 154 181
134 154 181
134 154 181
134 154 181
134 155 181
134 154 181
134 155 181
135 155 181
133 154 181
133 154 181
134 154 181
134 154 181
134 154 181
134 154 181
134 154 181
134 154 181
133 154 181
133 154 181
133 154 181
134 154 181
134 154 181
135 155 181
133 154 181
133 154 181
134 154 181
134 154 181
133 154 181
133 154 181
134 154 181
134 155 181
135 155 181
134 154 181
134 154 181
134 154 181
134 154 181
134 154 181
134 154 181
135 155 181
133 154 181
133 154 181
134 154 181
134 154 181
133 154 181
133 154 181
134 154 181
134 154 181
134 154 181
133 154 181
133 154 181
133 154 181
134 154 181
134 154 181
133 154 181
133 154 181
134 154 180
133 154 181
133 154 181
134 154 181
134 154 181
134 154 181
134 154 181
133 154 181
133 154 181
134 154 181
133 153 180
134 154 181
134 154 181
134 154 181
134 154 181
134 154 181
134 154 181
133 153 180
134 154 181
133 154 181
133 154 181
134 154 181
134 154 181
134 154 181
133 154 181
133 154 181
133 154 181
134 154 181
133 154 181
133 154 181
134 154 181
134 154 181
134 154 181
134 154 181
133 154 181
134 154 181
133 154 181
134 154 181
133 154 181
133 154 181
134 154 181
134 155 181
133 154 181
133 154 181
134 154 181
134 154 181
134 154 181
134 154 181
133 154 181
134 154 181
134 154 181
134 154 181
134 154 181
134 154 181
133 154 181
134 154 181
134 154 181
134 154 181
133 154 181
134 154 181
134 154 181
134 154 181
135 155 181
134 154 181
134 154 181
133 154 182
133 154 182
133 153 184
133 153 184
133 152 187
131 151 192
132 152 189
130 150 194
130 150 193
128 148 199
128 148 201
128 147 205
126 145 208
124 143 214
124 143 216
124 143 216
124 142 217
122 141 221
121 140 222
121 139 223
121 139 225
121 139 225
122 140 222
123 141 221
125 144 213
126 145 207
128 147 203
129 149 198
131 151 191
132 152 187
134 154 182
133 154 181
134 154 181
133 154 181
133 154 181
133 154 181
134 154 181
133 154 181
134 154 181
134 155 181
134 154 181
134 154 181
134 154 181
134 154 181
133 154 181
133 153 180
133 154 181
134 154 181
134 154 181
134 154 181
134 154 181
134 154 181
133 153 180
134 154 181
134 154 181
135 155 181
134 155 181
134 154 181
134 154 180
133 154 181
134 154 181
134 154 181
134 154 180
134 154 181
134 154 181
135 155 181
134 154 181
133 154 181
134 154 181
133 154 181
135 155 181
133 154 181
135 155 181
134 154 181
133 154 181
133 154 181
134 154 181
134 154 181
134 154 181
135 155 181
134 154 181
133 154 181
134 154 181
134 154 181
134 154 181
133 154 181
134 154 181
134 154 181
134 154 181
134 154 181
134 154 181
134 154 180
133 154 181
133 154 181
134 154 181
133 154 181
133 154 181
134 154 181
134 154 181
135 155 181
133 154 181
133 154 181
134 154 181
134 154 181
133 154 181
134 154 181
134 154 181
135 155 181
134 154 181
133 154 180
133 154 181
133 154 181
134 154 181
133 154 181
133 154 181
133 154 181
134 154 181
133 154 181
133 154 180
133 154 181
134 155 181
135 155 181
133 154 181
134 154 181
133 154 180
134 154 181
134 154 181
134 154 181
133 154 181
133 154 181
134 154 181
134 154 181
133 154 181
133 154 181
135 155 181
134 154 181
134 154 180
134 154 181
135 155 181
133 154 181
133 154 181
134 154 181
135 155 181
134 154 181
133 154 181
133 153 180
134 154 181
134 154 181
134 154 181
134 154 181
134 154 181
133 154 181
133 154 180
133 154 181
134 154 181
134 154 181
134 154 181
133 154 181
134 154 181
133 154 181
133 153 180
134 154 181
134 154 181
133 154 181
134 154 181
135 155 180
134 154 181
133 154 181
133 154 181
134 154 181
133 154 181
133 154 181
133 154 181
134 154 181
134 154 181
133 154 181
134 154 181
134 154 181
134 154 181
134 154 181
134 154 181
134 154 181
134 154 181
133 154 181
133 154 181
133 154 181
133 154 181
135 155 181
134 154 181
134 154 181
133 154 181
134 154 181
133 154 181
134 154 181
134 154 181
133 154 181
133 154 181
133 154 181
133 154 180
134 154 181
133 154 181
133 154 181
133 154 181
134 154 181
133 154 181
134 154 181
134 154 181
133 154 181
134 154 181
135 155 181
133 154 181
134 154 181
134 154 181
133 154 181
134 154 181
133 154 181
134 154 181
134 154 181
134 154 181
134 154 181
134 154 181
133 154 181
134 154 181
135 155 181
133 154 181
134 154 181
134 154 181
134 154 181
134 154 181
133 154 181
133 154 181
134 154 181
134 154 181
134 155 181
134 154 181
134 154 181
133 153 180
134 154 181
134 154 181
134 154 181
133 154 181
134 154 181
133 154 181
134 154 181
134 154 181
134 154 181
133 154 181
134 154 181
134 154 181
134 155 181
134 154 181
133 154 181
134 154 181
133 154 181
133 154 181
133 154 181
134 154 181
134 154 181
133 154 181
134 154 181
133 154 180
134 154 181
134 154 181
134 154 181
134 154 181
134 154 181
133 154 181
135 155 181
135 155 181
134 154 181
134 154 181
134 154 181
135 155 181
134 154 181
133 154 181
134 154 181
134 154 181
134 154 181
133 154 181
134 154 181
133 154 181
134 154 181
134 154 181
133 154 181
134 154 181
134 154 181
134 154 181
134 154 181
134 154 181
134 154 181
134 154 181
134 154 181
134 154 181
134 154 181
134 154 181
134 154 181
134 154 180
134 154 181
134 154 181
134 154 181
134 154 181
134 154 181
134 154 181
134 154 181
134 155 181
134 154 181
134 154 181
133 153 180
134 154 181
135 155 181
134 154 181
134 154 181
133 154 181
134 154 181
134 154 181
134 154 181
134 154 181
134 154 181
134 155 181
133 154 181
134 154 181
133 154 181
134 154 181
134 154 181
134 154 181
133 154 181
133 154 181
134 154 181
133 154 181
133 154 181
133 154 181
134 154 181
134 154 181
134 154 181
134 154 181
135 155 181
133 154 181
133 154 181
134 154 181
134 154 181
134 154 181
135 155 181
134 154 181
134 154 181
134 154 181
134 155 181
133 154 181
133 154 180
134 154 181
133 154 181
134 154 181
134 154 181
134 154 181
134 154 181
134 155 181
134 154 181
133 154 181
133 154 180
133 154 181
134 154 181
134 154 181
134 154 181
133 154 181
133 154 181
134 154 181
134 155 181
133 154 181
133 154 181
134 154 181
133 154 181
134 154 181
133 154 181
133 154 181
133 154 181
134 154 181
134 154 181
134 154 181
133 154 181
134 154 181
133 154 181
134 155 181
133 154 181
134 154 181
134 154 181
134 155 181
134 154 181
135 155 181
134 154 181
135 155 181
134 154 181
133 154 181
134 154 181
134 154 181
134 154 181
133 153 183
134 154 183
133 153 186
132 152 188
132 151 191
130 151 192
131 151 193
128 148 200
128 148 200
128 147 204
127 147 204
125 144 211
125 144 212
125 144 213
123 142 217
124 142 217
122 140 222
122 140 223
121 139 226
120 138 227
121 139 226
120 138 228
120 138 228
120 138 228
119 138 228
119 138 228
120 138 228
119 138 228
120 138 228
120 138 228
120 139 227
120 139 226
122 140 222
123 142 218
124 143 217
127 146 208
128 148 201
131 150 194
130 150 193
132 152 187
134 154 183
134 154 181
134 154 181
134 154 181
134 154 181
134 154 181
134 154 181
133 154 181
134 154 181
134 154 181
134 154 181
134 154 181
135 155 181
134 154 181
134 154 181
134 154 181
134 154 181
133 154 180
134 154 181
134 154 181
135 155 181
134 154 181
135 155 181
134 154 181
133 154 181
133 154 181
133 154 181
134 154 181
134 154 181
135 155 181
134 154 181
134 154 181
134 154 181
133 154 181
135 155 181
134 154 181
134 154 181
135 155 181
134 154 181
134 154 181
134 154 181
134 154 181
134 154 181
133 154 181
134 154 181
134 154 181
133 154 181
134 154 181
135 155 181
134 154 181
134 154 181
134 154 181
134 154 181
134 154 181
134 154 181
134 154 181
134 154 181
134 154 181
135 155 181
133 154 181
134 154 181
134 154 181
134 154 181
135 155 181
134 154 180
134 154 181
134 154 181
133 154 181
133 154 181
133 154 181
134 154 181
134 154 181
133 154 181
134 154 181
134 154 181
134 154 181
134 154 181
134 154 181
134 154 181
133 154 181
134 154 181
133 154 181
134 154 181
135 155 181
134 154 181
133 154 181
134 154 181
134 154 181
134 154 181
134 154 181
134 154 181
134 154 181
134 154 181
134 154 181
134 154 181
134 154 181
134 154 181
134 154 181
134 154 181
134 154 181
134 154 181
134 154 181
133 154 181
134 154 181
133 154 181
135 155 181
134 154 181
134 154 181
134 154 181
134 154 181
134 154 181
133 154 181
133 154 181
134 154 181
134 154 181
134 154 181
133 154 181
134 154 181
133 154 181
134 154 181
134 154 181
134 154 181
133 154 181
134 154 181
134 154 181
134 154 181
134 154 181
134 154 181
134 154 181
133 154 181
134 154 181
133 154 181
133 154 181
134 154 181
134 154 181
134 154 181
133 154 181
134 154 181
133 154 181
133 154 181
133 154 181
134 154 181
133 154 181
133 154 181
133 154 181
133 154 181
134 154 181
134 154 181
134 154 181
134 154 181
134 154 181
134 154 181
133 154 181
134 154 181
133 154 181
133 154 181
134 154 181
132 153 180
134 154 181
133 154 181
134 154 181
135 155 181
134 154 181
134 154 181
134 154 181
134 154 181
133 154 181
134 154 181
135 155 181
134 154 181
134 154 181
134 154 181
134 154 181
134 155 181
133 154 181
134 154 181
135 155 181
133 154 181
134 154 181
133 154 180
134 154 181
134 154 181
134 154 181
133 154 181
134 154 181
134 154 181
133 154 181
134 154 181
133 154 181
134 154 181
134 154 181
134 154 181
133 154 181
135 155 181
134 154 181
134 154 181
133 154 181
134 154 181
133 153 180
134 154 181
134 154 181
134 154 181
133 154 181
134 154 181
133 154 180
134 154 181
134 154 181
134 154 181
134 154 181
133 154 181
133 154 181
133 154 181
133 154 181
134 154 181
134 154 181
134 154 181
134 154 181
134 154 181
134 154 181
134 154 181
134 155 181
134 154 180
133 154 181
134 154 180
134 154 181
134 154 181
134 154 181
134 154 181
134 154 181
134 154 181
134 154 181
134 154 181
134 154 181
134 154 181
135 155 181
133 154 181
133 154 181
135 155 181
134 154 181
133 154 181
135 155 181
134 154 181
134 154 181
134 154 181
133 154 181
133 154 181
133 154 181
134 154 181
133 154 181
134 154 181
134 154 181
134 154 181
134 154 181
133 154 181
133 154 180
133 154 181
134 154 181
134 154 181
133 154 181
134 154 181
132 153 181
133 154 181
133 154 181
134 154 181
134 155 181
133 154 181
133 154 180
134 154 181
134 154 181
134 154 181
134 154 181
134 154 181
134 154 181
134 154 181
134 154 181
134 154 181
134 154 181
133 154 181
134 154 181
133 154 181
134 154 181
133 154 181
135 155 181
133 154 181
134 154 181
134 154 181
134 154 181
134 154 181
133 154 181
134 154 181
135 155 181
134 154 181
134 155 181
134 154 181
133 154 181
134 154 181
134 154 181
134 154 181
134 155 181
134 154 181
134 154 181
133 154 181
134 154 181
133 154 180
134 154 181
133 154 180
134 154 181
134 154 181
134 154 181
135 155 181
133 154 181
134 154 181
134 154 181
134 154 181
134 154 180
134 154 181
133 154 181
134 154 181
134 154 180
133 154 181
133 154 181
134 154 180
134 154 181
134 154 181
133 154 181
134 154 181
133 154 181
135 155 181
134 154 181
134 154 181
134 154 181
134 154 181
134 154 181
134 155 181
133 154 181
133 154 181
134 154 181
134 154 181
133 154 181
134 154 181
134 154 180
133 154 181
133 154 181
133 154 181
134 154 181
134 154 181
135 155 181
134 154 181
133 154 181
134 154 180
134 154 182
133 153 181
133 154 181
134 154 181
132 152 187
132 153 186
131 151 191
130 150 192
130 150 194
129 148 201
128 148 199
127 147 204
127 146 205
126 145 210
126 145 209
123 142 217
124 143 216
122 141 221
122 141 220
121 139 225
121 140 223
121 139 225
120 139 226
120 138 228
120 138 228
119 138 228
120 138 228
119 138 228
119 138 228
120 138 228
119 138 228
120 138 228
120 138 228
120 138 228
121 138 228
120 138 228
119 138 228
119 138 228
120 138 228
119 137 228
120 138 228
120 138 228
119 137 228
120 138 227
119 138 228
120 138 227
123 141 219
124 143 214
126 145 209
126 146 205
130 150 195
131 150 194
132 152 187
133 154 182
133 154 182
134 154 181
133 154 181
134 154 181
133 154 181
134 154 180
134 154 181
134 154 181
134 155 181
134 154 181
134 154 181
133 154 181
134 154 181
133 154 181
134 154 181
134 154 181
133 154 181
133 154 181
134 154 181
134 154 181
134 154 181
134 154 181
134 154 180
135 155 181
134 154 181
134 154 181
134 154 181
134 154 181
134 154 181
135 155 181
133 154 181
134 154 181
134 154 181
133 154 181
133 154 181
134 154 181
134 154 181
134 154 181
134 154 181
134 154 181
135 155 181
133 154 181
133 154 181
134 154 181
133 153 180
135 155 181
134 154 181
134 154 181
134 154 181
133 154 181
134 155 181
134 154 181
133 154 181
134 154 181
134 154 181
135 155 181
134 154 181
134 154 181
133 154 181
134 154 181
134 154 181
134 154 181
134 154 181
134 154 181
134 154 181
133 154 181
133 154 181
134 154 181
134 154 181
134 154 181
134 154 180
133 154 181
134 154 181
134 154 181
134 154 180
133 154 181
133 153 180
135 154 180
133 154 181
133 154 181
134 154 181
133 154 181
134 154 181
134 154 181
134 154 181
135 155 181
133 154 181
134 154 181
133 154 181
134 154 181
134 154 181
135 155 181
134 154 181
135 155 181
134 154 181
133 154 181
134 154 181
134 154 181
134 154 181
135 155 181
134 154 180
134 154 181
134 154 181
134 154 181
134 154 181
134 154 181
133 154 181
134 154 181
133 154 181
134 154 181
134 154 181
134 154 181
133 154 181
134 154 181
134 154 181
134 154 181
133 154 181
134 154 181
133 154 181
134 154 181
134 154 181
134 154 181
134 154 181
133 154 181
134 154 181
134 154 181
134 154 181
133 154 181
133 154 181
134 154 181
134 154 181
133 154 181
134 154 181
134 154 181
134 154 181
134 154 181
133 154 181
134 154 181
133 154 181
133 154 181
134 154 181
134 154 181
133 154 181
133 154 181
134 154 181
134 154 181
133 154 181
134 154 181
133 154 181
133 154 181
133 154 181
133 154 181
134 154 181
133 154 181
134 154 181
134 154 181
134 154 181
135 155 181
133 154 180
133 154 180
134 154 181
134 154 181
134 154 181
134 154 181
133 154 181
133 154 181
134 154 181
133 154 181
134 154 181
135 155 181
134 154 180
134 154 181
134 154 181
134 154 181
134 154 181
133 154 181
134 154 181
134 155 181
134 154 181
133 154 181
134 154 181
133 154 181
135 155 181
134 154 181
133 154 181
134 154 181
134 154 181
134 154 181
134 154 181
134 154 181
134 154 181
134 154 181
134 154 181
134 154 181
133 154 181
134 154 181
134 154 181
133 154 181
133 154 181
134 154 181
134 154 181
134 154 181
133 154 181
134 154 181
134 154 181
133 154 181
134 154 181
134 154 181
134 154 181
133 154 181
134 154 181
133 154 181
133 154 181
134 154 181
134 154 181
134 154 181
135 155 181
133 154 181
133 154 181
134 154 181
134 154 181
135 155 181
134 154 181
134 154 181
134 154 181
134 154 181
134 154 181
134 154 181
134 154 181
133 154 181
135 155 181
134 154 181
134 154 181
134 154 180
134 154 181
133 154 181
134 154 181
134 154 181
134 154 181
135 155 181
133 154 181
134 154 181
134 154 181
134 154 181
134 154 181
133 154 181
133 154 180
133 154 180
134 154 181
134 154 181
133 154 181
133 154 181
134 154 181
133 154 181
135 155 181
134 154 181
134 154 181
133 154 181
134 154 181
134 154 181
134 154 181
134 154 181
134 154 181
133 154 181
134 154 181
134 154 181
134 154 181
134 154 181
133 154 181
133 154 181
133 154 180
133 154 181
134 154 181
133 154 181
134 154 181
133 154 181
134 154 181
133 154 181
133 154 181
132 153 181
134 154 181
134 154 181
134 154 181
134 154 181
133 154 181
133 154 181
134 154 180
134 154 181
134 154 181
134 154 181
134 154 181
134 154 181
134 154 181
134 154 181
134 154 181
134 154 181
134 154 181
134 154 181
133 154 181
134 154 181
133 154 180
133 154 181
134 154 181
134 154 181
133 154 181
133 154 181
134 154 181
133 154 180
133 154 181
133 154 181
134 154 181
133 154 181
133 154 181
134 154 181
133 154 181
134 154 181
133 154 181
134 154 181
134 154 181
134 154 181
134 154 181
134 155 181
134 154 181
134 154 181
134 154 181
134 154 181
133 154 181
133 154 181
134 154 181
133 154 181
134 154 181
134 154 181
134 154 181
133 154 181
133 154 181
134 154 181
133 154 181
133 154 181
134 154 181
134 154 181
134 154 182
134 154 184
132 153 184
132 152 186
132 152 188
131 151 193
129 149 197
130 150 196
130 149 198
128 147 201
126 145 207
127 146 206
125 145 211
124 143 213
124 143 214
123 142 217
121 140 222
121 139 225
121 139 225
119 138 227
120 138 228
121 139 226
121 139 227
120 138 228
120 138 228
119 138 228
120 138 228
119 138 228
119 138 228
120 138 228
120 138 228
119 138 228
120 138 228
120 138 228
120 138 228
119 138 228
120 138 228
119 137 228
120 138 228
120 138 228
119 138 228
120 138 228
119 138 228
120 138 228
120 138 228
119 138 228
119 137 228
120 138 228
119 138 228
119 138 228
120 138 228
120 138 228
120 138 228
120 138 228
121 139 227
121 140 224
123 142 220
125 144 212
127 146 207
128 148 202
130 149 198
130 151 192
131 152 189
133 153 182
134 154 181
134 154 181
134 154 181
134 154 181
133 154 181
133 154 180
133 154 181
133 154 181
134 154 181
134 154 181
134 154 181
134 154 181
134 154 181
133 154 181
133 154 181
133 154 181
133 154 181
134 154 181
134 154 181
134 154 181
134 154 181
134 154 181
134 154 181
134 154 181
134 154 181
135 155 181
134 154 181
133 154 181
133 154 181
133 154 181
134 154 181
134 155 181
133 154 181
135 155 181
134 155 181
133 154 181
134 154 181
134 154 181
134 154 181
134 154 181
134 154 181
134 154 181
134 154 181
133 154 181
134 154 181
134 154 181
133 154 181
133 154 181
134 154 181
134 154 181
134 154 181
133 154 181
134 154 180
134 154 181
135 155 181
134 154 181
134 154 181
134 154 181
134 154 181
134 154 181
134 154 181
134 154 181
134 154 181
135 155 181
133 154 180
133 154 181
134 154 181
133 154 180
134 154 181
134 154 181
133 154 181
134 154 181
133 154 181
134 154 181
134 154 181
133 154 181
134 154 181
134 154 181
133 154 181
133 154 181
133 154 181
133 154 181
134 154 181
133 154 180
133 154 181
133 154 181
133 154 181
133 154 181
133 154 181
133 154 181
134 154 181
134 154 181
134 154 181
134 154 181
134 154 181
134 154 181
134 154 181
134 154 180
133 154 181
134 154 181
134 154 181
134 154 181
134 154 181
134 154 181
133 154 181
134 154 181
134 154 181
134 154 181
135 155 181
134 154 181
133 154 181
134 154 181
134 154 181
134 154 181
134 154 181
133 154 181
134 154 181
134 154 181
134 154 181
133 153 180
135 155 181
134 154 181
134 154 181
133 154 181
133 154 181
133 154 181
134 155 181
133 154 181
133 154 181
134 154 181
134 154 181
135 155 181
133 154 181
134 154 181
134 154 181
134 154 181
134 154 181
133 154 181
135 155 181
135 155 181
133 154 181
134 154 181
134 154 181
134 154 181
134 154 181
134 154 181
134 154 181
134 154 181
134 154 181
134 154 181
135 155 181
134 154 181
134 154 181
133 154 181
135 155 181
134 154 181
133 154 181
134 154 181
134 154 181
133 154 181
134 154 181
134 155 181
134 154 181
134 154 181
134 154 181
134 154 181
133 154 181
133 154 181
133 154 181
133 154 181
134 154 181
134 154 181
134 154 181
133 154 181
134 154 181
133 154 181
134 154 181
134 154 181
133 154 181
134 154 181
133 154 181
134 154 181
133 154 181
133 154 181
134 154 181
134 154 181
133 154 181
135 155 181
134 154 181
134 155 181
134 154 181
133 154 181
134 154 181
134 154 181
133 154 181
134 154 181
133 154 180
135 155 181
134 154 181
133 154 181
134 154 181
133 154 181
134 155 181
134 155 181
133 154 181
135 155 181
134 154 181
134 154 181
133 154 181
134 154 181
134 154 181
134 154 181
134 154 181
135 155 181
134 154 181
133 154 181
134 154 181
133 154 181
134 154 181
134 154 181
133 154 181
135 155 181
132 154 181
133 154 181
134 154 181
134 154 181
134 154 181
134 154 181
134 154 181
133 154 181
134 154 181
133 154 181
134 154 181
134 154 181
133 154 181
133 154 181
134 154 181
135 155 181
134 154 181
134 154 181
133 154 181
135 155 181
133 154 181
134 154 181
134 154 181
133 154 181
134 154 181
134 154 180
134 154 181
134 154 181
134 154 181
134 154 181
135 155 181
134 154 181
133 154 181
134 154 181
133 154 181
134 154 181
134 154 181
134 154 181
133 154 181
133 154 181
134 154 181
134 154 181
133 154 181
134 154 181
133 154 181
133 154 181
133 154 180
134 154 181
134 154 181
133 154 181
133 154 181
134 154 181
133 154 181
135 155 181
134 154 181
134 154 181
134 155 181
133 154 181
133 154 181
134 154 181
133 154 181
134 154 181
134 154 181
134 154 181
133 154 181
134 154 181
133 154 181
134 154 181
134 154 181
133 154 181
134 154 181
134 155 181
134 154 181
134 154 181
134 155 181
134 154 181
133 154 181
134 154 181
133 153 180
135 155 181
133 154 181
133 154 181
134 154 181
134 154 181
133 154 181
134 154 181
133 154 181
135 155 181
134 154 181
134 155 181
133 154 180
134 154 181
134 154 181
133 154 181
134 154 181
133 154 181
135 155 181
134 154 181
135 155 181
134 154 181
133 154 181
134 154 181
134 155 181
133 154 181
133 154 181
133 154 181
133 154 182
133 153 183
133 153 184
132 152 184
131 151 189
132 151 190
131 151 193
129 149 196
129 148 198
127 146 205
128 147 205
126 145 211
125 144 212
125 144 213
125 144 214
122 141 221
122 141 221
123 141 221
120 139 225
120 139 225
120 139 225
119 138 228
119 138 228
120 138 228
119 138 228
120 138 228
119 138 228
120 138 228
119 138 228
120 138 228
119 138 228
119 138 228
120 138 228
120 138 228
120 138 228
119 138 228
120 138 228
120 138 228
120 138 228
119 138 228
119 138 228
120 138 228
119 137 228
119 138 228
120 138 228
120 138 228
120 138 228
119 138 228
119 138 228
120 138 228
120 138 228
120 138 228
120 138 228
120 138 228
120 138 228
119 138 228
120 138 228
120 138 228
119 138 228
119 138 228
120 138 228
120 138 228
120 138 228
119 138 228
120 138 228
120 138 227
120 138 227
123 141 221
123 141 221
125 144 214
126 145 209
128 147 202
130 150 193
131 151 190
132 153 183
133 153 182
134 154 181
134 154 181
134 154 181
134 155 181
134 154 181
134 154 181
134 154 181
134 154 181
133 154 181
133 154 181
134 154 181
133 154 181
134 154 181
135 155 181
133 154 181
134 154 181
134 154 181
134 154 181
134 154 181
133 154 181
133 154 181
134 154 181
134 154 180
134 154 181
134 154 181
134 154 181
134 154 180
134 154 181
134 154 181
134 154 181
133 154 181
133 154 181
134 154 181
133 154 181
134 154 181
134 154 181
133 154 181
134 154 181
133 154 181
134 154 181
134 154 181
133 154 181
133 154 181
133 154 181
133 154 181
133 154 181
134 155 181
134 154 181
133 154 181
134 154 181
134 154 181
134 154 181
134 154 181
133 154 181
134 154 180
133 154 181
134 154 181
134 154 181
134 154 181
133 154 181
133 154 181
133 154 181
133 154 181
134 154 181
134 154 181
134 154 181
134 154 181
134 154 181
134 154 181
134 154 181
135 155 181
134 154 181
133 154 181
134 154 181
134 154 181
134 155 181
133 154 181
134 154 181
133 154 181
134 154 181
133 154 181
134 154 181
134 154 181
134 155 181
133 154 181
135 155 181
133 154 181
134 154 181
134 154 181
133 154 180
134 154 181
134 154 181
134 154 181
134 154 181
133 154 181
133 154 181
135 155 181
134 154 181
134 154 180
133 154 181
133 154 181
135 155 181
133 154 181
134 154 181
134 154 181
135 155 181
134 154 181
135 155 181
134 154 181
133 154 181
135 155 181
133 154 181
133 154 181
133 154 181
135 155 181
133 154 181
134 154 181
134 154 181
134 155 181
133 154 181
134 154 181
133 154 181
134 155 181
134 154 181
133 154 181
133 154 181
135 155 181
134 155 181
135 155 181
134 154 181
134 154 181
134 154 181
134 154 181
134 154 181
134 154 180
134 154 181
133 154 181
134 154 181
133 154 181
134 154 181
134 154 181
134 154 181
133 154 181
134 154 181
132 153 180
133 154 181
134 154 181
134 154 181
134 154 181
134 154 181
134 154 181
133 154 181
134 154 181
134 154 181
135 155 181
134 154 181
133 154 181
134 154 180
134 154 181
133 154 181
134 154 181
135 155 181
133 154 181
133 154 181
133 154 181
134 154 181
134 154 181
133 154 181
134 154 181
133 154 181
134 154 181
135 155 181
135 155 181
133 154 181
135 155 181
133 154 181
134 154 181
133 154 181
134 154 181
134 154 181
133 154 181
133 154 181
135 155 181
134 154 181
134 154 180
133 154 181
134 154 181
133 154 181
134 154 181
134 154 181
134 154 181
134 154 181
133 154 181
134 154 181
134 154 181
134 154 181
134 154 181
134 154 181
134 155 181
134 154 181
134 154 181
133 154 181
133 154 181
134 154 181
134 154 181
133 154 181
133 154 181
133 154 181
134 154 181
134 154 181
133 154 181
134 154 181
134 154 181
133 154 181
135 155 181
133 154 181
134 154 181
134 154 181
134 154 181
133 154 181
134 154 181
134 154 181
134 154 181
133 154 181
134 155 181
134 154 181
134 154 181
134 154 181
134 154 181
134 155 181
133 154 181
134 154 181
133 154 181
134 154 181
134 154 181
134 154 181
133 154 181
134 154 181
134 154 181
134 154 181
133 154 181
134 154 181
133 154 181
133 154 180
134 154 181
133 154 181
134 154 181
133 154 181
133 153 180
134 154 181
134 154 181
133 154 181
133 154 181
134 154 181
133 154 181
133 154 181
134 154 181
134 154 181
134 154 181
133 154 181
134 154 181
133 154 181
134 154 181
135 155 181
135 155 181
132 153 181
133 154 181
133 154 181
134 154 181
134 154 181
134 154 181
133 154 180
133 154 181
134 155 181
134 154 181
133 154 181
133 154 181
134 154 181
134 154 181
134 154 181
133 154 181
134 154 181
135 155 181
133 154 181
133 154 181
134 154 181
134 154 181
134 154 181
133 154 181
133 154 180
134 154 181
134 154 181
134 154 180
134 154 181
134 154 181
134 154 181
133 154 181
134 154 181
134 154 180
134 154 181
133 154 181
134 154 181
134 155 181
135 155 181
134 154 181
134 154 181
133 154 181
134 155 181
134 154 181
134 154 181
134 154 181
133 154 181
134 154 181
133 154 181
133 154 181
134 154 182
134 154 181
132 153 185
134 154 182
133 153 185
132 152 185
131 151 191
131 151 191
131 150 193
129 149 197
128 147 206
127 146 205
126 145 210
126 145 211
124 143 213
126 144 212
123 142 218
122 141 220
122 140 222
121 140 223
121 140 223
119 138 228
120 139 225
119 138 228
120 138 228
120 138 228
120 138 228
120 138 228
120 138 228
119 138 228
120 138 228
119 138 228
120 138 228
121 138 228
120 138 228
120 138 228
119 138 228
119 138 228
119 138 228
120 138 228
119 137 228
119 138 228
120 138 228
120 138 228
119 138 228
119 138 228
120 138 228
120 138 228
119 138 228
120 138 228
120 138 228
120 138 228
121 139 228
120 138 228
119 137 228
119 138 228
120 138 228
120 138 228
120 138 228
119 138 228
120 138 228
120 138 228
120 138 228
119 138 228
119 138 228
120 138 228
120 138 228
120 138 228
119 137 228
120 138 228
120 138 228
119 138 228
120 138 228
121 138 228
120 138 228
120 138 228
120 138 228
120 138 228
120 138 228
121 139 225
121 140 223
124 143 213
126 145 211
127 146 205
130 150 197
129 149 198
132 153 185
133 153 184
133 154 181
134 154 181
133 154 181
134 154 181
134 154 181
134 154 181
134 154 181
133 154 181
133 154 181
134 154 181
134 154 181
133 154 181
134 154 181
134 154 181
133 154 181
134 154 181
133 154 181
134 154 181
133 154 181
134 154 181
134 154 181
133 154 181
134 155 181
133 154 181
133 154 181
134 154 181
134 154 181
134 154 181
133 154 181
133 154 181
134 154 181
134 154 181
133 154 181
134 154 181
134 154 181
134 154 181
133 154 181
134 154 181
133 154 181
133 154 181
133 154 181
133 154 181
133 154 181
134 154 180
134 155 181
133 154 181
134 154 181
133 154 181
134 154 181
134 154 181
134 154 181
134 154 181
134 154 181
134 154 181
135 155 181
134 154 181
134 154 181
134 154 181
133 154 181
133 154 181
134 154 181
133 154 181
134 154 181
133 154 181
134 154 181
133 154 181
134 154 181
134 154 181
135 155 181
134 154 181
134 154 181
133 154 181
134 154 181
133 154 181
134 154 181
135 155 181
134 154 181
133 154 181
134 154 181
133 154 181
134 154 181
134 154 181
134 154 181
134 154 181
134 154 181
134 154 181
135 155 181
135 155 181
133 154 181
133 154 181
134 154 181
133 154 181
133 154 181
133 154 181
132 153 181
134 154 181
133 154 181
134 154 181
134 154 181
133 154 181
134 154 181
134 154 181
134 154 181
134 154 181
134 154 181
133 154 181
134 154 181
133 154 181
134 154 181
133 154 181
133 154 181
134 155 181
133 154 181
134 154 181
134 154 181
134 154 180
133 154 181
134 155 181
134 154 181
134 154 180
134 154 181
135 155 181
133 154 181
134 154 181
134 154 181
134 155 181
133 154 181
135 155 181
134 154 181
134 154 181
134 154 180
133 154 181
134 154 181
134 154 181
134 154 181
133 154 181
133 154 181
134 154 181
134 154 181
134 154 181
134 154 181
133 154 181
133 154 181
134 154 181
134 154 181
133 154 181
134 154 181
134 154 181
133 154 180
132 153 181
134 154 181
132 153 180
133 154 181
134 154 181
133 154 181
134 154 181
134 154 181
133 154 181
134 154 181
134 154 181
134 154 181
134 154 181
134 155 181
134 155 181
134 154 181
133 154 181
135 155 181
134 154 181
134 154 181
134 154 181
134 154 181
134 154 181
134 154 181
135 155 181
134 154 181
134 154 181
133 154 181
134 154 181
133 154 181
133 154 181
133 154 181
134 154 181
133 154 181
133 154 181
134 154 181
134 154 181
133 154 181
134 154 181
134 154 181
134 154 181
134 154 181
134 154 181
133 154 181
134 154 181
133 154 181
134 155 181
134 154 181
133 154 181
134 154 181
134 154 181
133 154 181
133 154 181
133 154 181
133 154 181
134 154 181
134 154 181
134 154 181
135 155 181
134 154 181
134 154 181
133 154 181
134 154 181
134 154 181
134 154 181
134 154 181
134 154 181
134 154 181
133 154 181
134 154 181
133 154 181
134 154 181
134 154 181
133 154 181
134 154 181
133 154 181
133 154 181
134 154 181
133 154 181
134 154 181
134 154 181
133 154 181
134 154 181
134 154 181
134 154 181
134 154 181
134 154 181
134 154 181
134 154 181
134 154 181
134 154 181
134 154 181
134 154 181
134 154 181
135 155 181
134 154 181
134 154 181
134 154 181
134 154 181
134 154 181
134 155 181
134 154 181
133 154 181
133 154 181
134 155 181
134 154 181
133 154 181
133 154 181
134 154 181
135 155 181
133 154 181
134 154 181
133 154 181
133 154 181
134 154 181
135 155 181
134 154 181
135 155 181
134 154 181
134 154 181
134 154 181
134 154 181
134 154 181
134 154 181
133 154 181
134 154 181
134 154 181
133 154 181
134 154 181
134 154 181
134 154 181
133 154 181
133 154 181
134 154 181
134 154 181
134 154 181
133 154 181
133 154 181
134 154 181
134 154 181
134 155 181
134 154 181
134 154 181
134 154 181
134 155 181
134 154 181
134 154 181
134 154 181
134 154 181
133 154 181
134 154 181
134 154 181
133 154 181
134 154 181
133 154 181
134 154 181
133 154 181
134 154 182
133 154 183
133 153 187
131 151 189
131 152 189
131 151 191
130 150 194
130 149 196
127 147 203
127 146 207
128 147 203
126 145 210
126 145 211
125 144 213
123 142 218
123 142 217
121 140 223
122 140 224
121 139 225
120 138 228
120 138 227
120 138 227
120 138 228
120 138 228
120 138 228
121 138 228
120 138 228
120 138 228
120 138 228
120 138 228
120 138 228
120 138 228
120 138 228
120 138 228
119 138 228
120 138 228
119 138 228
120 138 228
120 138 228
120 138 228
120 138 228
119 138 228
119 138 228
120 138 228
120 138 228
119 138 228
119 138 228
119 138 228
119 137 228
119 137 228
120 138 228
120 138 228
119 137 228
119 137 228
119 138 228
119 138 228
119 138 228
119 138 228
119 138 228
119 138 228
119 137 228
120 138 228
120 138 228
119 138 228
119 138 228
120 138 228
119 138 228
119 138 228
120 138 228
119 138 228
119 138 228
119 138 228
120 138 228
119 138 228
119 138 228
120 138 228
120 138 228
119 138 228
119 138 228
119 138 228
120 138 228
119 138 228
119 137 228
119 137 228
119 138 228
119 138 228
119 138 228
121 138 228
120 138 228
121 140 223
122 141 219
124 143 214
126 146 206
128 148 200
128 148 202
132 152 187
133 153 185
133 153 183
134 154 181
134 154 181
134 154 181
133 154 181
133 154 181
134 154 181
133 154 181
133 154 181
134 154 181
134 154 181
133 154 181
134 154 180
133 154 181
134 154 181
133 154 181
134 154 181
133 154 181
134 154 181
133 154 181
133 154 181
134 154 181
134 154 181
133 154 181
133 154 181
133 154 181
134 154 181
134 154 181
134 154 181
134 154 181
135 155 181
133 154 181
134 154 180
133 154 181
134 154 181
134 154 181
134 154 181
134 155 181
134 154 181
134 154 181
134 154 181
133 154 181
134 154 181
134 154 181
133 154 181
134 154 181
134 154 181
135 155 181
134 154 181
134 154 181
133 154 181
134 154 181
134 154 181
134 154 181
134 155 181
134 154 181
133 154 181
133 154 181
135 155 181
134 154 181
134 154 181
134 154 181
133 154 181
134 154 181
134 154 181
134 154 181
134 154 181
134 154 181
133 154 181
133 154 181
134 154 181
134 154 181
134 154 181
133 154 181
134 154 181
134 154 181
133 154 181
134 154 181
134 154 181
133 154 181
134 154 181
133 154 181
133 153 180
133 154 181
134 154 181
134 154 181
134 154 181
134 155 181
133 154 181
133 153 180
134 154 181
134 154 181
135 155 181
134 154 181
133 154 181
134 154 181
133 154 181
133 154 181
133 153 180
134 154 181
133 154 181
134 154 181
135 155 181
134 154 181
134 154 181
134 154 181
134 154 181
134 154 181
134 154 181
134 154 181
133 154 181
133 154 181
134 154 181
135 155 181
133 154 181
133 154 181
134 154 181
133 154 181
134 154 181
134 154 181
134 154 180
133 154 181
133 154 181
134 154 181
134 154 181
133 154 181
133 154 181
133 154 181
134 154 181
134 155 181
135 155 181
132 153 180
135 155 181
134 154 181
133 154 181
134 154 181
134 154 181
134 154 181
133 154 181
133 154 181
134 154 181
133 154 181
134 154 181
133 154 181
133 154 181
134 154 181
134 154 181
134 154 181
134 154 181
133 154 181
135 155 181
134 154 181
134 155 181
134 154 181
134 154 181
133 154 180
134 154 181
134 155 181
133 154 181
134 154 181
134 154 181
134 154 181
134 154 181
134 154 181
134 154 181
134 154 181
134 154 181
133 154 181
134 154 181
134 154 181
135 155 181
133 154 181
135 155 181
133 154 181
134 154 181
134 154 181
134 154 181
133 154 181
134 154 181
134 154 181
133 154 181
135 155 181
134 154 181
134 154 181
134 154 181
134 154 181
134 154 181
135 155 181
132 153 180
133 154 181
134 154 181
135 155 181
134 154 181
133 154 181
134 154 181
133 154 181
134 154 181
135 155 181
134 154 181
133 154 181
133 154 181
134 154 181
133 154 181
133 154 181
133 154 181
134 154 181
134 154 181
135 155 181
134 154 181
133 154 180
133 154 181
134 154 181
134 154 181
133 154 181
133 154 181
134 154 181
134 154 181
133 154 181
134 154 181
134 154 181
134 154 181
134 154 181
133 154 181
134 154 181
135 155 181
133 154 181
133 154 181
134 154 181
133 154 181
133 154 180
134 154 181
134 154 181
132 153 181
133 154 181
134 154 181
133 154 181
134 154 181
134 154 181
134 154 181
134 155 181
134 154 181
133 154 181
135 155 181
135 155 181
133 154 181
134 154 181
134 154 181
133 154 181
134 154 181
134 154 181
134 154 181
134 154 181
134 154 181
133 154 181
133 154 181
134 154 181
133 154 181
133 154 181
134 154 181
135 155 181
133 154 181
134 154 181
135 155 181
134 154 181
135 155 181
133 154 180
134 154 181
133 154 181
134 154 181
135 155 181
134 154 181
135 155 181
134 154 181
133 154 181
133 154 181
134 154 181
134 154 181
134 154 181
134 154 181
134 154 181
134 154 181
134 154 181
135 155 181
134 154 181
133 154 181
134 154 181
134 154 181
134 154 181
133 154 181
134 154 181
134 154 181
135 155 181
133 154 181
134 154 181
133 154 182
132 153 183
133 153 183
133 153 183
132 152 188
132 152 186
131 151 191
129 149 195
130 149 197
129 149 199
127 146 205
127 146 207
126 146 206
124 143 216
124 143 215
123 142 217
124 142 218
122 141 221
122 140 223
122 140 225
120 138 226
120 138 227
120 138 227
120 138 228
120 138 228
120 138 228
120 138 228
119 138 228
120 138 228
120 138 228
120 138 228
119 138 228
120 138 228
120 138 228
119 138 228
119 137 228
119 138 228
121 138 228
120 138 228
120 138 228
121 138 228
120 138 228
120 138 228
120 138 228
120 138 228
120 138 228
120 138 228
119 138 228
120 138 228
119 137 228
120 138 228
120 138 228
120 138 228
120 138 228
120 138 228
119 138 228
119 137 228
120 138 228
120 138 228
120 138 228
119 138 228
119 138 228
120 138 228
119 138 228
121 138 228
119 138 228
120 138 228
120 138 228
120 138 228
120 138 228
119 138 228
120 138 228
120 138 228
120 138 228
120 138 228
120 138 228
120 138 228
119 138 228
121 139 228
119 138 228
120 138 228
119 137 228
120 138 228
119 138 228
119 138 228
119 137 228
120 138 228
120 138 228
120 138 228
119 138 228
119 137 228
119 138 228
120 138 228
119 138 228
120 138 228
119 137 228
119 138 228
119 138 228
120 138 228
119 138 228
120 138 228
120 139 226
123 141 221
123 142 218
124 143 214
127 146 207
129 149 199
130 150 194
130 150 194
134 154 185
133 154 182
133 154 181
134 154 181
133 154 181
133 154 181
134 154 181
134 154 181
134 154 181
134 154 181
133 154 181
134 154 181
134 154 181
133 154 181
133 154 181
133 154 181
134 154 181
134 154 181
134 154 181
133 154 181
134 154 181
133 154 180
134 155 181
133 154 181
133 154 181
133 154 181
134 154 181
133 154 181
134 154 181
133 154 181
134 154 180
134 154 181
134 154 181
133 153 180
134 154 181
133 154 181
134 154 181
134 154 181
135 155 181
134 154 181
133 154 181
134 154 181
134 154 181
133 154 181
134 154 181
134 154 181
133 154 181
134 155 181
134 154 180
134 154 181
133 154 181
134 154 181
134 154 181
134 154 181
133 154 181
134 154 181
133 154 181
134 154 181
134 154 181
133 154 181
134 154 181
134 154 181
133 154 181
135 155 181
133 154 181
134 155 181
134 154 181
133 154 180
135 155 181
133 154 181
133 154 181
134 154 181
134 155 181
134 155 181
134 154 181
134 154 181
133 153 180
134 154 181
134 154 181
133 154 181
134 154 181
134 154 181
134 154 181
134 154 181
134 154 181
134 154 181
134 154 181
134 154 181
135 155 181
134 154 181
135 155 181
134 154 181
135 155 181
134 154 181
134 154 181
134 154 181
134 154 181
134 154 181
134 154 181
134 154 181
134 154 181
134 154 181
135 155 181
134 154 181
134 154 181
133 154 181
133 154 181
133 154 181
134 154 181
134 154 181
134 154 181
133 154 181
134 154 181
133 154 181
134 154 181
133 154 181
134 154 181
134 154 181
134 154 181
134 154 181
134 154 181
134 154 181
134 154 181
134 154 181
134 154 181
134 154 181
135 154 180
133 154 181
134 154 181
134 154 181
133 154 181
135 155 181
134 154 181
134 154 181
134 154 181
134 154 181
133 154 181
134 154 181
134 154 181
134 154 181
133 154 181
134 154 181
135 155 181
134 155 181
134 154 181
134 154 181
133 154 181
134 155 181
133 154 181
133 154 181
133 154 181
134 154 181
134 154 181
134 154 181
133 154 181
134 154 181
134 154 181
133 154 181
133 154 181
133 154 181
134 154 181
133 154 181
134 154 181
134 154 181
133 154 181
135 155 181
134 154 181
133 154 181
134 154 181
134 154 181
134 154 181
133 154 181
134 154 181
134 154 181
134 154 181
133 154 180
134 154 181
134 154 181
134 154 181
133 154 181
134 154 181
134 154 181
133 154 181
134 154 181
134 154 181
134 154 181
134 154 181
134 154 181
133 154 181
134 155 181
134 154 181
134 155 181
133 154 181
134 154 181
134 155 181
135 155 181
133 154 181
133 154 181
134 154 181
134 154 181
134 154 181
134 154 181
134 154 181
134 154 181
134 154 181
134 154 181
134 154 181
134 154 181
134 154 181
134 154 181
134 154 181
133 154 181
134 154 181
134 154 181
134 154 181
134 154 181
134 154 181
133 154 181
134 154 181
134 154 181
134 154 181
133 154 181
134 154 181
134 155 181
133 154 181
134 154 181
134 154 181
134 154 181
133 154 181
134 154 181
134 155 181
134 154 181
134 154 181
134 154 181
134 154 181
133 154 181
134 154 181
133 154 181
134 154 181
134 154 181
133 154 181
134 154 180
134 154 181
134 154 181
133 153 180
133 153 180
134 154 181
134 154 181
134 154 181
133 154 181
134 154 181
134 154 181
133 154 181
134 154 181
133 154 181
134 154 180
134 154 181
133 154 180
134 154 181
134 154 181
133 154 181
134 154 181
135 155 181
134 154 181
133 154 181
134 154 181
133 154 181
134 154 181
134 154 181
134 154 181
133 154 181
133 154 181
134 154 181
134 154 181
134 154 181
133 154 181
134 154 181
133 154 181
133 154 181
134 154 181
134 154 181
133 154 181
134 154 181
134 154 181
134 154 181
132 153 184
133 153 185
134 154 184
132 152 186
131 151 190
131 151 193
130 150 195
128 148 198
127 147 203
128 147 203
126 145 209
124 143 213
123 143 215
124 143 213
123 141 220
121 140 222
121 139 224
122 140 223
120 138 228
120 138 228
119 138 228
120 138 228
120 138 228
119 138 228
120 138 228
119 137 228
120 138 228
120 138 228
119 138 228
119 138 228
120 138 228
120 138 228
119 138 228
119 138 228
120 138 228
120 138 228
119 137 228
119 138 228
120 138 228
119 138 228
119 137 228
120 138 228
120 138 228
120 138 228
120 138 228
120 138 228
120 138 228
120 138 228
120 138 228
119 138 228
120 138 228
120 138 228
119 138 228
119 138 228
119 138 228
120 138 228
120 138 228
120 138 228
120 138 228
120 138 228
119 138 228
120 138 228
120 138 228
119 138 228
120 138 228
120 138 228
119 137 228
119 138 228
120 138 228
119 138 228
119 137 228
120 138 228
119 138 228
119 138 228
119 138 228
119 138 228
120 138 228
120 138 228
120 138 228
119 138 228
119 137 228
119 138 228
119 138 228
120 138 228
120 138 228
119 138 228
119 138 228
119 137 228
120 138 228
120 138 228
120 138 228
120 138 228
119 138 228
120 138 228
119 138 228
119 138 228
120 138 228
119 138 228
120 138 228
119 138 228
120 138 228
119 138 228
119 138 228
119 138 228
120 138 228
119 138 228
120 138 228
120 138 228
120 138 228
119 137 228
120 138 228
120 138 227
122 140 223
122 141 217
125 144 213
129 148 202
129 149 196
130 150 194
132 152 187
132 152 185
134 154 181
133 154 180
135 155 181
134 154 181
133 154 181
134 154 181
133 154 181
134 154 181
133 154 181
134 154 181
135 155 181
133 154 181
134 154 181
134 154 181
134 154 181
134 154 181
133 154 181
134 155 181
134 154 181
134 154 180
133 154 181
134 154 181
134 154 181
134 154 181
134 154 181
134 154 181
134 154 181
133 154 181
134 154 181
134 154 181
134 154 181
133 154 181
134 154 181
134 154 181
135 155 181
133 154 181
134 154 181
133 154 181
134 154 181
134 154 181
133 154 181
133 154 181
134 154 181
134 154 181
133 153 180
134 154 181
134 154 181
134 154 181
133 154 181
134 154 181
133 154 181
133 154 181
134 154 181
133 154 181
134 154 181
133 154 181
134 154 180
134 154 181
133 154 181
134 154 181
134 154 181
134 154 181
134 154 181
134 154 181
134 154 181
133 154 181
134 154 181
133 154 181
134 154 181
133 154 181
134 154 181
133 154 181
133 154 181
134 154 181
134 154 181
134 154 181
134 154 181
134 155 181
134 154 181
134 155 181
134 154 181
134 154 181
133 154 181
134 154 181
133 154 181
134 154 181
133 154 181
134 154 181
135 155 181
134 154 181
134 154 181
134 154 181
134 154 181
135 155 181
134 154 181
133 154 181
133 154 181
134 154 181
134 154 181
134 154 181
134 154 181
134 154 181
134 154 181
133 154 181
134 154 181
134 154 181
134 154 181
134 154 181
134 154 181
133 154 181
134 154 181
134 154 181
133 154 181
134 154 181
134 154 181
134 154 181
134 154 181
133 154 181
133 154 181
133 154 181
133 154 181
133 154 181
133 154 181
133 154 181
134 154 181
134 154 181
134 154 181
134 154 181
134 154 181
134 154 181
134 154 181
133 154 181
134 154 181
134 154 181
134 154 181
134 154 181
134 154 181
134 154 181
134 154 181
134 154 181
135 155 181
134 154 181
132 153 181
134 154 181
134 154 181
134 154 181
134 154 181
133 154 180
133 154 181
133 154 181
134 154 181
133 154 181
134 154 181
133 154 180
134 154 181
134 154 181
134 154 181
134 154 181
133 154 181
134 154 181
135 155 181
134 154 181
134 154 181
134 154 181
133 154 181
134 154 181
135 155 181
133 154 181
134 154 181
134 154 181
134 154 181
134 154 181
134 154 181
133 154 181
133 154 181
134 154 181
133 154 181
134 154 181
134 154 181
134 154 181
134 154 181
133 154 181
134 154 181
134 154 181
133 154 181
134 154 181
134 154 181
135 155 181
133 154 181
134 154 181
134 154 181
134 154 181
134 154 181
134 154 181
133 154 181
134 154 181
134 154 181
134 155 181
134 154 181
133 154 181
133 154 181
133 154 181
134 154 181
134 154 181
133 154 181
133 154 181
134 155 181
134 154 181
134 154 181
134 154 181
133 154 181
134 154 181
134 154 181
134 154 181
133 154 181
134 154 181
134 154 181
134 154 181
134 154 181
134 154 181
134 154 181
134 154 181
134 154 181
133 154 181
133 154 181
134 154 181
133 154 181
133 154 181
134 154 181
133 154 181
135 155 181
133 154 181
134 154 181
134 154 181
134 154 181
134 154 181
134 154 181
133 154 181
133 154 181
133 154 181
134 154 181
134 154 181
134 154 181
134 154 181
134 154 181
134 154 181
134 154 181
134 154 181
133 154 181
134 154 181
134 154 181
134 154 181
133 154 181
134 155 181
134 154 181
133 154 181
134 154 181
133 154 181
134 155 181
134 154 181
134 154 181
134 154 181
133 154 181
134 154 181
134 154 181
135 155 181
133 154 181
134 154 181
134 154 181
134 155 181
133 154 181
134 154 182
134 154 181
132 153 184
133 153 184
132 152 188
132 151 192
130 150 196
130 149 196
129 149 196
127 146 206
127 146 207
129 148 202
124 143 214
125 144 211
124 142 217
123 142 219
122 141 220
121 139 225
120 139 226
120 138 228
120 138 228
120 138 228
119 138 228
119 137 228
120 138 228
120 138 228
120 138 228
119 137 228
119 138 228
119 138 228
120 138 228
120 138 228
119 138 228
120 138 228
119 138 228
121 138 228
120 138 228
119 138 228
119 138 228
120 138 228
119 138 228
120 138 228
120 138 228
119 138 228
119 138 228
120 138 228
121 139 228
120 138 228
119 138 228
119 138 228
120 138 228
120 138 228
120 138 228
120 138 228
119 138 228
120 138 228
119 138 228
120 138 228
119 138 228
120 138 228
120 138 228
119 138 228
120 138 228
120 138 228
120 138 228
120 138 228
120 138 228
120 138 228
119 138 228
120 138 228
120 138 228
119 138 228
120 138 228
120 138 228
120 138 228
120 138 228
119 138 228
119 138 228
120 138 228
120 138 228
119 138 228
119 138 228
121 138 228
119 138 228
120 138 228
120 138 228
119 138 228
120 138 228
118 137 228
120 138 228
120 138 228
119 138 228
119 138 228
120 138 228
120 138 228
119 138 228
119 137 228
120 138 228
120 138 228
119 138 228
119 138 228
120 138 228
121 138 228
120 138 228
120 138 228
119 138 228
119 138 228
120 138 228
119 138 228
120 138 228
120 138 228
119 138 228
120 138 228
119 138 228
120 138 228
119 138 228
119 138 228
120 138 228
119 138 228
119 138 228
120 138 228
120 138 228
120 138 228
121 139 227
122 140 224
124 142 217
124 143 217
125 144 211
127 146 206
129 149 196
132 151 192
133 153 184
133 153 183
134 154 181
134 154 181
135 155 181
134 154 181
134 154 181
134 154 181
134 154 181
134 154 181
133 154 181
133 154 180
133 154 181
134 154 181
134 154 181
135 155 181
133 154 181
133 154 181
134 154 181
134 154 181
134 155 181
134 154 181
134 154 181
133 154 181
134 154 181
133 154 181
134 154 181
133 154 181
134 154 181
134 154 181
133 154 181
134 155 181
133 154 181
133 154 181
134 154 181
133 154 181
134 154 181
135 155 181
134 154 181
133 154 181
133 154 181
134 154 181
134 154 181
134 155 181
134 154 181
134 154 181
134 155 181
134 154 181
134 154 181
134 154 181
133 154 181
133 154 181
133 154 181
133 153 180
133 154 181
133 154 181
134 154 181
133 154 180
134 154 181
133 154 181
135 155 181
134 154 181
134 154 180
134 154 181
134 154 181
134 154 181
134 154 181
133 154 181
134 154 180
133 154 181
134 154 181
134 154 181
134 154 181
134 154 181
134 154 181
135 155 181
133 154 181
134 154 181
135 155 181
133 154 181
133 154 181
134 155 181
134 154 181
134 154 181
134 154 181
133 154 181
134 154 181
133 154 181
134 154 181
133 154 180
134 154 181
133 154 181
133 154 181
133 154 181
133 154 180
134 154 181
134 154 181
135 155 181
132 153 181
134 154 181
134 155 181
134 154 181
134 154 181
133 154 181
134 154 181
134 155 181
134 154 181
134 154 181
134 154 181
133 154 181
134 154 181
134 154 181
134 154 181
134 154 181
134 154 181
133 154 181
133 154 181
134 154 181
134 154 181
133 154 181
134 154 181
133 154 181
134 154 181
133 154 181
134 155 181
133 154 181
135 155 181
134 154 181
134 154 181
134 154 180
134 154 181
133 154 181
134 154 181
133 154 181
133 154 181
134 154 181
134 154 181
133 154 181
134 154 181
133 154 181
134 154 181
134 154 181
134 154 181
134 154 181
134 154 181
134 154 181
134 154 181
134 154 181
134 154 181
133 154 181
133 154 181
134 154 181
134 154 181
134 154 181
134 154 181
134 154 181
134 154 181
133 154 181
134 154 181
134 154 181
134 154 181
134 154 181
133 154 181
133 154 181
133 154 181
134 154 181
133 154 181
134 154 181
134 154 181
134 154 181
134 154 181
133 154 181
133 154 181
134 154 181
134 154 181
134 154 181
135 155 181
134 154 181
134 154 181
135 155 181
134 154 181
133 154 181
134 155 181
133 154 181
134 154 181
134 154 181
134 154 181
135 155 181
134 154 181
134 154 181
134 154 181
134 154 181
133 154 181
134 154 181
134 154 181
135 155 181
133 154 181
133 154 181
133 154 181
134 154 181
133 153 180
134 155 181
133 154 181
133 154 181
134 154 181
134 155 181
133 154 181
134 154 181
134 154 181
133 154 181
133 154 181
134 154 181
134 154 181
134 154 181
134 154 181
134 154 181
133 154 181
133 154 181
133 154 181
133 154 181
133 154 181
134 154 181
133 154 181
134 154 181
134 154 181
133 154 181
134 154 181
134 154 181
133 154 181
134 154 181
134 154 181
133 154 180
133 154 181
133 154 181
134 154 181
134 154 181
134 154 181
133 154 181
134 154 180
133 154 181
133 154 181
133 154 181
134 154 181
134 154 181
134 154 181
133 154 181
134 154 180
134 154 181
134 154 181
134 154 181
134 154 181
133 154 181
133 154 181
134 154 181
134 154 181
134 154 181
134 154 181
134 154 181
134 154 181
133 154 181
134 154 181
134 154 181
134 154 182
132 153 183
133 153 184
133 153 187
132 152 188
131 151 193
130 150 197
130 149 197
128 147 203
128 147 204
128 147 203
127 146 206
125 144 213
125 144 212
124 143 215
123 142 219
121 139 225
119 138 228
122 140 224
120 138 227
121 139 228
120 138 228
120 138 228
120 138 228
119 138 228
120 138 228
120 138 228
119 138 228
120 138 228
119 138 228
119 137 228
119 138 228
120 138 228
120 138 228
120 138 228
119 138 228
119 138 228
120 138 228
120 138 228
119 137 228
119 138 228
120 138 228
119 137 228
119 138 228
119 138 228
120 138 228
119 138 228
119 138 228
120 138 228
120 138 228
120 138 228
120 138 228
120 138 228
120 138 228
119 138 228
119 138 228
120 138 228
119 137 228
119 138 228
119 138 228
120 138 228
119 138 228
119 138 228
120 138 228
120 138 228
120 138 228
121 138 228
120 138 228
120 138 228
120 138 228
119 138 228
119 138 228
120 138 228
120 138 228
120 138 228
120 138 228
120 138 228
119 138 228
120 138 228
119 138 228
120 138 228
120 138 228
120 138 228
119 138 228
120 138 228
120 138 228
119 138 228
120 138 228
120 138 228
119 138 228
119 138 228
119 138 228
120 138 228
120 138 228
119 138 228
120 138 228
120 138 228
120 138 228
120 138 228
120 138 228
120 138 228
120 138 228
119 138 228
120 138 228
120 138 228
120 138 228
119 138 228
120 138 228
119 138 228
119 138 228
120 138 228
119 137 228
120 138 228
120 138 228
119 138 228
120 138 228
119 138 228
120 138 228
120 138 228
120 138 228
119 138 228
119 138 228
119 138 228
120 138 228
119 138 228
119 138 228
119 138 228
120 138 228
119 138 228
119 138 228
121 138 228
120 138 228
120 138 228
120 138 227
119 138 228
122 140 224
123 141 220
125 144 213
125 145 210
128 148 203
132 152 190
132 152 190
133 153 184
133 154 181
134 154 181
133 154 181
134 154 181
134 154 181
134 154 181
134 154 181
133 154 181
134 154 181
133 154 181
135 155 181
134 154 181
134 154 180
133 154 181
134 154 181
134 154 181
133 154 181
134 154 181
134 154 181
134 154 181
134 154 181
134 154 181
133 154 181
134 154 181
134 154 181
133 154 181
135 155 181
134 154 181
134 154 181
134 154 181
134 154 181
133 154 181
134 154 181
133 154 181
133 154 181
134 154 181
133 154 181
134 154 181
134 154 181
134 154 181
134 154 181
134 155 181
134 154 181
134 154 181
134 154 181
134 154 181
134 154 181
134 154 181
133 154 181
134 154 181
134 154 181
134 154 181
134 154 181
134 154 181
134 154 181
134 154 181
133 154 181
135 155 181
134 154 181
133 154 181
133 154 180
134 154 181
134 154 181
134 154 181
133 154 181
133 154 181
134 154 181
134 155 181
134 154 181
134 154 181
134 154 181
133 154 181
133 154 180
134 154 181
134 154 181
133 154 181
133 154 181
133 154 180
134 154 181
134 154 181
134 155 181
135 155 181
133 154 181
134 154 181
134 154 181
134 155 181
133 154 181
134 154 181
134 154 181
134 154 181
134 154 181
134 154 181
134 154 181
133 154 181
133 154 181
134 154 181
133 154 181
133 154 181
134 154 181
134 154 181
134 154 181
133 154 181
134 154 181
133 154 181
133 154 181
133 154 181
133 154 181
135 155 181
133 154 181
134 154 181
134 154 181
134 154 181
134 154 181
134 154 181
135 155 181
133 154 181
134 154 181
134 154 181
135 155 181
134 154 180
134 154 181
135 155 181
134 154 181
134 154 181
134 154 181
134 154 181
134 154 181
134 154 181
133 154 181
134 154 181
134 154 181
134 154 181
133 154 181
134 154 181
133 154 181
134 154 181
134 154 181
134 154 181
134 154 181
134 154 181
133 154 181
133 154 181
134 154 181
134 154 181
134 154 181
134 154 181
133 154 181
134 154 181
134 154 181
133 154 181
134 154 181
134 154 181
132 153 181
133 154 181
134 154 181
134 154 181
133 154 181
134 154 181
133 154 181
133 154 181
133 154 181
135 155 181
134 154 181
134 155 181
134 154 180
133 154 181
134 154 181
134 154 181
133 154 181
134 154 181
134 154 181
133 154 181
134 154 181
134 154 181
134 155 181
134 154 181
133 154 181
134 154 181
134 154 181
134 154 181
134 154 181
133 154 181
134 154 181
133 154 181
134 154 181
134 154 181
133 154 181
134 154 181
134 154 181
134 154 181
133 154 181
134 154 181
134 154 180
134 154 181
133 154 181
134 154 181
134 154 181
133 154 181
134 154 181
133 154 181
133 154 181
133 154 181
134 154 181
134 154 181
134 154 181
133 154 181
133 154 181
134 154 181
133 154 181
134 154 181
133 154 181
134 154 181
134 154 181
134 154 181
133 154 181
135 155 181
134 154 181
134 154 181
134 154 181
134 154 181
134 155 181
133 154 180
133 154 181
133 154 181
134 154 181
135 155 181
133 153 180
134 154 181
134 154 181
134 154 181
134 154 181
133 154 181
134 154 181
134 154 180
134 154 181
133 154 181
134 154 181
133 153 180
134 154 181
134 154 181
134 154 181
134 154 181
134 154 181
133 153 180
134 154 181
133 154 181
134 154 181
133 154 181
133 154 181
134 154 181
134 154 181
134 154 181
133 154 181
134 154 181
133 154 181
134 153 182
130 149 187
128 148 194
127 146 204
127 146 209
124 143 215
125 144 212
124 143 217
123 142 216
123 142 218
121 140 223
120 139 225
120 138 227
121 139 225
120 139 227
119 138 228
120 138 228
120 138 228
119 138 228
120 138 228
119 138 228
119 137 228
120 138 228
119 138 228
119 138 228
120 138 228
120 138 228
120 138 228
120 138 228
120 138 228
120 138 228
120 138 228
120 138 228
120 138 228
120 138 228
120 138 228
120 138 228
120 138 228
119 138 228
120 138 228
120 138 228
120 138 228
121 138 228
120 138 228
120 138 228
120 138 228
120 138 228
120 138 228
119 137 228
119 138 228
119 137 228
120 138 228
119 138 228
119 138 228
119 137 228
119 138 228
120 138 228
119 138 228
119 138 228
120 138 228
119 138 228
120 138 228
119 138 228
120 138 228
119 138 228
120 138 228
119 138 228
119 138 228
119 138 228
120 138 228
119 138 228
120 138 228
119 138 228
119 138 228
120 138 228
120 138 228
120 138 228
120 138 228
119 138 228
120 138 228
120 138 228
120 138 228
120 138 228
120 138 228
120 138 228
120 138 228
119 138 228
120 138 228
120 138 228
119 138 228
119 138 228
120 138 228
120 138 228
120 138 228
120 138 228
119 138 228
119 138 228
119 137 228
120 138 228
119 137 228
119 138 228
120 138 228
119 138 228
119 138 228
119 138 228
119 138 228
119 138 228
119 138 228
119 138 228
120 138 228
119 138 228
120 138 228
120 138 228
119 138 228
120 138 228
119 138 228
120 138 228
120 138 228
120 138 228
120 138 228
119 138 228
119 138 228
119 138 228
119 137 228
119 138 228
120 138 228
119 138 228
120 138 228
120 138 228
120 138 228
119 138 228
119 137 228
119 138 228
119 137 228
119 138 228
119 138 228
120 138 228
120 138 228
119 138 228
119 138 228
121 139 225
121 139 225
124 143 216
125 145 209
128 148 200
129 149 199
131 151 192
131 151 189
133 153 184
134 154 181
134 155 181
134 154 181
133 154 181
133 154 181
134 154 181
135 155 181
135 155 181
134 154 181
134 154 181
134 154 181
133 154 181
133 153 180
134 154 181
134 154 181
135 155 181
134 154 180
133 154 180
134 154 181
134 154 181
133 154 181
134 154 181
134 154 181
134 154 181
133 154 181
134 154 181
133 154 181
133 153 180
134 154 181
133 154 181
133 154 181
133 154 181
134 154 181
134 154 181
133 154 181
133 154 181
134 154 181
134 154 181
133 154 181
134 154 181
133 154 181
134 154 181
133 154 181
134 154 181
134 154 181
133 154 181
134 154 181
134 154 181
134 154 181
134 154 181
134 154 181
134 154 181
134 154 181
133 154 181
134 154 181
133 154 181
134 154 181
134 154 181
133 154 180
133 154 181
135 155 181
134 154 181
134 154 181
133 154 180
133 154 181
134 154 181
134 154 181
133 154 181
134 154 181
134 154 181
134 154 181
133 154 181
134 154 181
134 154 181
134 154 181
134 154 181
134 154 181
134 154 181
134 154 181
134 154 181
135 155 181
134 154 180
134 154 181
133 154 181
134 154 181
133 154 181
134 154 181
134 154 181
134 154 181
134 154 181
135 155 181
134 154 181
134 154 181
134 154 181
133 154 181
132 153 181
133 154 181
133 154 181
134 154 181
134 154 181
133 154 181
134 154 181
134 154 181
134 154 181
134 155 181
134 154 181
133 154 181
134 154 181
134 154 181
133 154 181
134 154 181
134 154 181
134 154 181
133 154 181
133 154 181
134 154 181
134 154 181
134 154 181
133 154 181
135 155 181
134 154 180
133 154 180
134 154 181
133 154 181
133 154 181
134 154 181
133 154 181
134 154 181
133 154 180
133 154 181
132 153 181
133 154 181
133 154 181
133 154 181
134 154 181
134 154 181
133 154 181
133 154 181
134 154 181
134 154 181
134 154 181
133 154 180
134 154 181
133 154 181
133 154 181
134 154 181
134 154 181
133 154 181
133 154 181
134 154 181
134 154 181
134 154 181
134 154 181
134 154 181
133 154 181
134 154 181
134 154 181
133 154 181
133 154 181
133 154 181
134 154 181
134 154 181
134 154 181
134 154 181
134 154 181
133 154 181
134 154 181
133 154 181
134 154 181
134 154 181
134 154 181
134 154 181
134 154 181
134 154 181
133 154 181
134 154 181
134 155 181
134 154 181
134 154 181
133 154 181
133 154 181
134 154 181
135 155 181
135 155 181
133 154 181
133 154 181
133 154 181
134 154 181
134 154 181
133 154 181
134 154 181
134 154 181
134 154 181
133 154 181
134 154 181
134 154 181
134 154 181
134 154 181
134 154 181
134 154 181
134 154 181
134 154 181
134 154 181
133 154 180
134 154 181
134 154 181
134 154 181
134 154 181
133 154 181
133 154 181
134 154 181
133 154 181
135 155 181
134 154 181
133 154 181
134 154 181
134 154 181
135 155 181
135 155 181
133 154 181
134 154 181
133 154 181
134 154 181
134 154 181
134 154 181
134 154 181
134 154 181
134 154 181
134 154 181
134 154 181
133 154 181
134 154 181
133 154 181
134 154 181
133 154 181
133 154 181
134 154 181
134 154 181
133 154 180
135 155 181
134 154 181
134 154 181
134 154 181
134 154 181
134 154 181
133 154 181
134 154 181
134 154 181
134 154 181
133 154 181
134 154 181
133 153 182
124 141 195
120 135 208
118 135 209
119 136 216
119 137 225
119 138 227
120 138 228
120 138 228
119 138 228
120 138 228
120 138 228
120 138 228
120 138 228
120 138 228
120 138 228
119 137 228
119 138 228
120 138 228
120 138 228
120 138 228
120 138 228
120 138 228
119 138 228
119 138 228
119 138 228
119 138 228
119 138 228
120 138 228
119 138 228
119 138 228
119 137 228
119 138 228
119 138 228
120 138 228
119 138 228
119 138 228
119 138 228
120 138 228
119 137 228
119 138 228
120 138 228
120 138 228
119 137 228
120 138 228
119 137 228
120 138 228
120 138 228
119 138 228
120 138 228
119 138 228
119 138 228
121 138 228
120 138 228
120 138 228
121 138 228
120 138 228
119 138 228
119 138 228
120 138 228
120 138 228
120 138 228
119 138 228
120 138 228
120 138 228
121 138 228
119 138 228
119 138 228
119 138 228
119 138 228
120 138 228
119 138 228
120 138 228
120 138 228
119 138 228
121 138 228
119 137 228
120 138 228
119 138 228
120 138 228
120 138 228
120 138 228
119 137 228
120 138 228
119 138 228
120 138 228
120 138 228
119 138 228
120 138 228
120 138 228
119 138 228
119 137 228
119 137 228
120 138 228
120 138 228
120 138 228
119 137 228
118 137 228
120 138 228
119 138 228
120 138 228
119 138 228
120 138 228
119 138 228
119 138 228
119 138 228
119 138 228
119 138 228
120 138 228
120 138 228
120 138 228
120 138 228
119 138 228
120 138 228
119 137 228
120 138 228
120 138 228
120 138 228
119 138 228
119 138 228
119 138 228
120 138 228
119 138 228
119 138 228
119 138 228
120 138 228
120 138 228
120 138 228
120 138 228
120 138 228
119 138 228
120 138 228
120 138 228
120 138 228
120 138 228
120 138 228
120 138 228
119 138 228
119 138 228
120 138 228
119 138 228
120 138 228
120 138 228
120 138 228
120 139 224
122 141 220
123 142 218
126 146 205
127 147 204
129 149 199
132 152 189
131 151 187
133 153 180
134 154 181
134 154 181
134 154 181
134 154 181
133 154 180
134 154 181
134 154 181
134 154 181
134 154 181
133 154 180
134 154 181
134 154 181
135 155 181
134 154 181
135 155 181
134 154 181
133 154 181
133 154 181
133 154 181
133 154 181
134 154 181
133 154 181
135 155 181
133 154 181
134 154 181
134 154 180
134 154 181
133 154 181
135 155 181
134 154 181
134 155 181
133 154 181
133 154 181
133 154 181
133 154 181
134 154 181
134 154 181
134 154 181
134 154 181
134 154 181
134 154 181
133 154 180
133 154 181
134 154 181
134 154 181
134 154 181
134 154 181
133 154 181
133 154 181
134 154 181
134 154 181
134 154 181
134 154 181
133 154 181
134 154 181
134 154 181
134 154 181
134 154 181
134 154 181
135 155 181
132 153 181
134 154 181
133 154 181
133 154 181
134 154 181
134 154 181
134 154 181
133 154 181
133 154 181
134 154 181
134 154 181
133 154 180
133 154 181
134 154 181
134 154 181
134 154 181
134 154 180
134 154 181
134 154 181
133 154 181
133 154 181
134 154 181
133 154 181
134 154 181
134 154 181
133 154 180
134 154 181
134 154 181
133 154 181
135 155 181
134 154 181
134 154 181
134 154 181
133 154 181
133 154 180
134 154 181
134 154 181
134 154 181
135 155 181
134 154 181
134 154 181
134 154 181
133 154 181
134 154 181
134 154 181
134 154 181
134 154 181
134 154 181
134 154 181
133 154 180
134 154 181
134 154 181
134 154 181
134 154 180
134 154 181
134 154 181
134 154 180
134 154 181
133 154 181
134 154 181
134 154 180
134 154 181
134 154 181
134 154 180
133 154 181
133 154 181
134 154 181
134 154 181
134 154 181
133 154 181
134 155 181
134 154 181
134 154 181
133 154 181
133 154 181
134 154 181
133 154 181
134 154 181
134 154 181
133 154 180
133 154 181
134 154 181
135 155 181
133 154 181
134 154 181
133 154 181
134 154 181
133 154 181
134 155 181
135 155 181
134 154 181
134 154 181
134 154 181
135 155 181
133 154 181
134 154 181
134 154 181
133 154 181
134 154 181
134 154 181
134 154 181
134 154 181
134 154 181
134 154 181
133 154 181
133 154 181
134 154 181
134 154 181
134 154 181
134 154 181
133 154 181
134 154 181
134 154 181
134 154 181
133 154 181
135 155 181
133 154 181
134 154 181
134 154 181
133 154 181
134 154 181
134 154 181
134 154 180
134 154 181
134 154 181
133 154 181
133 154 181
133 154 181
133 154 181
133 154 181
134 154 181
132 154 181
135 155 181
134 154 181
134 154 181
134 154 181
133 154 181
133 154 181
134 154 181
134 154 181
133 154 181
134 154 181
133 154 181
134 155 181
134 154 181
134 154 181
133 154 181
134 154 181
133 154 181
135 155 181
134 154 181
134 154 181
134 154 181
134 154 181
134 154 181
133 154 181
134 154 181
133 154 181
134 154 181
133 154 181
133 154 181
134 154 181
134 154 181
133 154 181
134 154 181
134 154 181
134 154 181
133 154 181
134 154 181
133 154 181
133 154 181
134 154 181
134 154 181
134 154 181
133 154 181
133 154 181
134 154 181
134 154 181
135 155 181
134 154 181
133 154 181
134 154 181
133 154 181
135 155 181
134 154 181
133 154 181
133 154 181
132 152 181
124 141 191
114 127 200
113 127 205
112 127 207
116 132 216
118 136 224
118 136 224
119 138 228
119 138 228
119 138 228
120 138 228
119 137 228
119 137 228
119 138 228
120 138 228
120 138 228
119 138 228
120 138 228
119 137 228
120 138 228
120 138 228
120 138 228
120 138 228
119 137 228
120 138 228
120 138 228
119 138 228
119 138 228
120 138 228
119 138 228
120 138 228
120 138 228
120 138 228
120 138 228
119 138 228
119 138 228
119 138 228
120 138 228
119 138 228
120 138 228
119 138 228
119 138 228
120 138 228
120 138 228
119 138 228
120 138 228
120 138 228
120 138 228
118 137 228
119 137 228
120 138 228
120 138 228
119 138 228
120 138 228
120 138 228
120 138 228
120 138 228
120 138 228
120 138 228
119 138 228
119 137 228
119 138 228
121 138 228
119 138 228
119 138 228
120 138 228
119 138 228
119 138 228
119 138 228
120 138 228
119 138 228
119 138 228
119 138 228
119 138 228
120 138 228
119 138 228
120 138 228
119 138 228
119 138 228
120 138 228
120 138 228
120 138 228
120 138 228
119 138 228
120 138 228
120 138 228
119 138 228
120 138 228
120 138 228
120 138 228
120 138 228
120 138 228
119 137 228
119 138 228
119 138 228
119 138 228
120 138 228
120 138 228
119 137 228
119 137 228
119 138 228
119 138 228
119 138 228
120 138 228
120 138 228
119 137 228
120 138 228
120 138 228
120 138 228
119 138 228
119 138 228
119 138 228
119 138 228
119 138 228
120 138 228
120 138 228
120 138 228
120 138 228
120 138 228
120 138 228
119 138 228
120 138 228
119 137 228
120 138 228
119 138 228
119 137 228
119 138 228
119 138 228
119 137 228
120 138 228
120 138 228
119 138 228
119 138 228
119 138 228
120 138 228
119 138 228
120 138 228
120 138 228
119 138 228
120 138 228
120 138 228
120 138 228
120 138 228
120 138 228
120 138 228
120 137 227
120 137 225
120 137 221
122 139 214
125 142 200
127 145 189
132 152 183
134 154 181
134 154 181
133 154 181
134 154 181
134 154 181
133 154 181
134 155 181
134 154 181
134 154 181
134 154 181
134 154 181
134 154 181
134 154 181
134 154 181
134 154 181
134 154 181
134 154 181
134 154 181
133 154 181
132 153 180
134 154 180
133 154 181
133 154 181
133 154 181
134 154 181
134 154 181
134 154 181
135 155 181
133 154 181
135 155 181
134 154 181
134 154 181
133 154 181
134 154 181
134 154 181
134 154 181
134 154 181
133 154 181
133 154 181
133 154 181
133 154 181
134 154 181
134 154 181
134 155 181
133 154 181
133 154 181
134 154 181
135 155 181
135 155 181
134 154 181
133 154 181
133 154 181
133 154 181
133 154 181
134 154 181
134 154 181
134 154 181
134 154 181
133 154 181
134 154 181
133 154 181
133 154 181
134 154 181
134 155 181
133 154 181
134 154 181
133 154 181
134 154 181
134 154 181
135 155 181
134 154 181
134 154 181
134 155 181
134 154 181
133 154 181
134 154 181
133 154 181
133 154 181
133 154 181
134 154 180
134 154 181
133 154 181
134 154 181
134 154 181
134 154 181
135 155 181
134 154 181
134 154 181
135 155 181
133 154 181
134 154 181
134 154 181
133 154 181
135 155 181
135 155 181
134 154 181
133 154 180
134 154 181
134 154 181
134 154 181
134 154 181
133 154 180
135 155 181
134 154 181
134 154 181
134 154 181
133 154 181
134 154 181
134 154 181
134 154 181
133 154 181
133 154 181
134 154 181
133 154 181
134 154 181
133 154 181
134 154 181
133 154 181
134 154 181
134 154 181
134 154 181
134 154 180
133 154 181
133 153 180
134 154 181
133 154 181
133 154 181
134 154 181
134 154 181
134 154 181
134 154 181
134 154 181
133 154 181
134 154 181
135 155 181
133 154 181
134 154 181
133 154 181
133 154 181
133 154 181
134 154 181
134 154 181
134 154 181
134 154 180
134 154 181
133 154 181
134 154 181
134 154 181
134 154 181
135 155 181
133 154 181
134 154 181
133 154 181
133 154 181
133 154 181
133 154 180
133 154 181
134 154 181
134 154 181
133 154 181
134 154 181
134 154 181
134 154 181
135 155 181
134 154 181
133 154 181
134 154 181
133 154 181
133 154 181
134 154 181
133 154 181
135 155 181
134 155 181
133 154 181
134 154 181
134 154 181
135 155 181
134 154 181
134 154 181
135 155 181
134 154 181
134 154 181
134 154 181
134 154 181
133 154 180
134 154 181
134 154 181
134 154 181
133 154 181
134 154 181
134 154 181
133 154 181
134 154 181
134 154 181
133 154 181
134 154 181
134 154 181
133 154 181
134 155 181
134 155 181
133 154 181
135 155 181
135 155 181
134 154 181
134 154 181
134 154 181
134 154 181
133 154 180
134 154 181
134 154 181
133 154 181
133 154 181
134 154 181
133 154 181
133 154 180
133 154 181
133 154 181
133 154 181
133 154 181
134 154 181
134 154 181
133 154 181
133 154 181
134 154 181
133 154 181
134 154 181
133 154 181
134 155 181
134 154 181
134 154 180
133 154 181
133 154 181
133 154 181
134 154 181
134 154 181
134 154 181
134 154 181
134 154 181
134 154 181
134 154 180
134 155 181
134 154 181
134 154 181
133 154 181
133 154 181
134 155 181
133 154 181
133 153 181
124 141 193
113 125 197
112 124 199
109 122 196
112 125 202
114 128 208
115 130 211
117 133 218
118 135 224
120 137 227
120 138 228
119 138 228
120 138 228
120 138 228
120 138 228
119 137 228
119 138 228
119 138 228
120 138 228
119 138 228
119 137 228
119 138 228
120 138 228
119 138 228
120 138 228
119 138 228
120 138 228
120 138 228
119 138 228
119 138 228
120 138 228
120 138 228
119 138 228
120 138 228
119 138 228
120 138 228
119 138 228
121 138 228
120 138 228
119 138 228
120 138 228
119 138 228
120 138 228
120 138 228
120 138 228
120 138 228
120 138 228
120 138 228
120 138 228
120 138 228
120 138 228
119 138 228
120 138 228
120 138 228
120 138 228
119 138 228
119 138 228
120 138 228
120 138 228
120 138 228
120 138 228
120 138 228
120 138 228
120 138 228
120 138 228
120 138 228
119 138 228
119 138 228
120 138 228
120 138 228
120 138 228
120 138 228
119 137 228
120 138 228
120 138 228
120 138 228
119 138 228
120 138 228
120 138 228
120 138 228
120 138 228
120 138 228
120 138 228
120 138 228
120 138 228
119 138 228
119 138 228
120 138 228
119 137 228
120 138 228
119 138 228
119 138 228
119 138 228
119 138 228
119 137 228
120 138 228
120 138 228
120 138 228
120 138 228
119 138 228
119 138 228
120 138 228
120 138 228
120 138 228
120 138 228
120 138 228
120 138 228
119 138 228
120 138 228
119 137 228
119 138 228
120 138 228
119 138 228
120 138 228
120 138 228
120 138 228
119 138 228
119 137 228
120 138 228
120 138 228
119 138 228
120 138 228
119 138 228
120 138 228
120 138 228
119 138 228
120 138 228
120 138 228
120 138 228
119 138 228
120 138 228
119 138 228
120 138 228
120 138 228
120 138 228
120 138 228
120 138 228
120 137 227
120 137 226
120 137 226
120 137 225
118 134 220
117 134 220
119 135 221
116 132 214
117 132 215
116 131 212
117 131 211
112 125 203
114 127 203
119 133 197
131 150 186
134 154 181
134 154 181
133 154 181
134 154 180
134 154 181
134 154 181
133 154 181
133 154 181
134 154 181
134 154 181
135 155 181
134 154 181
133 154 181
134 154 181
134 154 181
134 154 181
134 154 181
133 154 181
134 154 181
134 154 181
134 154 181
135 155 181
134 154 181
133 154 181
134 154 181
134 154 181
133 154 181
133 154 181
133 154 181
133 154 181
134 154 181
134 154 181
133 154 181
133 154 181
134 154 181
134 154 181
135 155 181
134 154 181
134 154 181
133 154 181
134 154 181
133 154 181
134 154 181
132 153 181
135 155 181
133 154 181
134 154 181
134 154 181
134 154 181
134 154 181
134 154 181
134 154 181
134 154 181
133 154 181
134 155 181
135 155 181
133 154 181
133 154 181
134 154 181
133 154 181
134 154 181
134 154 181
133 154 181
134 154 181
134 154 181
134 154 181
134 154 181
133 154 181
134 154 181
133 154 181
133 154 181
134 154 181
134 154 181
134 154 181
133 154 180
133 154 181
134 154 181
134 154 181
134 154 181
133 154 181
134 154 181
134 155 181
133 154 181
134 154 181
133 154 181
135 155 181
134 154 181
133 154 181
134 154 181
132 153 181
134 154 181
133 154 181
134 154 180
133 154 181
133 153 180
134 154 181
133 154 181
134 154 181
134 154 181
134 154 181
133 154 181
134 155 181
134 154 181
134 154 181
134 154 181
134 154 181
135 155 181
134 154 181
135 155 181
134 154 181
134 154 181
134 154 181
134 154 181
133 154 181
133 154 181
134 154 181
135 155 181
133 154 181
134 154 181
133 154 181
134 154 181
133 154 180
133 154 181
134 154 181
134 154 181
133 153 180
133 154 181
134 154 181
134 154 181
134 154 181
132 153 180
133 154 181
133 154 181
133 154 181
135 155 181
133 154 181
134 154 181
134 154 181
133 154 181
133 154 181
133 154 181
133 154 181
134 155 181
134 154 181
133 154 181
134 154 181
135 155 181
134 154 181
134 154 181
134 154 181
134 154 181
133 154 181
133 154 181
134 154 181
135 155 181
134 154 181
134 154 181
133 154 181
134 154 181
134 154 181
135 155 181
134 154 181
134 154 181
134 154 181
134 154 181
134 154 181
134 154 181
133 154 181
134 154 181
134 154 181
133 154 181
134 154 181
134 154 181
133 154 181
134 155 181
134 154 181
134 154 181
134 154 181
134 154 181
133 154 181
134 154 181
134 154 181
133 154 181
134 154 181
133 154 180
134 155 181
134 154 181
133 154 181
134 154 181
133 154 181
135 155 181
134 154 181
133 154 181
134 154 181
133 154 181
135 155 181
134 154 181
134 154 181
133 154 181
134 154 181
134 154 181
134 154 181
134 154 181
134 154 181
135 155 181
134 154 181
134 154 181
133 154 181
133 154 181
135 155 181
134 154 181
134 154 181
133 154 181
134 154 181
133 154 181
135 155 181
134 154 181
133 154 181
133 154 181
134 154 181
134 154 181
134 154 181
134 154 181
134 154 181
134 154 181
134 154 181
134 154 181
134 154 181
133 154 181
134 154 181
134 154 181
134 154 181
133 154 181
134 154 180
134 154 181
134 154 181
133 154 181
134 154 181
134 154 181
134 154 181
135 155 181
134 154 181
134 155 181
134 154 181
135 155 181
134 154 181
133 154 181
134 154 182
126 143 190
118 131 202
108 120 193
111 123 197
111 124 199
113 125 201
115 129 207
116 129 207
117 131 213
115 131 215
116 133 219
119 137 227
120 138 228
119 138 228
119 138 228
119 138 228
121 138 228
120 138 228
120 138 228
120 138 228
120 138 228
119 138 228
119 138 228
119 138 228
119 138 228
119 138 228
119 138 228
119 138 228
119 138 228
119 138 228
120 138 228
119 138 228
120 138 228
119 138 228
120 138 228
119 138 228
119 137 228
120 138 228
119 138 228
119 138 228
119 138 228
120 138 228
120 138 228
119 138 228
120 138 228
120 138 228
119 138 228
119 138 228
119 138 228
119 137 228
119 138 228
120 138 228
120 138 228
119 138 228
120 138 228
120 138 228
119 138 228
120 138 228
120 138 228
120 138 228
120 138 228
120 138 228
119 138 228
120 138 228
119 138 228
119 137 228
119 138 228
120 138 228
120 138 228
120 138 228
119 138 228
118 137 228
119 138 228
119 137 228
119 138 228
119 138 228
120 138 228
119 138 228
120 138 228
119 138 228
119 138 228
119 138 228
120 138 228
119 138 228
119 138 228
119 138 228
120 138 228
120 138 228
119 138 228
119 137 228
121 138 228
119 138 228
119 138 228
119 138 228
120 138 228
119 137 228
120 138 228
119 138 228
119 138 228
120 138 228
120 138 228
120 138 228
120 138 228
120 138 228
120 138 228
121 138 228
119 138 228
120 138 228
119 138 228
120 138 228
120 138 228
120 138 228
120 138 228
120 138 228
120 138 228
119 138 228
120 138 228
121 138 228
120 138 228
120 138 228
120 138 228
119 138 228
120 138 228
120 138 228
120 138 228
120 138 228
119 138 228
120 138 228
120 138 228
119 138 228
120 138 228
118 136 225
121 138 228
118 136 226
118 134 221
116 133 219
116 133 218
117 133 217
119 134 217
118 133 215
115 130 211
115 129 208
115 129 207
114 128 205
114 126 203
115 128 204
113 126 202
113 126 201
113 125 200
116 129 206
122 137 196
132 151 187
133 154 181
134 154 181
134 154 181
134 154 181
133 154 181
133 154 181
133 154 181
134 154 181
133 154 181
133 154 181
133 154 181
134 154 181
134 154 181
133 154 181
133 154 181
133 154 181
133 154 181
134 154 181
134 154 181
134 154 181
134 154 181
133 154 181
135 155 181
134 154 181
134 154 181
134 154 181
133 154 181
133 154 181
133 154 181
134 154 181
133 154 181
134 154 181
135 155 181
134 154 181
133 154 181
133 154 181
134 154 181
134 154 181
133 153 180
134 154 181
133 154 181
133 153 180
134 154 180
134 154 181
133 154 181
133 154 181
134 154 181
133 154 181
134 154 181
133 154 181
134 154 181
133 153 180
134 154 181
134 154 181
134 154 181
134 154 181
134 154 181
133 154 181
135 155 181
134 154 181
134 154 181
133 154 181
133 154 181
133 154 181
134 155 181
134 154 180
134 154 181
133 154 181
134 154 181
135 155 181
134 154 181
134 154 181
134 154 181
133 154 180
133 154 181
133 154 181
134 154 181
133 154 181
135 155 181
133 154 181
134 154 181
134 154 181
134 154 181
133 154 181
134 154 181
134 154 181
133 154 181
133 154 181
134 154 181
134 154 181
134 154 181
134 154 181
134 154 181
133 154 181
135 155 181
134 154 181
133 154 181
134 154 181
134 154 181
134 154 181
133 154 181
134 154 181
134 154 181
133 154 181
133 154 181
133 153 180
134 154 181
134 154 181
134 154 181
133 154 181
134 154 180
134 154 181
133 154 180
133 154 181
134 154 181
134 154 181
134 154 181
134 154 181
134 154 181
133 154 181
134 154 181
134 154 181
132 154 181
133 154 181
134 154 181
134 154 181
133 154 181
135 155 181
135 155 181
134 154 181
134 155 181
133 154 181
133 154 181
134 154 181
134 154 181
134 154 181
134 154 181
134 154 181
133 154 181
134 154 181
134 154 181
134 154 181
134 154 181
134 154 181
134 154 181
135 155 181
134 154 181
134 154 181
134 154 181
133 154 181
134 154 181
135 155 181
134 154 181
134 154 181
134 154 181
135 155 181
133 154 181
134 155 181
133 154 181
133 154 181
135 155 181
133 154 181
133 154 181
133 154 181
133 154 181
133 154 181
134 154 181
134 154 181
134 154 181
133 154 181
135 155 181
134 154 181
134 154 181
133 154 181
133 154 181
133 154 181
134 154 181
134 155 181
133 154 180
134 154 181
133 154 181
134 154 181
135 155 181
134 154 181
134 155 181
134 154 181
134 154 181
133 154 181
134 154 181
134 154 181
133 154 180
134 154 181
134 154 181
134 154 181
133 154 181
133 154 181
135 155 181
135 155 181
133 154 181
134 154 181
134 154 181
134 154 181
134 154 181
134 154 181
134 154 181
133 154 181
134 155 181
135 155 181
133 154 181
134 154 181
134 155 181
135 155 181
134 154 181
134 154 181
133 154 181
134 154 181
135 155 181
134 154 181
133 154 181
134 154 181
133 154 181
134 154 181
134 154 181
134 154 181
134 154 181
134 154 181
134 154 181
134 154 181
134 154 181
133 154 180
134 154 181
134 154 181
134 154 181
134 154 181
133 154 181
133 154 181
133 154 181
133 154 181
134 154 181
135 155 181
134 155 181
133 154 181
134 154 181
134 154 181
133 153 180
133 154 181
133 154 181
133 153 181
125 143 190
117 130 201
109 122 196
112 124 198
117 129 206
113 125 201
113 125 199
114 126 201
114 127 204
112 125 202
117 131 210
115 131 216
117 133 219
119 136 226
120 138 227
120 138 228
120 138 228
120 138 228
119 138 228
119 138 228
120 138 228
120 138 228
121 138 228
120 138 228
120 138 228
120 138 228
119 138 228
120 138 228
119 137 228
120 138 228
120 138 228
120 138 228
120 138 228
119 138 228
119 138 228
120 138 228
119 138 228
119 137 228
120 138 228
119 138 228
120 138 228
120 138 228
120 138 228
120 138 228
119 138 228
119 138 228
120 138 228
119 138 228
120 138 228
119 137 228
120 138 228
121 138 228
120 138 228
120 138 228
119 137 228
120 138 228
120 138 228
119 138 228
119 138 228
120 138 228
119 138 228
120 138 228
120 138 228
119 137 228
120 138 228
120 138 228
119 138 228
120 138 228
120 138 228
120 138 228
119 138 228
119 138 228
120 138 228
119 138 228
120 138 228
120 138 228
119 138 228
120 138 228
120 138 228
119 138 228
120 138 228
120 138 228
120 138 228
120 138 228
120 138 228
120 138 228
119 138 228
120 138 228
120 138 228
120 138 228
120 138 228
120 138 228
119 137 228
119 138 228
119 138 228
120 138 228
119 137 228
119 138 228
119 138 228
119 138 228
120 138 228
121 138 228
119 137 228
119 138 228
120 138 228
120 138 228
119 138 228
120 138 228
119 137 228
119 138 228
119 138 228
120 138 228
120 138 228
120 138 228
120 138 228
119 138 228
120 138 228
119 138 228
120 138 228
120 138 228
119 138 228
119 138 228
120 138 228
119 137 228
119 137 228
120 138 227
118 135 223
118 135 222
115 132 218
118 135 223
116 132 216
119 134 218
116 131 212
116 131 214
113 127 206
114 128 208
115 128 206
114 127 204
113 127 204
110 123 198
113 125 201
113 125 201
109 122 196
113 125 201
115 128 204
115 128 204
113 125 201
114 127 202
110 122 196
113 125 201
117 132 193
130 149 182
133 154 181
133 154 180
134 154 181
134 154 181
133 154 181
134 154 181
133 153 180
133 154 181
134 154 181
134 154 181
134 154 181
134 154 181
133 154 181
133 154 181
134 155 181
134 154 181
134 154 181
134 154 181
134 154 181
133 154 181
134 154 181
133 154 181
134 154 181
134 154 181
134 154 181
134 154 181
134 154 180
133 153 180
135 155 181
134 154 181
134 154 181
134 154 180
134 154 181
133 154 181
134 154 181
133 154 181
133 154 181
135 155 181
134 154 181
134 154 181
133 154 181
134 154 181
134 154 181
134 154 181
134 154 181
134 154 181
134 154 181
133 154 181
134 154 181
133 154 181
134 154 181
134 154 181
134 154 181
134 154 181
134 154 181
133 154 181
133 154 181
135 155 181
134 154 181
134 154 181
134 154 181
135 155 181
134 154 181
133 154 181
134 154 181
135 155 181
134 154 181
134 154 181
134 154 181
133 154 181
133 154 181
133 154 181
134 154 181
134 154 181
134 155 181
134 154 181
133 154 181
133 154 181
134 154 181
134 154 181
134 154 181
133 154 181
134 154 181
133 154 181
134 154 181
134 154 181
134 154 181
133 154 181
133 154 181
134 154 181
134 154 181
134 154 181
134 154 181
135 155 181
133 154 181
133 154 181
134 154 181
133 154 181
134 154 181
134 154 181
133 154 181
135 155 181
133 154 181
134 154 181
133 154 181
134 154 181
133 154 181
134 154 181
133 154 180
134 154 181
133 154 181
134 154 181
134 154 181
133 154 181
133 154 181
134 154 181
134 154 181
134 154 181
134 154 181
134 154 181
134 154 181
133 154 181
134 154 181
134 154 181
133 154 181
134 154 181
133 154 180
134 154 181
133 154 181
133 154 180
134 154 181
133 154 181
134 154 181
134 154 181
134 154 181
134 154 181
134 154 181
134 154 181
134 154 181
134 154 181
133 154 181
133 154 181
134 154 181
133 154 181
133 154 181
133 154 181
134 154 181
134 154 181
134 154 181
133 154 181
134 154 181
133 154 181
133 154 181
134 154 181
133 154 181
134 154 181
134 154 181
133 154 181
134 154 181
134 154 181
134 154 181
134 154 181
134 154 181
133 154 181
133 154 181
134 155 181
134 154 181
133 154 181
134 154 181
133 154 181
134 154 181
134 154 181
133 154 181
134 154 181
134 154 181
134 154 181
133 154 181
134 154 181
133 154 181
134 154 181
134 154 181
134 154 181
135 155 181
134 154 181
134 154 181
134 154 180
134 154 181
133 154 181
135 155 181
134 154 181
135 155 181
134 154 181
134 154 181
133 154 181
134 154 181
133 154 181
135 155 181
133 154 181
133 154 181
134 154 181
133 154 181
133 154 181
133 154 181
134 154 181
134 154 181
134 154 181
134 154 181
133 154 181
133 154 181
134 155 181
134 154 181
133 154 181
133 154 181
133 154 181
134 154 181
134 154 181
134 154 181
134 154 181
135 155 181
133 154 181
134 154 181
134 154 181
133 154 181
134 154 181
134 154 181
134 154 180
133 154 181
134 154 181
134 154 181
134 154 181
133 154 181
133 154 181
134 154 181
134 154 181
133 154 180
133 154 181
133 154 181
134 154 181
134 154 181
134 154 181
133 154 181
133 154 180
134 154 181
133 154 181
133 154 181
133 154 181
134 154 181
133 154 183
127 144 190
114 128 195
117 129 206
112 124 200
115 127 204
114 126 201
112 124 199
112 125 200
109 122 197
109 121 194
117 129 206
114 126 203
114 128 206
117 132 215
116 133 219
119 136 224
120 138 227
118 137 228
119 138 228
119 137 228
120 138 228
120 138 228
120 138 228
119 138 228
120 138 228
119 138 228
120 138 228
120 138 228
119 138 228
121 139 228
119 138 228
120 138 228
120 138 228
119 138 228
120 138 228
120 138 228
119 138 228
119 137 228
120 138 228
119 138 228
119 138 228
119 138 228
119 138 228
120 138 228
119 138 228
120 138 228
119 138 228
120 138 228
119 138 228
120 138 228
120 138 228
120 138 228
120 138 228
119 138 228
121 138 228
120 138 228
119 138 228
120 138 228
119 138 228
120 138 228
120 138 228
120 138 228
120 138 228
119 138 228
120 138 228
119 138 228
119 137 228
120 138 228
120 138 228
119 138 228
119 138 228
119 138 228
120 138 228
119 138 228
120 138 228
119 138 228
120 138 228
119 137 228
120 138 228
120 138 228
119 138 228
119 138 228
120 138 228
119 138 228
119 138 228
120 138 228
119 138 228
119 137 228
120 138 228
120 138 228
120 138 228
120 138 228
120 138 228
119 138 228
119 138 228
120 138 228
119 137 228
119 138 228
119 138 228
119 137 228
119 138 228
120 138 228
120 138 228
119 138 228
120 138 228
119 138 228
120 138 228
119 138 228
120 138 228
119 138 228
120 138 228
120 138 228
120 138 228
120 138 228
120 138 228
120 138 228
119 138 228
120 138 228
119 137 226
119 137 227
118 136 225
119 137 226
118 135 223
117 133 217
117 133 219
115 130 212
115 130 211
112 126 205
116 130 210
113 127 205
116 129 208
116 129 207
110 123 197
107 120 193
113 125 200
115 127 203
114 125 201
113 125 200
111 124 200
110 123 198
115 127 203
114 126 201
113 125 200
111 124 199
114 126 202
114 127 202
114 126 202
113 125 200
110 122 196
113 126 201
116 130 192
129 148 182
133 154 181
135 155 181
134 154 181
133 154 180
134 154 181
134 154 181
134 154 181
134 154 181
134 154 181
134 154 181
133 154 181
133 154 181
133 154 181
134 154 181
133 154 181
134 154 181
134 154 181
134 154 181
134 154 181
134 154 181
135 155 181
133 154 181
134 154 181
134 154 181
133 154 181
134 154 181
135 155 181
134 154 181
134 154 181
133 154 181
134 154 181
134 154 181
133 154 181
133 154 181
134 154 181
134 154 181
133 154 181
134 154 181
134 154 181
134 154 180
134 154 181
134 154 181
134 154 181
133 154 180
133 154 181
134 154 181
133 154 181
133 154 181
134 154 181
134 154 181
134 154 181
135 155 181
132 153 181
133 154 181
134 154 181
134 154 181
134 154 181
133 154 181
133 154 181
134 154 181
134 154 180
134 154 181
134 154 181
133 154 181
133 154 181
134 154 181
134 154 181
133 154 181
134 154 181
133 153 180
134 154 181
133 154 181
134 154 181
132 154 181
134 154 180
133 154 181
133 154 181
133 153 180
134 154 181
133 154 181
134 154 181
134 154 181
135 155 181
134 154 181
133 154 181
133 154 181
133 154 180
134 154 181
133 154 181
134 154 181
134 154 181
134 154 181
133 154 181
134 154 181
134 154 181
133 154 181
134 154 181
133 154 181
133 154 181
134 154 181
134 154 181
134 154 181
133 154 181
134 154 181
134 154 181
133 154 181
134 154 181
134 154 181
133 154 181
134 154 181
134 154 181
134 154 181
133 154 181
134 154 181
133 154 181
134 154 181
134 154 181
135 155 181
132 153 181
133 154 181
134 154 181
133 154 181
133 154 181
133 154 181
133 154 181
133 154 181
134 154 181
135 155 181
134 154 181
134 154 181
133 154 181
134 154 181
134 154 181
133 154 181
134 154 181
134 154 181
133 154 181
134 154 181
133 154 181
134 154 181
134 154 181
134 154 181
134 154 181
134 154 181
133 154 181
135 155 181
134 154 181
134 154 181
133 154 181
135 155 181
133 154 180
134 154 181
133 154 181
133 154 181
134 155 181
133 154 180
135 155 181
133 154 181
134 154 181
133 154 181
134 154 181
133 154 181
134 154 181
134 154 181
134 154 181
133 154 180
134 154 180
133 154 181
134 154 181
133 154 181
134 154 181
133 154 181
133 154 180
133 154 180
134 154 181
133 154 181
133 154 181
134 154 181
133 154 181
133 154 181
134 154 181
133 154 181
134 154 181
134 154 181
133 154 181
133 154 181
134 154 181
134 154 181
134 154 181
134 154 181
134 154 181
134 154 181
134 154 181
134 154 181
134 154 181
133 154 181
134 154 181
134 154 181
133 154 181
134 154 181
134 154 181
133 154 181
134 154 181
134 154 181
133 154 181
134 154 181
134 154 181
134 155 181
133 154 181
134 154 181
134 154 181
133 154 181
133 154 181
135 155 181
134 154 181
134 154 181
134 154 181
133 154 181
134 154 180
134 154 181
134 154 181
134 154 181
133 154 181
133 154 181
134 154 181
132 153 181
134 154 181
134 154 181
134 154 181
135 155 181
134 154 181
134 154 181
134 154 181
134 154 181
133 153 180
133 154 181
133 154 181
134 154 181
134 154 181
134 154 181
134 154 181
134 154 181
133 154 181
133 154 181
133 154 181
133 154 180
134 154 181
133 153 181
124 142 185
118 132 198
113 125 201
113 125 201
116 128 206
112 124 199
112 124 199
115 128 204
115 127 203
110 122 197
114 126 201
112 124 199
114 126 202
110 123 198
112 125 201
114 128 208
116 131 212
120 136 223
120 137 227
120 138 228
120 138 228
120 138 228
120 138 228
119 137 228
120 138 228
119 138 228
120 138 228
119 137 228
120 138 228
120 138 228
120 138 228
119 138 228
120 138 228
120 138 228
119 138 228
120 138 228
120 138 228
119 138 228
120 138 228
119 138 228
120 138 228
120 138 228
119 138 228
119 138 228
119 138 228
120 138 228
119 138 228
119 138 228
119 138 228
120 138 228
119 138 228
119 137 228
120 138 228
120 138 228
119 138 228
120 138 228
120 138 228
119 138 228
119 138 228
120 138 228
120 138 228
120 138 228
119 138 228
119 138 228
119 138 228
120 138 228
119 138 228
118 137 228
120 138 228
119 138 228
120 138 228
119 138 228
120 138 228
120 138 228
120 138 228
119 138 228
120 138 228
120 138 228
119 138 228
120 138 228
120 138 228
120 138 228
119 138 228
120 138 228
119 138 228
120 138 228
120 138 228
120 138 228
119 138 228
119 138 228
120 138 228
120 138 228
120 138 228
119 138 228
119 138 228
119 137 228
120 138 228
120 138 228
120 138 228
120 138 228
119 137 228
119 137 228
119 138 228
120 138 228
120 138 228
120 138 228
120 138 228
120 138 228
120 138 228
119 138 228
119 138 228
120 138 228
118 136 226
119 136 224
121 138 227
118 136 224
117 134 220
119 135 221
118 134 219
113 129 211
117 132 214
116 130 210
114 128 206
114 126 203
114 127 204
116 129 206
116 128 204
112 125 200
117 129 207
119 132 211
113 125 200
116 129 206
113 125 200
110 122 196
115 127 204
115 127 203
113 126 202
107 120 193
112 125 200
114 127 203
117 129 206
111 124 198
111 124 199
115 127 204
113 125 200
115 127 203
109 122 196
112 124 199
110 123 198
113 125 201
119 134 193
129 147 185
134 154 181
134 154 181
133 154 180
133 154 181
134 154 181
134 154 181
134 154 181
134 154 181
133 154 181
134 154 181
134 154 181
134 154 181
134 154 181
133 154 181
134 154 181
134 154 181
133 154 181
133 154 181
134 154 181
134 154 181
134 154 181
134 154 181
134 154 181
134 154 181
133 153 180
135 155 181
133 154 181
133 154 181
133 153 180
134 154 181
133 154 181
135 155 181
134 154 181
134 154 181
133 154 181
134 154 181
134 154 181
134 154 180
134 154 181
133 154 181
135 155 181
133 154 181
133 154 181
133 153 180
134 155 181
134 154 181
134 155 181
134 154 181
134 154 181
134 154 181
133 154 181
134 154 181
135 155 181
133 154 181
134 154 181
133 154 181
133 154 181
133 154 181
133 154 181
133 154 181
133 154 181
133 154 181
134 154 181
133 154 181
134 155 181
134 154 181
134 154 181
133 154 180
134 154 181
134 154 181
134 154 181
134 154 181
133 154 181
133 154 181
134 154 181
134 154 181
134 154 181
134 154 181
133 154 181
133 154 181
133 154 181
133 154 181
134 154 181
134 154 181
133 154 181
132 153 180
133 154 181
133 154 181
134 154 181
134 154 181
133 154 181
134 154 181
133 154 181
134 154 181
134 155 181
133 154 181
134 154 181
133 154 181
135 155 181
133 154 181
134 154 181
133 154 181
134 154 181
133 154 181
134 154 181
135 155 181
134 154 181
133 154 181
132 153 181
134 154 181
134 155 181
134 154 181
132 153 181
134 154 181
134 154 181
134 154 181
134 154 181
133 154 181
133 154 181
134 154 181
135 155 181
135 155 181
134 154 181
134 154 181
133 154 181
134 154 181
134 154 181
134 154 181
134 154 181
134 154 181
133 154 181
133 154 181
134 154 181
133 154 181
134 154 181
134 154 181
134 154 181
134 154 181
133 154 181
134 154 181
134 154 181
135 155 181
134 154 181
133 154 181
133 154 181
134 154 181
134 154 181
134 154 181
133 154 181
133 154 181
133 154 181
134 154 181
134 154 181
134 154 181
133 154 181
134 154 181
134 154 180
133 154 181
133 154 181
133 154 181
134 154 181
133 154 181
133 153 180
134 154 181
134 154 180
133 154 181
134 154 181
134 154 181
133 154 181
134 155 181
134 155 181
134 154 181
133 154 181
134 154 181
134 154 181
134 154 181
134 154 181
134 154 181
134 154 181
134 154 181
133 154 181
133 154 181
133 154 181
133 154 181
133 154 181
133 154 181
134 154 181
134 154 181
133 154 181
134 154 181
133 154 181
133 154 181
134 154 181
134 154 181
133 154 181
134 154 181
133 154 181
134 154 181
133 154 181
134 154 181
134 154 180
133 154 181
134 154 181
134 154 181
133 154 180
134 154 181
134 154 181
134 154 181
134 154 181
133 154 181
133 154 181
133 154 181
134 154 180
135 155 181
134 154 181
135 155 181
134 154 181
134 154 181
133 154 181
134 154 180
134 154 181
134 154 181
133 154 181
134 154 181
135 155 181
133 154 180
133 154 181
134 154 181
133 154 181
134 154 181
134 154 181
134 154 181
134 154 181
135 155 181
134 154 181
134 154 181
134 154 181
134 154 181
134 154 181
134 154 181
134 154 181
134 154 181
134 154 181
134 154 181
134 154 181
134 154 180
134 154 181
134 154 181
128 146 185
120 135 194
115 127 204
111 123 198
115 127 202
113 126 202
114 126 201
113 125 200
116 128 205
112 125 200
113 125 201
112 124 199
112 124 198
109 121 195
116 128 204
114 126 202
114 126 203
115 128 207
115 129 209
117 134 220
119 136 223
121 138 228
119 138 228
120 138 228
120 138 228
120 138 228
120 138 228
119 138 228
120 138 228
119 138 228
119 138 228
119 138 228
120 138 228
120 138 228
120 138 228
119 138 228
119 138 228
120 138 228
120 138 228
120 138 228
120 138 228
120 138 228
119 138 228
120 138 228
121 138 228
119 137 228
119 138 228
120 138 228
120 138 228
119 138 228
118 137 228
119 138 228
119 138 228
119 137 228
120 138 228
120 138 228
120 138 228
120 138 228
120 138 228
119 138 228
120 138 228
119 138 228
119 137 228
120 138 228
119 138 228
119 138 228
120 138 228
120 138 228
120 138 228
120 138 228
119 138 228
120 138 228
120 138 228
119 138 228
119 137 228
120 138 228
120 138 228
119 138 228
119 138 228
119 138 228
119 138 228
120 138 228
120 138 228
120 138 228
120 138 228
119 138 228
119 138 228
119 138 228
120 138 228
119 138 228
119 138 228
120 138 228
119 138 228
119 138 228
120 138 228
120 138 228
120 138 228
120 138 228
119 138 228
119 138 228
120 138 228
119 138 228
119 138 228
119 138 228
119 137 228
120 138 228
120 138 227
118 136 226
120 137 225
122 138 225
116 133 221
114 129 212
114 130 213
112 126 206
113 128 209
113 127 207
114 128 208
113 126 203
113 126 202
114 126 202
112 125 201
113 125 200
112 124 199
114 126 203
111 123 197
110 122 196
114 126 202
114 127 202
116 128 204
113 126 201
113 125 200
111 124 198
114 127 204
113 125 201
113 125 200
117 129 207
111 123 198
110 122 195
111 123 198
115 127 204
115 128 204
112 124 198
110 122 196
112 125 201
112 125 200
109 121 195
114 126 202
116 129 206
107 120 194
112 124 200
119 135 192
129 147 185
134 154 181
134 154 181
133 153 180
134 154 181
133 154 181
133 154 181
133 154 181
133 154 181
134 154 181
134 154 181
133 154 181
133 154 181
133 154 181
134 154 181
133 154 180
134 154 181
134 154 181
134 154 181
134 154 181
134 154 181
135 155 181
134 155 181
133 154 181
134 154 181
133 154 180
134 154 181
134 154 181
134 154 181
133 154 181
134 154 181
134 154 181
135 155 181
133 154 181
134 154 181
134 154 181
134 154 181
134 154 181
134 154 181
133 154 181
134 154 181
134 154 181
134 154 181
134 154 181
134 154 181
133 154 180
133 154 181
134 154 181
134 154 181
134 154 181
134 154 181
134 154 181
134 154 181
133 154 181
134 154 181
134 154 181
134 154 181
133 154 181
133 154 181
134 154 181
133 154 181
133 154 180
134 154 180
134 154 181
133 154 181
134 154 181
133 154 180
134 154 180
133 154 181
133 154 180
134 154 181
133 154 181
135 155 181
133 154 181
134 154 181
133 154 181
134 154 181
134 154 181
133 154 181
133 154 181
134 154 181
134 154 181
134 154 181
134 154 181
134 154 181
133 154 181
133 154 181
133 154 181
134 154 180
134 154 181
134 154 181
134 154 181
134 154 181
134 154 181
134 154 181
133 154 181
133 154 181
134 155 181
133 154 181
134 154 181
134 154 181
133 154 181
133 154 180
134 154 181
135 155 181
134 154 181
132 153 181
133 154 181
134 154 181
134 154 181
133 154 181
133 154 181
133 154 181
133 154 181
134 154 181
133 154 181
134 154 181
134 154 181
134 154 181
134 154 181
134 154 181
134 154 181
133 154 181
133 154 181
133 154 181
134 154 181
134 154 181
134 154 181
134 154 181
134 154 181
133 154 181
133 154 181
134 154 181
134 154 181
133 154 181
133 154 181
134 154 181
134 154 181
134 154 181
134 154 181
134 154 181
133 154 181
134 154 181
135 155 181
134 154 181
134 154 181
134 154 181
133 154 181
133 154 181
134 154 181
133 154 181
134 154 181
134 154 181
134 154 181
134 154 181
134 154 181
134 154 181
133 154 181
134 154 181
134 154 181
133 154 181
133 154 181
134 154 181
133 154 181
133 153 180
134 154 181
134 154 181
133 154 181
134 154 181
134 154 181
133 154 181
133 154 181
134 154 181
134 154 181
134 155 181
133 154 181
133 154 181
134 155 181
133 154 181
133 154 181
133 154 181
134 155 181
134 154 181
133 154 181
134 154 181
134 154 181
134 154 181
134 154 181
134 154 181
133 154 181
133 154 181
134 154 181
133 154 181
134 154 181
134 154 181
133 154 181
134 154 181
134 154 181
133 154 181
134 154 181
134 154 181
134 154 181
133 154 181
133 154 181
134 154 181
134 154 181
134 154 181
133 154 181
134 154 181
134 154 181
135 155 181
133 154 181
134 154 181
134 154 181
135 155 181
134 154 181
133 154 181
133 154 181
134 154 181
133 154 181
135 155 181
134 154 181
134 154 181
134 154 181
134 154 181
133 154 181
134 154 181
134 154 181
135 155 181
133 154 181
133 154 181
133 154 181
134 154 181
134 154 181
134 154 181
134 154 181
135 155 181
134 154 181
134 154 181
134 154 181
133 154 181
134 154 181
133 154 181
133 154 181
134 154 181
133 154 180
134 154 181
133 154 180
133 154 180
129 148 184
122 137 200
114 127 204
110 122 196
113 125 200
112 125 201
110 122 197
116 128 205
110 122 197
113 125 200
111 123 197
112 124 200
114 126 203
115 127 203
113 125 201
116 129 207
116 128 205
109 121 195
114 126 202
116 129 207
113 128 208
119 134 217
117 135 222
118 136 225
120 138 228
119 138 228
119 138 228
119 138 228
120 138 228
119 138 228
120 138 228
120 138 228
119 138 228
119 138 228
120 138 228
119 138 228
119 138 228
119 138 228
119 137 228
119 137 228
120 138 228
120 138 228
119 138 228
119 138 228
120 138 228
120 138 228
121 138 228
120 138 228
119 138 228
119 138 228
120 138 228
119 138 228
119 138 228
119 138 228
119 138 228
120 138 228
119 138 228
120 138 228
119 138 228
120 138 228
120 138 228
119 138 228
119 138 228
120 138 228
119 138 228
120 138 228
120 138 228
120 138 228
120 138 228
119 138 228
120 138 228
119 138 228
120 138 228
120 138 228
120 138 228
120 138 228
119 137 228
120 138 228
119 138 228
120 138 228
120 138 228
121 138 228
120 138 228
120 138 228
119 137 228
119 138 228
119 138 228
119 137 228
120 138 228
120 138 228
120 138 228
120 138 228
119 138 228
119 137 228
119 138 228
120 138 228
120 138 228
119 137 228
119 138 228
120 138 228
120 137 225
118 135 223
119 135 223
116 133 219
117 133 219
118 134 220
118 133 217
118 132 214
115 129 209
118 132 212
113 126 204
115 128 206
117 130 207
112 125 200
111 123 198
111 124 199
112 125 200
108 120 194
111 123 198
114 126 202
114 127 202
110 123 197
112 124 200
116 128 205
110 123 196
114 127 203
110 123 198
114 126 202
114 126 201
112 124 200
113 126 201
108 120 193
115 128 204
111 123 198
114 127 204
115 128 204
114 126 202
112 125 200
112 125 200
118 130 207
114 126 201
111 124 199
114 127 203
113 125 201
114 126 201
113 125 199
111 124 199
115 127 203
118 130 207
116 128 203
121 137 191
130 149 188
134 154 181
133 154 181
133 154 181
134 154 181
134 154 180
134 154 180
134 154 181
133 154 181
134 154 181
134 154 181
134 154 181
134 154 181
134 154 181
134 154 181
133 154 181
132 153 180
133 154 181
134 154 181
134 154 181
133 154 181
134 154 181
134 154 181
133 154 181
133 154 181
133 154 181
133 154 181
134 154 181
134 154 181
134 154 181
133 154 181
134 154 181
133 154 181
134 154 181
133 154 180
133 154 181
133 154 181
133 154 181
134 154 181
133 154 180
134 154 181
134 154 181
134 154 181
134 154 181
134 154 181
134 154 181
132 153 180
134 154 181
134 154 181
134 154 181
134 154 181
133 154 181
132 153 181
133 154 181
134 154 181
132 153 181
135 155 181
134 154 181
134 154 181
134 154 181
134 154 181
133 154 181
132 153 180
134 154 181
133 154 181
133 153 180
133 154 181
134 154 181
134 154 181
134 154 181
133 154 181
134 154 181
133 154 180
133 154 181
134 154 181
134 154 181
133 154 181
135 155 181
134 154 181
134 154 181
133 154 181
134 154 181
133 154 181
134 154 181
134 154 181
134 154 181
134 154 181
134 154 181
134 154 181
134 154 181
134 154 181
133 154 181
133 154 181
133 154 181
134 154 181
135 155 181
134 154 181
134 154 181
134 154 181
134 154 181
133 154 181
134 154 181
134 154 181
135 155 181
134 154 181
134 154 181
134 154 181
134 154 181
134 154 181
133 154 180
134 154 181
134 155 181
134 154 181
134 154 181
134 154 181
134 154 181
134 154 181
134 154 181
133 154 181
134 154 181
133 154 181
134 154 181
134 154 181
134 154 181
134 154 181
133 154 180
134 154 180
134 154 181
134 154 181
134 154 181
134 154 181
134 154 181
133 154 181
134 154 181
134 154 181
133 154 181
133 154 181
134 154 181
133 154 181
133 154 181
135 155 181
133 154 181
133 154 181
133 154 181
135 155 181
134 154 181
133 154 181
133 154 181
134 155 181
134 154 181
133 154 181
134 154 181
134 154 181
134 154 181
134 154 181
133 154 181
135 155 181
134 154 181
134 154 181
133 154 181
134 154 181
133 154 181
133 154 181
133 154 181
134 154 181
133 154 181
134 154 181
134 154 181
133 154 181
134 154 181
134 154 181
134 154 181
135 155 181
134 154 181
133 154 181
134 154 181
134 154 181
134 154 181
134 154 181
134 154 181
134 154 181
134 155 181
134 154 181
133 154 181
133 154 180
133 154 181
134 154 181
134 154 181
134 154 181
133 154 181
134 154 181
133 154 181
133 154 181
133 154 181
134 154 181
134 154 181
133 154 181
133 154 181
133 154 181
134 154 181
133 154 181
133 154 181
134 154 181
134 154 181
134 154 181
134 154 181
133 154 181
134 154 181
134 154 181
134 154 181
134 154 181
135 155 181
134 154 181
133 154 181
133 154 181
134 154 181
134 154 181
134 154 181
132 153 180
133 154 181
134 154 181
133 154 181
133 154 181
134 154 181
133 154 181
134 154 181
134 154 181
134 154 181
134 154 181
133 154 181
135 155 181
134 154 181
133 154 181
133 154 181
134 154 181
133 154 181
134 154 181
133 154 181
134 155 181
134 154 181
134 154 181
134 155 181
134 154 181
133 154 181
133 153 180
134 154 181
134 154 181
134 154 181
134 155 181
130 148 187
118 133 194
111 124 198
115 127 204
111 124 200
112 124 199
115 127 204
110 122 196
115 127 202
116 128 205
114 127 203
112 124 199
114 126 201
114 126 202
116 128 205
117 129 207
110 122 196
116 129 206
111 123 198
118 129 206
114 127 203
110 123 198
115 129 208
113 128 209
119 135 220
118 136 224
120 137 227
119 138 228
120 138 228
120 138 228
119 138 228
119 138 228
119 138 228
120 138 228
119 138 228
120 138 228
119 138 228
119 138 228
120 138 228
119 138 228
120 138 228
119 138 228
119 137 228
120 138 228
120 138 228
120 138 228
119 138 228
120 138 228
120 138 228
119 138 228
120 138 228
121 139 228
120 138 228
119 138 228
119 137 228
120 138 228
120 138 228
119 138 228
120 138 228
120 138 228
119 138 228
119 138 228
119 137 228
119 138 228
119 138 228
120 138 228
120 138 228
120 138 228
120 138 228
119 138 228
119 138 228
120 138 228
119 138 228
119 138 228
119 138 228
119 138 228
119 138 228
119 138 228
120 138 228
119 138 228
120 138 228
120 138 228
119 138 228
120 138 228
119 138 228
119 138 228
119 137 228
120 138 228
120 138 228
119 138 228
120 138 228
120 138 228
119 137 228
118 136 226
117 135 223
118 136 224
119 136 224
116 132 217
118 135 222
115 131 214
118 134 218
114 128 207
118 133 215
112 126 204
115 128 206
114 126 204
112 124 199
113 126 202
113 125 201
112 124 198
114 126 202
115 127 203
111 124 198
111 123 198
114 127 203
112 124 199
111 123 198
113 126 202
117 130 207
113 125 201
113 125 200
112 125 200
110 122 195
114 126 203
116 128 205
110 123 197
111 123 198
113 125 200
112 124 199
114 126 202
114 127 203
114 127 204
112 124 198
114 126 202
113 125 201
113 126 202
113 126 201
114 126 203
111 124 199
110 123 198
113 125 201
117 130 208
111 123 198
114 126 201
113 125 199
110 122 196
110 123 197
116 128 204
113 125 201
114 127 203
120 135 195
131 150 187
133 154 181
134 154 181
134 154 181
133 154 181
134 154 181
134 154 181
134 154 181
134 154 181
134 154 181
133 154 181
133 154 181
134 154 181
133 154 180
134 154 181
133 154 181
133 154 181
134 154 181
134 154 181
133 154 181
134 154 181
134 154 181
133 154 181
134 154 181
133 154 181
133 154 181
134 154 181
134 154 181
134 154 180
134 154 181
134 154 181
134 154 181
133 154 181
134 154 181
135 155 181
133 154 181
133 154 181
133 154 181
133 154 181
133 153 180
133 154 181
134 154 181
134 154 181
134 154 181
135 155 181
134 154 181
134 154 181
133 154 181
134 154 181
134 154 181
135 155 181
135 155 181
133 154 181
133 154 181
134 154 181
134 154 180
134 154 181
134 154 181
133 154 181
134 154 181
134 154 181
134 155 181
133 154 181
134 154 181
134 154 181
134 154 180
133 154 181
134 155 181
133 154 181
133 154 181
134 154 181
133 154 181
135 155 181
134 154 181
135 155 181
134 154 181
134 154 181
134 154 181
134 154 181
133 154 181
133 154 181
134 154 180
135 155 181
134 154 181
134 155 181
133 154 181
134 154 181
134 154 181
133 154 181
134 154 181
133 154 180
133 154 181
134 154 181
135 155 181
133 154 181
134 154 181
134 154 180
134 154 181
133 154 181
134 154 181
134 154 181
134 154 181
134 154 181
134 154 181
134 154 181
133 154 181
133 154 181
134 154 181
134 154 181
133 154 181
134 154 181
133 153 180
133 154 181
134 154 181
133 154 181
134 154 181
134 154 181
134 154 181
133 154 181
132 153 181
133 154 181
134 154 181
133 154 181
133 154 181
133 154 181
135 155 181
133 154 181
134 154 181
134 154 181
133 154 181
134 154 181
132 153 181
134 154 181
134 154 181
134 154 181
134 154 181
133 154 181
135 155 181
133 154 181
134 154 181
133 154 181
134 154 181
134 154 181
134 155 181
133 154 181
134 154 181
133 154 181
134 154 181
133 154 181
134 154 181
134 154 181
133 154 181
135 155 181
133 154 181
134 154 181
133 154 181
133 154 181
134 154 181
133 154 181
133 154 181
134 154 181
133 154 180
134 154 181
134 154 181
133 154 181
135 155 181
133 154 181
133 154 181
133 154 181
133 154 181
134 154 181
134 154 181
134 154 181
134 154 181
135 155 181
134 154 181
133 154 181
133 154 181
133 154 181
134 154 181
134 154 181
134 154 181
134 154 181
133 154 181
134 154 181
134 154 181
135 155 181
134 154 181
134 154 181
134 154 181
134 154 181
134 154 181
134 154 181
134 154 181
134 154 181
134 154 181
134 154 181
133 154 181
134 155 181
133 154 181
133 154 181
133 154 181
133 154 181
135 155 181
133 154 181
134 154 181
133 154 181
135 155 181
133 154 181
133 154 181
133 154 181
135 155 181
133 154 181
135 155 181
134 154 181
133 154 181
134 154 181
134 154 181
134 154 181
134 154 181
133 154 181
135 155 181
134 154 181
135 155 181
134 154 181
134 154 181
133 154 181
133 154 180
134 154 181
133 154 181
133 154 181
133 154 180
133 154 181
134 154 181
133 154 181
134 154 181
133 154 181
134 154 181
134 154 181
133 154 181
134 154 181
134 154 181
134 154 181
133 153 180
133 154 181
133 154 180
133 154 181
134 154 181
134 154 181
132 151 184
117 132 193
118 130 206
112 125 200
114 127 202
112 124 199
112 124 200
114 126 202
116 129 205
113 125 201
115 127 203
113 125 200
113 125 201
112 124 198
114 126 202
115 128 205
115 128 205
114 126 202
111 124 199
112 124 198
110 122 196
116 128 205
110 123 198
113 125 201
115 129 207
113 127 207
113 130 214
119 136 224
120 138 227
120 138 228
120 138 228
119 137 228
120 138 228
120 138 228
120 138 228
119 138 228
119 138 228
120 138 228
120 138 228
120 138 228
120 138 228
120 138 228
119 138 228
120 138 228
119 138 228
119 138 228
120 138 228
119 138 228
120 138 228
119 137 228
120 138 228
119 138 228
119 138 228
120 138 228
119 138 228
119 137 228
119 137 228
120 138 228
119 137 228
120 138 228
119 138 228
119 138 228
119 138 228
119 137 228
119 138 228
119 138 228
120 138 228
120 138 228
119 138 228
120 138 228
119 137 228
120 138 228
119 138 228
120 138 228
119 138 228
119 138 228
121 138 228
120 138 228
119 138 228
119 138 228
120 138 228
120 138 228
119 138 228
119 138 228
120 138 228
120 138 228
120 137 227
119 137 227
119 136 225
118 135 223
118 134 221
119 135 220
118 133 217
115 130 214
115 129 211
113 127 206
115 129 207
114 127 204
113 126 204
117 129 206
113 125 201
109 121 195
110 123 197
112 125 201
112 125 201
114 126 203
114 127 202
112 125 200
113 126 201
112 125 201
115 127 203
114 126 201
113 126 202
115 127 204
107 119 192
113 126 202
113 126 201
106 118 191
111 123 197
115 128 205
110 122 197
115 127 203
112 124 199
114 127 204
113 125 201
118 131 208
111 123 197
111 123 199
112 125 201
112 125 200
109 122 197
116 128 205
114 127 202
119 131 209
111 124 198
112 124 199
115 127 203
114 126 202
115 128 204
110 122 197
112 125 201
111 123 198
116 128 205
116 128 204
111 124 199
115 128 204
112 125 200
115 128 204
109 121 195
115 127 203
116 131 193
130 148 188
133 154 181
133 154 181
133 154 180
134 154 180
134 154 181
133 154 180
133 153 180
133 153 180
134 154 181
134 154 181
134 154 181
134 154 180
134 154 181
133 154 181
134 154 181
133 154 181
135 155 181
134 154 181
134 154 181
133 154 181
134 154 181
134 154 181
134 154 181
133 154 180
134 154 180
134 154 180
134 154 181
134 154 181
134 154 181
134 154 181
134 154 181
132 153 180
133 154 181
134 154 181
133 154 181
134 155 181
134 154 181
134 154 181
133 154 181
135 155 181
134 154 181
134 154 181
134 154 181
135 155 181
134 154 181
133 154 181
134 154 181
133 153 180
135 155 181
133 154 180
133 154 181
133 154 181
134 154 181
134 155 181
134 154 181
133 154 181
135 155 181
133 154 181
134 155 181
133 154 181
134 154 181
134 154 181
134 154 181
133 153 180
134 154 181
134 154 181
134 154 181
135 155 181
134 154 181
133 154 181
133 154 181
134 154 181
133 154 181
134 154 181
133 154 181
134 154 181
134 154 181
134 154 181
133 154 181
134 154 181
134 154 181
135 155 181
133 154 181
134 154 181
134 154 181
133 154 180
133 154 181
134 154 181
134 154 181
134 154 181
134 154 181
134 154 181
134 154 181
134 154 181
134 154 181
133 154 181
133 154 181
134 155 181
133 154 181
134 154 181
135 155 181
134 154 181
133 154 181
134 154 181
134 154 181
135 155 181
134 154 181
134 154 181
134 154 181
134 154 181
134 154 181
134 154 181
135 155 181
134 154 181
134 154 181
134 154 181
134 154 181
134 154 181
133 154 181
134 154 181
135 155 181
133 154 181
134 154 181
134 154 181
133 154 181
134 154 181
134 154 181
133 154 181
133 154 181
133 154 181
134 154 181
134 154 181
134 154 181
133 154 181
134 154 181
134 154 181
134 154 181
133 154 181
133 154 181
134 154 181
133 154 181
134 154 181
134 154 181
133 154 181
134 154 181
134 154 181
134 154 181
134 154 181
133 154 181
134 154 181
134 154 181
133 154 181
133 154 181
134 154 181
134 154 181
133 154 181
133 154 181
134 154 181
134 154 181
134 154 181
133 154 181
134 154 181
133 154 181
134 154 181
134 154 181
134 154 181
133 154 181
134 154 181
134 154 181
134 154 181
134 154 181
134 154 181
133 154 181
134 154 180
135 155 181
134 154 180
134 155 181
133 154 181
134 154 181
134 154 181
134 154 181
133 154 181
134 154 181
133 154 181
133 154 181
133 154 181
133 154 180
134 154 181
133 154 181
134 154 181
134 154 181
134 154 181
134 154 181
134 154 181
133 154 181
133 154 181
134 155 181
134 154 181
133 154 181
133 154 181
134 154 181
133 154 180
134 154 181
134 154 181
133 154 181
134 154 181
134 154 181
134 154 180
134 154 181
133 154 181
134 154 181
134 154 181
134 154 181
134 154 181
134 154 181
132 153 180
134 154 181
133 154 181
134 154 181
134 154 181
134 154 181
135 155 181
134 154 181
134 154 181
134 154 181
134 154 181
135 155 181
134 155 181
135 155 181
134 154 181
134 154 181
133 154 180
134 154 181
133 154 181
135 155 181
134 154 181
134 154 181
134 154 181
134 154 181
134 155 181
134 154 181
134 154 181
134 154 181
135 155 181
134 154 181
134 154 181
135 155 181
134 154 181
132 150 188
121 138 191
114 127 202
112 124 200
113 126 201
112 125 200
114 126 202
109 121 194
114 126 203
110 123 198
110 122 196
114 126 201
111 123 197
115 127 203
112 125 200
109 122 196
111 123 197
110 122 196
114 126 202
117 129 206
110 122 197
113 126 201
116 128 205
115 126 202
118 130 207
117 129 206
111 124 200
113 127 206
115 130 210
117 133 218
118 135 223
120 138 227
120 138 228
120 138 228
119 138 228
119 138 228
120 138 228
120 138 228
120 138 228
119 138 228
119 138 228
120 138 228
119 138 228
119 138 228
120 138 228
119 138 228
119 138 228
120 138 228
120 138 228
120 138 228
120 138 228
120 138 228
119 138 228
119 137 228
120 138 228
120 138 228
120 138 228
120 138 228
120 138 228
120 138 228
119 137 228
119 138 228
120 138 228
119 138 228
120 138 228
120 138 228
119 138 228
119 138 228
120 138 228
120 138 228
119 138 228
120 138 228
120 138 228
119 137 228
120 138 228
120 138 228
120 138 228
119 138 228
119 138 228
119 137 227
120 138 228
118 136 224
118 136 224
119 135 221
119 135 222
116 132 216
115 131 215
117 132 215
116 130 211
110 124 202
113 127 205
110 124 200
116 129 206
113 126 202
112 125 201
114 126 202
111 124 198
114 127 203
113 125 201
115 127 203
115 127 203
109 121 195
110 122 196
114 126 202
115 128 205
113 126 202
111 123 198
115 127 203
118 130 207
113 125 200
109 121 194
117 129 206
113 125 200
114 126 202
112 125 200
112 125 200
111 123 197
112 124 200
111 124 198
110 123 198
114 126 202
115 127 203
116 128 205
115 127 203
113 126 202
114 127 203
110 122 196
110 123 198
110 122 196
111 123 198
111 124 198
110 122 197
111 123 198
109 121 195
115 127 203
109 121 196
110 122 195
113 125 200
112 124 199
115 127 202
111 124 198
111 123 198
113 125 201
110 123 197
114 127 204
110 122 196
110 122 195
113 125 201
114 127 203
112 125 200
121 137 194
129 149 183
133 154 181
133 154 181
134 154 180
133 154 181
133 154 180
134 154 181
133 153 180
134 154 181
134 154 181
134 154 181
133 154 181
134 154 181
133 154 181
134 154 181
134 154 181
133 154 181
134 154 181
133 154 181
133 154 181
134 154 181
133 154 181
133 154 181
134 154 181
133 154 181
134 154 181
134 154 181
133 154 181
133 154 181
134 154 181
134 154 181
135 155 181
135 155 181
134 154 181
134 154 181
133 154 181
133 154 181
134 154 181
133 154 181
134 154 181
134 154 181
134 154 181
134 154 181
135 155 181
134 154 181
134 154 181
134 154 181
134 154 181
134 154 181
133 154 181
133 153 180
134 154 181
134 154 181
134 154 181
134 154 181
133 154 181
133 154 181
134 154 181
133 153 180
134 154 181
134 154 181
134 154 181
133 154 181
134 155 181
133 154 181
134 154 181
134 154 180
134 154 181
134 154 181
133 154 180
134 154 181
132 153 180
133 154 180
133 154 181
134 154 181
133 154 181
133 154 181
135 155 181
134 154 181
133 154 181
134 154 181
134 154 181
134 154 181
134 154 181
134 154 181
133 154 181
134 154 181
134 154 181
134 154 181
133 154 181
133 154 181
134 154 181
133 154 181
134 154 181
133 154 181
135 155 181
133 154 181
134 154 181
135 155 181
134 154 181
134 154 181
134 154 181
134 154 181
134 154 181
134 154 181
135 155 181
134 154 181
134 154 181
134 154 181
133 154 181
133 154 181
133 154 181
134 154 181
135 155 181
134 154 181
134 154 180
133 154 181
134 154 181
134 154 181
134 155 181
134 154 181
134 154 181
134 154 181
134 154 180
134 154 181
133 154 181
133 154 181
134 154 181
133 154 181
134 154 181
134 154 181
134 154 181
133 154 181
134 154 181
133 154 181
134 154 181
133 154 181
135 155 181
134 154 181
133 154 180
134 154 181
134 154 181
134 154 181
134 154 181
134 154 181
134 154 181
133 154 181
134 154 181
134 154 181
133 154 181
134 154 181
132 153 180
133 154 181
134 154 181
134 154 181
133 154 181
134 154 181
134 154 181
135 155 181
134 154 181
134 154 181
133 154 181
134 154 181
133 154 181
134 154 181
133 154 181
133 154 181
133 154 181
134 154 181
134 154 181
133 154 181
133 154 181
133 154 181
134 154 181
134 154 181
134 154 180
133 154 181
134 154 180
133 154 181
134 154 181
134 154 181
134 154 181
134 154 181
134 155 181
133 154 181
134 154 181
134 154 181
133 154 181
133 154 181
134 154 181
134 154 181
134 154 181
134 154 181
135 155 181
134 154 181
134 154 181
134 154 181
134 154 180
133 154 181
134 154 181
134 154 181
133 154 181
134 154 181
133 154 181
134 154 181
134 155 181
134 154 181
134 154 181
133 154 180
134 154 181
134 154 181
134 155 181
133 154 181
133 154 181
134 154 181
134 154 181
134 154 181
133 154 181
132 153 180
134 154 181
134 154 181
134 154 181
133 154 181
134 154 181
133 154 181
133 154 181
134 154 181
134 154 181
134 154 181
133 154 181
134 154 181
134 154 181
134 155 181
133 153 180
134 154 181
133 154 181
134 154 181
134 154 181
134 154 181
134 154 180
134 154 181
133 154 181
133 154 181
134 154 181
133 154 181
134 154 181
134 154 181
134 154 181
134 154 181
132 153 181
124 140 195
115 128 202
113 125 201
112 124 198
107 119 193
110 122 196
113 124 199
115 127 204
114 127 203
114 127 203
115 127 203
113 125 200
114 126 201
112 124 199
114 126 202
113 125 201
111 123 197
115 128 204
112 125 200
114 126 202
114 126 202
113 125 200
114 126 202
113 125 200
117 129 206
114 127 202
110 122 196
114 126 202
114 128 206
116 130 212
117 133 217
119 135 223
118 136 226
120 138 227
120 138 228
119 138 228
119 138 228
120 138 228
119 137 228
119 138 228
120 138 228
119 137 228
120 138 228
119 137 228
119 138 228
120 138 228
119 138 228
119 138 228
119 138 228
119 138 228
119 138 228
120 138 228
120 138 228
119 138 228
120 138 228
119 137 228
120 138 228
119 138 228
120 138 228
119 138 228
119 138 228
120 138 228
120 138 228
120 138 228
120 138 228
120 138 228
119 138 228
120 138 228
119 138 228
120 138 228
120 138 228
120 138 228
120 138 228
118 136 226
120 137 227
118 135 221
117 133 219
115 132 217
116 132 216
116 131 215
116 131 214
116 130 210
112 127 206
111 124 201
112 125 202
110 123 198
113 126 202
114 126 202
115 127 202
112 124 198
112 124 198
113 126 201
120 132 209
117 129 205
113 125 201
109 121 194
116 128 204
109 121 196
115 127 202
115 128 205
112 124 198
110 122 196
113 126 202
111 123 197
112 125 200
114 126 201
110 122 196
114 125 199
117 129 207
114 126 201
115 127 204
109 121 194
113 126 201
105 118 193
112 125 200
112 124 199
113 125 200
117 129 207
112 124 199
113 126 202
118 130 207
113 126 202
112 125 200
113 126 201
114 126 202
114 127 202
114 125 201
115 127 203
113 126 202
113 125 202
112 124 199
113 126 202
113 126 202
112 124 199
115 127 203
114 126 201
118 130 208
113 126 202
112 125 200
111 123 198
108 120 193
110 122 197
114 126 202
111 123 198
113 125 201
115 127 202
113 125 201
109 122 195
113 125 200
123 137 197
129 148 185
134 154 180
133 154 181
134 154 181
134 154 181
134 154 180
134 154 181
133 154 181
134 154 181
134 155 181
133 154 181
134 154 181
133 154 180
133 154 181
133 154 181
135 155 181
135 155 181
134 154 181
133 154 180
134 154 181
134 154 181
135 155 181
133 154 180
133 154 180
134 154 181
134 154 181
133 154 181
133 154 181
134 154 181
134 154 181
134 154 181
134 154 181
132 153 181
134 154 181
133 154 180
133 154 181
135 155 181
134 154 181
133 154 181
134 154 181
133 154 180
134 154 181
134 154 180
135 155 181
133 154 181
134 154 181
134 154 181
134 154 181
133 154 181
134 154 181
133 154 180
133 154 181
135 155 181
133 153 180
134 154 181
134 154 181
134 154 181
134 154 181
134 154 181
135 155 181
134 154 181
133 154 181
133 154 181
133 154 181
134 155 181
134 154 181
133 154 181
134 154 181
134 154 181
134 154 181
133 154 181
134 154 181
133 154 181
134 154 181
133 154 181
134 154 181
134 154 181
134 154 181
134 154 181
133 154 181
134 154 181
133 154 181
134 154 181
134 154 181
134 154 181
134 154 181
134 155 181
134 154 181
133 154 180
134 154 181
133 154 181
134 154 181
134 154 181
133 154 181
133 154 181
134 154 181
134 154 181
134 154 181
134 154 181
134 154 181
133 154 181
134 154 181
133 154 181
134 154 181
134 155 181
134 154 181
134 154 181
133 154 181
134 155 181
135 155 181
134 154 181
135 155 181
133 154 181
133 154 181
133 154 181
134 154 180
134 154 181
134 154 181
133 154 181
133 154 181
134 154 181
134 154 181
134 154 181
133 153 180
134 154 181
133 154 181
133 154 181
134 154 181
133 154 180
134 154 181
134 154 181
133 154 181
134 154 181
134 155 181
133 154 180
134 154 181
133 154 181
134 154 181
134 154 181
134 154 181
133 154 181
133 154 181
133 154 181
134 154 180
134 154 181
133 154 181
134 154 181
134 154 181
133 154 181
134 154 181
134 154 181
134 154 181
134 154 181
133 154 181
134 154 181
134 154 181
135 155 181
134 154 181
133 154 181
134 154 181
134 154 181
133 154 181
134 154 181
133 154 181
134 154 181
133 154 181
134 154 181
134 154 181
134 154 181
134 154 181
133 154 181
133 154 181
133 154 181
134 154 181
133 154 181
134 154 181
134 154 181
133 154 181
133 154 181
134 154 181
134 154 181
133 154 181
134 154 181
134 154 181
134 154 181
134 154 181
133 154 181
135 155 181
134 154 181
134 154 181
133 154 181
133 154 181
134 154 181
133 154 181
133 154 181
133 154 180
134 154 181
133 154 181
134 154 181
134 155 181
134 154 181
133 154 181
134 154 181
134 154 181
134 154 181
134 154 181
134 154 181
134 154 181
134 154 181
134 154 181
133 154 181
133 154 181
134 154 181
134 154 181
134 154 181
134 154 181
135 155 181
134 154 181
134 154 180
134 154 181
135 155 181
134 154 181
134 154 181
134 155 181
134 154 181
135 155 181
134 154 181
133 154 181
134 154 181
133 154 181
133 154 181
134 154 181
134 154 181
134 154 181
134 154 180
134 154 181
133 154 180
133 154 181
134 154 181
134 154 180
134 154 181
134 154 181
133 154 181
133 154 181
133 154 181
134 154 181
133 153 180
133 154 181
134 154 181
131 151 184
124 139 195
115 128 199
110 122 196
112 124 199
116 129 205
113 126 201
114 127 203
114 126 201
111 124 200
110 123 198
105 117 189
113 126 202
113 125 200
114 126 202
113 125 201
116 128 204
113 125 200
114 127 203
117 130 207
118 130 208
113 126 203
111 123 198
118 130 207
117 129 206
111 124 199
113 125 201
117 129 206
114 126 201
110 122 196
113 126 202
115 127 202
114 128 207
117 132 216
118 134 220
121 138 227
118 137 227
119 138 228
119 138 228
120 138 228
120 138 228
119 138 228
119 138 228
120 138 228
120 138 228
119 138 228
120 138 228
120 138 228
120 138 228
119 138 228
119 137 228
120 138 228
121 138 228
120 138 228
120 138 228
120 138 228
119 138 228
120 138 228
119 137 228
120 138 228
120 138 228
120 138 228
119 138 228
119 138 228
120 138 228
119 138 228
119 137 228
119 137 227
119 137 227
117 134 222
120 137 226
120 137 225
121 136 222
117 132 216
114 129 210
116 131 214
114 128 207
113 127 206
112 125 202
114 126 203
113 125 200
117 128 205
110 123 198
112 125 200
114 126 202
115 128 204
114 126 202
115 127 204
111 123 198
112 125 200
113 125 202
115 127 203
118 131 209
111 124 199
116 128 205
114 126 203
111 123 198
113 125 201
117 129 207
114 126 202
112 124 199
113 125 201
115 127 203
119 131 208
112 124 199
110 122 196
110 122 195
112 124 200
109 121 195
115 128 204
115 127 203
115 127 202
111 123 198
111 123 197
115 127 203
114 126 202
112 124 200
114 126 202
110 122 196
117 129 206
115 128 205
113 125 201
114 126 202
116 128 205
113 125 201
110 122 196
112 124 198
113 125 201
116 128 206
111 123 198
109 122 196
115 127 203
111 124 198
111 124 198
115 127 203
115 127 204
115 127 203
112 124 198
115 127 204
110 122 195
112 124 198
118 130 207
112 124 200
111 123 197
112 125 200
112 124 199
115 127 204
110 122 197
112 124 199
114 126 202
120 135 197
130 148 190
133 154 181
133 153 180
132 153 181
132 153 180
133 154 181
133 154 181
135 155 181
134 154 181
134 154 181
134 154 181
134 154 181
134 154 181
133 154 181
134 154 181
133 154 181
134 154 181
134 154 181
134 154 180
133 154 181
134 154 181
134 154 181
133 154 181
133 154 181
134 154 180
134 154 181
133 154 181
133 154 181
135 155 181
133 154 180
133 154 181
134 154 181
133 154 180
134 154 181
133 154 181
134 154 181
134 154 181
134 154 181
134 154 181
134 154 181
134 154 181
134 154 181
133 154 181
134 154 181
133 154 181
135 155 181
133 154 181
133 154 181
135 155 181
133 154 181
134 154 181
134 155 181
133 154 181
133 154 181
134 154 180
134 154 181
133 154 181
133 154 180
132 153 180
133 154 181
133 154 181
133 154 181
134 154 181
132 153 180
134 154 181
134 154 180
133 154 181
133 154 180
135 155 181
134 154 181
135 155 181
134 154 181
133 154 181
133 154 181
133 154 181
133 154 181
134 154 181
134 154 181
134 154 181
135 155 181
135 155 181
134 154 180
133 154 181
134 154 181
134 154 180
134 154 181
133 154 181
134 154 181
134 154 181
134 154 181
134 154 181
133 154 181
134 154 181
133 154 181
133 154 181
135 155 181
134 154 181
134 154 181
134 154 181
134 154 181
133 154 180
134 154 181
133 154 180
134 154 181
134 154 181
134 154 181
134 154 181
133 154 181
133 154 181
134 154 181
133 154 181
133 154 180
134 154 181
134 154 181
134 154 181
134 154 181
135 155 181
134 154 181
133 154 181
133 154 180
134 154 181
134 154 181
133 154 181
134 154 181
135 154 180
134 154 181
134 154 181
133 154 181
134 154 181
133 154 181
133 154 181
134 154 181
134 154 181
133 154 181
134 154 181
134 154 181
133 154 181
134 154 181
134 154 181
134 154 181
134 154 181
134 154 181
134 154 181
133 154 181
134 154 181
133 154 181
133 154 181
134 154 181
133 154 181
134 154 181
134 154 181
133 154 181
134 155 181
133 154 181
134 154 181
133 154 181
134 154 181
133 154 181
133 154 181
134 154 181
135 155 181
134 154 181
133 154 180
133 154 180
134 154 181
134 154 181
135 155 181
133 154 181
134 154 181
134 154 181
133 154 181
134 154 181
134 154 181
135 155 181
134 154 181
132 153 181
133 154 181
134 154 181
134 154 181
134 154 181
134 154 181
134 154 181
133 154 181
133 154 181
134 154 181
133 154 181
134 154 181
134 154 181
133 154 181
133 154 180
133 154 181
133 154 181
135 155 181
135 155 181
133 154 181
135 155 181
134 154 181
134 154 181
134 154 181
134 154 181
133 154 181
133 154 180
134 154 181
134 154 181
134 155 181
133 154 181
134 154 181
133 154 180
134 154 181
134 155 181
134 154 181
135 155 181
134 154 181
135 155 181
134 154 181
133 154 181
133 154 181
133 154 181
133 154 181
134 154 180
134 154 181
134 154 181
134 154 181
134 154 181
134 154 181
134 154 181
134 154 181
133 154 181
134 154 181
134 154 180
133 154 181
133 154 181
134 154 181
134 154 181
133 154 181
134 155 181
133 154 181
133 154 181
133 154 181
135 155 181
134 154 181
134 154 181
133 154 180
134 154 181
134 154 181
134 154 181
133 154 181
134 154 181
133 154 181
131 151 179
124 141 192
116 129 199
110 123 198
112 124 199
108 120 194
114 127 204
112 124 199
115 127 205
110 122 196
109 121 196
113 125 200
111 123 197
112 124 198
111 123 198
109 121 195
112 125 200
116 128 205
113 125 201
113 126 201
114 127 203
112 125 200
111 124 198
112 124 198
112 125 201
115 127 204
113 126 201
115 127 204
114 126 202
111 123 198
112 124 198
115 127 204
117 129 206
112 124 201
113 126 204
116 130 209
118 133 219
118 135 223
119 136 224
119 138 228
119 138 228
120 138 228
120 138 228
119 138 228
120 138 228
119 138 228
119 138 228
120 138 228
120 138 228
119 138 228
120 138 228
120 138 228
120 138 228
119 138 228
120 138 228
119 138 228
120 138 228
119 138 228
120 138 228
119 137 228
119 137 227
119 137 228
119 137 226
119 136 226
116 133 219
118 134 219
116 132 216
116 131 214
116 131 214
112 127 206
114 127 206
115 128 206
113 127 205
112 124 199
115 128 204
111 123 198
109 121 196
114 125 200
111 123 197
113 125 200
113 125 201
113 125 201
114 126 201
111 123 197
111 123 197
115 127 202
110 122 196
112 125 200
112 124 199
112 125 200
111 123 198
113 126 203
106 119 192
112 124 199
115 127 203
116 127 203
115 127 203
109 121 194
112 124 200
112 124 199
109 122 196
114 126 201
111 123 198
111 124 200
115 127 202
112 124 200
110 123 197
114 126 202
113 125 200
110 122 195
110 122 196
117 129 206
109 121 195
110 123 198
117 129 206
112 125 200
115 127 203
114 127 204
114 127 204
109 121 195
112 124 200
111 124 199
114 127 203
111 124 198
113 126 203
111 123 197
111 124 199
111 123 198
111 123 198
109 121 194
111 123 198
113 125 202
112 124 199
115 128 205
111 123 198
110 123 198
110 122 197
112 125 201
115 127 204
117 129 206
115 127 203
111 123 198
113 125 201
115 127 203
109 122 196
114 126 202
111 124 198
111 124 198
107 119 192
113 125 201
117 132 196
130 149 185
134 154 181
133 154 181
133 154 181
134 154 181
133 154 181
133 154 181
133 153 180
134 154 180
134 154 181
133 154 181
134 154 181
135 155 181
133 153 180
133 154 180
133 154 181
134 154 181
134 154 181
133 154 181
133 154 181
134 154 181
133 153 180
133 154 181
133 154 181
133 154 181
134 154 181
133 154 181
133 154 180
134 154 181
133 154 181
133 154 181
134 154 181
134 154 181
134 154 181
133 154 181
133 154 181
133 154 181
134 154 181
134 154 181
133 154 181
134 154 181
134 154 181
133 154 181
133 154 181
134 154 181
134 154 180
133 154 181
134 154 181
134 154 181
134 154 181
133 154 181
134 154 181
134 154 181
134 154 181
133 154 181
133 154 181
134 154 181
134 154 181
134 154 181
133 154 181
133 154 181
133 154 181
134 154 181
134 154 181
134 154 181
134 154 181
134 154 181
133 154 181
133 154 180
133 154 181
133 154 180
134 154 181
133 154 181
134 154 181
133 154 181
133 154 181
134 154 181
135 155 181
134 154 181
134 154 181
133 154 181
133 154 181
134 154 181
133 154 181
134 154 181
134 154 181
133 154 181
133 154 181
134 154 181
133 154 181
134 154 181
133 154 180
134 154 181
133 154 181
134 154 181
133 154 181
134 154 181
135 155 181
133 154 181
134 154 181
134 154 181
134 154 181
133 154 181
133 154 181
133 154 181
133 154 181
134 154 181
133 154 181
134 154 181
134 154 181
134 154 181
134 154 181
134 155 181
134 154 181
133 154 181
135 155 181
133 154 181
134 154 181
133 154 181
134 154 181
133 154 181
133 154 181
133 153 180
134 154 181
134 154 181
134 154 181
133 154 181
134 154 181
133 154 181
134 154 181
133 154 181
133 154 180
133 154 181
133 154 181
134 154 181
134 154 181
134 154 181
134 154 181
134 154 181
133 154 181
134 154 181
134 154 181
134 154 181
134 154 181
134 154 181
133 154 181
133 154 181
133 154 181
134 154 181
134 154 181
133 154 181
135 155 181
134 155 181
134 154 181
134 154 181
133 154 181
134 154 181
134 154 181
134 154 181
134 154 181
134 155 181
133 154 181
134 154 181
134 154 181
134 154 181
134 154 181
133 154 181
134 154 181
133 154 181
134 155 181
133 154 181
134 154 181
134 154 181
133 154 181
134 154 181
135 155 181
134 154 181
134 154 181
133 154 181
135 155 181
133 154 181
133 154 181
134 154 181
133 154 181
134 154 181
134 154 181
133 154 181
134 154 181
133 154 181
132 153 181
134 154 181
134 154 181
134 154 181
134 154 181
133 154 181
133 154 181
134 154 181
134 154 181
134 154 181
134 154 180
134 154 181
133 154 181
134 154 181
133 154 181
133 154 181
134 154 181
135 155 181
134 154 181
134 154 181
134 154 181
134 154 181
134 154 181
133 154 181
134 154 181
134 154 181
133 154 181
133 154 180
133 153 180
133 154 180
133 154 181
134 155 181
133 154 181
133 154 180
133 153 180
134 154 181
134 154 181
135 155 181
134 154 181
134 154 181
134 154 181
134 154 181
134 154 181
134 154 181
134 154 181
133 154 180
133 154 181
133 154 181
133 154 181
133 154 181
133 154 181
133 154 181
134 154 181
134 154 181
133 154 181
134 154 180
133 154 180
134 154 180
134 154 181
134 154 181
134 154 181
121 138 184
114 127 198
106 118 192
115 127 203
120 132 210
113 125 200
110 122 196
116 128 205
110 122 196
112 124 199
114 126 202
116 128 205
113 125 201
113 125 201
114 126 202
115 127 203
110 123 198
117 129 206
114 126 200
109 121 195
115 127 204
111 123 198
117 129 206
115 127 202
111 123 198
113 126 202
115 128 205
115 127 204
115 127 202
110 122 196
113 125 199
114 126 202
111 123 199
115 128 204
109 122 197
114 127 203
115 129 208
116 131 214
117 133 220
120 138 227
119 137 227
120 138 228
120 138 228
120 138 228
120 138 228
119 138 228
120 138 228
119 138 228
119 138 228
119 138 228
120 138 228
120 138 228
119 138 228
120 138 228
118 136 225
118 136 224
118 135 224
119 135 223
119 135 221
115 131 215
116 132 215
117 131 212
117 130 210
114 128 207
115 128 206
115 127 205
115 127 205
112 125 201
110 123 198
112 124 199
111 123 198
113 125 202
115 127 203
110 122 197
107 119 193
113 126 201
115 127 202
115 127 204
116 128 204
111 124 199
114 126 202
109 122 198
115 127 203
114 126 202
113 126 201
115 127 203
114 126 203
108 120 194
112 125 201
112 124 199
111 124 200
111 124 199
111 124 198
110 123 197
112 125 200
113 126 202
114 126 202
114 127 203
112 124 200
111 123 198
111 123 196
113 125 201
112 124 200
117 129 207
112 125 200
114 126 203
114 126 202
109 122 196
110 122 196
114 126 202
111 123 198
113 126 201
111 124 198
114 126 202
113 126 203
111 123 198
111 124 199
114 126 202
112 125 200
111 123 198
113 125 201
115 127 204
111 123 198
107 120 194
109 122 195
114 126 203
114 126 203
113 125 200
114 126 202
112 125 200
116 129 206
115 127 202
115 128 204
110 122 197
113 125 201
116 128 204
112 125 200
112 125 200
116 129 206
112 125 200
105 117 190
114 126 202
108 120 194
112 124 200
109 121 195
113 125 200
115 127 203
117 129 205
112 125 199
113 128 191
129 148 184
133 154 180
135 155 181
134 154 181
134 154 181
133 154 180
134 154 181
134 154 181
133 154 181
134 154 181
134 154 181
133 154 181
134 154 181
134 154 181
134 154 181
134 154 181
133 154 181
133 154 180
135 155 181
135 155 181
133 154 180
134 154 180
135 155 181
133 154 181
134 154 181
134 154 181
134 154 181
134 154 181
133 154 181
133 154 181
134 154 180
134 154 181
134 154 181
134 154 181
134 154 181
134 154 181
134 154 181
133 154 180
134 154 181
133 153 180
133 154 181
133 154 181
133 154 181
133 154 181
134 154 181
135 155 181
134 154 181
133 154 181
133 154 181
134 154 181
134 155 181
134 154 181
134 154 181
134 154 181
134 154 180
134 154 181
133 154 181
134 154 181
133 154 181
134 154 181
134 154 181
133 154 181
134 154 181
133 154 181
133 154 181
134 154 181
133 154 181
133 154 181
134 154 181
135 155 181
134 154 181
134 154 181
135 155 181
135 155 181
133 154 181
134 154 181
134 154 181
134 154 181
133 154 181
134 154 181
134 154 181
133 153 180
134 154 181
132 153 180
134 155 181
133 154 181
134 154 181
134 154 181
134 154 181
134 154 181
134 154 181
134 154 181
133 154 180
133 154 181
133 154 181
133 154 181
134 154 181
134 155 181
133 154 181
134 155 181
134 154 181
133 154 181
134 154 181
134 154 181
133 154 181
134 154 181
134 154 181
133 154 181
134 154 181
134 154 181
134 154 181
134 155 181
134 154 181
134 154 181
134 154 181
134 154 181
134 154 181
134 154 181
135 155 181
133 154 181
135 155 181
133 154 181
134 154 181
133 154 181
133 154 181
133 154 181
133 154 181
134 154 181
134 154 181
134 154 181
134 154 181
134 154 181
133 154 181
133 154 181
134 154 181
134 154 181
133 154 181
133 154 181
134 154 181
135 155 181
134 154 181
134 154 181
134 154 181
133 154 181
133 154 181
134 154 181
134 154 181
134 154 181
134 154 181
134 154 181
133 154 180
133 154 181
133 154 181
133 154 181
134 154 181
134 154 181
135 155 181
133 154 181
133 154 181
134 154 181
134 154 181
133 154 181
133 154 181
134 154 181
134 154 181
134 154 181
134 154 181
134 154 181
134 154 181
134 154 181
133 154 181
134 154 181
134 154 181
134 154 181
134 154 180
134 154 181
135 155 181
133 154 181
134 154 181
134 154 181
133 154 181
133 154 181
134 154 181
133 154 181
133 154 180
135 155 181
134 154 181
133 154 181
134 154 181
134 154 181
135 155 181
134 154 181
135 155 181
134 154 181
134 154 181
133 154 181
134 154 181
134 154 181
133 154 181
133 154 181
134 154 181
133 154 181
133 153 180
133 154 181
134 154 181
134 154 181
134 154 181
134 154 181
134 154 180
134 154 181
133 154 181
134 154 181
134 154 181
134 154 181
134 154 181
134 154 181
133 154 181
134 154 181
133 154 181
134 154 181
133 154 181
134 154 181
134 154 181
133 154 181
134 154 181
134 154 181
134 154 181
134 154 181
134 154 181
134 154 181
132 153 180
134 154 181
134 154 181
133 154 180
133 154 181
133 154 181
134 154 181
134 155 181
133 154 181
133 154 180
133 154 181
133 154 180
133 154 181
133 154 181
133 154 181
133 153 180
134 154 181
134 154 180
133 154 181
133 154 183
125 142 184
115 129 194
115 127 202
109 121 196
110 123 197
115 128 204
110 122 198
115 127 203
112 124 199
110 122 195
110 122 196
116 128 204
111 123 198
111 123 197
113 125 200
117 129 207
112 124 199
114 126 201
109 122 197
116 128 204
113 125 201
117 129 207
114 126 202
110 122 196
114 126 202
115 127 202
116 128 205
113 125 200
114 126 200
112 124 200
114 126 202
112 124 199
114 126 200
116 129 205
114 127 203
111 123 198
113 125 200
116 128 206
114 127 205
113 128 209
119 135 220
118 135 221
118 136 225
120 138 228
120 138 228
120 138 228
119 137 228
119 137 227
119 137 228
119 137 226
117 134 221
119 136 223
118 134 219
116 131 214
115 130 212
118 133 215
112 127 207
115 128 207
113 127 204
117 130 207
112 124 199
111 124 200
112 124 199
114 126 202
112 124 199
120 132 211
112 125 200
114 126 201
109 121 195
112 125 201
111 123 198
114 127 203
110 122 195
111 123 198
111 124 199
114 126 203
110 123 197
114 126 201
111 124 199
111 123 197
113 126 202
113 125 200
110 122 197
114 126 202
107 120 193
112 125 201
115 127 204
114 126 202
108 121 195
112 125 201
118 130 208
115 127 202
109 122 195
112 124 200
112 124 200
110 122 196
108 120 194
112 125 200
113 125 201
114 126 202
113 125 200
115 127 204
111 124 199
117 129 206
111 124 199
113 125 201
112 125 201
115 127 204
109 121 196
112 124 199
115 127 203
112 124 199
115 127 203
112 125 200
110 122 196
113 125 200
109 122 196
107 120 193
113 125 201
109 121 196
111 123 198
113 126 202
114 127 203
104 117 189
112 125 200
114 126 202
111 124 198
116 128 205
107 120 194
113 125 200
112 125 200
109 122 197
111 124 198
111 123 197
113 125 200
110 122 195
103 115 187
115 127 203
113 125 200
115 127 203
111 124 199
110 123 198
116 127 203
111 124 199
108 120 193
116 128 205
115 127 204
112 125 200
116 128 204
117 132 195
128 146 183
133 154 181
133 154 180
134 154 181
133 153 180
134 154 181
134 154 181
134 154 181
133 153 180
134 155 181
133 153 180
134 154 181
133 153 180
134 154 181
133 154 180
134 154 181
134 154 181
133 154 181
133 154 181
133 154 180
133 154 181
133 154 181
133 154 180
133 154 181
134 154 181
133 154 181
134 154 181
134 154 181
134 154 181
133 154 181
134 154 181
134 154 181
133 154 181
134 154 181
134 154 181
133 154 181
132 154 181
133 154 181
134 155 181
134 154 181
133 153 179
134 154 181
134 154 181
134 154 181
133 154 181
134 154 181
135 155 181
134 155 181
132 153 181
134 154 181
133 154 181
134 154 181
133 154 181
133 154 181
134 154 181
134 154 181
133 154 181
134 154 181
132 153 180
134 154 181
134 154 181
134 154 181
133 154 181
134 154 181
134 154 181
134 154 181
134 154 181
134 154 181
134 154 181
134 154 181
134 154 181
135 155 181
134 154 181
134 154 181
133 154 181
133 154 181
133 154 181
134 154 181
133 154 180
134 154 181
133 154 181
133 154 180
133 154 181
133 154 181
133 154 181
133 154 181
133 154 181
134 154 181
134 154 181
135 155 181
133 154 181
133 154 181
134 154 181
135 155 181
134 154 180
134 154 181
134 154 181
134 154 181
134 154 181
134 154 181
133 154 181
133 154 181
134 154 181
134 154 181
134 154 181
134 154 181
134 154 181
134 154 181
133 154 181
133 154 181
134 154 181
134 154 181
133 154 181
134 154 181
133 154 181
133 154 181
133 154 181
134 154 181
134 154 181
135 155 181
134 154 181
133 154 181
134 154 181
134 154 181
134 154 181
133 154 181
134 154 181
134 154 181
134 154 181
134 154 181
133 154 181
134 154 181
133 154 181
133 154 180
133 154 181
133 154 181
134 154 181
134 154 180
134 154 181
133 154 181
133 154 181
133 154 181
134 154 181
134 154 181
134 154 181
134 154 181
134 154 181
134 154 181
133 154 181
135 155 181
133 154 180
134 154 181
134 154 181
134 154 181
134 154 181
134 154 181
134 154 181
133 154 181
134 154 181
133 154 181
133 154 181
133 154 181
134 154 181
134 155 181
134 154 181
133 154 181
133 154 181
134 155 181
133 154 181
134 154 181
134 154 181
134 154 181
133 154 180
134 154 181
134 154 181
135 155 181
134 154 181
134 154 181
135 155 181
134 154 181
134 154 181
134 154 181
133 154 181
134 154 181
134 154 181
135 155 181
134 154 180
134 154 181
134 154 181
134 154 181
135 155 181
134 154 181
135 155 181
134 154 181
134 154 181
133 154 181
133 154 181
134 154 181
133 154 181
134 154 181
133 154 181
134 154 181
134 154 181
133 154 181
134 154 181
134 154 181
134 154 181
133 154 180
133 154 181
133 154 181
134 154 181
134 154 181
133 154 181
134 154 181
134 154 181
134 154 180
134 154 181
134 154 181
133 154 181
134 154 181
134 154 181
133 154 181
132 154 181
134 154 180
133 154 181
133 154 181
133 154 181
134 154 181
134 154 181
133 154 181
134 154 181
133 154 181
134 154 181
134 154 181
133 153 180
133 154 180
134 154 181
133 154 181
133 153 180
134 154 181
133 153 180
134 154 181
133 154 181
133 154 181
135 155 181
133 154 181
134 154 181
133 154 181
134 154 181
133 153 180
127 144 189
112 126 192
113 126 201
108 121 195
111 124 198
111 123 198
113 125 200
113 125 200
113 125 201
110 122 196
111 123 198
114 126 202
111 123 197
113 125 200
114 126 202
111 123 197
112 124 199
109 122 197
113 125 201
110 122 196
114 125 200
113 126 203
109 121 196
114 127 205
115 127 203
113 125 200
113 125 200
112 124 200
114 126 201
112 124 199
110 123 198
114 126 202
115 128 206
113 126 202
109 121 195
114 126 202
118 130 207
111 123 197
110 123 197
108 121 195
116 129 207
112 127 207
116 131 214
118 134 220
121 137 224
118 134 219
116 132 216
119 134 218
114 129 211
117 131 212
112 126 206
111 125 202
113 126 202
114 127 203
117 129 205
112 125 201
114 127 203
111 123 198
112 124 198
114 126 201
113 125 200
116 128 205
111 123 196
117 130 207
110 122 196
115 127 204
114 126 201
107 120 194
112 125 200
112 124 198
113 125 201
115 126 202
115 127 203
111 123 198
114 126 202
112 124 198
113 125 200
108 120 193
114 126 201
112 124 198
113 125 202
110 123 198
111 123 197
113 125 201
110 122 196
111 123 198
116 128 204
113 125 200
113 125 200
106 119 192
111 124 200
107 119 192
112 125 200
106 118 190
112 124 198
110 122 197
110 122 197
110 122 195
115 127 204
114 126 202
111 123 198
116 128 204
112 124 200
111 123 198
111 124 198
109 121 195
113 126 201
111 124 200
110 122 197
110 123 198
117 129 205
112 124 198
115 127 205
113 125 200
111 124 199
111 123 198
112 124 199
114 127 204
109 121 195
114 126 202
112 125 201
110 123 197
110 122 196
113 126 201
110 123 198
111 124 198
115 127 202
110 122 196
115 127 204
111 123 198
111 123 198
111 123 197
110 122 197
111 123 198
111 123 198
113 125 200
111 124 199
116 129 206
113 126 202
114 126 202
112 124 199
114 126 202
110 122 197
111 123 197
115 128 204
110 122 196
111 123 197
113 126 202
111 124 200
119 133 198
126 144 185
134 154 181
134 154 180
133 153 180
134 154 181
133 154 181
133 153 180
133 153 179
132 153 180
133 153 180
134 154 181
134 154 180
134 154 181
133 154 181
134 154 181
133 154 181
133 154 181
133 154 181
134 155 181
133 154 180
133 153 180
133 153 180
132 153 180
134 154 181
135 155 181
134 154 181
134 154 180
133 153 180
134 154 181
134 154 181
134 154 181
132 153 180
133 154 181
133 154 181
134 154 181
134 154 180
133 154 181
134 154 181
134 154 181
133 153 180
134 154 181
135 154 180
133 154 181
134 154 181
134 154 180
134 154 181
133 154 181
135 155 181
133 154 181
133 154 181
134 154 181
133 153 180
133 154 181
134 154 181
134 154 181
133 153 180
134 154 181
134 154 181
133 154 180
134 154 181
133 154 181
135 155 181
134 154 181
134 154 181
133 154 181
133 154 181
133 154 181
134 154 181
133 154 181
134 154 181
133 154 181
134 154 181
134 154 181
134 154 181
134 154 181
133 154 181
134 154 181
133 154 181
134 154 181
133 154 181
134 154 181
134 154 181
133 154 181
134 154 181
133 154 180
134 154 181
134 154 181
133 154 181
134 154 181
134 154 181
133 154 181
135 155 181
134 154 181
134 154 181
134 154 181
134 154 181
134 154 181
133 154 181
133 154 181
133 154 181
133 154 181
134 154 181
134 154 181
134 155 181
134 154 181
134 154 181
134 155 181
133 154 181
133 154 181
133 154 181
134 154 181
133 154 181
133 154 181
134 154 181
134 154 181
134 154 181
134 154 181
133 154 181
134 154 181
134 154 181
133 154 181
134 154 180
134 154 181
133 154 181
133 154 181
134 154 181
133 154 181
134 154 181
134 154 181
134 154 181
134 154 181
134 154 181
133 154 181
133 154 181
134 155 181
133 154 181
135 155 181
134 154 181
133 154 181
134 154 181
133 154 181
134 154 181
135 155 181
134 154 181
134 154 181
133 154 181
133 154 181
134 154 181
134 154 181
134 154 181
134 154 181
133 154 181
133 154 181
135 155 181
134 154 181
134 155 181
134 154 181
134 154 181
133 154 180
134 154 180
133 154 181
133 154 181
134 154 181
133 154 181
134 154 181
134 154 181
134 154 181
135 155 181
134 154 181
134 154 181
133 154 181
134 154 180
133 154 181
134 155 181
133 154 181
134 154 181
134 154 181
134 154 181
133 154 181
134 154 181
134 154 181
133 154 181
133 154 181
133 154 180
134 154 181
134 154 181
133 154 181
133 154 181
133 154 181
132 153 181
134 154 181
134 154 181
133 154 181
134 154 181
134 154 181
133 154 181
134 154 181
133 154 181
134 154 181
134 155 181
133 154 181
134 154 181
134 154 181
134 154 181
134 154 181
133 154 181
134 154 181
133 154 180
134 154 181
134 154 181
135 155 181
134 154 181
134 154 180
134 154 181
135 155 181
135 155 181
133 154 181
133 154 181
134 154 180
134 154 181
134 154 180
134 154 181
133 154 181
134 154 181
134 154 181
134 154 180
134 154 181
134 154 181
133 154 181
134 154 181
134 154 180
134 154 181
134 154 181
133 154 181
133 153 180
134 154 181
134 154 181
134 154 181
133 153 180
134 154 180
133 154 181
134 154 181
134 154 181
133 154 181
134 154 181
133 154 181
134 154 181
134 154 181
133 154 181
133 154 181
127 146 184
116 130 196
110 122 196
110 123 197
116 128 204
109 122 195
114 126 201
105 118 191
110 122 197
115 127 204
117 129 207
117 130 207
116 128 204
109 122 195
116 128 205
112 125 201
112 124 199
111 123 197
109 122 196
111 124 198
112 124 200
112 124 200
112 125 200
111 124 200
116 128 205
114 126 202
114 126 202
110 122 196
109 122 196
108 120 194
114 127 203
111 124 199
114 127 203
111 123 197
112 124 200
112 124 199
109 122 196
112 124 200
112 125 201
111 123 198
116 128 205
114 126 202
111 124 199
113 126 202
117 130 209
117 131 211
112 124 199
116 128 205
114 127 203
110 122 196
111 123 198
113 125 200
117 129 206
110 122 197
114 126 200
108 120 194
110 122 197
115 128 204
113 125 200
108 121 194
113 126 201
113 125 200
117 129 206
111 123 196
113 125 200
113 125 201
114 127 203
115 127 204
110 122 197
113 126 202
113 125 202
118 130 208
114 126 202
114 126 203
116 128 204
111 123 198
116 128 205
113 125 200
104 116 187
112 125 200
113 125 200
109 121 195
110 123 197
116 128 206
110 122 195
113 126 201
111 123 198
110 122 196
116 128 205
110 123 198
113 125 200
109 121 195
109 121 195
113 125 201
113 126 201
116 128 205
111 124 199
113 125 200
114 127 202
108 120 194
112 124 200
114 126 202
112 124 199
111 124 198
113 126 202
113 125 200
111 124 198
112 125 200
112 124 199
111 124 198
114 127 203
113 125 201
112 124 199
113 125 200
111 123 197
116 129 206
111 123 198
111 123 197
114 126 202
111 124 199
109 121 195
113 125 201
116 128 205
109 122 197
111 123 199
116 129 205
112 124 200
112 124 199
114 126 202
111 123 198
112 124 200
112 125 200
112 125 201
113 126 202
113 125 199
110 123 197
110 123 197
112 124 200
115 127 204
109 121 196
116 128 204
109 121 195
111 123 198
107 119 193
112 124 200
110 123 198
120 132 210
109 121 195
112 124 199
119 134 195
131 150 185
133 154 181
133 153 180
133 153 179
132 153 180
132 153 180
133 154 181
133 154 181
134 154 180
134 154 181
133 154 181
133 154 180
134 154 181
133 154 181
133 153 180
133 153 180
133 154 181
134 154 181
134 154 181
134 154 181
134 154 181
133 153 180
134 154 181
133 154 180
133 154 180
134 154 181
134 154 181
134 154 181
134 154 181
133 154 181
133 154 180
132 154 181
134 154 181
133 154 181
134 154 181
134 154 181
134 154 181
134 154 181
133 154 181
134 154 181
134 154 181
133 154 181
134 154 181
134 154 181
133 154 181
134 154 181
134 154 181
134 154 181
133 154 180
134 154 181
133 154 181
134 154 181
133 154 181
134 154 181
134 154 181
134 154 181
134 154 181
133 153 180
134 154 181
134 154 181
134 154 181
134 154 181
134 154 180
134 154 181
133 154 181
135 155 181
133 154 180
134 154 181
132 153 180
135 155 181
133 154 181
134 154 181
133 154 181
134 154 181
134 154 181
134 154 181
134 154 181
134 154 181
134 154 181
134 154 181
134 154 180
134 154 181
133 154 181
134 155 181
134 154 181
133 154 181
134 154 181
135 155 181
133 154 181
134 154 181
134 154 181
134 154 181
134 154 181
134 154 181
133 154 181
134 154 181
133 154 181
134 154 180
134 154 181
134 154 181
134 154 181
134 154 181
134 154 181
134 154 181
133 154 181
134 155 181
133 154 181
133 153 180
134 154 181
134 155 181
134 155 181
133 153 180
134 154 181
134 154 181
134 154 181
134 154 181
134 154 181
134 154 181
134 154 181
134 154 181
133 154 180
135 155 181
134 154 181
134 154 181
133 154 181
133 154 181
134 154 181
134 154 181
133 154 181
134 154 181
133 154 181
133 154 181
134 154 181
133 154 181
134 154 181
134 154 181
134 154 181
134 154 181
134 154 181
134 154 181
133 154 181
133 154 181
133 154 181
134 154 181
133 154 181
134 154 181
134 154 181
133 154 181
133 154 181
133 154 181
133 154 181
133 154 181
134 154 181
133 154 181
134 154 181
133 154 181
134 154 181
133 154 181
134 154 181
133 154 181
134 154 181
134 154 181
134 154 181
134 154 181
133 154 181
134 155 181
134 154 181
134 154 181
135 155 181
134 154 181
134 154 181
133 154 181
134 154 181
135 155 181
135 155 181
134 154 181
134 154 181
134 154 181
134 154 181
134 154 181
133 154 181
133 154 181
133 154 181
133 154 181
134 154 181
134 154 181
133 154 181
133 154 181
134 154 181
134 154 181
133 154 181
134 154 181
134 154 181
133 154 180
133 154 181
134 154 181
134 154 181
134 154 181
133 154 181
134 155 181
133 154 180
135 155 181
134 154 181
134 154 181
134 154 181
135 155 181
135 155 181
133 154 181
133 154 181
134 154 181
134 154 181
133 154 181
134 154 181
134 154 181
133 154 181
134 154 181
134 154 181
133 154 181
134 154 181
133 154 181
134 154 181
134 154 181
133 154 181
134 154 181
134 154 181
134 154 180
134 154 181
134 154 181
134 154 181
133 154 181
133 154 181
133 154 181
134 154 181
134 154 181
134 154 181
135 155 181
134 154 181
133 154 180
134 154 181
134 154 181
133 154 180
133 154 181
134 154 181
133 154 181
134 154 181
132 153 180
133 154 181
134 154 181
134 154 181
133 153 180
129 147 186
120 134 196
110 123 198
114 126 202
114 127 203
117 129 206
113 125 201
114 126 202
117 129 207
112 124 199
114 126 202
113 125 200
111 123 197
113 125 201
111 124 199
117 129 206
118 129 206
111 123 198
114 126 202
112 124 200
115 127 204
111 124 199
108 120 194
113 125 200
110 123 197
112 125 200
111 123 198
113 125 201
110 122 197
118 130 208
109 122 197
109 122 196
116 128 204
114 126 202
114 126 201
114 126 202
112 124 199
109 121 195
111 124 199
112 124 199
117 129 206
117 129 206
113 126 202
113 125 200
114 126 202
116 129 206
109 122 196
113 126 202
114 126 201
116 128 205
115 127 203
115 127 204
117 129 207
115 128 204
117 129 206
111 124 198
114 126 202
115 127 202
111 123 198
118 131 209
113 126 202
113 126 202
113 125 201
113 125 202
110 122 195
110 123 198
115 127 202
115 128 204
114 127 202
112 125 200
111 123 198
107 120 193
117 129 206
113 126 201
110 122 197
113 124 199
114 127 203
112 124 198
114 126 202
117 129 206
111 123 198
118 130 208
113 126 202
112 125 200
110 123 197
113 125 201
111 123 198
112 124 200
116 129 205
109 121 196
112 123 198
107 119 192
117 129 205
110 122 195
111 123 198
113 125 200
113 126 202
110 122 196
113 125 199
111 123 198
115 127 203
113 125 201
115 127 203
113 125 201
111 123 198
113 125 201
112 125 201
114 127 204
116 128 204
107 119 192
113 126 201
113 125 201
112 124 200
112 124 199
113 125 201
111 122 196
114 126 203
114 126 202
113 125 200
118 130 206
107 120 193
113 125 201
112 124 199
112 124 199
109 121 196
111 123 197
112 124 200
113 126 202
108 120 193
113 125 200
115 128 205
109 121 196
112 124 200
109 121 196
115 127 204
111 124 199
113 126 202
113 125 200
111 123 198
113 125 199
110 122 196
115 128 204
110 122 196
109 121 196
112 124 199
118 130 207
117 129 207
117 129 206
116 128 204
121 136 196
130 149 189
134 154 180
132 153 180
133 154 181
134 154 181
133 153 180
134 154 180
134 154 180
134 154 181
133 154 181
134 154 181
133 153 180
133 153 180
132 153 179
133 154 181
133 153 180
133 154 181
133 153 180
134 154 181
133 154 181
133 154 181
133 154 181
134 154 180
132 152 180
133 154 180
133 154 181
134 154 180
134 154 181
133 154 180
133 153 180
133 154 180
133 154 180
133 154 181
133 153 180
134 154 181
134 154 181
134 154 181
133 153 180
133 154 181
134 154 181
134 154 181
134 154 181
132 153 180
134 154 180
133 154 181
134 154 181
134 154 181
133 154 181
134 154 181
134 154 181
133 154 181
134 154 180
133 154 181
133 154 181
134 154 181
135 155 181
132 153 180
135 155 181
134 154 181
134 154 180
133 154 181
134 154 181
134 154 181
133 154 181
133 154 181
134 154 180
134 154 181
134 154 181
134 154 181
133 154 181
134 154 181
135 155 181
133 154 181
134 154 181
134 155 181
134 154 180
133 154 181
134 154 181
133 154 180
134 154 181
133 154 181
134 154 181
133 154 181
134 154 181
135 155 181
133 154 181
133 154 180
133 154 181
133 154 181
133 154 181
133 154 181
133 154 181
134 154 181
134 154 181
134 154 181
134 154 181
134 154 181
134 154 181
133 154 181
135 155 181
134 155 181
134 154 181
133 154 181
133 154 181
133 154 181
135 155 181
135 155 181
133 154 181
133 154 181
133 154 181
133 154 181
134 154 181
133 154 181
134 154 181
134 154 181
134 154 181
133 154 181
134 154 181
133 154 181
134 154 181
134 154 181
134 154 181
134 154 181
134 154 181
134 154 181
133 154 181
134 154 181
133 154 180
134 154 181
134 154 181
134 154 181
134 154 181
134 154 181
133 154 181
134 154 181
134 155 181
135 155 181
133 153 180
134 154 181
134 154 181
135 155 181
134 154 181
135 155 181
134 154 181
134 154 181
134 154 181
134 154 181
134 154 181
133 154 181
134 154 181
133 154 181
134 154 181
134 154 181
134 154 181
133 154 181
133 154 181
133 154 181
134 154 181
133 154 181
134 154 181
134 154 181
134 154 181
133 154 181
134 154 181
133 154 181
134 154 181
134 154 181
134 155 181
134 154 181
133 154 181
133 154 181
133 154 181
134 155 181
133 154 181
133 154 181
134 154 181
134 154 181
134 154 181
134 154 181
133 154 181
133 154 181
134 154 181
134 154 180
133 154 181
133 154 181
134 154 181
134 154 181
134 154 181
134 155 181
133 154 181
134 154 181
134 154 181
133 154 181
134 154 181
134 154 181
134 154 181
134 154 181
134 154 181
134 154 181
134 154 181
134 154 181
134 154 181
135 155 181
133 154 181
133 154 181
134 154 181
134 154 181
134 154 181
133 154 181
133 154 181
133 154 181
134 154 181
134 154 181
133 154 181
133 154 180
133 154 181
134 154 181
133 154 181
133 154 181
134 154 181
134 154 181
134 154 181
134 155 181
134 154 181
134 154 181
134 154 181
135 155 181
134 154 181
134 154 181
134 154 181
134 154 180
133 154 181
134 154 180
134 154 180
133 154 180
133 154 180
134 154 181
134 154 181
134 154 181
133 154 181
133 154 181
133 154 181
134 154 181
134 154 180
134 154 181
134 154 181
134 154 181
133 154 181
134 154 180
133 154 181
129 149 184
118 132 195
114 126 202
114 127 204
112 124 199
109 122 196
115 127 204
114 126 202
112 124 199
112 124 199
111 124 198
119 131 209
111 123 199
111 124 198
116 128 204
114 126 203
117 129 206
113 125 199
113 126 202
115 127 203
115 127 203
111 123 198
111 124 198
112 124 198
109 121 196
112 124 198
113 125 200
116 129 206
111 123 198
115 127 203
112 124 198
112 124 199
116 128 205
112 124 200
114 126 202
109 121 194
113 125 200
114 126 202
114 126 201
113 126 201
116 128 205
112 124 200
112 124 199
117 129 206
115 127 204
112 125 201
113 126 202
108 120 193
114 126 203
111 123 197
115 127 202
117 129 207
118 130 207
116 128 205
115 127 204
121 132 210
113 125 201
111 123 198
115 126 202
110 122 197
114 127 203
112 124 200
112 124 198
110 122 197
112 124 198
114 126 202
112 124 199
111 124 198
114 126 202
114 126 201
114 126 201
114 127 204
115 127 204
114 126 201
113 126 202
111 123 197
112 125 200
115 128 204
109 122 196
113 125 201
110 122 195
109 121 195
116 129 206
116 128 205
110 122 195
108 120 194
111 123 198
117 129 206
109 121 195
115 127 203
120 131 209
111 123 198
115 127 203
107 120 194
113 126 202
111 123 197
108 121 195
116 129 206
113 125 201
111 123 198
114 126 202
113 125 200
113 125 201
112 124 200
112 125 200
110 123 198
114 126 201
112 125 200
113 125 200
113 125 200
111 123 198
116 128 204
110 123 198
112 124 199
115 128 205
111 123 199
113 126 202
110 123 197
111 123 198
116 128 205
114 126 202
110 122 197
112 124 200
112 124 200
113 125 200
113 125 200
113 126 202
109 121 195
116 129 206
112 125 201
116 128 205
111 124 199
114 127 204
112 124 200
115 127 203
110 122 197
109 121 194
114 126 202
115 127 204
115 128 205
115 127 203
109 121 194
111 123 197
114 126 201
113 125 200
115 127 203
115 127 204
113 125 201
113 125 199
119 133 198
126 145 183
134 154 181
132 153 180
133 153 179
132 152 179
132 153 180
133 153 180
133 153 180
133 154 180
134 154 181
134 154 181
134 154 181
133 154 180
134 154 181
133 153 180
133 153 180
133 153 180
134 154 181
134 154 181
133 153 180
134 154 181
134 154 181
133 154 180
133 154 181
133 154 181
134 154 181
133 153 180
134 154 181
132 153 180
135 155 181
134 154 181
133 153 180
134 154 181
134 154 181
135 155 181
134 154 181
133 154 181
134 154 181
134 154 180
134 154 180
133 154 181
134 154 181
133 154 180
133 154 181
133 154 181
133 154 180
134 154 181
134 154 181
134 154 180
134 154 181
133 154 181
134 154 181
133 154 181
134 154 181
134 154 181
134 154 181
134 154 181
134 154 181
134 154 181
134 154 181
134 154 181
134 154 181
132 153 180
134 154 181
134 154 181
134 154 181
134 154 181
134 154 181
133 154 181
133 153 180
133 154 181
134 154 181
133 154 181
134 154 181
134 154 181
134 154 181
133 154 181
134 154 181
134 154 181
134 154 180
133 154 181
133 154 181
134 154 181
134 154 181
133 154 181
133 154 181
134 154 181
133 154 181
134 154 180
133 154 181
134 154 181
133 154 180
134 154 181
134 154 181
134 154 181
133 154 181
134 154 181
133 154 181
134 154 180
134 154 181
133 154 181
134 155 181
134 154 180
133 154 181
134 155 181
134 154 180
133 154 181
134 154 181
133 154 181
135 155 181
134 154 181
133 154 181
134 154 181
135 155 181
134 154 181
133 154 181
134 154 181
133 154 181
134 154 181
134 154 181
133 154 181
135 155 181
133 154 181
133 154 181
134 154 181
135 155 181
134 154 181
133 154 181
134 154 181
133 154 181
133 154 181
133 154 181
133 154 181
133 154 181
134 154 181
134 154 181
133 154 181
133 154 181
133 154 181
134 154 181
134 154 181
134 154 181
134 154 181
135 155 181
134 154 181
133 154 181
134 154 181
133 154 181
134 154 181
134 154 181
134 154 181
134 154 181
134 154 181
134 154 181
133 154 181
133 154 181
134 154 181
133 154 181
133 154 181
133 154 181
133 154 181
134 154 181
133 154 181
135 155 181
134 154 181
134 154 180
134 154 181
134 154 181
134 154 181
133 154 181
135 155 181
134 154 181
134 154 181
134 154 181
133 154 181
134 154 181
134 154 181
134 154 181
133 154 181
134 154 181
133 154 181
134 154 181
134 154 181
134 154 181
134 154 181
134 154 181
134 155 181
133 154 181
133 154 181
134 154 181
134 154 181
133 154 181
134 154 181
133 154 181
133 154 181
134 154 181
134 154 181
134 154 181
134 154 181
133 154 180
133 154 181
134 154 181
133 154 181
134 154 181
134 154 181
134 154 181
134 154 181
134 154 181
134 154 181
134 154 181
134 154 180
134 154 181
134 154 181
134 154 181
133 154 180
134 154 180
134 154 181
134 154 181
133 153 180
134 154 181
134 154 181
133 154 181
134 154 181
134 154 181
133 154 181
135 155 181
134 154 181
135 155 181
134 154 181
134 154 181
134 154 181
134 154 181
133 154 181
134 154 181
134 154 181
134 154 181
133 154 181
133 154 181
133 154 181
134 154 181
134 154 181
133 153 180
134 154 181
132 153 180
134 154 181
133 154 181
134 154 181
134 154 181
133 154 181
134 154 181
130 149 184
117 131 194
114 127 203
118 130 208
114 126 201
111 123 197
114 126 202
113 125 201
112 125 200
113 126 202
111 123 199
118 130 207
112 125 200
114 126 202
113 126 203
116 128 205
110 123 198
113 125 201
110 122 196
113 126 202
115 127 203
112 124 199
109 121 195
112 125 200
111 124 199
109 121 196
110 122 197
114 126 202
111 123 197
114 127 203
112 124 200
111 123 196
111 124 199
112 124 200
117 129 207
116 128 205
116 128 205
112 124 199
109 121 195
109 122 196
112 125 200
112 124 200
115 128 204
111 123 197
111 124 199
116 128 205
110 122 197
110 122 196
112 124 199
114 126 202
118 130 207
110 122 196
113 125 201
113 126 202
114 126 202
111 124 200
112 124 198
108 121 196
109 122 196
115 127 203
116 127 203
117 129 206
111 123 198
112 124 199
113 125 200
112 125 200
112 124 199
114 127 203
116 129 206
113 125 201
114 126 203
114 126 202
111 123 196
111 124 200
116 129 205
111 123 198
110 122 195
109 121 196
112 124 198
115 128 204
113 126 201
111 124 200
113 125 200
111 123 198
115 127 203
115 127 203
108 121 194
114 126 201
109 121 194
112 125 200
110 123 198
113 125 201
114 126 203
116 129 206
114 126 203
117 129 205
110 122 196
111 123 197
112 124 199
112 124 200
111 123 197
113 125 201
115 127 204
111 123 198
112 124 200
113 126 202
113 125 201
113 126 202
114 125 200
109 122 197
114 127 203
111 123 198
113 126 202
110 122 197
115 127 203
110 122 197
111 124 200
111 124 199
116 128 204
112 124 200
111 123 197
108 120 193
111 124 199
114 126 202
111 123 198
114 126 203
116 128 205
113 126 201
113 125 200
112 124 199
109 121 193
112 124 199
113 125 201
112 124 199
110 122 197
115 127 204
112 124 198
113 125 201
112 124 200
114 126 202
114 126 202
116 128 205
109 122 195
113 125 199
113 125 201
108 120 194
115 128 205
111 123 198
110 123 197
118 132 199
131 149 188
133 153 180
134 154 181
133 154 181
133 153 180
134 154 180
133 154 180
134 154 181
132 153 180
134 154 181
134 154 180
133 154 181
134 154 181
133 154 181
133 154 180
133 153 180
133 153 180
133 153 180
134 154 180
133 153 180
134 155 181
133 153 180
133 153 180
132 152 179
133 154 180
133 154 180
133 154 180
132 153 181
133 154 180
133 154 180
134 154 181
134 154 181
134 154 181
133 154 181
133 154 181
134 154 181
134 154 181
133 154 181
133 154 181
133 154 181
134 154 180
133 154 181
133 154 181
134 154 181
134 154 181
134 154 181
134 154 181
134 154 181
134 154 181
135 155 181
134 154 181
134 154 181
133 154 181
134 154 181
133 153 180
133 154 181
133 153 180
134 154 181
134 154 181
133 154 181
134 154 181
134 154 181
133 154 181
133 154 180
134 154 181
133 154 181
133 154 181
133 154 181
134 154 181
133 154 181
134 154 181
133 154 181
133 154 181
134 154 181
133 154 181
134 154 181
134 154 181
133 154 181
133 154 181
134 154 181
134 154 181
134 154 181
133 154 181
133 154 181
134 154 181
134 154 181
134 154 181
133 154 181
134 154 181
134 154 181
134 154 181
133 154 181
134 154 181
134 154 181
134 154 181
133 154 181
133 154 181
134 154 181
134 154 181
133 154 181
134 154 180
134 154 181
133 154 181
133 154 181
133 154 181
134 154 181
134 154 181
134 154 181
134 154 181
133 154 181
133 154 181
134 154 181
133 154 181
134 154 180
133 154 181
134 154 181
133 154 181
134 154 181
134 154 181
134 154 181
134 154 180
133 154 181
133 154 181
134 154 181
134 154 181
134 154 181
133 154 181
134 154 181
135 155 181
134 154 181
133 154 181
135 155 181
134 154 181
134 154 180
134 154 181
134 154 181
134 154 181
134 154 181
135 155 181
133 154 180
133 154 181
133 154 181
133 154 181
133 153 180
134 154 181
134 154 181
133 154 181
134 155 181
135 155 181
134 154 181
134 154 181
134 154 180
134 154 181
133 154 181
134 154 181
134 154 181
133 154 181
134 154 181
133 154 181
134 154 181
133 154 181
133 154 181
134 154 181
134 155 181
134 154 181
134 154 181
134 154 181
135 155 181
134 154 181
135 155 181
134 154 181
134 154 181
134 154 181
134 155 181
135 155 181
133 154 181
133 154 181
133 154 180
133 154 181
133 154 181
133 154 181
133 154 181
134 154 181
135 155 181
134 154 181
134 154 181
134 154 181
134 154 181
134 154 181
133 154 181
133 154 181
134 154 181
134 154 181
134 154 181
134 154 181
134 154 181
134 154 181
133 154 181
133 154 181
134 154 181
134 154 181
133 154 181
134 154 181
133 154 181
133 154 181
134 154 181
134 154 180
133 154 181
133 154 181
134 154 181
133 154 181
134 154 181
134 154 180
134 154 181
134 154 181
133 154 181
134 154 181
134 154 181
134 154 181
134 154 181
133 154 181
134 154 181
134 154 181
134 154 181
134 154 181
133 154 181
132 153 180
133 153 180
133 153 180
133 154 181
133 154 181
133 154 181
133 154 181
133 154 181
133 153 180
133 153 180
134 154 180
134 154 180
134 154 181
133 154 181
134 154 181
133 154 181
134 154 181
134 154 181
133 154 180
133 154 181
134 154 180
133 153 180
134 154 181
133 154 181
131 151 182
119 134 192
112 124 198
110 122 196
111 124 198
112 124 200
113 125 201
115 128 204
115 127 204
112 124 198
111 123 197
115 126 202
116 128 205
114 126 201
109 122 197
111 124 199
114 126 202
114 127 203
114 126 202
109 121 195
111 123 197
111 123 199
110 122 195
110 123 197
113 125 201
109 121 195
115 128 204
104 117 189
113 124 199
114 126 201
111 124 199
113 126 202
113 126 203
110 123 197
113 125 200
112 124 200
111 124 199
110 123 198
113 126 203
115 127 202
117 129 207
112 125 200
113 125 201
116 129 206
111 124 199
114 126 202
115 127 203
111 124 199
116 128 204
112 125 200
112 125 200
113 125 201
112 125 200
111 124 198
112 124 198
113 126 201
111 123 197
109 122 196
111 123 198
114 126 202
112 124 199
108 120 195
112 125 201
114 126 202
114 127 203
112 125 200
112 124 199
112 124 199
110 122 196
114 126 202
110 123 198
109 122 195
111 123 198
112 124 199
114 127 204
118 130 207
109 122 196
110 123 197
117 129 206
117 129 206
112 124 200
116 129 206
112 125 200
115 127 204
113 125 200
109 121 194
114 126 202
116 128 203
110 122 197
113 126 201
110 122 197
110 123 198
114 126 202
113 125 200
114 126 201
111 123 198
108 120 193
111 123 198
108 120 194
113 126 202
114 126 201
111 123 198
111 123 199
111 124 199
112 124 200
113 125 201
114 127 203
112 124 200
115 127 203
112 124 199
111 123 198
111 124 198
115 127 204
114 126 202
114 126 202
115 127 204
110 122 197
115 127 204
114 126 201
112 125 201
108 121 195
108 120 193
113 125 201
112 124 198
114 126 201
112 124 201
111 123 198
114 126 201
113 125 201
109 121 195
113 125 201
110 123 198
115 127 202
113 126 201
114 125 200
109 121 195
115 127 203
105 117 190
112 124 199
111 123 198
110 123 197
114 126 202
110 122 196
114 126 202
113 125 200
109 121 194
110 122 196
114 126 202
111 124 199
118 133 194
126 145 182
132 152 179
133 154 180
133 153 180
133 153 179
133 153 180
133 154 181
134 154 181
133 153 180
132 152 179
133 154 181
133 153 180
133 154 180
134 154 181
133 154 181
133 154 181
131 152 179
134 154 180
134 154 180
133 154 180
133 154 181
133 153 180
133 154 180
134 154 181
134 154 180
134 154 181
133 154 180
134 154 180
135 155 181
133 154 180
132 153 180
133 154 181
133 153 180
134 154 181
134 154 181
134 154 181
134 154 181
133 154 181
133 153 180
133 154 181
133 153 180
133 154 181
134 154 181
133 154 181
133 154 181
135 155 181
133 153 180
133 154 181
134 154 181
133 153 179
133 153 180
133 154 181
133 154 180
133 154 181
133 154 181
135 155 181
133 154 180
133 154 181
134 154 181
135 154 180
134 154 181
133 154 181
134 154 181
134 154 181
133 154 181
134 154 180
134 154 181
134 154 181
133 154 181
132 153 181
134 154 181
133 154 181
135 155 181
133 154 181
134 154 181
135 155 181
134 154 181
133 154 181
133 154 181
133 154 180
134 155 181
135 155 181
134 154 181
134 154 181
134 154 181
134 154 181
134 154 181
134 154 181
134 154 181
134 154 181
133 154 181
134 154 181
133 154 181
133 154 181
134 154 180
133 154 181
135 155 181
134 154 181
134 154 181
133 154 181
133 154 181
133 154 181
134 154 181
134 154 181
133 154 181
134 154 181
133 154 181
134 154 181
133 154 181
134 154 181
134 154 181
133 154 181
133 154 181
134 154 181
134 154 181
133 154 180
134 154 181
134 154 181
133 154 181
135 155 181
133 154 181
133 154 181
134 154 181
134 154 181
134 154 181
134 154 181
134 154 181
134 154 181
134 154 181
133 154 181
134 154 181
134 154 181
133 154 181
133 154 181
133 154 181
133 154 181
134 154 181
133 154 181
133 154 181
134 154 181
134 154 181
134 154 181
134 154 181
133 154 181
133 154 181
134 154 181
134 154 181
134 154 181
134 154 181
134 154 181
133 154 181
133 154 181
133 154 181
134 154 181
134 154 181
134 154 181
134 154 181
133 154 181
133 154 181
134 154 180
133 154 180
135 155 181
133 154 181
135 155 181
134 154 181
132 153 181
133 154 181
134 154 181
134 154 181
134 154 181
135 155 181
133 154 180
133 154 181
133 154 181
134 154 181
134 154 181
134 154 181
133 154 181
135 155 181
134 154 181
134 154 181
133 154 181
133 154 181
134 154 181
134 154 181
134 154 181
134 154 181
134 154 181
133 154 181
133 154 181
133 154 181
134 154 181
134 154 181
133 154 181
133 154 181
134 154 181
133 154 181
133 154 181
134 154 181
133 154 181
135 155 181
133 154 181
133 154 181
134 154 181
134 154 181
133 154 181
134 154 181
133 154 181
134 154 181
133 154 180
133 154 181
134 154 181
134 154 181
134 154 180
134 154 181
133 154 181
134 154 181
134 154 181
134 154 180
133 154 181
133 154 181
133 154 181
133 153 180
134 154 181
134 154 181
134 154 181
134 154 181
133 154 181
134 154 181
133 154 181
133 154 181
133 153 180
133 154 181
133 154 181
134 154 181
134 154 181
133 154 181
132 153 180
134 154 180
133 154 181
134 154 180
133 153 180
134 154 181
134 154 181
133 154 181
133 153 180
133 153 180
134 154 181
133 153 180
132 153 179
132 152 183
118 133 190
112 125 198
115 127 202
114 127 204
115 128 204
111 123 198
112 124 199
117 130 208
113 125 201
109 121 194
111 124 198
116 128 204
110 122 197
110 122 197
109 121 196
114 126 201
115 127 204
113 125 200
112 124 199
111 124 199
112 124 199
114 126 202
112 124 199
115 127 204
114 127 203
112 125 200
113 125 201
111 123 197
111 123 196
116 128 204
116 129 205
116 128 204
111 123 197
110 122 197
114 127 203
111 124 199
112 124 200
114 127 202
110 123 199
117 129 206
113 125 200
111 123 197
113 125 200
112 124 199
111 123 197
111 124 198
116 129 206
117 129 206
110 122 196
115 127 202
112 124 199
117 129 206
112 124 200
110 122 196
115 127 203
114 126 201
113 126 201
113 125 200
114 126 201
112 124 199
111 123 198
113 125 201
116 128 204
114 126 202
115 127 203
111 123 198
111 122 196
115 127 203
111 124 198
113 125 202
111 123 197
114 126 201
109 122 196
112 125 200
114 126 201
114 126 201
111 124 199
110 123 197
112 124 200
108 121 195
110 122 197
113 125 200
116 128 203
115 128 204
110 123 197
115 128 204
114 126 202
114 126 203
114 126 202
113 125 201
112 124 200
117 129 206
112 124 199
113 126 201
113 125 201
109 121 196
114 126 202
112 124 199
109 122 196
115 127 202
114 126 202
110 122 196
108 120 193
113 125 200
113 125 200
112 124 200
115 127 204
114 125 201
111 123 197
114 126 202
114 126 201
114 127 202
112 124 200
113 125 201
110 123 198
114 126 201
110 123 197
114 127 204
115 126 201
107 119 192
110 123 198
112 124 200
114 127 203
111 123 198
109 121 196
109 121 195
108 121 194
107 119 193
114 126 201
111 124 199
111 123 199
113 125 200
108 121 194
113 125 201
115 127 203
111 124 200
112 124 199
111 123 197
112 124 198
113 125 201
114 126 202
110 122 197
114 126 202
112 125 202
109 121 194
111 123 198
110 122 198
111 123 197
120 135 199
127 146 184
132 152 179
133 153 180
133 154 181
134 154 180
133 153 180
133 154 181
133 154 180
133 154 181
133 154 180
133 154 181
133 153 180
134 154 181
133 154 180
132 153 180
133 153 180
132 152 179
133 154 181
133 153 180
133 154 181
134 154 181
132 153 180
134 154 180
134 154 181
133 154 181
134 154 180
133 154 181
134 154 181
133 154 180
134 154 180
132 153 180
133 154 180
133 154 181
133 154 181
134 154 181
133 154 180
134 154 180
133 154 180
134 154 181
133 154 181
133 154 181
134 154 181
133 154 181
134 154 181
133 154 181
133 154 181
133 154 181
133 153 180
133 154 181
134 154 180
133 153 180
134 154 181
134 154 181
134 154 181
134 155 181
133 154 181
133 154 181
132 153 180
132 154 181
133 154 181
133 154 180
135 155 181
134 154 181
134 154 181
133 153 180
133 154 181
133 154 181
134 154 181
133 154 181
134 154 181
134 154 181
134 154 181
134 154 181
134 154 181
134 154 181
134 154 181
134 154 181
134 154 181
134 154 181
133 154 181
134 154 181
135 155 181
134 154 180
134 154 181
133 153 180
133 153 180
134 154 181
134 154 181
134 154 181
134 154 181
134 154 181
133 154 181
133 154 181
134 154 181
134 154 181
134 154 181
134 154 181
133 154 181
134 154 181
134 154 181
134 154 181
133 154 181
133 154 181
134 154 181
134 154 180
133 154 181
133 154 181
134 154 181
134 154 181
134 154 181
134 154 181
134 154 181
134 154 181
132 153 181
134 154 181
133 154 181
134 154 181
134 154 181
134 154 180
134 154 181
133 154 181
133 154 181
134 154 181
134 154 181
133 153 180
135 155 181
134 154 181
135 155 181
134 154 181
135 155 181
134 154 181
134 154 181
134 154 180
135 155 181
133 154 181
134 154 181
133 154 181
134 154 181
135 155 181
134 154 181
134 154 181
134 154 181
134 155 181
135 155 181
134 154 181
133 154 181
133 154 181
133 154 181
134 154 181
134 154 181
134 154 181
134 154 181
134 154 181
134 154 181
134 154 181
134 154 181
134 154 181
134 154 181
133 154 181
134 154 181
134 154 181
134 154 181
133 154 181
134 154 181
134 154 181
134 154 181
134 154 181
135 155 181
134 154 181
133 154 181
133 154 181
134 154 181
134 154 181
134 154 181
134 154 181
133 154 181
134 154 181
133 154 181
135 155 181
133 154 181
133 154 181
134 154 181
134 154 181
134 154 181
134 154 181
134 154 181
134 154 181
133 154 181
134 154 181
134 154 181
133 154 181
133 154 181
134 154 181
134 154 180
133 154 181
134 154 181
134 154 181
134 154 181
134 154 181
134 154 181
133 154 181
134 154 181
134 154 181
133 154 181
134 154 181
133 154 180
134 154 181
134 154 181
133 154 181
134 154 181
134 154 181
133 154 181
133 153 180
133 154 181
134 154 181
133 153 180
133 154 181
134 155 181
133 154 181
133 153 180
134 154 181
133 153 180
134 154 181
132 153 181
133 154 180
133 154 180
133 154 181
133 154 180
133 154 181
133 153 180
133 154 181
133 154 181
134 154 181
133 154 180
133 154 181
133 154 180
133 153 180
133 153 179
134 154 181
134 155 181
133 154 181
134 154 181
133 154 180
134 154 180
134 154 181
133 154 181
133 153 180
134 154 181
133 153 180
134 154 181
130 150 181
119 136 187
108 121 193
111 123 198
115 127 204
111 124 199
108 120 194
110 122 197
113 125 200
111 122 196
110 123 198
112 124 199
113 125 200
112 125 200
116 129 207
113 126 202
108 121 196
111 124 199
105 118 190
114 126 202
110 122 196
112 124 199
112 124 198
114 127 204
117 129 207
111 123 198
114 126 201
111 123 197
114 127 204
111 123 198
114 126 202
112 125 200
115 128 204
116 128 204
113 126 201
114 126 202
112 124 199
109 122 196
111 123 198
113 125 201
115 128 204
113 126 201
111 124 198
115 127 203
111 123 197
113 125 200
114 126 201
112 124 199
109 122 195
109 122 196
112 125 199
111 124 200
107 120 193
112 125 200
116 128 205
113 126 202
119 131 208
111 124 199
115 127 203
110 122 196
113 125 200
115 127 204
112 124 200
110 122 197
113 124 198
109 121 195
110 122 196
110 122 196
111 124 200
112 124 199
114 126 202
113 125 200
116 128 205
110 123 198
116 129 206
117 129 206
111 124 199
106 118 191
112 125 200
114 126 201
113 125 200
113 125 201
107 120 193
117 129 205
118 130 209
110 123 198
111 123 197
112 124 199
115 127 203
113 126 202
112 124 199
111 123 197
112 124 200
112 124 198
118 130 208
118 130 209
114 126 202
108 120 194
109 122 196
112 124 198
114 127 202
113 125 200
109 121 196
116 128 204
108 121 195
115 127 204
107 119 192
113 125 200
111 124 199
114 127 203
110 122 196
111 123 198
111 123 198
112 124 199
109 121 195
114 127 203
113 125 200
110 122 197
112 125 201
114 126 201
112 124 199
115 127 204
112 124 198
114 126 202
113 125 200
111 123 197
116 127 202
113 125 200
111 123 198
109 121 195
108 121 195
107 120 194
109 122 196
112 124 199
113 126 204
110 122 198
109 122 196
110 122 196
108 120 193
113 125 201
114 126 201
113 125 201
114 126 202
111 123 198
110 123 197
117 129 207
107 120 194
110 122 196
113 126 201
121 135 197
129 147 188
133 153 180
132 152 179
134 154 180
132 153 180
132 153 180
132 153 180
132 152 180
132 153 179
134 154 181
134 154 180
134 154 181
134 154 180
133 153 180
133 154 180
132 153 180
132 153 180
133 154 181
132 152 179
133 153 180
134 154 180
133 154 180
133 154 180
133 153 180
132 153 179
132 153 180
134 154 181
134 154 181
133 154 181
134 155 181
134 154 181
134 154 181
132 152 180
133 154 180
133 153 180
132 153 180
133 153 180
133 154 181
133 153 180
132 153 180
134 154 181
134 154 181
133 154 181
133 154 181
134 154 180
133 154 181
134 154 181
133 154 181
133 153 180
133 153 179
134 154 181
133 154 181
133 154 181
134 154 181
134 154 181
133 154 180
133 154 180
134 154 181
134 154 181
134 154 181
133 154 181
134 154 181
134 154 181
133 154 180
134 154 181
134 154 181
134 154 181
133 154 181
133 154 181
134 154 181
134 154 181
132 153 180
133 153 180
135 155 181
134 154 181
132 153 180
134 154 181
133 154 181
133 154 181
134 154 181
135 155 181
134 154 181
133 154 181
134 155 181
134 154 181
133 154 180
134 154 181
134 154 181
134 154 181
134 154 181
133 154 181
135 155 181
134 154 180
133 154 181
133 154 181
134 154 181
134 154 181
133 154 181
134 154 181
133 154 181
133 154 181
135 155 181
134 154 181
134 154 181
134 154 181
134 154 180
133 154 181
134 154 180
134 154 181
133 154 181
133 154 181
134 154 181
134 154 180
135 155 181
134 154 181
133 154 181
134 154 181
134 154 181
134 154 181
133 154 181
133 154 180
134 154 181
133 154 181
134 154 181
133 154 181
134 154 181
133 154 181
133 154 181
135 155 181
134 154 181
134 154 181
133 154 181
133 154 181
134 154 181
134 154 181
134 154 181
134 154 181
134 154 181
133 154 181
134 154 181
135 155 181
134 154 181
134 154 181
134 154 181
133 154 181
134 154 181
133 154 181
134 154 181
134 154 181
133 154 181
133 154 181
134 154 181
134 154 181
134 154 181
134 154 181
134 154 181
133 154 181
134 154 181
135 155 181
134 154 181
134 154 181
134 155 181
134 154 181
134 154 181
134 154 181
134 154 180
133 154 181
133 154 181
134 154 180
133 154 181
134 154 181
135 155 181
133 154 181
134 154 181
134 154 181
133 154 181
133 154 181
134 154 181
133 154 181
134 154 181
133 154 180
134 154 181
132 153 181
134 154 181
134 155 181
134 154 180
134 154 181
134 154 181
134 154 181
134 154 181
134 154 181
134 154 181
134 154 181
134 154 181
133 154 181
134 154 181
134 154 181
133 154 181
134 154 181
134 154 180
134 154 181
133 154 181
134 154 181
134 154 181
134 154 181
133 154 181
133 154 181
133 154 181
134 154 181
134 154 181
134 154 181
134 154 181
134 154 181
133 153 180
134 154 181
134 154 181
134 155 181
134 154 181
135 155 181
133 154 181
134 154 180
133 154 181
133 154 181
134 154 181
133 154 181
133 154 181
134 154 180
134 154 181
133 154 181
134 154 181
134 154 181
134 154 181
133 154 181
133 153 180
134 154 180
133 154 180
133 154 180
133 154 181
133 154 181
133 154 181
134 154 181
134 154 181
134 154 181
134 154 180
133 154 181
134 154 180
133 154 181
134 154 180
133 154 180
133 154 180
132 152 181
123 140 185
115 128 199
112 124 198
111 124 199
109 121 195
110 122 196
110 123 198
111 123 198
116 128 205
113 125 200
109 122 196
114 126 202
112 124 199
114 126 203
110 123 197
109 122 196
112 124 200
113 126 202
110 122 195
111 124 200
108 121 194
112 124 198
110 123 198
116 128 205
112 124 199
112 124 199
111 123 197
114 126 202
112 124 199
112 124 199
110 122 196
111 124 199
110 123 198
114 126 202
115 127 204
113 125 200
113 125 201
113 125 200
116 128 205
112 124 199
107 119 192
112 124 199
115 127 204
111 124 198
113 125 202
111 124 200
114 127 203
115 127 202
113 125 201
107 119 192
114 126 202
113 125 200
110 122 197
112 124 200
112 124 200
113 125 200
115 128 206
113 125 201
116 128 205
112 124 200
115 127 203
116 128 205
116 128 205
107 120 194
114 126 202
110 122 196
110 122 196
112 124 200
114 126 202
113 125 200
114 126 202
107 119 192
116 128 205
110 123 197
117 129 207
111 123 198
111 124 199
115 127 203
110 123 197
109 121 195
111 123 198
112 124 198
112 124 198
112 125 200
113 126 202
111 123 198
111 123 198
108 121 195
115 127 202
109 122 196
108 121 195
117 129 207
114 126 202
112 124 200
112 125 200
109 121 195
107 119 192
112 124 199
113 125 200
109 122 196
111 123 199
111 123 198
113 125 201
112 124 200
110 122 197
113 125 200
114 127 203
111 123 198
114 126 202
110 122 196
111 123 198
108 120 194
117 130 208
109 121 195
110 121 195
115 127 203
113 125 200
111 124 200
113 125 200
108 121 194
110 122 197
113 125 201
115 127 204
114 126 202
112 124 199
112 124 200
112 124 198
110 122 196
115 126 202
113 125 201
114 126 202
113 125 200
116 129 206
113 125 201
115 127 203
114 126 202
110 123 198
111 123 197
109 122 196
110 123 198
114 126 203
116 128 205
111 124 200
115 128 204
111 123 198
109 121 196
115 128 205
117 129 205
115 129 192
124 143 181
132 152 179
131 151 179
132 153 179
133 153 180
134 154 180
133 153 180
133 154 181
132 152 180
133 154 180
133 153 180
132 153 180
133 153 180
132 153 180
134 154 180
133 154 180
132 153 180
133 153 180
134 154 181
133 154 180
133 154 180
133 153 179
132 152 179
133 153 179
134 154 181
133 153 180
132 153 179
132 153 180
133 154 181
134 154 180
133 154 180
132 153 180
133 154 181
134 154 181
133 153 180
133 153 180
134 154 181
134 154 181
133 153 180
133 153 180
134 154 181
133 154 181
133 154 180
134 154 181
133 154 181
134 154 181
133 154 180
134 154 181
134 154 181
133 153 180
134 154 181
133 154 180
133 154 181
134 154 181
133 154 181
133 154 181
134 154 180
134 154 181
134 154 181
134 154 180
134 154 180
134 154 181
134 154 181
134 154 181
133 154 180
133 154 181
133 154 181
134 154 181
134 154 181
133 154 181
134 154 181
134 154 181
134 154 180
133 154 181
133 154 181
133 154 181
134 154 181
133 154 181
134 154 180
134 154 180
134 154 181
133 154 181
133 154 181
133 154 181
133 154 181
134 154 181
133 154 181
133 154 181
134 154 181
134 154 181
134 155 181
134 154 181
133 154 181
134 154 181
134 154 181
133 154 181
133 154 180
134 154 181
133 154 180
134 154 181
133 154 181
134 154 181
134 154 181
134 154 181
134 154 180
133 154 181
134 154 181
134 154 181
134 154 181
134 154 181
134 154 181
132 153 180
134 154 181
134 154 181
133 154 181
133 154 181
133 154 181
134 154 181
134 154 181
133 154 181
133 154 181
134 154 180
134 154 181
133 154 181
133 154 180
134 154 181
134 154 181
134 154 181
133 154 181
134 154 181
134 154 181
133 154 181
133 154 181
134 154 181
134 154 181
132 153 180
133 154 181
133 154 181
134 154 181
133 154 181
134 154 181
134 154 181
134 154 181
134 154 181
134 154 181
134 154 181
133 154 181
133 154 181
133 154 181
133 154 181
134 154 181
134 154 181
133 154 181
134 154 181
134 154 181
134 154 181
133 154 181
135 155 181
134 155 181
134 154 181
133 154 181
134 154 181
134 154 181
133 154 181
134 154 181
134 155 181
134 154 181
134 154 181
134 154 181
134 154 181
133 154 181
134 154 181
135 155 181
134 154 181
133 154 181
133 154 181
134 154 181
134 154 181
134 154 181
134 154 181
134 154 181
134 154 181
134 154 181
133 154 181
133 154 181
133 154 181
134 154 180
134 154 181
133 154 181
134 154 181
134 154 180
134 154 181
133 154 181
134 154 181
134 154 181
134 154 181
134 154 181
134 154 181
134 154 181
134 154 181
133 154 181
133 154 181
133 154 181
134 154 181
134 154 181
133 154 181
133 154 181
135 155 181
134 154 181
134 154 181
134 154 181
135 155 181
134 154 181
133 154 181
135 155 181
133 154 181
132 153 181
134 154 180
134 154 181
134 154 181
134 154 181
134 154 181
133 154 181
133 154 181
134 154 181
134 154 181
133 154 180
134 154 180
134 154 181
133 154 181
134 154 181
134 154 180
133 154 180
132 153 180
134 154 181
134 154 181
133 153 180
134 154 181
133 154 180
134 154 180
133 154 180
134 155 181
134 155 181
133 154 181
133 153 180
133 154 181
134 154 181
133 154 180
132 152 180
132 152 180
133 153 182
125 142 192
120 132 207
108 120 193
114 126 202
112 124 199
109 121 196
109 122 195
111 123 198
108 120 194
116 128 205
118 130 207
111 123 198
112 124 199
114 126 202
113 126 202
110 122 197
112 125 200
111 123 198
114 126 201
113 125 201
111 124 199
115 127 202
108 120 194
113 125 200
111 124 199
116 128 204
115 126 201
110 122 195
113 126 201
119 131 208
109 122 196
114 126 202
114 127 203
113 125 200
113 125 201
115 127 204
112 123 198
109 121 194
113 125 201
114 126 202
114 126 202
111 123 197
116 128 204
113 125 201
106 118 191
114 126 202
115 127 203
112 124 200
114 127 203
115 127 202
114 126 202
111 123 198
110 122 197
113 126 202
114 127 204
114 126 202
110 122 195
113 125 200
109 122 196
114 126 201
109 121 195
114 127 203
115 127 203
111 123 198
114 126 202
114 127 203
106 119 192
109 121 196
115 127 203
114 126 202
112 125 200
113 125 201
115 127 203
114 126 201
112 124 200
110 122 196
110 123 197
114 127 203
115 127 202
115 128 204
115 127 203
112 124 199
108 121 195
109 122 196
111 123 198
113 125 201
117 129 205
111 124 199
110 122 198
107 120 194
113 125 202
112 124 199
113 126 201
108 120 194
109 121 196
114 126 202
110 122 196
114 126 201
111 123 197
115 127 204
110 123 198
113 125 200
115 127 202
113 125 200
109 121 194
111 124 199
110 122 197
108 121 195
114 126 202
114 126 201
113 125 201
113 126 202
111 123 198
116 128 204
113 126 202
112 124 198
112 124 200
113 126 202
113 125 200
113 125 201
113 125 200
113 125 201
109 121 196
114 126 202
111 124 199
113 125 201
115 126 202
109 122 197
111 123 198
112 124 200
110 122 197
114 127 203
110 122 197
113 126 201
114 126 203
112 124 199
109 121 196
113 125 202
115 127 202
110 122 196
110 122 197
114 127 203
115 127 203
115 126 202
111 124 198
110 122 197
108 121 194
110 123 197
116 131 190
129 149 184
132 152 180
133 153 179
133 153 180
132 152 179
132 152 179
133 153 180
133 153 180
132 152 179
132 153 180
132 152 179
131 152 179
131 151 178
134 154 181
134 154 180
133 153 180
133 153 179
131 151 179
132 153 179
133 154 180
134 154 181
134 153 179
133 153 180
133 154 180
133 154 181
134 154 181
134 154 181
133 154 181
133 154 180
133 154 180
133 153 180
133 153 180
133 153 180
134 154 181
133 153 180
133 154 181
133 154 180
133 153 180
133 154 181
134 154 181
134 155 181
133 153 180
133 154 181
134 154 181
133 153 180
134 154 180
133 154 180
134 154 181
133 154 180
134 154 181
132 153 181
133 154 181
133 153 180
134 154 181
133 154 181
134 154 181
134 154 181
134 154 181
134 154 181
134 154 180
133 154 181
134 154 181
133 154 180
134 154 181
134 154 181
134 154 181
133 153 180
133 154 180
133 154 181
134 154 181
133 153 180
133 154 181
133 153 180
133 154 181
134 154 181
133 154 181
134 154 181
134 154 181
134 154 181
134 154 181
134 154 181
135 155 181
135 155 181
133 154 181
134 154 180
133 154 181
133 154 181
134 154 181
134 154 180
133 153 180
133 154 181
133 154 181
133 154 181
134 154 180
134 154 181
133 154 181
135 155 181
133 154 181
133 154 181
134 154 181
134 154 181
134 154 181
134 154 181
133 154 181
133 154 181
133 154 181
133 153 180
134 154 181
134 154 181
134 154 181
133 154 181
134 154 181
134 155 181
133 154 181
134 154 181
134 154 181
134 154 181
133 154 181
133 154 181
134 154 181
135 155 181
133 154 181
134 154 181
133 154 181
133 154 181
133 154 181
134 154 181
134 154 181
134 154 181
134 154 181
133 154 181
133 154 181
134 154 181
134 154 180
134 154 180
134 154 181
134 155 181
134 154 181
134 154 181
134 154 181
133 154 180
133 154 181
135 155 181
133 154 181
134 154 181
134 154 181
134 154 181
134 154 181
133 153 180
134 154 181
134 154 181
134 154 181
134 154 181
134 154 181
135 155 181
133 154 180
135 155 181
135 155 181
133 154 181
134 154 181
134 154 181
135 155 181
133 154 181
135 155 181
133 154 181
133 154 181
135 155 181
133 154 181
134 154 181
133 154 181
134 154 181
134 154 181
133 154 181
134 154 181
134 154 181
134 154 181
134 154 181
133 154 181
135 155 181
133 154 181
134 154 181
134 154 181
133 154 181
133 154 181
133 154 181
134 154 181
133 154 181
134 154 181
134 154 181
134 154 181
134 154 181
134 154 181
134 154 181
133 154 181
132 153 181
134 154 181
134 154 181
134 154 180
133 154 181
133 154 181
134 154 181
134 154 181
133 154 181
134 154 181
135 155 181
133 154 181
135 155 181
134 154 181
133 154 180
134 154 181
133 154 180
133 154 180
133 154 181
134 154 181
134 154 181
134 154 180
135 155 181
134 154 181
133 154 181
132 153 180
133 154 181
133 154 180
133 153 180
135 155 181
133 153 180
133 153 180
134 154 181
134 154 181
133 153 180
134 154 181
134 154 181
134 154 181
133 154 181
134 154 181
133 154 180
134 154 181
132 153 180
133 154 180
134 154 181
133 153 180
134 154 180
133 154 180
133 153 180
134 154 181
133 153 179
133 154 181
134 154 181
133 154 181
134 154 181
133 154 181
132 152 183
125 142 188
117 130 199
110 122 196
111 123 198
111 123 198
115 127 203
108 121 194
110 123 197
111 123 198
117 129 206
114 125 201
110 122 198
110 122 196
111 123 198
116 127 203
111 124 199
113 125 201
117 129 206
112 124 199
111 123 198
115 127 203
113 125 201
108 120 194
118 131 209
114 126 202
113 126 201
117 130 207
113 125 200
113 125 200
110 122 196
109 121 196
116 128 204
114 126 202
105 118 191
107 120 194
113 125 200
108 121 195
117 129 205
111 124 198
113 125 200
112 124 200
112 124 200
111 123 197
110 122 196
108 121 195
114 126 202
114 126 201
114 127 203
115 127 203
116 128 205
113 125 200
116 128 204
113 125 201
108 120 194
112 125 200
110 123 198
110 122 196
112 124 199
109 121 195
111 124 199
112 124 199
112 124 198
112 125 200
117 129 206
112 124 198
113 125 200
113 125 201
112 124 199
112 125 201
110 123 197
113 125 201
112 125 201
111 123 197
111 123 198
110 122 197
113 125 200
110 122 197
114 127 204
109 121 196
112 124 199
111 123 199
113 125 201
110 122 196
113 126 203
110 122 196
114 126 202
113 125 202
113 126 202
115 127 204
114 126 202
114 126 202
114 126 202
117 129 206
114 127 203
112 124 198
112 125 200
109 121 195
109 121 195
110 123 198
107 119 193
116 128 204
115 127 203
112 124 200
111 124 199
108 120 193
111 123 198
112 124 199
115 127 203
114 126 202
109 121 195
105 118 192
113 126 202
109 121 195
108 121 195
112 125 201
115 127 205
110 123 198
112 124 200
116 128 205
111 124 199
108 121 195
109 121 195
111 124 199
113 125 200
115 127 203
110 122 196
110 122 197
107 119 193
114 127 203
110 123 198
110 123 198
113 125 201
111 123 197
115 127 203
113 125 201
112 125 200
115 127 203
116 128 205
110 122 197
112 124 199
117 129 206
113 125 200
111 124 199
116 128 205
111 124 199
110 122 197
107 119 192
111 124 198
112 126 191
125 143 187
131 151 179
133 153 180
131 152 179
133 153 180
133 153 180
133 153 180
132 152 179
132 152 180
133 153 180
133 154 180
132 152 179
132 152 179
133 153 180
133 153 180
133 153 179
132 153 179
133 154 180
133 153 180
132 153 180
133 153 180
132 152 179
133 154 181
132 153 180
134 154 180
133 154 181
133 153 180
133 154 180
134 154 181
133 153 180
133 154 180
133 154 181
132 152 179
132 153 179
134 154 181
133 153 180
133 153 180
134 154 180
134 154 181
133 154 181
134 154 180
133 153 180
134 154 181
134 154 180
133 154 180
133 153 180
134 154 180
133 154 181
134 154 181
134 154 181
134 154 181
133 154 180
133 153 180
133 153 180
134 154 181
133 154 181
133 154 181
133 154 181
134 154 181
133 153 180
134 154 181
133 154 181
133 154 181
133 154 180
134 154 180
134 154 180
134 154 181
133 153 180
134 154 181
134 154 181
133 154 181
133 153 180
134 154 181
134 154 181
134 154 181
133 154 181
133 154 181
133 154 181
133 154 181
134 154 181
134 154 181
134 154 181
133 154 181
134 154 181
134 154 181
135 155 181
133 154 181
134 154 180
133 154 180
134 154 181
134 154 181
134 154 181
134 154 181
134 155 181
134 154 181
134 154 181
134 154 181
134 154 181
134 154 181
134 154 181
134 154 181
134 154 181
134 154 181
134 154 181
133 154 181
133 154 181
134 154 181
133 154 181
133 154 181
133 154 181
134 154 181
134 154 181
133 154 181
134 154 181
133 154 181
134 154 181
133 154 181
134 154 181
134 154 181
133 154 181
134 154 181
133 154 180
133 154 181
134 155 181
134 154 181
133 154 181
134 154 181
134 154 181
133 154 181
134 154 181
134 154 181
133 154 181
134 154 181
134 154 181
133 154 181
134 154 181
134 154 181
134 154 181
133 154 181
133 154 181
135 155 181
134 154 181
134 155 181
134 154 181
134 154 181
134 154 181
133 154 181
133 154 181
133 154 181
134 154 181
134 154 181
134 154 181
133 154 181
134 154 181
134 154 181
135 155 181
134 154 181
134 154 181
134 154 181
134 154 181
135 155 181
134 154 181
133 154 181
134 154 181
134 154 181
133 154 181
134 154 181
134 154 181
133 154 181
133 154 181
134 154 181
135 155 181
134 154 181
134 155 181
134 154 181
133 154 181
133 154 181
135 155 181
135 155 181
134 154 181
134 154 181
133 153 180
134 154 181
134 154 181
134 154 181
134 154 181
133 154 181
133 154 181
133 154 181
133 154 181
134 154 181
134 154 181
134 154 181
133 154 181
134 154 181
133 154 181
133 154 181
133 154 181
133 154 181
133 154 181
134 154 181
134 155 181
134 155 181
134 154 181
134 154 181
134 154 181
134 154 181
134 154 181
133 154 181
134 154 181
134 154 181
134 154 181
133 153 180
134 154 181
133 153 180
133 154 181
134 154 181
133 154 181
133 154 181
132 153 180
133 153 180
134 154 181
134 154 181
133 153 180
134 154 180
134 154 180
135 155 181
134 154 181
135 155 181
133 153 180
134 154 180
133 154 180
133 154 181
133 154 181
132 153 179
133 154 180
133 154 181
133 153 179
134 154 181
133 154 180
135 154 180
134 154 181
133 154 180
134 154 181
133 154 181
132 153 180
133 154 181
134 154 180
132 153 180
132 153 180
133 153 181
127 144 189
113 127 198
114 126 202
115 127 202
114 126 202
111 124 199
111 124 198
108 120 194
112 124 199
116 129 207
109 121 195
116 128 205
114 126 201
111 123 198
113 124 199
113 125 201
114 127 203
112 124 199
109 121 196
110 122 197
115 127 203
107 120 194
115 127 204
115 128 204
115 127 203
114 126 202
113 126 202
112 124 200
111 124 199
111 123 197
112 124 199
110 122 196
115 127 204
111 124 199
111 124 199
113 125 201
113 126 201
111 124 199
114 126 202
112 125 201
115 128 205
114 126 202
115 127 204
114 126 202
113 125 201
114 126 203
113 125 201
113 125 201
112 124 199
113 125 200
111 123 198
113 125 199
111 124 199
115 128 205
114 127 204
112 125 200
108 120 193
110 122 197
112 124 200
113 125 201
111 123 198
114 126 202
112 125 200
110 122 197
117 129 205
111 123 199
110 122 197
112 124 198
109 122 196
113 125 200
116 129 205
116 129 205
109 122 196
114 126 202
112 124 200
111 123 197
112 124 200
110 123 198
112 125 200
116 128 205
110 122 196
113 126 202
111 124 199
114 126 202
110 122 196
110 122 196
111 123 198
108 120 194
114 127 203
112 124 199
112 124 200
115 128 204
110 123 197
113 125 200
109 122 196
111 123 199
110 122 197
114 126 201
112 124 199
109 121 195
115 128 204
112 124 200
110 123 198
111 123 198
110 122 197
108 120 193
112 124 200
119 130 208
107 119 193
111 123 198
110 122 197
114 126 201
114 127 203
116 129 206
114 126 202
117 129 206
116 128 205
110 122 197
114 126 202
112 124 198
111 123 197
120 132 209
110 122 197
110 122 197
111 123 198
110 122 196
111 124 198
112 124 199
111 123 199
112 124 200
109 121 194
114 126 202
115 128 204
110 122 197
110 122 196
114 126 202
110 122 196
110 123 197
113 125 200
111 123 198
111 123 197
112 125 200
107 119 193
111 123 199
110 123 197
110 122 197
114 126 203
112 124 199
118 133 195
128 146 182
131 151 180
133 153 180
131 152 179
132 153 180
133 154 180
133 153 180
132 152 179
132 152 180
132 153 179
133 153 180
132 152 179
134 154 181
133 153 180
133 153 180
131 151 178
133 153 179
133 153 180
133 154 180
134 154 181
133 153 180
134 154 181
133 153 180
132 153 180
134 154 180
133 153 180
132 152 179
133 153 179
133 153 179
134 154 180
133 153 180
133 154 181
133 154 181
133 154 180
134 154 180
134 154 181
134 154 181
133 154 180
134 154 180
133 154 180
134 154 181
133 153 180
132 153 180
134 154 181
133 153 179
134 154 180
134 154 181
133 154 181
133 154 181
134 154 181
134 154 180
134 154 181
134 154 180
134 154 181
134 154 180
134 154 181
133 154 180
134 154 180
132 153 180
134 154 181
133 154 181
134 154 181
133 154 181
134 154 181
134 154 181
134 154 180
134 154 181
134 154 181
133 154 181
134 154 181
134 154 181
134 154 181
134 154 181
135 155 181
133 154 181
134 155 181
134 154 181
134 154 181
134 154 180
133 154 181
133 153 180
132 153 180
134 154 181
134 154 181
133 153 180
134 154 181
135 155 181
134 154 181
134 154 180
134 154 181
134 154 181
134 154 181
135 155 181
134 154 181
134 154 181
133 154 181
133 154 181
134 154 181
133 154 181
134 154 181
135 155 181
134 154 181
134 154 181
134 154 181
134 154 180
133 154 181
133 154 181
134 154 181
134 154 181
134 154 181
134 154 181
133 154 181
134 154 181
134 154 181
133 154 181
133 154 181
133 154 181
134 154 180
133 154 181
134 154 181
133 154 181
133 154 181
134 154 181
134 154 181
134 154 181
134 154 181
134 154 181
134 154 181
134 154 181
135 155 181
133 154 181
135 155 181
134 155 181
134 154 181
133 154 181
134 154 181
134 154 181
134 154 181
132 153 181
133 154 181
134 154 181
134 154 181
133 154 181
134 154 181
134 154 181
132 153 180
134 154 181
134 154 181
133 154 181
135 155 181
133 154 181
133 154 181
134 154 181
133 154 181
134 155 181
134 154 181
134 154 181
135 155 181
135 155 181
133 154 181
133 154 181
135 155 181
133 154 181
134 154 181
133 154 181
134 154 181
134 154 181
134 154 181
134 154 181
134 154 181
133 154 181
134 154 181
133 154 181
133 154 181
134 154 181
133 153 180
133 154 181
134 154 181
134 154 181
133 154 181
133 154 181
133 154 181
134 154 181
134 154 181
134 154 181
134 154 181
135 155 181
133 154 181
134 154 181
134 154 181
133 154 181
133 154 181
134 154 181
134 154 180
134 154 181
133 154 181
134 154 181
134 154 181
134 154 181
135 155 181
134 154 181
134 154 181
133 154 181
134 154 181
134 155 181
133 154 181
134 154 181
133 154 181
135 155 181
133 154 181
134 154 181
135 155 181
132 153 180
133 154 181
133 154 180
134 154 181
133 154 181
134 154 181
133 154 180
133 153 180
134 154 180
133 153 180
134 154 181
134 154 181
134 154 181
134 154 180
133 153 180
133 154 181
133 154 180
133 153 180
134 154 180
133 153 180
134 154 181
133 153 180
133 153 180
133 154 180
134 154 181
133 154 181
133 153 180
134 154 180
133 154 181
133 153 180
133 153 180
133 154 180
133 154 181
133 153 180
133 154 180
132 153 180
134 154 181
132 153 180
132 153 181
127 145 188
115 130 196
112 125 201
111 123 198
109 122 196
112 124 201
114 126 201
111 123 198
112 124 199
109 121 196
107 119 192
112 124 198
112 124 199
118 130 208
110 123 197
114 126 201
114 126 202
111 123 198
112 124 199
114 126 203
111 123 198
111 123 198
114 126 202
114 126 202
110 122 196
112 125 200
115 127 202
112 125 200
109 121 196
114 126 203
114 126 202
109 122 196
116 129 206
113 126 202
112 124 199
111 124 199
113 125 199
119 131 209
112 125 200
111 124 199
113 125 202
114 126 202
108 121 196
115 127 203
112 124 198
110 123 197
111 123 198
112 124 199
111 123 198
115 127 204
112 125 200
112 124 199
112 125 201
111 123 197
115 127 204
112 124 200
115 127 204
112 124 199
110 122 198
108 121 195
114 126 202
111 123 198
115 127 203
117 129 205
116 129 206
114 127 204
110 122 196
111 123 197
108 120 194
112 124 199
116 128 205
111 123 198
113 125 201
115 128 205
114 126 201
112 125 200
115 127 204
114 127 203
110 123 197
109 122 196
110 122 197
111 123 198
115 127 203
111 123 198
112 124 200
115 128 205
114 126 202
114 126 202
110 122 196
113 125 201
113 125 201
112 125 201
111 123 198
116 128 204
113 125 201
109 122 196
112 123 198
116 128 205
112 124 200
109 122 196
115 127 204
113 126 201
112 124 200
113 125 201
111 124 199
111 124 199
112 124 200
114 127 204
111 124 199
114 126 203
114 126 201
111 123 198
113 125 201
114 126 202
113 125 201
110 123 198
111 124 199
114 127 203
113 125 200
112 124 200
111 123 197
110 122 197
114 127 203
109 121 195
107 120 193
111 124 199
115 127 204
114 127 204
116 128 204
118 130 206
112 124 200
113 126 201
113 125 201
113 125 200
108 121 194
110 123 199
110 122 198
114 126 202
109 121 194
112 124 199
111 123 198
111 123 199
109 122 195
109 122 197
114 126 201
112 125 201
113 125 201
110 122 196
118 132 196
122 141 180
131 151 178
133 153 179
130 151 178
130 150 178
133 153 179
133 153 180
132 152 179
132 151 179
132 152 180
133 153 179
131 151 179
133 153 180
132 152 180
133 154 181
133 153 180
132 152 180
131 151 179
131 152 179
133 153 180
133 152 179
132 153 180
133 153 180
133 153 180
132 152 179
133 153 180
133 154 181
133 153 180
133 154 180
133 154 181
132 153 180
133 153 180
134 154 180
133 153 180
133 153 180
134 154 181
134 154 181
131 151 178
132 152 180
134 154 180
133 153 180
134 154 181
133 154 181
134 154 181
134 154 180
133 154 181
133 154 180
133 153 180
134 154 181
134 154 181
135 155 181
134 154 181
134 154 181
133 153 180
134 154 180
133 154 180
134 154 181
134 154 181
134 154 180
133 154 181
134 154 181
133 153 180
133 154 180
133 153 180
133 153 180
134 154 181
134 154 181
134 154 181
133 154 180
133 154 181
133 154 181
133 154 181
134 154 180
133 154 180
133 154 181
133 154 181
134 154 181
134 154 181
134 154 180
134 154 181
133 154 181
134 154 181
134 154 181
133 153 180
133 154 181
134 154 180
133 154 180
133 154 180
133 154 180
135 155 181
133 154 181
133 154 181
134 154 181
135 155 181
134 154 181
134 154 181
134 154 181
134 154 181
134 154 181
134 154 180
134 154 181
133 154 181
133 154 181
134 154 181
134 154 181
133 154 181
133 154 180
134 154 181
133 154 181
133 154 180
134 155 181
133 154 181
133 154 181
134 154 181
134 154 181
133 154 181
134 154 181
134 154 181
134 154 181
134 154 181
133 154 181
133 154 181
133 154 181
133 154 181
132 153 180
133 154 181
134 154 181
134 154 181
133 154 181
133 154 180
134 154 181
133 154 181
134 154 181
133 154 181
134 154 181
133 154 181
135 155 181
133 154 181
134 154 181
135 155 181
135 155 181
134 154 181
134 154 181
133 154 181
133 154 181
134 154 181
133 154 181
134 155 181
133 154 181
133 154 181
134 154 181
133 154 181
134 154 181
134 154 181
134 154 181
134 154 180
135 155 181
134 154 180
134 154 181
134 154 181
134 154 181
134 154 181
134 154 181
133 154 181
135 155 181
134 154 181
134 154 181
134 154 181
134 154 181
134 154 181
134 154 181
134 154 181
133 154 181
133 154 180
134 154 181
134 154 181
134 154 181
134 154 181
133 154 181
133 154 181
133 154 181
134 154 181
134 154 181
133 154 181
134 154 181
134 154 181
133 154 181
134 154 181
134 154 181
134 154 181
135 155 181
134 154 181
133 154 181
134 154 181
134 154 181
134 154 181
134 154 181
134 154 181
132 154 181
134 154 181
134 154 181
133 154 181
134 154 181
135 155 181
134 154 180
135 155 181
134 154 181
134 154 181
134 154 181
135 155 181
134 154 181
133 154 181
134 154 181
134 154 181
133 154 181
134 155 181
134 154 180
133 154 180
134 154 181
134 154 181
133 153 180
133 154 180
133 153 180
133 154 181
134 154 181
133 154 181
134 154 181
134 154 181
133 154 181
134 154 180
132 153 180
135 155 181
133 153 179
134 154 181
135 154 180
133 154 180
133 153 180
132 153 180
134 154 181
134 154 180
133 153 180
134 154 181
133 153 180
133 154 181
133 154 181
133 153 180
133 153 179
132 153 180
133 153 180
132 153 180
132 153 181
128 147 186
114 128 190
114 126 202
112 124 199
113 125 200
112 124 200
113 126 203
110 122 196
112 124 200
112 124 199
110 122 197
112 125 200
116 128 206
112 124 198
113 125 202
110 121 195
108 120 194
109 121 196
108 121 196
115 127 204
114 127 204
111 124 199
112 123 198
112 125 201
108 120 194
106 118 191
112 124 198
112 124 199
117 129 205
112 125 200
113 125 201
115 127 204
113 125 201
118 130 208
115 128 205
108 120 194
112 123 198
112 124 199
114 126 202
110 123 198
114 126 202
112 125 200
113 125 201
116 128 205
111 123 197
112 125 200
111 123 198
110 123 197
113 126 202
113 126 202
112 124 198
112 124 199
115 127 204
114 126 201
110 122 196
112 124 198
115 127 203
117 129 205
118 130 207
113 126 201
111 124 200
115 127 202
113 125 200
108 120 193
114 126 201
109 122 196
112 124 198
111 123 199
107 120 193
116 128 204
109 121 195
111 123 198
114 126 201
111 123 198
114 127 203
113 125 201
114 126 202
105 118 191
113 125 201
111 123 198
114 126 202
109 121 195
113 125 200
114 126 202
112 125 200
113 125 200
110 122 196
108 121 195
110 122 198
112 124 199
111 124 198
117 129 205
111 123 199
113 125 201
117 129 206
109 122 196
113 126 201
111 124 199
109 121 195
113 124 199
111 124 199
111 124 199
116 128 205
117 129 206
103 115 187
114 126 202
117 129 205
111 123 198
109 121 196
116 128 205
112 124 198
110 122 196
111 122 197
106 118 191
116 128 206
113 125 200
114 127 204
113 125 200
111 123 197
116 127 204
114 126 202
114 126 202
110 123 197
113 125 201
112 124 200
113 125 202
115 127 203
111 123 198
114 126 202
114 126 201
111 124 199
112 124 200
108 120 195
111 123 198
113 125 199
113 125 201
110 122 197
109 121 196
110 122 197
111 122 196
112 124 200
114 126 202
111 123 199
108 121 196
112 124 200
112 124 199
114 126 203
109 121 196
117 132 192
126 144 182
132 152 179
130 150 177
133 153 180
132 152 179
132 152 179
129 149 178
132 152 179
131 151 179
130 150 178
131 152 179
132 153 180
132 153 180
133 153 180
132 153 180
131 151 178
134 154 180
134 154 180
133 154 180
134 154 180
133 153 180
132 152 179
132 152 179
133 153 180
133 153 180
132 152 179
133 153 180
132 152 179
133 153 180
133 154 181
131 152 179
132 152 179
132 152 179
133 153 180
132 153 180
134 154 181
133 154 181
134 154 181
132 153 180
132 153 180
132 153 180
134 154 180
134 154 181
134 154 181
134 154 180
133 153 180
134 154 181
133 153 180
133 153 180
132 153 180
133 154 180
133 154 180
133 154 180
133 154 181
132 152 179
133 154 180
134 154 181
134 154 181
133 154 181
133 154 181
134 154 181
135 155 181
134 154 181
133 154 181
133 153 180
134 154 180
133 154 181
134 154 181
134 154 181
133 153 180
133 154 181
134 154 181
133 154 181
133 154 181
134 154 181
133 154 181
134 154 181
134 154 181
133 154 181
133 154 181
134 154 181
134 154 181
133 154 181
134 154 181
134 154 181
133 154 180
134 154 181
134 154 181
132 153 180
134 154 180
133 154 180
135 155 181
134 154 181
133 154 181
133 154 181
134 154 180
133 154 181
134 154 181
133 154 181
134 154 181
133 154 181
134 154 181
133 153 180
134 154 181
133 154 180
134 154 181
134 154 181
134 154 181
133 154 181
134 154 181
134 154 181
134 154 181
135 155 181
134 154 181
133 154 181
133 154 181
133 154 180
134 154 181
134 154 181
134 154 181
134 154 181
134 154 181
133 154 181
134 154 181
134 154 181
134 154 181
133 154 181
134 154 181
135 155 181
134 154 181
134 154 181
133 154 181
134 154 181
134 154 181
134 154 181
134 154 181
134 154 181
133 154 181
134 154 181
134 154 180
133 154 181
134 154 181
133 154 181
134 154 181
134 154 181
134 154 181
134 154 181
133 154 181
133 154 181
134 155 181
134 154 181
134 154 181
134 154 181
133 154 181
134 154 181
134 154 181
134 154 181
134 154 181
134 154 181
134 154 181
134 154 181
133 154 181
133 154 181
134 154 181
133 154 181
133 154 181
134 154 181
133 154 181
133 154 181
134 154 181
134 154 181
134 154 181
134 154 181
134 154 181
134 154 181
134 154 181
134 154 181
133 154 181
134 154 181
134 154 181
133 154 181
134 154 181
134 154 181
134 154 181
134 154 181
134 154 181
134 154 181
134 154 181
134 154 181
134 154 181
135 155 181
134 154 181
135 155 181
133 154 181
134 154 181
133 154 181
133 154 181
134 154 181
133 153 180
133 154 181
133 154 181
134 154 181
134 154 181
134 154 181
134 154 181
134 154 181
134 154 181
134 154 180
133 154 180
134 154 181
134 154 181
134 154 181
135 155 181
133 154 181
133 153 179
133 153 180
133 154 180
134 154 181
134 154 181
134 155 181
134 154 181
132 153 180
134 154 180
134 154 180
133 153 180
135 155 181
134 155 181
134 155 181
133 153 180
133 153 180
134 154 180
133 153 180
133 153 180
133 154 181
133 153 179
133 153 179
134 154 181
133 153 180
132 152 179
133 154 180
132 153 180
134 154 181
133 154 180
134 153 180
133 154 180
134 154 181
133 153 180
132 152 179
134 154 181
133 154 181
131 151 178
130 148 187
116 132 190
112 124 200
112 123 197
112 124 198
117 129 206
113 125 200
111 122 197
110 122 197
112 124 199
113 125 201
111 123 199
113 125 201
110 123 198
113 125 201
109 121 195
112 124 200
110 122 197
113 125 201
110 122 196
110 123 197
114 126 202
114 126 201
113 124 199
111 123 198
112 123 197
112 124 200
113 125 200
116 128 205
111 124 199
116 128 204
111 124 199
108 121 194
111 123 198
112 124 198
112 124 198
115 127 203
112 124 200
112 125 200
111 123 198
109 122 196
108 120 194
109 122 197
111 124 199
112 124 198
116 129 206
110 123 198
110 123 197
115 127 204
115 128 204
116 129 206
111 123 198
113 125 201
114 126 202
111 124 199
110 122 196
112 124 200
111 123 198
110 122 196
113 125 199
108 121 195
112 124 200
110 122 197
112 125 202
113 125 200
113 125 201
110 122 197
111 123 197
113 126 201
111 123 197
110 122 196
116 128 205
115 127 204
115 127 202
110 123 198
111 123 197
112 124 199
111 123 197
108 121 196
110 122 197
109 122 196
113 125 201
107 119 192
110 123 198
116 128 205
110 123 198
113 125 202
108 120 194
113 125 201
112 124 200
109 121 195
113 125 201
110 123 198
113 126 202
110 122 196
113 125 201
111 124 199
116 128 204
114 126 200
111 123 198
114 127 204
109 122 196
109 122 197
113 125 200
113 125 201
113 125 200
112 125 200
110 123 198
108 120 195
117 129 207
111 124 199
111 123 197
110 122 197
112 124 200
111 123 197
110 121 195
112 123 198
112 124 199
113 125 202
110 123 199
110 123 198
111 123 198
109 120 194
114 126 201
112 124 200
112 124 200
109 121 195
114 126 202
115 127 204
114 126 202
109 122 196
109 122 197
111 123 197
113 125 200
111 123 198
112 125 200
109 121 194
110 123 198
113 125 200
110 122 197
113 125 201
113 125 200
108 121 195
115 127 204
106 119 191
106 118 191
109 121 196
114 126 202
117 131 194
124 142 187
130 149 176
131 151 179
132 152 179
131 151 179
133 153 180
130 151 178
132 153 179
132 153 179
131 151 179
132 152 178
131 152 179
129 149 177
133 153 180
132 153 180
132 152 179
133 153 180
132 152 179
133 153 180
133 153 180
133 153 180
132 153 180
132 152 179
134 154 180
133 154 181
133 153 180
133 153 180
133 153 180
130 150 178
134 153 179
134 154 181
133 154 180
134 154 181
134 154 180
133 154 180
133 154 180
134 154 181
134 154 180
133 153 180
132 153 180
133 153 180
133 154 181
132 152 179
134 154 181
134 154 180
133 154 180
133 154 181
132 153 180
134 154 181
133 153 180
132 153 180
133 153 180
133 154 181
133 154 181
133 154 181
133 154 181
134 154 181
134 154 181
132 153 180
134 154 181
134 154 181
133 153 179
134 154 181
133 154 181
134 154 181
134 154 181
133 154 181
134 154 180
134 154 181
135 155 181
135 155 181
134 154 180
134 154 181
134 154 181
135 155 181
134 154 181
134 154 181
135 155 181
133 154 181
134 154 180
132 153 180
135 155 181
134 154 181
134 154 181
134 154 180
135 155 181
133 154 181
133 154 181
134 154 181
134 154 181
133 154 180
134 154 181
134 154 181
134 154 181
134 154 181
133 154 181
133 154 181
135 155 181
134 154 181
134 154 181
134 154 181
134 154 181
133 154 181
132 153 180
133 154 181
134 154 181
133 154 181
133 154 181
133 154 181
133 154 181
134 154 181
134 154 181
133 154 181
133 153 180
135 155 181
135 155 181
134 154 181
133 154 181
133 154 181
134 154 181
133 154 181
133 154 181
133 154 181
133 154 180
134 154 181
134 154 180
134 154 181
133 154 181
134 154 181
134 154 181
133 154 181
133 154 181
134 154 181
134 154 181
134 154 181
134 154 181
133 154 181
134 154 181
133 154 181
134 154 181
134 154 181
133 154 181
134 154 181
134 154 181
133 154 181
134 154 181
134 155 181
132 153 180
133 154 181
134 154 181
134 154 181
133 154 181
135 155 181
134 154 181
134 154 181
134 154 181
134 154 181
134 154 181
133 154 181
134 154 181
134 154 181
134 154 181
133 154 181
133 154 181
135 155 181
134 154 181
134 154 181
134 154 181
134 154 181
135 155 181
134 154 181
134 154 181
134 154 181
134 154 181
133 154 181
134 154 181
133 154 181
134 154 181
135 155 181
134 154 181
134 155 181
133 154 181
134 154 181
133 154 181
134 154 181
133 154 180
134 154 181
134 154 181
133 154 181
134 154 181
134 154 181
134 155 181
134 154 181
134 154 181
134 154 181
134 154 181
133 154 181
135 155 181
134 154 181
133 154 181
133 154 180
134 154 181
133 154 181
132 153 181
134 154 181
134 154 181
134 154 181
134 154 181
134 154 181
134 154 181
133 154 181
133 153 180
133 153 180
133 154 181
134 154 181
133 153 180
134 154 181
131 152 179
134 154 181
134 154 181
134 154 181
133 153 180
133 154 181
133 154 180
132 153 180
132 153 180
133 154 181
133 154 180
133 153 179
133 153 180
133 153 180
133 153 180
133 154 181
134 154 181
134 154 180
133 154 181
132 153 180
133 153 180
134 154 181
133 153 180
134 154 181
134 154 180
132 153 179
133 153 179
134 154 181
133 153 180
134 154 181
133 153 180
132 152 179
132 152 179
132 153 179
128 147 186
116 130 194
110 122 196
107 119 193
114 127 203
111 123 197
113 125 201
111 123 198
110 123 198
113 125 200
114 126 201
109 121 196
114 126 203
112 124 200
114 126 202
107 120 193
116 128 204
111 123 198
106 118 192
114 126 202
114 126 202
117 129 207
110 122 196
111 124 199
110 122 197
109 122 198
119 131 210
114 126 201
112 124 199
112 124 200
111 124 199
114 126 203
115 127 204
113 125 201
111 123 197
114 126 201
114 126 202
114 127 203
110 122 196
115 127 204
115 128 204
108 120 194
114 126 202
114 127 203
108 121 194
116 128 203
111 123 199
112 125 200
110 123 198
112 125 200
110 123 197
106 119 191
112 125 200
112 124 199
109 121 194
116 128 205
107 120 195
111 123 198
115 128 205
114 126 202
111 124 199
110 122 197
111 123 198
116 128 205
114 127 203
111 123 199
113 126 202
110 123 197
110 123 198
111 123 198
111 124 199
111 124 199
111 123 199
112 124 200
113 125 201
109 122 196
109 122 197
114 126 202
114 126 202
106 119 193
113 126 202
118 130 207
113 125 200
112 124 198
112 124 199
114 127 203
114 127 203
113 126 201
110 122 197
114 127 202
114 126 202
115 127 202
116 128 204
112 124 199
111 124 199
110 122 197
109 121 195
108 120 194
116 128 204
113 125 201
111 123 198
112 124 200
112 125 200
111 123 198
110 122 197
115 127 204
110 122 197
114 127 204
112 124 199
111 123 197
108 120 194
113 125 201
114 126 201
109 121 195
112 124 200
118 130 208
112 124 200
113 125 201
113 125 201
114 126 202
105 117 190
115 128 204
111 123 199
110 123 198
107 119 192
110 122 196
109 121 195
105 118 190
113 125 201
107 120 194
113 125 201
112 124 199
113 125 201
116 128 204
117 129 206
107 120 194
109 121 195
114 126 202
110 123 197
113 125 201
108 121 196
111 124 200
109 121 196
109 121 196
115 128 204
114 126 202
113 125 201
108 121 195
116 130 197
124 141 185
130 150 178
131 151 179
130 150 179
131 151 179
132 152 179
130 150 178
132 153 180
132 152 180
131 151 179
129 149 177
132 152 179
131 152 179
132 152 180
130 150 177
133 153 180
131 152 179
130 150 178
133 153 180
134 154 181
133 153 180
130 149 177
134 154 181
133 154 180
133 153 180
131 152 179
133 154 181
133 154 181
133 153 180
132 153 180
133 153 180
133 152 180
133 153 180
132 153 180
133 153 180
133 154 180
132 152 179
132 152 179
132 152 179
134 154 181
133 154 181
133 154 181
134 154 181
132 152 180
131 151 179
134 154 181
134 154 180
134 154 181
132 153 180
132 152 179
133 153 180
134 154 181
133 153 180
133 153 180
132 153 179
133 154 181
134 154 181
133 153 180
132 152 179
132 153 180
134 154 181
134 154 181
134 154 180
134 154 180
134 154 181
133 154 180
132 153 179
134 154 181
133 154 181
133 154 181
133 154 180
134 154 181
133 154 181
133 154 181
132 153 180
133 154 181
134 154 181
134 154 181
133 153 180
134 154 180
133 153 180
134 154 180
134 154 181
133 154 181
133 154 180
134 154 181
134 154 181
134 154 181
134 154 180
133 154 181
134 154 180
135 155 181
133 154 181
134 154 181
133 154 181
133 153 180
134 154 181
134 154 181
134 154 181
133 154 181
134 154 181
134 154 181
133 154 181
133 153 180
133 154 181
134 154 181
134 154 181
134 154 181
134 154 181
134 154 181
134 154 181
134 154 181
133 154 181
134 154 181
134 154 181
134 154 181
134 154 180
133 154 181
133 154 181
132 153 180
133 154 181
134 154 181
133 153 180
134 154 181
134 154 181
134 154 181
134 154 180
134 154 181
134 154 181
133 154 181
134 154 181
133 154 181
134 154 181
134 154 181
134 154 181
134 154 181
134 154 181
132 153 181
134 154 181
134 154 181
134 154 181
134 154 181
134 155 181
134 154 181
133 154 181
133 154 181
134 154 181
134 154 181
133 154 181
134 154 181
134 154 180
134 154 181
133 154 181
134 154 181
134 154 181
133 154 181
133 154 181
134 154 181
133 154 181
134 154 180
133 154 181
134 154 181
134 154 181
134 154 181
134 154 181
134 154 181
134 154 181
133 154 181
134 154 181
133 154 180
134 154 181
134 154 181
133 154 181
134 154 181
134 154 181
134 154 181
135 155 181
134 154 181
134 154 181
134 154 181
134 154 180
133 154 181
134 154 180
134 154 181
134 154 181
133 154 181
134 154 181
133 154 181
134 154 181
133 154 181
134 154 181
134 154 181
134 154 181
133 154 181
134 154 181
134 154 181
133 154 181
133 154 181
134 154 181
133 154 181
134 154 181
134 154 181
134 154 181
134 154 181
133 154 181
134 154 181
133 154 181
133 154 180
133 154 181
133 154 181
133 154 180
134 154 180
134 154 181
134 154 181
133 154 181
133 153 180
134 154 181
134 154 180
132 153 180
133 154 180
133 154 180
134 154 180
133 154 181
133 153 180
133 153 180
133 154 180
133 153 179
133 153 180
132 152 180
132 153 180
133 153 180
133 154 181
132 152 179
133 153 180
133 153 180
133 153 180
134 154 181
133 153 179
132 153 180
134 154 181
133 153 179
133 154 180
134 154 180
134 154 181
133 153 180
132 152 180
131 152 179
133 152 179
133 153 180
132 152 180
132 152 180
129 148 183
116 131 191
112 125 199
109 121 194
111 124 199
110 122 197
111 123 199
109 122 196
110 123 197
105 118 192
110 122 198
113 125 201
111 123 198
118 130 208
112 124 198
109 121 195
108 120 194
113 126 201
112 124 200
114 126 202
118 130 207
116 129 206
109 122 196
116 128 206
112 124 200
109 121 196
112 124 200
115 127 203
118 130 208
112 125 200
108 121 195
115 127 203
113 125 200
111 123 200
115 127 204
111 123 198
109 122 196
114 126 201
112 124 198
112 124 199
115 127 203
111 123 198
113 125 200
116 128 205
111 124 199
115 127 203
109 122 196
113 125 201
114 126 202
113 125 202
115 128 204
113 125 201
112 124 198
110 122 195
111 123 197
106 119 193
114 126 201
109 122 197
108 120 195
112 124 199
113 126 202
111 124 198
108 121 195
115 127 203
112 124 198
112 124 200
117 129 206
114 126 201
116 128 205
111 124 199
116 129 206
113 125 201
109 121 195
115 127 203
107 120 193
111 123 198
110 122 197
114 126 203
107 120 193
113 126 202
115 127 203
111 124 199
112 124 199
112 124 200
115 127 204
112 125 200
109 121 196
112 124 199
111 123 197
110 122 197
115 127 203
113 125 199
110 123 197
115 127 203
112 124 199
106 118 190
112 124 200
112 124 200
113 125 200
116 128 204
112 123 198
114 126 203
113 125 201
109 122 197
112 124 200
107 120 194
115 127 203
112 124 200
114 126 202
105 117 189
106 119 193
112 125 200
111 123 198
113 125 201
114 126 202
112 124 200
115 127 204
111 124 200
111 123 199
112 124 199
110 123 197
110 122 196
109 122 197
115 127 203
110 122 197
118 131 209
112 124 200
109 121 196
114 126 203
112 124 201
111 123 198
111 123 198
115 128 205
108 121 195
111 123 198
106 119 193
107 119 194
114 127 202
111 124 201
115 127 204
113 125 201
115 127 203
111 123 199
113 125 201
111 124 199
112 124 200
111 123 198
111 123 198
118 132 200
125 143 183
130 150 179
128 148 176
130 150 178
131 150 178
132 152 180
127 148 177
129 150 178
130 150 178
131 151 179
131 151 179
133 154 180
130 150 178
131 151 178
132 152 179
130 151 178
131 151 179
133 153 179
132 153 180
132 153 180
131 152 179
134 154 180
132 152 179
132 152 179
131 151 179
132 153 180
133 154 180
131 152 179
131 151 178
133 153 179
133 153 180
133 153 180
133 153 180
133 153 180
133 153 180
133 153 180
134 153 180
133 153 180
132 153 180
132 152 179
133 154 181
134 154 181
134 154 181
132 152 179
134 154 181
131 152 179
134 154 180
133 153 180
133 153 180
134 154 181
134 154 181
133 153 180
132 153 180
133 153 180
134 154 180
133 153 180
134 154 181
133 153 180
132 153 180
134 154 181
134 154 180
134 154 180
133 153 179
133 154 181
134 154 181
134 154 180
132 153 179
133 154 181
133 153 180
132 153 180
133 153 180
133 154 180
133 154 181
133 154 181
133 154 180
134 154 181
134 154 181
134 154 181
133 154 180
133 153 180
133 154 181
133 154 181
134 154 181
134 154 181
133 154 181
134 154 181
134 154 181
133 153 180
133 154 181
133 153 180
134 154 181
134 154 181
133 154 181
133 154 181
133 154 181
134 154 181
135 155 181
133 153 180
134 154 181
133 154 181
134 154 181
133 154 181
134 154 180
134 154 181
134 154 181
134 154 181
133 154 181
134 154 180
133 154 181
134 154 181
134 154 181
134 154 181
134 154 181
133 154 181
134 154 181
134 154 181
134 154 181
134 154 181
134 154 181
135 155 181
134 154 181
134 154 181
134 154 181
134 154 181
135 155 181
134 154 181
134 154 181
134 154 180
134 154 181
134 155 181
133 154 180
133 154 181
134 154 181
134 154 181
134 154 181
134 154 181
134 154 181
134 154 181
133 154 181
134 154 181
134 155 181
135 155 181
134 154 181
135 155 181
134 154 181
133 154 181
134 154 181
134 155 181
134 154 181
134 155 181
134 154 181
134 154 181
134 154 181
134 154 181
134 154 181
134 154 181
134 154 181
134 154 181
134 154 181
134 154 180
134 154 181
134 154 181
134 154 181
134 155 181
134 154 181
134 154 181
134 155 181
134 154 181
133 154 181
134 154 181
133 154 180
134 154 181
134 154 181
133 154 181
133 154 181
134 154 181
134 154 181
134 154 181
133 154 181
133 154 181
134 154 181
134 154 181
135 155 181
134 154 181
134 154 181
134 154 181
133 154 181
134 154 181
133 154 181
134 154 181
135 155 181
134 154 181
135 155 181
133 154 181
133 154 181
133 154 181
133 154 181
134 154 181
133 154 181
134 155 181
134 154 181
133 154 181
133 154 181
134 154 181
134 154 181
133 154 180
133 154 181
134 154 180
134 154 181
134 154 180
133 153 180
133 154 181
133 153 180
133 153 180
134 154 181
133 154 180
133 154 181
133 153 179
134 154 180
133 154 181
134 154 181
134 154 181
133 153 179
133 153 180
133 154 181
133 153 180
133 153 180
133 153 179
133 154 180
133 154 180
134 154 181
134 154 181
133 153 180
133 153 180
133 153 180
133 153 180
133 154 180
133 153 180
133 153 179
134 154 180
133 154 180
133 153 180
132 153 179
132 153 179
132 153 180
132 152 180
133 153 180
132 153 180
131 151 179
132 152 179
132 152 179
129 148 183
117 133 189
111 123 196
114 126 202
109 121 196
107 119 192
113 125 200
108 121 195
113 125 201
110 122 196
114 126 203
110 122 196
114 126 203
113 125 200
115 127 204
109 121 195
114 126 202
113 125 201
109 122 197
114 126 201
112 124 199
112 125 200
117 129 206
114 127 204
113 125 199
105 118 190
111 123 198
109 121 196
112 125 200
113 125 200
111 123 199
107 120 192
112 124 200
116 129 205
110 122 196
113 125 201
112 125 201
111 123 197
111 123 197
112 124 200
114 126 202
111 123 198
114 126 202
116 128 204
113 126 202
108 121 195
109 121 196
115 127 204
112 125 201
115 127 204
112 124 200
113 125 201
108 120 194
114 126 202
116 128 205
113 126 202
107 120 195
112 125 201
114 126 202
112 124 199
114 127 202
114 125 201
114 126 202
107 119 192
115 127 204
116 128 204
113 126 204
114 126 202
112 124 199
111 123 198
111 123 198
108 120 194
112 124 199
113 126 202
112 124 199
113 126 202
115 127 203
108 121 194
114 126 201
112 125 201
113 125 202
111 123 198
109 121 195
119 131 210
113 125 201
112 124 199
109 121 196
106 118 191
114 125 201
110 123 198
110 122 196
110 123 197
107 119 193
112 125 200
118 130 207
115 128 204
110 123 199
111 123 198
111 123 198
112 124 200
113 125 201
113 126 201
107 120 194
110 122 197
113 125 199
111 123 197
115 126 201
113 125 200
113 125 200
108 120 194
113 125 201
109 122 196
110 122 197
112 124 199
111 123 198
111 124 199
111 123 199
114 126 203
110 122 197
111 123 199
112 125 201
109 121 194
111 123 198
111 124 199
109 122 197
112 124 199
111 123 199
110 122 197
113 125 202
112 123 198
109 121 196
104 117 190
110 122 197
108 120 194
108 120 193
112 124 200
109 122 196
112 124 200
111 123 198
113 125 201
115 127 203
114 126 202
112 124 199
109 122 197
112 124 200
111 123 198
111 124 200
111 123 198
116 130 196
124 142 183
128 148 176
130 149 177
127 147 176
128 148 176
130 150 178
130 150 178
130 150 178
131 151 178
127 147 175
129 150 178
131 151 179
132 153 179
132 153 180
130 150 178
132 152 179
131 152 180
131 151 179
130 150 178
132 153 180
133 153 180
132 153 180
131 151 179
130 150 178
132 152 179
133 153 180
132 152 179
132 152 179
132 153 180
134 154 181
132 153 180
133 153 180
131 151 179
133 153 179
132 153 180
133 153 180
132 152 179
134 154 180
131 152 179
134 154 181
133 154 180
134 154 181
133 153 180
133 153 180
134 154 180
133 153 180
133 153 180
133 154 181
133 154 181
133 154 181
134 154 181
134 154 181
133 154 181
133 154 181
134 153 180
132 153 180
133 154 181
133 154 180
133 154 181
133 154 181
133 154 181
134 154 181
133 154 181
134 154 181
134 154 180
134 154 181
133 154 181
133 154 180
133 154 181
133 154 180
134 154 181
132 153 180
133 153 180
135 155 181
132 153 180
134 154 181
133 154 180
133 154 181
134 154 181
133 154 181
134 154 181
134 154 180
134 154 181
135 155 181
134 154 180
134 154 181
135 155 181
133 154 181
134 154 181
132 153 180
135 155 181
134 155 181
135 155 181
134 154 181
133 154 181
134 154 181
133 154 181
134 154 181
135 155 181
134 154 181
133 154 181
133 154 181
134 154 181
133 153 180
134 154 181
134 154 180
134 154 181
134 154 181
133 154 181
134 155 181
133 154 181
134 154 181
134 154 181
133 154 181
133 154 181
134 154 181
134 154 181
133 154 181
134 154 181
134 154 181
134 154 180
134 154 181
134 154 181
133 154 181
134 154 181
134 154 181
134 155 181
133 154 181
134 154 181
135 155 181
134 154 181
134 154 181
133 154 181
133 154 181
134 154 181
134 154 181
134 154 181
133 154 181
133 154 181
134 154 181
134 154 181
134 154 181
133 154 181
133 154 181
134 154 181
134 154 181
133 154 181
134 154 181
134 154 181
133 154 180
133 154 181
134 154 181
134 154 181
133 154 181
133 154 181
134 154 181
134 154 181
134 154 181
134 154 181
134 154 181
133 154 181
134 154 181
134 154 181
133 153 180
135 155 181
133 154 180
134 154 181
134 154 181
134 154 181
133 154 181
134 154 181
134 154 181
134 154 181
134 154 181
134 154 181
134 154 181
134 154 181
133 154 181
134 154 181
133 154 181
134 154 181
134 154 181
134 154 181
133 154 181
134 154 181
134 154 181
134 154 181
134 154 181
135 155 181
133 154 181
134 154 181
133 154 181
133 154 181
134 154 181
134 154 181
134 154 181
134 154 181
134 154 181
134 154 181
134 154 181
134 154 181
133 154 181
134 154 181
134 154 181
134 154 181
135 155 181
133 154 181
134 154 181
134 154 181
134 154 181
134 154 181
134 154 181
133 153 180
133 154 181
134 154 181
133 154 181
134 154 181
134 154 181
133 153 180
133 154 181
133 154 181
133 154 181
132 152 179
133 153 180
133 153 180
133 153 180
132 153 180
133 153 180
132 153 180
132 152 178
132 152 179
132 152 179
132 153 180
133 153 179
133 153 179
133 154 181
133 154 180
132 152 179
131 151 179
131 152 179
133 154 180
132 153 180
132 152 179
132 152 179
132 153 179
132 153 180
134 154 180
132 152 179
132 152 180
133 153 179
132 152 179
129 148 183
115 130 187
107 120 193
113 126 202
109 120 194
110 123 198
109 122 197
109 122 197
116 128 205
112 124 199
111 123 199
110 122 197
114 126 203
112 124 200
111 124 199
111 123 198
108 120 194
114 126 203
111 123 198
103 116 188
111 124 199
114 126 202
112 124 199
115 127 204
111 123 198
112 125 201
114 126 202
112 125 200
112 124 200
110 123 197
114 126 201
115 127 203
113 125 200
112 125 201
113 125 201
115 127 203
110 123 197
116 128 204
115 127 203
111 123 198
112 124 199
112 124 198
110 122 196
112 125 200
113 125 200
113 125 201
115 127 202
115 127 203
110 123 197
106 118 191
113 125 199
114 126 202
118 130 206
109 121 196
112 124 199
111 124 199
113 125 201
110 122 197
115 127 204
111 123 197
113 126 202
112 124 200
110 122 198
107 120 193
111 123 198
116 128 204
115 127 204
114 125 200
111 124 200
113 125 202
112 124 199
108 121 194
113 125 202
112 124 198
116 128 206
115 127 203
112 125 201
111 124 198
110 122 196
108 121 195
115 127 204
108 121 196
110 122 196
111 123 198
111 123 199
114 126 202
111 123 197
107 119 193
114 125 202
113 125 202
113 126 203
114 126 202
107 119 194
115 127 204
111 123 200
112 125 200
112 124 201
112 124 200
110 123 198
109 121 194
109 121 196
113 125 201
113 125 201
112 125 200
116 128 205
113 125 201
110 122 198
112 125 200
111 123 199
113 125 200
107 120 194
110 122 197
111 124 199
116 128 205
109 122 197
109 121 194
113 125 201
115 127 203
105 117 190
112 125 201
114 126 202
112 124 200
110 122 196
110 123 198
113 125 201
114 126 202
115 127 204
113 126 203
112 124 199
114 127 202
110 122 197
109 122 196
114 126 203
112 124 199
112 124 199
116 128 206
113 125 201
109 122 196
108 119 193
109 121 195
112 123 199
110 122 197
114 127 203
112 124 199
109 121 196
109 122 196
109 122 197
116 128 205
115 128 196
123 141 185
126 146 177
127 147 176
129 149 178
128 148 177
132 152 179
130 149 178
129 149 177
131 150 178
131 151 179
131 151 179
130 149 178
129 148 177
130 150 177
132 151 178
130 149 177
132 152 179
129 149 177
129 149 177
130 151 178
131 151 178
132 152 180
133 153 180
131 152 179
130 150 179
133 154 180
130 150 179
132 153 179
131 151 179
134 154 180
132 152 179
133 153 179
132 152 179
133 153 180
132 152 179
134 154 181
132 153 180
133 153 180
132 153 179
133 152 179
133 152 179
132 153 180
134 154 181
135 155 181
133 153 180
134 154 180
133 154 180
133 153 180
134 154 181
133 154 181
134 154 181
133 153 180
132 153 180
132 153 180
133 153 179
132 153 180
133 154 181
134 154 180
133 154 181
133 153 180
133 154 181
133 154 181
134 154 181
133 154 181
134 154 181
134 154 181
133 153 180
134 154 181
132 153 180
134 154 180
134 154 181
134 154 181
134 155 181
134 154 180
133 154 180
133 154 180
133 153 180
134 154 181
132 153 180
133 154 181
133 154 181
133 154 181
134 154 181
133 154 180
133 153 180
134 154 180
134 154 180
134 154 181
135 155 181
133 154 180
133 154 181
134 154 180
134 154 181
134 154 180
133 154 181
135 155 181
134 154 181
134 154 181
134 154 181
133 153 180
134 154 181
133 154 181
133 154 180
134 154 181
134 155 181
133 154 181
133 154 181
134 154 181
133 154 180
134 154 181
134 154 180
134 154 181
133 154 181
133 153 180
134 154 181
134 154 181
133 154 181
135 155 181
133 154 181
134 154 181
133 154 180
134 154 181
133 154 181
133 154 181
133 154 181
133 154 181
135 155 181
134 154 181
133 154 181
134 154 181
134 154 181
134 154 181
134 154 181
134 154 181
134 154 181
134 154 181
134 154 181
134 154 181
133 154 181
134 155 181
134 154 181
134 154 181
135 155 181
134 154 181
133 154 181
134 154 181
133 154 181
134 154 181
134 154 181
134 154 181
133 154 181
133 154 181
134 154 181
134 154 181
134 154 181
134 154 181
134 154 181
133 154 181
133 154 181
134 154 181
134 155 181
134 154 181
133 154 181
133 154 181
134 154 181
134 154 181
134 154 181
134 154 181
134 154 181
134 154 181
134 154 181
134 154 181
133 154 181
134 154 181
134 154 181
134 154 181
133 154 181
134 154 181
134 154 181
134 154 181
133 154 181
134 154 181
134 154 181
133 154 181
134 154 181
134 154 181
133 154 181
134 154 181
134 154 181
134 154 181
134 154 181
134 154 181
134 154 181
135 155 181
134 154 181
134 154 181
134 154 181
134 154 181
134 154 181
133 154 181
134 154 181
133 154 181
134 154 181
134 154 181
134 154 181
134 154 181
134 154 181
133 154 181
134 154 181
133 153 180
134 154 180
134 154 181
134 154 181
133 153 180
134 154 180
132 153 180
134 154 181
134 154 181
133 154 180
133 153 180
132 152 180
134 154 180
134 154 181
133 153 180
133 154 180
132 152 179
133 153 179
132 153 180
134 154 180
133 153 180
132 152 180
133 153 180
133 153 180
135 155 181
131 151 179
132 152 179
132 152 179
133 154 181
133 153 180
131 150 178
132 153 180
134 154 180
132 152 179
132 152 180
131 151 179
130 150 178
132 152 179
132 152 180
133 152 179
130 150 178
132 153 180
130 150 181
118 134 187
113 126 201
112 124 200
110 122 197
110 122 197
112 125 200
111 124 199
110 123 199
116 128 207
108 120 194
107 119 192
114 126 201
111 123 199
113 125 201
113 126 202
115 126 202
111 123 198
110 122 196
116 128 206
107 118 192
112 125 201
112 123 198
111 124 200
113 125 200
114 126 202
110 122 197
113 126 201
115 128 204
113 125 200
112 124 199
110 122 197
119 131 208
111 123 199
113 125 200
114 127 202
114 126 202
114 127 203
108 120 194
114 126 201
112 124 200
114 126 201
111 123 197
111 123 198
114 126 202
110 123 198
111 123 197
107 120 194
110 123 198
114 127 204
113 125 201
114 126 202
109 121 195
112 125 200
114 126 202
111 124 199
115 127 202
113 126 202
110 122 196
110 123 198
112 124 199
108 120 194
113 126 201
108 121 195
106 118 191
108 120 194
110 122 196
115 128 204
113 125 202
111 123 198
112 124 200
112 124 199
111 123 198
109 121 194
113 125 201
118 130 208
114 126 202
115 127 202
109 122 196
110 123 197
111 123 198
113 125 200
114 127 204
112 125 200
114 127 203
115 127 204
113 126 201
108 120 194
106 118 191
112 124 199
111 124 200
112 124 199
110 122 197
111 124 199
113 125 201
111 124 199
105 118 191
115 128 205
107 119 194
110 122 197
111 123 199
113 125 201
111 123 197
106 119 193
108 120 194
114 126 202
112 124 199
109 121 196
110 122 196
110 122 198
114 126 202
113 125 201
113 125 201
112 124 199
110 122 198
112 125 201
109 121 196
106 118 191
110 123 198
109 122 198
109 121 195
109 121 195
111 124 200
107 120 194
111 123 198
111 123 197
108 121 196
113 125 200
112 124 200
111 123 197
110 123 198
109 121 196
113 126 202
113 126 202
110 122 196
114 126 203
108 120 193
111 123 198
112 123 198
111 123 198
108 121 195
112 124 199
108 121 196
111 123 198
117 128 205
112 125 202
113 125 201
110 121 196
114 128 193
119 137 176
126 145 174
126 145 174
130 149 177
126 146 175
127 146 176
128 148 176
127 147 176
129 149 177
130 150 177
130 150 178
131 151 179
131 150 178
131 151 178
130 150 178
130 150 177
131 152 179
130 150 178
132 152 179
131 151 179
132 152 179
132 153 180
131 151 179
131 151 179
131 151 178
132 153 180
133 154 180
133 153 180
133 153 180
132 153 180
132 152 180
132 152 179
132 153 180
132 153 180
131 151 179
132 152 180
132 152 180
132 153 180
131 152 179
131 152 179
132 153 180
132 152 179
133 154 180
134 154 180
132 153 180
134 155 181
132 152 179
133 154 181
132 153 179
133 154 181
133 154 181
132 153 180
134 154 181
133 153 180
133 154 181
133 154 181
134 154 181
134 154 181
134 154 180
133 153 180
132 152 180
134 154 180
133 154 181
134 154 181
133 153 180
133 153 180
133 154 180
134 154 181
132 153 180
132 152 180
133 153 180
134 154 181
133 154 180
133 154 181
133 153 180
133 154 181
133 154 180
133 153 180
134 154 181
134 154 181
132 153 180
133 154 181
135 155 181
134 154 180
134 154 180
134 154 181
134 154 181
134 154 181
134 154 181
134 154 180
133 154 180
134 154 181
134 154 181
134 154 181
133 154 181
134 154 181
134 154 181
134 154 181
133 154 180
133 154 181
135 155 181
134 154 181
133 154 181
134 154 181
133 154 181
134 154 181
133 153 180
133 154 181
133 154 181
133 154 180
134 154 181
134 154 181
135 155 181
134 154 181
135 155 181
134 154 181
134 154 181
133 154 181
133 154 181
134 154 181
133 154 180
133 154 181
133 154 181
133 154 181
134 154 181
134 154 181
133 154 180
134 154 181
133 154 181
133 154 181
132 154 181
133 154 181
134 154 181
134 154 181
134 154 181
133 154 181
133 154 181
133 154 181
134 154 181
134 154 181
134 154 181
134 154 181
134 154 181
133 154 181
133 154 181
134 154 181
133 154 181
133 154 181
134 154 181
134 154 181
133 154 181
134 154 181
134 154 180
133 154 181
135 155 181
134 154 181
135 155 181
134 154 181
134 154 180
134 154 181
133 154 181
134 154 181
133 154 181
134 154 181
134 154 181
133 154 181
134 154 180
134 154 181
134 154 181
134 154 181
133 154 181
134 154 181
134 154 181
135 155 181
133 154 181
134 154 181
134 154 181
133 154 181
133 153 180
134 154 181
133 154 181
134 154 181
133 154 181
133 154 181
133 154 181
134 154 181
133 154 181
134 154 181
134 154 181
133 154 181
134 154 181
134 154 181
134 154 181
133 154 181
133 154 181
134 154 181
134 154 181
133 154 181
134 154 181
133 154 181
134 154 181
134 154 181
133 154 181
134 154 181
134 154 181
134 154 181
134 154 181
134 154 181
133 154 181
133 154 181
134 154 180
134 154 181
133 154 181
133 153 180
133 154 181
134 154 181
133 154 180
134 154 180
133 153 180
134 154 180
133 153 180
134 154 181
133 153 180
134 154 181
134 154 180
133 153 180
132 153 179
134 154 181
133 153 180
133 153 180
133 153 180
133 154 180
133 153 180
132 152 180
132 153 180
133 154 180
131 152 179
133 153 180
132 152 180
132 152 179
130 150 178
132 152 179
132 152 179
130 150 177
132 153 180
130 150 178
131 151 178
132 152 179
132 152 179
129 149 177
129 149 176
130 149 181
119 135 186
114 126 198
108 120 194
114 127 204
114 126 201
112 125 201
107 119 194
107 119 192
113 125 201
112 124 200
106 118 191
114 126 202
111 123 198
109 121 196
109 121 196
107 120 194
116 129 206
108 121 195
115 127 202
107 120 195
111 123 198
114 126 201
113 125 202
108 120 194
110 122 195
110 123 198
108 120 194
115 128 204
110 123 198
112 124 200
106 119 193
108 121 194
111 122 196
114 126 201
109 121 196
112 125 200
111 123 197
113 125 201
112 124 200
114 126 202
112 125 200
113 125 200
111 123 198
109 122 196
112 124 199
114 126 202
110 122 196
115 127 204
112 125 200
110 123 197
112 124 198
111 123 198
108 120 194
111 123 197
115 127 204
108 120 194
111 124 199
111 123 198
110 122 196
109 122 196
110 123 198
111 123 198
111 124 198
114 127 203
108 121 195
107 120 194
111 123 199
111 124 199
112 125 201
117 129 207
113 126 202
114 126 202
116 128 204
111 123 198
111 124 200
108 120 194
115 126 201
113 125 200
113 126 202
112 124 198
115 127 204
109 121 195
114 126 202
111 124 199
107 120 194
108 121 197
110 122 197
113 125 201
108 120 194
113 126 202
113 125 202
116 128 205
113 125 201
113 125 201
116 128 204
111 123 199
114 127 203
110 122 197
109 121 195
114 127 202
114 127 203
109 122 197
112 124 200
106 118 192
111 123 199
111 123 199
108 120 194
111 123 198
112 124 199
111 124 200
112 124 199
110 122 195
109 121 195
112 124 200
112 124 201
111 123 198
112 125 201
109 121 195
107 119 193
115 127 204
112 124 201
112 124 199
110 122 197
115 127 203
108 121 194
110 122 198
110 122 197
110 122 197
110 122 197
114 126 202
107 119 193
109 121 195
114 126 203
113 126 202
116 128 204
106 118 192
115 127 203
112 125 201
114 127 205
114 126 202
113 125 201
110 122 196
106 119 192
111 123 199
112 124 200
111 124 200
113 125 199
114 128 193
123 140 185
124 143 174
126 146 175
128 148 178
124 143 173
128 148 176
127 147 176
127 147 176
129 149 177
131 152 179
128 147 176
127 147 176
128 148 178
130 150 178
130 150 178
132 152 180
130 150 178
128 148 176
131 151 179
130 151 179
132 153 180
129 149 178
130 151 179
131 151 179
131 152 179
132 152 179
132 153 180
132 153 180
133 153 180
133 153 179
132 152 179
130 150 178
131 151 178
134 154 180
133 153 179
133 153 180
131 152 179
133 153 180
133 154 180
133 153 180
133 153 180
133 154 181
132 153 180
132 153 180
134 154 181
133 153 180
133 154 180
132 153 180
134 154 180
133 153 180
134 154 181
133 154 181
132 152 179
133 154 181
133 154 180
133 154 181
133 154 181
133 154 180
133 153 180
133 153 180
132 152 179
135 155 181
133 154 180
133 153 180
134 154 181
133 154 180
134 154 180
133 153 180
134 154 181
134 154 181
134 154 181
133 154 181
133 154 181
134 154 181
134 154 181
134 154 181
134 154 181
134 154 181
133 153 180
133 153 180
134 154 180
134 154 181
134 154 181
133 154 180
134 154 181
134 154 181
134 154 181
133 154 181
134 154 181
133 154 181
133 154 181
134 154 181
135 155 181
133 154 181
134 154 181
133 154 181
134 154 181
134 154 181
134 154 181
134 154 181
134 154 181
133 154 181
134 154 181
134 154 181
134 154 181
133 154 180
134 154 181
133 154 181
134 154 181
134 154 181
133 154 181
134 154 181
134 154 181
133 154 181
133 154 180
134 154 181
134 154 181
134 154 181
134 154 181
134 154 181
134 154 181
134 154 181
133 154 181
134 154 181
134 154 181
134 155 181
133 154 181
134 154 181
133 154 180
133 154 181
134 154 181
134 154 181
132 153 180
134 154 181
134 154 181
134 154 181
133 154 181
133 153 180
133 154 181
133 154 181
134 154 181
133 154 181
134 154 181
133 154 181
134 154 181
134 154 181
134 155 181
135 155 181
134 154 181
134 154 181
134 154 181
134 154 181
134 154 181
134 154 181
133 154 181
134 154 181
134 154 181
134 154 181
133 154 181
134 154 181
133 154 181
134 154 181
133 154 180
134 154 181
134 154 181
133 154 180
134 154 181
133 154 181
133 154 181
134 154 181
133 154 180
133 154 181
134 154 181
134 154 181
133 154 181
134 154 181
134 154 181
134 154 181
134 154 181
133 154 181
134 154 181
135 155 181
134 154 181
134 154 181
134 154 181
134 154 181
134 154 181
133 154 181
133 154 181
134 154 181
134 154 181
135 155 181
134 154 181
134 154 181
134 154 181
133 154 181
134 154 181
135 155 181
134 154 181
133 154 181
134 154 181
133 154 181
135 155 181
134 154 181
134 154 181
134 154 181
134 154 181
134 154 181
133 154 181
133 154 181
132 152 180
133 153 180
132 153 180
133 153 180
132 152 179
133 154 180
132 152 179
133 153 180
134 154 181
134 154 181
134 154 181
133 153 180
133 153 180
133 154 180
132 152 179
132 153 180
131 152 179
132 152 179
132 153 179
132 152 179
132 153 180
131 151 179
132 153 180
132 152 180
133 153 179
131 151 178
130 150 178
131 151 178
131 151 179
133 153 180
133 153 180
132 153 180
133 153 180
133 152 179
132 153 180
131 151 179
132 152 180
130 150 179
130 149 177
130 149 177
132 152 179
130 150 180
123 140 192
112 125 197
114 126 202
110 122 196
112 124 198
116 128 205
111 124 200
110 122 197
107 119 193
110 123 198
111 123 199
107 120 194
113 124 200
112 124 200
108 120 192
111 123 198
109 122 196
112 124 199
114 126 203
108 121 196
110 122 197
112 124 200
107 119 192
109 120 194
110 123 199
113 125 200
111 124 199
115 127 203
109 122 197
110 122 196
113 126 201
110 123 198
113 125 200
110 122 195
117 128 204
111 124 199
111 124 200
111 124 200
112 124 198
111 123 197
111 123 198
113 125 200
113 125 200
110 122 196
107 120 194
111 124 199
112 124 200
111 124 199
108 120 194
114 126 202
113 125 200
107 119 193
114 126 202
112 124 200
115 127 203
113 125 201
114 126 202
111 123 198
114 126 201
114 127 203
110 122 197
113 126 202
111 123 199
110 122 196
113 125 201
111 123 198
112 124 200
110 123 198
113 126 202
108 120 194
115 127 203
114 127 203
117 129 208
115 127 204
112 124 199
111 123 198
112 125 200
115 128 204
113 125 201
113 125 201
115 127 203
112 124 200
110 122 197
112 125 202
116 128 205
111 123 198
108 120 194
110 122 196
107 119 193
110 122 198
103 115 187
108 121 195
109 121 195
114 126 203
112 125 201
107 120 193
105 117 191
113 125 202
108 120 194
111 123 198
113 126 201
110 123 198
111 124 200
113 126 202
109 122 197
114 126 201
112 124 199
115 127 204
112 124 201
112 124 200
111 123 199
114 127 203
112 124 199
112 124 199
111 123 199
110 122 197
109 122 196
114 126 204
111 123 199
114 126 203
111 123 199
115 127 204
109 121 196
108 121 195
110 122 196
109 120 194
114 127 204
115 126 202
114 126 203
113 125 201
114 126 202
111 123 198
111 124 200
114 126 202
112 124 199
114 126 202
107 119 192
110 123 198
107 119 192
109 121 197
109 120 196
111 123 198
108 120 194
116 128 204
107 120 194
115 127 203
112 125 201
117 131 197
114 130 175
128 148 176
125 143 173
124 142 172
127 147 176
127 147 176
126 145 175
126 146 176
130 150 178
128 148 177
129 149 177
126 145 174
127 147 175
130 150 178
130 150 178
130 150 178
132 152 179
129 148 176
131 151 179
130 150 178
131 151 179
130 150 177
131 151 179
131 152 179
132 152 179
131 150 178
130 150 178
133 153 180
129 149 178
132 152 180
134 154 180
130 150 179
131 151 179
132 152 179
132 152 179
130 150 178
132 152 179
132 152 179
132 153 180
132 152 179
132 152 180
134 154 180
133 154 180
132 153 180
133 153 180
132 153 180
133 154 181
132 152 179
133 153 180
134 154 181
133 153 180
134 154 180
134 154 181
134 154 180
133 153 180
132 153 180
133 153 180
133 153 180
133 153 180
133 154 181
134 154 181
134 154 181
134 154 181
133 154 180
134 154 181
133 153 180
133 153 180
134 154 180
134 154 181
133 153 180
132 153 181
134 154 180
134 154 180
133 154 180
134 154 180
134 154 181
133 154 181
134 154 181
135 155 181
134 154 181
134 154 181
134 154 181
133 154 180
134 154 181
134 154 181
133 154 181
133 154 181
133 154 181
134 154 180
134 154 181
134 154 181
134 154 181
133 153 180
135 155 181
133 154 181
134 154 181
133 154 180
134 154 181
133 154 181
133 154 180
133 154 181
135 155 181
134 154 181
134 154 181
134 154 181
133 153 180
134 154 181
132 153 181
133 154 181
133 154 181
135 155 181
133 153 180
135 155 181
134 154 181
134 154 181
134 155 181
134 154 181
133 154 181
134 154 181
133 154 181
134 154 181
133 154 181
133 153 180
134 154 181
133 154 181
133 154 181
133 153 180
134 154 181
134 154 181
134 154 181
134 154 181
134 154 181
134 154 181
133 154 181
134 154 181
133 154 181
134 154 181
133 154 181
133 154 181
134 155 181
134 154 181
133 154 181
133 154 180
134 154 181
134 154 181
133 154 181
133 154 181
134 154 181
134 154 181
134 154 181
134 154 181
134 154 181
133 154 181
134 154 181
133 154 181
133 154 180
133 154 181
133 154 181
133 154 181
134 154 181
133 154 181
133 154 181
134 154 181
133 154 181
133 154 181
134 154 181
134 154 181
134 154 181
134 154 181
134 154 181
134 154 181
134 154 181
133 154 181
133 154 181
134 154 181
133 154 181
135 155 181
133 154 180
133 154 181
133 154 181
134 154 181
132 153 181
134 154 181
134 154 181
134 154 181
134 154 181
134 154 181
134 154 181
134 154 181
134 154 181
133 154 181
133 154 181
134 154 181
134 154 181
133 154 181
134 154 181
134 154 181
134 154 181
133 154 181
135 155 181
133 154 181
134 154 181
134 154 181
135 155 181
133 154 181
134 154 181
133 154 181
134 154 181
133 154 181
134 154 181
133 154 180
133 153 180
133 153 180
134 154 180
133 154 180
133 154 181
133 153 180
132 153 181
131 152 179
131 151 178
133 153 179
133 153 180
133 153 179
134 154 180
133 153 180
133 154 180
133 154 181
132 152 180
132 152 180
132 153 180
132 152 179
132 153 179
132 152 180
132 153 180
133 153 179
132 152 179
133 153 180
131 151 179
131 151 179
128 148 177
132 152 179
132 152 179
131 152 179
132 151 179
131 151 179
129 150 178
130 150 178
128 148 177
131 151 178
131 152 179
128 148 177
127 146 178
121 138 185
114 128 199
111 123 198
104 116 188
103 115 188
111 123 198
115 128 205
112 124 201
113 125 201
112 124 200
109 121 195
112 124 201
113 125 199
112 125 200
111 123 198
115 128 204
114 126 202
112 124 199
109 121 196
108 121 195
112 124 200
113 125 201
111 123 198
111 123 198
113 125 200
111 123 199
109 122 197
113 125 200
114 127 204
114 126 201
114 126 203
107 120 193
112 125 200
112 125 201
108 120 193
113 125 200
111 123 199
113 125 201
118 130 208
114 126 203
112 125 200
114 126 201
117 129 207
110 122 196
114 126 202
113 126 202
117 129 205
110 123 198
111 123 197
109 121 195
108 121 194
111 124 199
116 128 205
116 129 206
114 127 203
112 124 200
110 123 198
115 127 202
111 124 198
116 128 204
112 124 200
109 121 195
112 124 199
108 120 194
107 119 191
108 120 194
112 124 199
112 124 200
110 123 198
113 126 202
113 125 201
113 125 200
111 123 197
114 127 203
110 122 196
112 125 201
116 127 203
113 125 202
108 121 195
113 125 201
112 125 201
108 120 194
116 128 206
113 125 200
116 128 204
113 125 200
109 121 195
108 120 194
113 125 201
113 125 200
114 126 202
108 120 194
108 120 193
109 122 197
113 125 201
113 126 201
112 124 200
110 123 198
110 122 196
112 124 200
113 125 200
110 122 196
110 122 197
110 122 196
114 126 201
110 122 197
113 125 201
112 124 201
109 121 196
113 125 201
112 124 200
107 120 194
111 124 201
110 122 197
113 125 201
111 124 199
110 122 196
110 122 197
114 126 202
110 122 198
114 126 203
109 121 196
107 119 194
110 122 197
108 120 194
109 122 197
111 123 198
112 124 201
111 123 197
110 122 197
111 123 198
119 131 210
110 123 199
110 122 198
115 127 203
111 123 198
110 122 197
111 123 198
115 127 204
111 124 200
111 124 199
108 120 193
114 126 202
110 121 196
110 123 198
110 122 198
109 121 196
110 124 189
121 139 181
127 146 176
126 145 174
128 147 176
127 147 176
124 143 173
129 149 177
129 149 177
126 145 175
125 144 173
130 150 178
128 148 177
128 148 178
127 147 176
130 150 178
130 150 177
130 150 179
132 153 180
131 151 179
130 149 177
129 149 177
131 152 179
129 149 178
130 150 178
131 151 178
133 153 180
133 153 180
132 152 180
132 152 179
132 152 180
133 154 180
132 152 179
131 151 179
131 151 179
133 153 180
133 153 180
133 153 179
133 153 179
133 153 180
132 152 179
133 154 180
131 151 178
133 154 180
133 153 180
133 153 180
132 152 179
132 152 178
131 151 179
133 153 179
130 151 179
133 154 180
132 152 179
134 154 180
133 153 180
132 153 180
133 154 181
134 154 181
133 154 180
132 153 181
133 153 180
133 153 180
134 154 181
134 154 181
133 153 180
134 154 181
134 154 181
132 152 180
133 153 180
133 153 179
134 154 181
134 154 181
133 154 180
133 154 180
133 154 180
133 154 181
133 154 181
134 155 181
134 154 181
133 153 180
134 154 181
133 154 181
134 154 180
133 153 180
134 154 181
134 154 181
133 154 181
133 154 181
134 154 180
134 154 181
134 154 181
134 154 181
133 153 180
134 154 181
134 154 180
133 154 181
134 154 181
133 154 181
135 155 181
133 154 181
134 154 181
134 154 181
134 154 181
133 154 181
133 154 181
133 154 181
134 154 181
134 154 180
133 154 181
134 154 181
133 154 180
134 154 181
133 154 181
134 154 181
133 154 181
133 154 181
134 154 181
135 155 181
134 154 181
134 154 181
133 154 181
134 154 181
134 154 181
134 154 181
135 155 181
135 155 181
134 154 181
134 154 181
134 154 181
134 154 181
134 154 181
133 154 181
134 154 181
133 154 181
134 154 181
135 155 181
133 154 181
134 154 181
134 154 181
134 154 181
133 154 181
134 154 181
133 154 181
133 154 181
133 154 181
133 154 181
134 154 181
135 155 181
134 154 181
134 155 181
134 154 181
133 154 181
134 154 181
134 154 181
134 154 181
134 154 180
133 154 181
133 154 181
133 154 181
133 154 181
134 154 181
134 154 181
133 154 181
134 154 181
135 155 181
134 154 181
134 154 181
134 154 181
134 154 181
134 154 181
135 155 181
134 154 181
134 155 181
134 154 181
134 154 181
134 155 181
133 154 181
133 154 181
134 154 181
133 154 180
133 154 181
133 154 181
133 154 181
134 154 181
134 155 181
134 154 181
134 154 181
133 154 181
134 154 181
134 154 181
133 154 181
133 154 180
134 154 181
134 154 181
135 154 180
133 154 181
134 154 180
133 154 181
134 154 181
134 155 181
133 154 181
133 154 181
133 154 181
133 154 181
133 154 181
134 154 181
134 154 181
134 154 181
134 154 181
133 154 181
134 154 181
133 153 179
131 152 179
133 153 180
134 153 180
133 154 181
133 153 180
132 153 180
134 154 180
132 152 179
131 152 179
133 153 179
133 153 180
133 153 180
133 154 181
132 152 180
132 152 179
134 154 180
133 153 180
132 152 179
130 151 179
131 151 179
131 151 179
133 153 180
132 153 180
130 150 178
131 151 178
132 152 180
131 150 177
132 152 179
131 151 179
132 153 180
131 151 179
130 150 178
132 153 180
130 149 177
131 150 177
131 151 179
130 151 178
130 150 178
129 148 178
132 153 180
127 147 176
121 137 186
114 127 197
110 122 197
111 123 199
112 125 201
106 118 192
112 125 201
113 125 201
105 117 190
109 121 196
107 119 193
109 122 197
110 122 197
111 123 199
110 122 197
114 126 202
112 123 199
114 126 203
115 128 205
113 125 202
113 125 201
114 126 202
111 123 197
111 123 199
112 124 200
110 122 198
112 124 200
114 126 202
110 123 198
109 121 195
110 122 197
113 126 202
110 122 197
112 125 201
111 123 198
114 126 203
114 127 204
109 121 194
116 128 204
115 127 204
113 126 202
110 122 197
110 122 195
108 121 195
115 127 203
111 123 196
111 123 198
114 126 202
112 124 198
113 125 201
113 125 200
110 122 196
110 122 196
113 125 200
119 132 210
109 121 196
109 121 195
113 125 200
117 129 205
111 123 197
111 123 197
110 122 196
116 128 205
110 122 197
111 123 197
115 127 204
111 123 198
111 123 199
112 125 200
111 123 198
114 127 204
114 126 202
109 122 196
113 125 200
110 123 197
108 120 193
110 123 198
113 125 200
110 122 197
110 122 197
114 126 203
109 121 196
111 123 198
111 123 198
115 127 203
112 124 198
107 119 192
110 123 198
107 119 191
115 127 203
112 124 199
114 126 202
112 124 201
111 124 199
108 121 194
114 126 203
115 128 204
114 127 203
112 124 199
113 126 203
111 123 197
110 123 198
110 122 197
105 117 190
111 123 198
111 124 199
112 124 199
114 127 204
114 126 202
107 119 193
107 119 194
113 125 201
110 123 198
112 125 201
108 120 194
109 122 197
114 126 201
110 123 198
112 124 200
112 124 200
107 120 194
111 123 199
115 127 205
111 123 199
112 125 200
108 120 194
110 122 197
109 121 197
114 126 203
114 126 202
109 121 196
109 121 196
111 123 199
108 120 194
113 125 201
106 118 191
114 127 204
116 128 204
114 126 202
110 122 196
114 127 204
110 122 197
115 128 205
107 119 193
111 124 200
110 122 198
112 124 199
117 131 198
122 139 182
126 146 176
126 145 175
126 145 174
125 144 174
126 145 175
126 145 175
127 147 176
126 146 176
130 149 178
128 148 176
128 147 176
128 148 176
129 149 178
129 149 177
127 147 176
130 150 178
130 150 179
128 148 176
131 152 180
130 151 178
132 152 179
130 150 178
131 151 179
131 152 179
132 152 179
131 151 179
130 150 177
132 153 180
131 151 179
133 153 180
130 150 178
132 152 179
133 153 180
132 153 180
131 151 179
132 152 180
132 152 179
134 154 181
134 154 180
132 153 180
132 152 180
133 153 180
132 152 179
132 152 179
132 153 180
134 154 181
132 151 179
134 154 181
132 153 180
133 153 180
133 153 180
133 154 181
133 153 180
133 153 180
133 153 180
134 154 180
132 152 179
134 154 181
133 154 181
133 153 180
133 154 181
133 154 181
133 153 180
133 154 180
135 155 181
134 154 181
133 154 181
134 154 180
134 154 181
134 154 180
134 154 181
133 153 180
134 154 181
134 154 180
133 154 180
133 154 181
134 154 180
134 154 181
133 153 180
134 154 181
132 153 179
133 154 181
134 154 181
133 154 181
133 154 181
133 154 181
133 153 180
134 154 181
134 154 181
135 155 181
133 154 181
133 154 181
134 154 181
133 153 180
134 154 181
132 152 179
134 154 181
134 154 180
133 154 181
134 154 181
133 154 181
134 155 181
134 154 181
134 154 181
134 154 181
134 154 181
133 153 180
134 154 181
134 154 181
133 154 181
134 154 181
134 154 181
134 154 181
134 154 181
133 154 181
134 154 181
134 154 181
134 154 181
134 154 181
134 154 181
133 154 181
133 154 181
134 154 181
133 154 181
132 153 181
134 154 181
133 154 181
133 154 181
134 154 181
134 154 181
133 154 181
135 155 181
135 155 181
134 154 181
134 154 181
133 154 181
133 154 181
133 154 181
135 155 181
134 154 181
134 154 181
134 154 180
134 154 181
134 154 181
134 154 181
134 154 181
133 154 181
134 154 181
133 154 181
133 154 181
133 154 181
134 154 180
134 154 181
134 154 181
134 154 181
134 154 181
133 154 181
133 154 181
134 154 181
133 154 181
133 154 181
134 155 181
133 154 181
133 154 181
134 154 181
133 154 181
134 154 181
135 155 181
134 154 181
133 154 181
134 154 181
133 153 180
134 155 181
133 154 181
134 154 181
134 154 180
134 154 181
134 154 181
133 154 181
134 154 181
134 154 181
133 154 181
133 154 181
133 154 181
134 154 181
134 154 181
133 154 181
134 154 181
134 154 181
134 154 181
133 154 181
133 154 181
134 154 181
134 154 181
134 154 181
133 154 181
133 154 180
133 154 181
133 154 181
134 154 181
134 155 181
134 154 181
133 154 181
133 154 181
134 154 180
134 154 181
134 154 181
134 154 181
135 155 181
134 154 180
134 154 181
133 153 180
132 152 179
132 152 179
132 153 180
133 153 180
132 153 179
133 153 180
132 152 179
133 153 180
132 152 179
132 153 179
132 152 179
131 152 179
131 152 179
132 153 179
132 152 179
133 153 180
132 151 178
131 152 179
132 152 179
130 150 178
132 152 179
133 153 180
130 150 178
131 150 178
130 150 178
130 150 179
131 151 179
131 151 178
128 147 175
130 150 178
131 151 179
130 150 178
130 150 178
131 150 179
130 150 178
127 147 176
127 147 176
127 147 175
127 147 176
121 138 185
107 120 186
110 122 198
115 127 204
106 118 191
114 127 203
113 125 200
110 122 198
105 117 191
115 127 203
113 125 201
111 122 197
112 124 200
111 123 198
113 125 201
113 125 200
110 122 197
113 125 202
113 126 202
111 123 197
106 119 193
112 124 199
114 126 202
113 125 199
114 126 202
110 122 198
110 122 196
114 127 203
114 127 204
109 121 196
111 124 200
110 122 197
113 126 202
112 124 200
108 120 193
111 124 200
116 129 206
110 122 197
110 122 197
112 124 199
108 121 195
114 126 202
110 122 196
110 123 199
109 122 196
114 126 201
110 122 196
109 121 196
117 129 206
113 125 201
113 126 202
109 122 195
113 125 199
113 126 202
115 127 204
113 125 201
113 125 201
107 120 194
111 124 200
110 123 197
112 124 200
114 126 202
113 126 202
114 127 203
119 131 209
108 121 196
110 122 198
108 121 195
110 122 197
114 126 202
113 125 202
113 126 202
114 126 202
112 125 202
116 128 205
114 126 202
112 124 199
114 126 202
119 131 209
114 127 204
109 122 196
113 124 200
108 121 195
114 126 202
116 129 207
109 121 196
113 125 201
114 126 203
112 125 201
110 123 199
106 118 191
110 123 199
112 124 200
108 120 194
113 126 202
114 125 202
111 123 197
112 124 199
111 124 199
116 128 205
114 126 204
106 118 191
106 119 192
112 124 201
112 124 200
111 123 198
109 121 195
112 124 200
109 121 197
110 122 197
110 122 197
108 120 194
111 123 199
113 126 202
104 116 189
112 125 201
109 121 195
113 125 202
111 123 197
109 122 197
111 123 198
108 120 193
113 124 199
110 122 196
112 124 199
110 122 197
110 122 198
112 124 201
108 120 195
109 120 195
106 118 191
112 125 200
110 122 197
109 121 196
111 123 198
111 123 199
108 120 194
110 122 197
109 121 196
109 122 198
113 124 200
107 119 193
111 123 199
110 123 198
109 121 196
113 126 202
113 126 202
112 126 189
118 136 180
124 143 174
123 142 173
125 144 174
125 144 175
122 141 172
125 144 174
123 143 172
125 144 174
127 146 175
131 151 179
127 146 176
128 148 176
127 146 176
130 150 179
129 149 178
129 149 177
128 148 176
130 150 179
131 151 178
128 148 177
130 150 178
131 151 179
130 150 178
132 152 179
130 150 177
131 151 179
132 153 180
132 152 179
133 153 179
131 151 178
133 154 180
133 153 180
133 153 180
132 153 180
132 151 178
132 152 179
132 152 179
132 152 180
131 151 178
132 153 180
132 152 179
133 153 180
133 154 181
132 152 179
133 153 180
131 152 180
132 152 179
134 154 181
133 153 180
132 152 180
133 153 180
134 153 180
134 154 180
132 153 180
133 154 181
134 154 180
132 153 180
134 154 181
133 154 180
133 154 181
133 153 180
133 154 180
133 153 180
133 154 180
134 153 180
133 153 180
133 154 181
133 154 181
134 154 181
134 154 180
133 154 181
134 154 180
133 153 180
134 154 181
133 154 181
133 154 181
134 154 180
134 154 181
133 154 180
134 154 181
134 154 181
133 154 181
134 154 181
133 154 181
133 154 181
134 154 181
134 154 181
133 154 181
134 154 181
134 154 181
134 154 181
134 155 181
134 154 181
134 154 181
134 154 181
135 155 181
133 154 181
134 154 181
133 154 181
134 154 180
134 154 181
134 154 181
133 154 181
134 154 180
134 154 181
134 154 181
133 154 180
133 154 181
134 154 181
134 154 181
134 154 181
134 154 181
134 155 181
134 154 181
134 154 181
133 153 180
133 154 181
134 154 181
135 155 181
133 153 180
134 154 181
134 154 181
134 154 181
133 154 180
133 154 181
134 154 181
134 154 181
133 154 181
134 154 181
134 154 181
134 154 181
134 154 181
134 154 181
132 153 179
134 154 181
134 154 181
135 155 181
134 154 181
134 154 181
134 154 181
135 155 181
133 154 181
134 154 181
134 154 181
134 154 180
133 154 181
134 154 181
134 154 181
134 154 181
134 154 181
134 154 181
134 154 181
133 154 181
134 154 181
135 155 181
134 154 181
135 155 181
134 154 181
133 154 181
133 154 180
134 154 181
133 154 181
133 154 181
133 154 181
133 154 181
133 154 181
134 154 181
134 154 181
134 154 181
133 154 181
134 154 181
134 154 181
133 154 181
134 154 181
134 154 181
133 154 180
134 155 181
133 154 181
133 154 181
134 154 181
134 154 181
134 154 181
134 154 181
133 154 181
133 154 181
134 154 181
134 154 181
134 154 181
134 154 181
134 154 181
134 154 181
134 154 181
133 154 181
135 155 181
135 155 181
133 154 181
134 154 181
134 154 181
133 154 181
134 154 181
134 154 181
134 154 181
133 154 181
133 154 180
134 154 181
134 154 181
134 154 181
134 154 181
134 154 181
133 153 180
133 154 180
133 153 180
133 153 180
132 152 179
132 153 180
131 152 179
133 153 179
132 152 179
132 152 180
133 154 181
132 153 179
132 153 180
132 152 180
133 153 180
133 154 181
133 154 180
131 151 177
132 152 180
132 152 180
132 152 179
130 150 178
128 148 177
132 152 180
132 152 179
129 150 178
130 150 178
132 153 180
131 151 179
130 150 178
128 148 176
131 152 179
129 150 178
128 147 177
127 146 175
129 148 177
127 146 175
128 147 176
129 148 177
124 143 173
128 147 177
127 147 177
122 139 181
114 128 189
108 120 194
109 121 195
110 122 197
112 123 199
112 123 199
109 121 196
113 125 200
109 122 197
111 123 199
111 123 198
111 123 199
112 124 199
116 128 204
110 122 197
112 124 199
113 125 201
109 121 196
108 120 195
107 118 191
110 123 198
114 127 204
114 125 201
112 125 201
112 124 199
107 120 194
114 126 203
113 126 202
111 123 198
110 123 199
110 122 197
110 122 196
114 127 204
111 123 197
113 125 201
111 123 198
111 123 198
111 123 197
110 122 197
108 121 197
113 125 200
110 122 195
114 126 202
113 125 200
112 124 199
116 128 205
109 121 195
109 121 195
108 120 194
110 123 198
108 120 194
109 121 195
111 123 198
110 122 198
115 127 204
111 124 199
110 122 195
116 129 206
115 126 202
108 120 194
115 127 204
112 125 201
113 125 201
107 120 193
108 121 195
113 126 202
114 127 202
114 126 202
110 122 197
108 120 195
113 125 200
110 122 197
114 126 202
111 123 198
113 125 201
115 127 203
113 125 202
113 125 201
111 124 199
110 122 196
104 116 189
112 124 200
113 125 201
111 123 198
112 124 200
111 123 199
113 125 201
106 118 191
108 120 194
111 124 200
110 122 198
111 123 198
107 119 193
110 122 197
115 127 204
115 127 204
109 122 197
112 125 201
112 124 200
108 120 194
115 126 203
113 126 202
113 126 203
110 123 197
115 127 203
114 126 203
115 127 204
113 126 202
111 123 197
107 119 193
107 119 193
112 124 200
113 125 200
108 120 195
111 123 197
113 126 202
111 123 199
112 124 200
107 119 193
111 123 198
113 125 201
109 121 196
111 123 199
109 121 195
108 120 194
109 120 194
108 120 194
112 124 199
112 124 200
108 120 195
108 120 193
108 120 194
109 122 197
114 126 203
113 125 202
110 121 196
111 123 198
107 119 194
109 121 197
113 125 203
111 124 200
111 123 199
108 119 193
116 128 205
111 123 198
108 121 195
112 126 192
119 137 176
124 143 174
120 139 170
122 140 172
124 143 173
125 144 174
125 143 174
129 147 176
124 142 173
126 145 174
130 150 177
127 146 174
127 146 176
128 147 176
129 149 177
131 151 179
127 147 176
128 148 177
130 151 179
130 150 177
130 150 178
129 148 177
131 150 178
130 150 177
129 149 177
131 151 180
131 151 179
131 151 179
133 153 180
132 152 179
131 152 179
130 150 178
132 152 179
130 150 178
132 152 179
133 153 180
133 154 180
133 153 180
133 153 180
132 152 180
133 153 179
133 153 179
133 154 180
132 152 179
133 153 180
133 153 180
133 153 180
131 151 179
132 153 180
133 154 180
133 153 180
132 153 179
133 154 180
133 154 180
134 154 180
134 154 181
133 154 181
134 154 181
132 153 179
133 153 180
133 153 180
134 154 180
132 152 179
134 154 181
132 153 179
134 154 181
134 154 181
134 154 180
133 153 180
134 154 181
133 154 181
134 154 181
132 153 180
133 154 181
133 154 180
132 153 180
133 154 181
133 154 180
133 154 181
134 154 181
134 154 181
134 154 181
134 154 181
135 155 181
135 155 181
134 154 181
134 154 181
134 154 181
133 154 181
133 154 181
133 154 181
134 154 180
133 153 180
134 154 181
133 154 181
134 154 180
134 154 181
134 154 181
134 154 181
134 154 181
133 154 180
134 154 180
134 154 181
133 153 180
134 154 181
133 153 180
133 153 180
134 154 181
134 154 181
132 153 181
133 154 181
134 154 181
133 154 181
134 154 181
134 154 181
134 154 181
134 154 181
133 154 181
134 155 181
133 154 181
134 154 181
133 154 181
134 154 181
133 153 180
134 154 181
133 154 181
134 154 181
134 154 181
133 154 181
132 153 181
134 154 181
134 154 181
135 155 180
134 154 181
134 154 181
133 154 181
133 154 181
133 154 181
134 154 181
134 154 181
134 154 181
134 154 181
133 153 180
133 154 181
134 154 181
134 154 181
134 154 181
133 154 181
133 154 181
135 155 181
135 155 181
134 154 181
134 154 181
133 154 181
133 154 180
133 153 180
134 154 181
133 153 180
134 154 181
134 154 181
134 154 181
134 154 181
133 154 180
133 154 181
133 154 181
134 154 181
134 154 181
134 154 181
134 154 181
133 154 181
134 154 181
134 154 181
135 155 181
134 154 181
133 154 181
134 154 181
133 154 181
134 154 181
134 154 181
134 154 181
134 154 181
134 154 181
134 154 181
134 154 181
134 154 181
134 154 181
133 154 181
133 154 181
133 154 181
134 154 181
134 154 181
133 154 181
133 154 181
133 154 180
134 154 181
133 154 181
133 154 181
134 154 181
133 154 181
133 154 181
134 154 181
135 155 181
134 154 181
133 154 180
134 154 181
134 154 181
134 154 181
133 154 181
133 154 181
134 155 181
133 154 180
132 153 180
132 153 179
132 153 180
131 151 178
132 153 179
133 154 180
133 153 180
133 154 181
132 152 179
134 154 180
132 152 180
132 152 179
132 152 179
130 151 178
133 153 180
132 152 179
133 153 180
129 150 178
132 152 179
131 151 179
131 152 179
130 150 178
132 152 179
132 152 179
133 153 179
130 150 178
131 151 178
129 149 176
128 148 176
130 150 178
130 149 178
127 146 175
128 147 176
129 148 175
129 148 176
128 148 176
126 145 174
127 147 175
125 143 174
128 147 176
124 142 172
122 140 179
119 133 196
107 119 192
114 126 203
104 116 188
109 122 198
107 119 193
110 122 197
103 115 188
107 119 193
113 125 200
107 120 194
107 119 193
115 127 204
110 122 198
112 124 200
114 126 203
106 118 192
108 120 194
114 126 203
114 126 202
110 122 197
115 126 202
111 123 198
110 123 198
113 125 200
108 121 194
109 121 196
111 122 197
111 124 199
103 116 188
108 121 196
114 126 202
107 119 193
112 125 200
110 122 196
114 126 202
106 118 191
112 124 200
112 125 200
115 127 204
111 123 198
111 123 198
109 121 194
109 121 195
111 123 198
111 124 200
109 121 195
112 124 199
110 122 196
104 116 188
113 126 201
112 125 200
114 126 203
110 122 197
110 122 197
110 123 198
109 122 197
110 123 198
110 122 196
115 127 203
114 127 203
113 126 202
112 124 200
110 122 197
109 122 196
115 127 203
115 127 203
114 126 201
107 119 191
111 123 198
109 122 196
107 120 194
108 120 194
111 124 201
113 126 202
111 123 199
110 123 198
112 124 199
114 126 202
113 125 201
109 121 195
117 129 207
110 122 197
109 122 196
113 125 201
110 123 198
112 124 200
109 121 195
110 122 197
107 119 193
106 118 193
110 122 197
113 125 200
111 124 200
108 120 194
106 118 192
110 122 196
106 118 191
111 123 200
106 118 193
107 119 194
113 125 201
110 122 197
110 122 196
114 126 202
110 123 198
111 123 198
110 122 197
109 121 196
111 123 198
115 127 204
107 119 193
109 121 196
108 120 194
109 121 196
113 125 201
108 120 195
110 122 197
109 121 195
113 126 202
109 121 196
109 120 195
108 119 193
111 123 200
114 126 203
109 121 196
110 122 196
106 118 192
112 124 199
110 122 197
105 117 190
107 119 194
110 122 198
108 120 195
114 126 202
110 122 198
111 124 200
107 119 193
110 122 198
108 120 196
103 115 188
111 123 199
111 123 198
115 126 202
112 124 199
105 117 191
112 125 192
118 134 183
119 137 169
120 138 169
121 139 172
120 138 169
123 142 173
123 142 173
121 140 170
126 145 175
122 141 171
126 145 175
126 145 175
129 148 177
127 147 176
126 145 175
125 144 173
127 146 176
129 149 176
130 151 179
130 150 178
130 150 179
129 149 177
132 152 179
128 147 176
129 149 177
130 149 176
130 149 177
132 153 180
129 149 176
130 149 178
133 154 180
131 151 178
131 151 179
133 153 180
132 151 179
130 151 178
131 151 179
131 151 179
134 154 180
132 152 180
132 152 180
134 154 180
132 152 180
132 153 180
132 152 179
133 153 179
134 154 181
133 153 180
133 153 180
131 152 179
132 153 180
132 153 180
131 152 180
133 154 180
133 154 181
132 152 179
133 153 180
133 154 181
134 154 181
133 154 181
134 154 180
134 155 181
133 153 180
133 154 180
134 154 181
134 154 181
133 153 180
131 151 179
134 154 181
134 154 181
135 155 181
134 154 181
133 154 180
134 154 180
133 154 181
134 154 181
133 153 180
134 154 180
134 154 180
133 154 180
132 153 180
134 155 181
133 153 180
134 154 181
135 155 181
133 154 181
134 154 181
134 154 180
133 154 181
133 154 181
134 154 181
133 153 180
133 154 181
133 154 181
133 154 181
133 153 180
133 154 181
133 154 181
134 154 181
133 154 181
134 154 180
134 154 181
134 154 181
133 154 181
134 154 181
133 153 180
133 154 180
133 154 181
133 154 181
133 154 181
132 153 180
134 154 181
134 154 181
134 154 181
134 154 181
134 154 181
132 153 180
134 154 181
134 154 181
134 155 181
133 154 181
134 155 181
134 154 181
133 154 181
134 154 181
134 154 181
133 154 181
134 154 181
134 154 181
133 154 181
133 154 181
134 154 181
134 154 180
133 154 181
134 154 181
135 155 181
134 154 181
135 155 181
133 154 181
134 154 181
135 155 181
133 154 181
134 154 181
134 154 181
133 154 181
134 154 181
134 154 180
134 154 181
134 154 181
133 154 181
134 154 181
134 154 181
134 154 181
134 154 181
134 154 181
133 154 181
133 153 180
134 154 181
133 154 181
134 154 181
134 154 181
133 154 181
134 154 181
133 154 181
134 154 181
134 154 181
134 154 181
134 154 181
134 155 181
134 154 181
134 154 181
133 154 181
134 154 181
134 154 181
135 155 181
134 154 181
134 154 181
134 154 181
134 154 181
134 154 181
134 154 181
133 154 181
133 154 181
134 154 181
134 154 181
134 154 181
134 154 181
133 153 180
133 153 180
134 154 181
134 154 181
133 154 180
134 154 181
134 154 181
133 154 181
133 154 181
134 154 181
134 154 180
133 154 181
134 154 181
133 154 181
133 154 181
134 154 181
134 154 181
133 154 180
133 154 181
133 154 181
134 154 181
134 154 181
133 154 181
133 153 180
132 152 179
133 153 180
131 151 179
133 153 180
132 152 180
133 153 180
132 153 180
132 152 179
131 152 179
132 152 179
131 151 178
129 149 178
131 152 179
131 151 178
131 152 179
133 153 180
131 152 179
132 152 179
131 152 179
133 153 180
130 150 177
130 150 178
132 152 180
130 150 178
129 148 177
129 149 177
130 149 177
128 149 177
131 151 179
128 148 176
126 146 176
128 148 176
125 144 175
128 148 177
127 147 177
126 146 175
126 146 175
126 146 176
122 140 170
124 143 174
123 141 172
117 134 175
118 133 194
111 123 199
107 119 194
108 119 193
108 120 195
109 121 197
106 118 191
113 125 201
111 123 199
108 120 193
113 126 203
114 126 202
112 124 200
109 120 195
107 119 193
113 125 201
109 121 196
109 121 196
111 124 200
113 125 200
109 121 196
111 123 198
110 122 198
107 119 193
112 125 201
112 124 200
110 122 197
112 125 201
112 124 199
114 126 202
110 122 196
111 124 200
111 123 199
113 125 202
114 126 200
112 124 200
117 129 206
112 124 200
111 123 198
111 123 198
113 125 201
112 124 200
111 124 200
113 125 201
109 121 195
111 123 198
114 126 202
107 120 194
113 126 203
114 126 203
113 126 203
108 120 194
116 129 207
114 126 202
113 125 201
114 127 204
113 126 202
112 123 197
113 125 201
113 125 200
115 127 204
114 126 202
112 125 201
115 127 204
109 121 196
108 120 193
119 131 210
112 125 200
112 124 200
114 126 201
110 122 196
114 126 202
111 123 198
111 123 198
111 123 198
110 123 198
112 125 201
110 123 198
112 124 200
113 125 201
114 126 203
111 123 198
103 115 187
111 123 199
113 125 201
109 121 196
111 124 199
114 126 204
107 120 194
112 124 201
110 122 197
109 122 196
111 124 200
111 122 197
110 122 198
114 125 202
108 121 194
111 124 199
105 117 190
117 128 205
107 120 194
115 128 204
108 120 195
111 123 198
116 128 204
112 123 200
114 126 203
109 121 196
112 124 200
111 123 197
112 123 198
108 120 194
114 126 202
109 121 196
107 119 194
110 121 196
111 123 199
108 121 195
113 126 203
114 125 201
112 123 200
111 124 200
114 126 202
111 123 198
111 124 200
108 120 194
109 121 196
112 124 200
112 124 199
109 121 195
109 121 196
110 122 198
112 124 200
112 124 199
108 120 195
113 125 201
113 125 202
109 121 196
109 120 194
109 121 196
108 120 193
108 120 196
112 124 199
101 113 186
109 121 196
111 123 198
112 125 192
110 126 176
116 133 166
121 139 171
122 141 172
121 139 170
126 145 175
126 145 176
123 142 171
124 142 172
126 145 175
129 148 176
125 144 175
128 148 176
127 146 175
129 150 178
128 148 176
129 149 177
128 148 177
131 151 179
132 152 179
128 147 177
132 152 179
130 149 177
133 153 180
132 151 178
132 152 179
130 150 178
129 150 177
131 151 178
131 151 179
132 152 179
129 149 177
132 152 180
133 153 180
132 152 179
131 151 178
132 152 179
133 153 180
134 154 181
133 153 180
133 153 180
134 154 180
133 153 180
131 152 179
132 152 179
132 152 180
132 153 180
133 153 180
134 154 181
132 153 180
133 153 180
134 154 180
132 153 179
133 153 180
132 153 180
133 154 180
133 153 180
134 154 181
133 154 181
134 154 181
133 154 180
133 154 181
132 152 179
134 154 181
134 154 181
132 152 180
134 154 180
132 153 180
134 154 181
133 153 180
133 154 181
134 154 181
133 153 180
131 152 179
133 154 181
133 154 180
134 154 181
134 154 181
133 153 180
133 154 181
134 154 181
134 154 181
133 153 180
134 154 181
133 153 180
134 154 181
134 154 181
135 155 181
133 153 180
134 154 181
134 154 181
134 154 181
134 155 181
134 154 180
133 154 181
134 154 180
133 154 181
133 154 180
133 154 181
132 152 179
133 154 180
133 154 181
135 155 181
133 153 180
134 154 181
134 154 181
133 154 180
134 154 181
135 155 181
133 154 181
133 154 181
134 154 181
133 154 181
134 154 181
134 154 181
134 155 181
134 154 181
134 154 181
134 154 181
134 154 181
134 154 181
134 154 181
134 154 181
134 154 181
135 155 181
134 154 181
134 154 181
134 154 181
133 154 181
133 154 181
134 154 181
133 154 181
134 154 181
133 154 181
134 154 181
134 154 181
134 154 181
133 154 181
134 154 181
134 154 181
134 154 181
134 154 181
134 154 181
134 154 181
134 154 181
134 154 180
134 154 181
134 154 181
133 154 181
134 154 181
134 154 181
134 154 181
133 154 181
133 154 181
134 154 181
134 154 181
133 154 181
134 154 181
134 154 181
133 154 181
133 153 180
134 154 180
133 154 181
133 154 180
134 154 181
134 154 181
134 154 181
134 154 181
134 155 181
135 155 181
134 155 181
134 154 181
134 154 181
134 154 181
134 154 181
134 154 181
134 154 181
134 154 181
133 154 181
133 154 181
133 154 181
134 154 181
134 154 181
133 154 181
134 154 181
133 154 181
134 154 181
134 154 181
134 154 181
134 154 181
133 154 181
134 154 181
134 154 181
134 154 181
134 154 181
135 155 181
135 155 181
134 154 181
133 153 180
134 154 181
134 154 181
134 154 181
134 154 181
134 154 181
134 154 181
133 153 180
133 154 181
133 154 181
134 154 181
134 154 181
132 153 180
132 152 179
133 154 180
133 153 179
133 153 180
133 153 180
131 151 179
133 153 180
132 152 179
131 151 178
132 152 180
131 152 179
132 152 179
131 150 178
131 151 178
130 149 177
131 151 179
131 151 179
132 152 180
128 148 177
131 150 178
131 151 179
132 152 179
130 151 178
130 149 177
132 152 180
130 149 178
128 148 176
129 148 176
127 147 176
129 149 178
128 147 176
127 147 176
127 146 175
123 142 172
126 146 175
128 147 176
126 145 174
127 146 176
127 146 176
126 145 174
124 143 173
120 137 178
113 128 186
110 122 197
109 120 194
110 122 197
108 119 193
108 120 194
114 127 204
101 112 185
108 120 195
109 121 196
112 124 200
112 124 200
112 124 200
111 123 199
109 121 195
115 127 203
110 122 197
112 125 201
111 123 197
111 123 197
108 121 195
108 120 194
112 124 200
111 123 199
111 123 199
114 126 202
111 123 198
110 122 196
112 124 199
111 124 199
115 127 204
107 119 193
110 121 196
111 123 199
111 123 198
110 122 198
112 124 200
110 122 197
107 119 194
115 127 204
115 127 202
110 122 197
112 125 201
115 127 203
107 119 193
111 124 200
113 125 200
113 125 200
113 125 201
109 121 195
112 124 199
113 125 201
108 120 195
108 120 194
114 126 203
111 123 199
111 124 199
114 126 203
106 119 192
115 128 205
110 122 196
111 123 199
111 123 198
110 122 197
114 126 202
114 127 203
109 122 196
112 125 201
109 121 194
110 122 197
113 125 200
113 125 201
113 126 201
109 122 197
112 125 200
107 119 193
113 126 202
110 123 199
108 120 194
112 124 199
118 130 208
111 123 198
108 120 195
111 122 197
113 125 201
110 122 196
108 120 195
111 124 199
116 128 204
112 124 200
106 119 192
110 123 199
111 123 200
112 124 199
110 122 198
112 124 199
110 122 196
109 121 196
112 124 200
107 119 193
115 127 205
109 122 196
114 127 203
108 119 193
109 121 196
109 122 198
111 123 197
110 122 197
110 122 198
108 120 195
109 121 195
111 124 200
107 119 192
109 121 195
108 120 194
113 125 202
111 122 196
116 127 204
108 120 195
110 122 196
110 122 197
108 120 194
107 119 194
105 118 191
110 122 197
113 125 201
114 126 203
109 120 195
105 117 190
113 125 201
114 126 203
110 122 198
107 119 194
110 122 197
109 120 194
111 123 199
111 123 199
107 119 194
110 122 197
105 117 192
108 120 194
110 122 197
108 119 194
108 120 194
113 125 201
110 122 198
110 123 193
118 134 178
119 137 170
118 135 167
119 136 167
123 142 173
121 139 171
119 137 169
123 142 172
124 143 174
128 148 176
128 147 175
127 147 176
126 145 175
127 146 175
129 149 178
123 143 173
130 150 178
129 149 177
131 151 179
130 150 178
129 149 177
129 149 177
132 153 180
128 148 176
128 148 176
131 151 178
130 150 178
131 151 179
132 152 179
132 152 179
132 153 180
132 152 179
132 152 180
132 153 180
132 153 180
132 152 180
132 153 180
132 153 179
133 153 180
133 153 180
133 154 180
133 153 179
132 152 179
132 153 180
133 153 180
134 154 181
133 154 181
133 154 180
132 152 179
133 152 179
133 153 180
132 153 180
132 153 180
133 154 180
134 154 181
133 154 180
133 154 180
134 154 181
133 153 180
133 154 181
134 154 181
133 154 181
134 153 180
133 154 180
134 154 181
133 153 180
133 154 181
133 154 180
134 154 181
133 153 180
134 154 181
134 154 181
133 153 180
133 153 180
133 154 180
133 153 180
133 154 181
134 154 180
134 154 181
134 154 181
133 154 180
134 154 181
133 153 180
135 155 181
133 154 181
133 154 181
133 154 180
133 154 181
134 154 181
133 154 181
133 154 181
133 154 181
134 154 181
134 154 181
135 155 181
134 154 181
134 154 181
134 154 180
133 153 180
134 154 181
133 154 181
133 154 181
133 154 181
134 154 181
134 154 181
134 154 181
134 154 181
133 154 181
133 154 181
134 154 180
134 154 181
133 154 181
134 154 181
134 154 181
133 154 181
134 154 181
134 154 181
135 155 181
134 154 181
134 154 181
133 154 181
134 154 181
133 154 181
133 154 180
134 154 181
134 154 181
134 154 181
132 153 180
134 154 181
133 154 181
134 154 181
134 154 181
133 154 181
133 154 181
134 154 181
132 153 180
135 155 181
134 154 181
133 154 181
134 154 181
133 154 181
134 154 181
134 154 181
134 154 181
134 154 181
133 154 181
134 154 181
134 154 181
134 155 181
134 154 181
134 154 181
134 154 181
134 154 181
133 154 181
134 154 181
133 154 181
133 154 181
135 155 181
134 154 180
134 154 181
134 154 181
134 154 180
133 154 180
133 154 181
134 154 181
134 154 181
133 154 181
134 154 181
133 154 181
134 154 181
133 154 181
134 154 181
134 154 181
134 154 181
134 154 181
134 154 181
133 154 181
134 154 181
133 154 181
133 154 181
134 154 181
134 154 181
133 154 181
134 154 181
133 154 181
134 154 181
133 154 180
134 154 181
134 154 180
134 154 181
134 154 181
134 154 181
133 154 181
133 154 181
134 154 181
134 154 181
133 154 181
134 154 181
134 154 181
134 154 181
134 154 181
134 154 181
133 154 181
134 154 181
133 154 180
133 154 181
134 154 181
133 154 181
134 154 181
133 154 181
133 154 180
133 154 180
132 153 180
132 152 179
132 152 180
132 153 180
132 152 179
132 152 180
132 152 180
131 151 178
132 152 179
130 150 179
132 152 179
131 151 179
132 151 178
131 151 179
132 152 179
130 150 178
132 153 179
129 149 178
131 151 178
129 149 177
130 150 177
128 148 176
130 151 178
128 147 176
129 148 177
129 149 177
128 148 176
129 148 176
128 147 176
126 145 175
129 149 177
127 146 176
128 148 177
127 146 176
124 142 174
123 142 172
125 144 173
124 143 172
125 144 173
119 137 168
118 135 172
115 129 189
109 120 195
104 115 190
105 117 190
106 118 192
107 119 192
109 121 197
107 118 191
108 120 195
108 119 194
110 122 198
107 119 193
102 114 186
108 121 196
105 117 191
114 127 204
110 123 197
109 121 196
110 123 198
114 126 202
112 125 201
111 122 197
113 126 202
113 125 201
112 124 199
116 128 205
111 123 197
111 124 199
109 122 197
116 128 204
113 125 202
116 128 205
112 124 199
111 123 198
114 126 201
111 124 199
109 122 197
112 124 198
113 125 200
109 121 195
116 128 205
112 125 200
109 121 195
109 121 195
112 125 199
113 126 202
113 125 200
111 123 198
111 124 200
112 124 198
112 124 198
110 123 197
109 121 195
113 125 201
106 119 193
109 121 195
112 124 200
114 126 201
112 124 199
114 127 203
111 123 197
112 124 199
115 127 203
112 124 201
113 126 202
108 120 194
113 126 202
108 121 195
113 125 201
113 126 202
110 123 198
110 122 197
109 122 196
113 125 201
114 126 202
108 121 196
109 121 196
110 122 197
108 121 195
113 126 202
112 124 199
111 123 199
109 121 194
104 116 190
108 120 193
112 124 200
108 120 193
109 121 195
110 122 197
110 122 197
116 128 205
110 122 197
106 118 191
110 122 197
108 120 195
111 123 198
112 124 200
108 120 194
111 123 199
109 121 194
115 127 204
112 124 199
109 121 197
106 118 191
110 123 198
108 120 194
108 120 194
110 122 198
109 120 194
107 120 194
113 124 200
109 122 197
110 122 197
105 117 192
110 122 198
107 119 194
111 123 197
108 120 194
115 127 205
112 124 199
109 121 196
112 124 200
112 124 199
110 122 198
108 121 195
111 123 198
108 121 195
108 121 196
106 119 193
109 121 196
106 118 193
110 123 199
111 122 198
109 122 197
109 121 196
107 119 193
107 119 193
110 122 198
110 122 197
109 120 196
109 121 196
108 120 194
110 122 197
109 121 196
112 125 202
112 124 201
109 122 187
114 131 175
119 137 170
120 138 169
125 144 175
120 138 170
121 140 171
124 142 172
128 147 176
127 147 176
125 144 173
128 147 177
128 147 176
129 149 178
126 146 175
125 145 174
127 147 176
130 150 178
129 149 177
130 150 179
126 145 174
130 150 178
131 151 179
130 150 178
130 150 178
130 151 179
130 150 179
131 152 179
130 150 177
130 150 177
130 150 178
132 152 179
133 153 179
132 152 179
130 150 178
131 151 179
130 150 178
132 152 179
131 151 178
132 152 179
134 154 180
133 153 179
131 151 179
131 151 179
133 153 180
133 154 180
132 152 179
133 153 180
132 153 181
134 154 180
133 153 180
132 153 180
133 154 181
132 153 179
133 153 180
132 152 179
132 153 179
133 153 180
134 154 181
133 153 179
134 154 181
133 154 180
133 154 181
134 154 181
132 152 179
132 152 179
133 153 180
132 153 180
134 154 181
132 152 179
133 154 180
134 154 180
133 154 181
134 154 181
134 155 181
133 154 180
134 154 181
134 154 181
133 154 181
135 155 181
133 153 180
134 154 181
133 154 181
133 154 181
134 154 180
133 153 180
133 154 180
134 154 181
134 154 181
133 154 181
134 154 181
133 154 181
134 154 180
133 153 180
134 154 181
134 154 181
134 154 181
134 154 181
133 154 181
134 154 181
134 154 181
134 154 181
133 154 181
134 154 180
134 154 180
133 154 181
134 154 181
133 154 180
134 155 181
134 154 181
134 154 180
133 153 180
134 154 181
134 154 181
133 154 181
133 153 180
134 154 181
134 154 181
134 154 181
133 154 181
134 154 181
134 154 181
135 155 181
134 154 180
134 154 181
133 154 181
134 154 180
134 154 181
134 154 181
134 155 181
134 154 181
133 154 181
133 154 181
133 154 181
134 154 181
134 154 181
134 154 181
134 154 181
133 154 181
134 154 181
134 154 181
133 154 181
134 154 181
133 154 181
135 155 181
133 154 180
134 154 181
134 154 181
134 154 181
134 154 181
134 154 181
133 154 181
134 154 181
134 154 181
133 154 181
134 154 180
134 154 181
134 154 181
133 154 181
133 154 181
133 154 180
134 154 181
133 154 181
133 154 181
133 154 181
134 154 181
134 154 181
134 154 181
133 154 181
134 154 181
134 154 181
134 154 181
134 154 181
132 153 180
134 154 181
134 154 181
134 154 181
133 154 181
132 154 181
133 154 181
132 153 181
133 154 181
134 154 181
134 154 181
134 154 181
134 154 181
134 154 181
133 154 181
134 154 181
134 154 181
134 154 181
134 154 180
134 154 181
135 155 181
134 155 181
134 154 181
134 154 181
134 154 181
133 154 181
135 155 181
134 154 181
134 154 181
134 154 181
133 154 181
134 154 181
134 154 181
134 155 181
134 154 181
134 154 181
134 154 181
133 154 181
133 153 180
131 152 179
132 152 179
132 152 179
132 152 179
133 153 180
132 152 179
133 153 180
132 152 180
132 153 180
132 152 180
131 152 179
131 151 178
131 150 178
133 154 180
130 150 178
132 151 179
130 150 178
132 151 178
128 148 176
131 150 178
131 151 179
131 151 179
129 149 177
127 147 176
129 149 177
128 147 176
128 147 176
127 147 176
131 151 178
126 146 175
127 146 176
126 145 175
125 144 173
129 148 177
128 147 175
126 145 174
126 145 175
123 142 172
125 144 174
120 138 168
120 138 169
121 139 172
115 130 179
104 117 180
107 119 186
108 120 194
103 114 188
108 121 196
108 119 195
110 122 199
107 118 192
105 116 189
110 123 199
110 122 197
110 122 198
106 118 192
108 120 195
107 119 193
107 119 194
114 126 203
111 123 198
109 121 195
108 120 194
112 124 199
112 124 199
108 120 194
114 126 203
110 122 196
111 123 199
113 125 201
111 123 199
111 123 199
111 124 199
111 123 197
107 120 195
107 120 193
107 120 193
114 126 201
110 122 197
111 123 199
114 126 200
113 126 202
111 124 199
111 124 199
110 122 196
107 120 193
109 122 197
113 126 202
112 125 200
112 124 200
109 121 196
109 122 196
115 127 203
110 122 197
112 124 200
114 126 202
109 121 196
110 123 197
111 124 198
114 126 203
111 123 198
106 119 192
108 120 194
110 122 197
114 126 203
111 123 198
110 122 198
111 123 199
114 126 203
110 122 197
110 122 197
110 122 197
112 124 199
109 121 195
109 121 194
109 121 196
112 124 200
111 123 198
115 127 203
110 123 198
111 123 200
111 123 198
114 126 202
114 126 202
110 122 197
112 124 200
110 122 198
113 126 201
105 117 191
111 123 199
109 121 195
106 118 192
110 122 197
109 121 196
110 122 197
111 123 198
109 121 196
109 120 195
114 126 203
112 125 201
108 120 194
108 120 195
110 123 198
110 122 197
110 122 197
111 122 198
114 126 202
111 123 198
111 123 199
110 123 198
111 123 197
111 123 197
115 127 204
114 126 204
105 117 190
109 122 198
110 122 196
110 122 197
104 116 190
113 125 201
112 124 200
113 125 202
107 119 194
108 119 194
108 120 195
112 124 199
110 122 196
101 113 186
110 122 197
104 116 189
111 123 199
111 123 198
106 118 192
112 124 200
106 118 193
113 125 202
108 120 195
108 120 194
109 120 195
109 121 196
106 117 191
108 121 196
110 122 196
107 119 194
108 120 195
105 117 190
108 120 195
106 118 191
107 120 187
114 129 175
121 139 170
116 134 166
120 137 170
121 139 171
126 145 174
122 141 172
125 145 174
125 143 173
128 147 175
129 149 178
125 144 173
126 146 175
129 150 178
130 149 177
128 148 176
129 149 177
128 147 176
125 145 175
130 150 178
130 150 177
130 150 178
130 149 178
129 148 176
130 150 178
130 151 179
128 148 177
131 151 179
130 150 179
131 151 177
132 152 179
131 151 179
131 152 180
132 152 180
130 150 178
130 150 178
132 152 179
131 151 179
133 154 180
133 153 179
132 152 179
134 154 181
132 152 179
133 154 181
132 152 179
132 152 180
133 153 180
132 152 179
132 152 179
130 151 179
133 153 179
133 153 180
134 154 181
133 153 179
134 154 181
134 154 181
133 153 180
134 154 181
132 153 180
134 154 180
133 153 180
133 154 180
133 154 180
134 154 180
133 154 181
132 152 180
133 154 181
133 153 180
132 153 180
133 154 180
133 154 180
133 154 180
133 154 180
133 154 181
132 153 180
132 153 179
133 153 180
133 153 180
133 154 181
133 154 180
134 154 181
133 154 180
133 153 180
133 154 181
134 154 181
133 154 180
134 154 181
133 153 180
134 154 180
134 154 181
134 154 181
134 154 181
134 154 180
134 154 181
134 154 181
134 154 180
133 154 181
134 154 181
134 154 181
133 154 180
133 153 180
133 154 181
134 154 181
133 154 181
133 154 181
133 154 181
134 154 181
133 154 181
134 154 181
133 154 181
134 154 181
133 154 181
133 154 181
135 155 181
133 153 180
134 154 181
134 154 181
133 154 180
133 154 181
134 154 181
134 154 180
132 153 180
133 154 181
134 154 180
134 154 180
135 155 181
134 154 181
133 154 181
133 154 181
134 154 181
133 153 180
133 154 181
134 154 181
134 154 181
133 154 181
134 154 181
134 154 181
135 155 181
134 154 181
135 155 181
133 154 181
134 154 181
134 154 181
133 154 181
134 154 181
134 154 181
134 154 181
134 154 181
134 154 181
134 154 181
133 154 181
134 154 181
134 154 181
133 154 181
134 154 181
133 154 181
134 154 181
134 154 181
133 154 181
133 154 181
133 154 181
134 154 181
133 154 181
134 154 181
134 154 181
134 154 181
134 154 181
134 154 181
133 154 181
133 154 181
133 154 181
134 154 181
133 154 181
134 154 181
134 154 181
134 154 181
134 154 181
134 154 181
133 154 181
133 154 181
135 155 181
134 154 181
133 154 181
134 154 181
133 154 181
134 154 181
133 154 181
134 154 181
134 154 181
134 154 181
134 154 181
134 154 180
134 154 181
134 154 181
134 154 181
133 154 181
134 154 181
133 154 181
133 154 180
134 154 181
134 154 181
134 154 181
134 154 181
133 154 181
133 154 181
133 154 181
133 154 181
134 155 181
133 154 181
134 154 181
133 153 180
133 153 179
133 154 181
131 151 179
132 153 179
132 152 180
132 152 179
133 154 181
132 152 179
132 152 179
132 152 180
130 150 178
131 151 179
132 152 179
131 151 178
131 151 179
131 152 179
131 151 179
133 153 180
130 149 177
130 150 178
131 150 177
131 151 179
128 148 176
129 149 177
127 147 176
124 143 173
125 143 174
126 145 175
127 146 176
126 145 174
125 144 173
127 146 175
127 146 176
126 146 175
128 147 175
128 147 176
118 135 168
124 142 173
121 139 171
121 139 169
119 136 168
116 133 167
115 132 169
110 124 177
107 121 179
103 115 181
109 120 194
111 123 200
102 114 186
107 118 193
103 114 188
112 123 199
109 121 196
110 122 198
104 116 191
113 125 201
107 119 193
105 117 192
107 119 194
106 118 192
115 127 203
111 123 199
110 122 198
110 122 197
111 123 198
109 121 197
107 119 192
111 123 199
107 119 193
114 127 203
108 120 193
112 125 201
110 122 197
111 124 199
109 121 194
112 124 200
112 124 199
111 123 198
115 127 203
111 123 199
116 128 205
109 121 196
114 127 202
110 122 196
109 121 195
109 121 195
114 126 202
112 125 200
110 122 196
111 123 197
116 128 204
110 123 198
112 125 200
111 123 197
116 128 204
109 121 194
110 122 197
111 123 198
107 119 194
113 125 201
107 119 194
113 125 200
108 121 196
108 121 195
108 120 194
114 126 202
113 125 200
113 125 201
114 126 202
113 125 201
113 125 200
112 124 200
109 121 195
114 126 202
113 125 201
113 125 201
113 125 201
107 119 193
108 120 194
111 124 199
112 124 200
110 122 196
109 121 196
110 123 197
108 121 195
112 124 200
107 119 194
112 124 198
111 123 198
110 123 198
109 121 196
112 124 201
106 118 193
115 127 204
113 125 202
112 124 200
111 123 198
112 124 199
110 122 196
109 120 195
106 119 193
114 126 203
109 121 196
109 121 197
108 121 196
105 117 190
112 124 200
106 118 192
107 119 193
111 123 198
104 116 189
108 120 196
108 120 195
110 123 198
107 118 191
108 120 195
109 121 195
107 119 194
106 118 192
108 120 194
111 122 198
113 125 201
109 121 196
106 118 194
106 118 193
106 118 191
110 122 197
110 122 198
111 123 199
107 119 194
114 125 202
110 122 198
106 117 192
109 121 196
109 121 198
107 119 194
103 115 188
112 124 200
112 124 200
109 121 197
104 115 188
111 123 200
105 116 191
106 118 192
102 113 187
105 117 191
108 120 194
105 116 190
107 121 184
115 130 172
122 140 172
124 143 172
125 143 173
123 142 173
123 142 172
126 145 174
127 145 176
125 144 174
128 147 175
125 144 174
126 144 175
127 147 177
130 149 177
128 147 176
130 150 178
128 148 176
131 151 179
127 147 176
130 150 178
128 148 177
128 149 178
132 152 179
130 150 178
131 151 179
132 152 179
129 150 178
129 149 177
130 150 178
130 151 179
132 151 179
127 147 176
129 150 177
131 151 178
133 153 179
131 152 179
132 152 180
133 153 180
131 151 179
132 152 179
131 152 179
132 153 180
133 154 180
131 152 179
133 153 180
132 153 180
133 153 180
134 154 180
133 153 180
133 154 180
131 152 179
132 153 180
135 155 181
134 154 181
133 154 180
134 154 181
133 153 180
134 154 181
133 153 180
133 153 180
133 153 180
134 154 180
133 154 181
134 154 180
132 153 180
134 154 181
134 154 181
134 154 181
133 154 181
132 153 180
133 154 180
134 154 180
133 154 181
134 154 181
133 154 181
134 154 180
133 154 181
134 154 181
135 155 181
133 154 181
134 155 181
133 153 180
134 154 181
134 154 181
134 154 181
133 154 181
134 154 181
134 154 181
133 154 181
133 153 179
134 154 181
133 154 181
134 154 181
134 154 181
133 153 180
134 154 181
133 154 181
134 154 181
135 155 181
134 154 181
134 155 181
134 154 181
135 155 181
133 154 180
134 154 181
133 154 181
134 154 181
133 154 181
133 154 181
134 154 181
133 153 180
134 154 180
133 154 181
134 154 181
134 154 181
133 154 181
134 155 181
133 154 181
134 154 181
133 154 181
133 154 181
133 154 181
133 154 181
133 154 181
134 155 181
134 154 181
133 154 181
134 154 181
134 154 180
133 153 180
134 154 181
134 154 181
133 153 180
134 154 181
133 154 181
134 154 181
133 154 181
133 154 181
134 154 181
133 154 181
134 154 181
133 154 181
134 154 181
133 154 181
133 153 180
133 154 181
133 154 181
133 153 180
135 155 181
134 154 181
134 154 181
134 154 181
133 154 181
132 153 180
135 155 181
134 154 181
133 154 181
134 154 181
134 154 181
134 154 181
134 154 181
133 154 181
134 154 181
134 154 181
133 154 181
135 155 181
134 154 181
133 154 181
133 154 181
133 154 181
134 154 181
134 154 181
134 154 181
134 154 181
134 154 181
134 154 181
135 155 181
134 154 181
133 154 181
134 154 181
134 154 181
134 154 181
134 154 181
134 155 181
134 155 181
133 154 181
134 155 181
134 154 181
134 154 181
134 154 181
135 155 181
133 154 181
134 154 181
134 154 181
133 154 181
134 154 181
134 154 180
133 154 181
134 154 181
133 154 181
135 155 181
134 154 181
134 154 181
134 154 181
133 154 181
134 154 181
134 154 181
133 154 181
135 155 181
135 155 181
132 152 179
133 153 180
132 152 179
132 152 180
133 153 180
132 153 181
131 150 177
132 152 180
132 152 179
131 151 179
132 152 179
132 153 180
133 153 180
133 153 180
130 150 177
131 151 179
130 150 177
132 152 179
130 149 178
130 150 178
129 149 177
130 150 178
132 152 179
127 147 176
128 148 177
131 151 179
130 149 178
126 144 174
126 145 175
127 146 175
125 144 173
125 144 175
127 146 175
127 146 175
121 139 170
125 144 174
119 136 167
123 141 172
122 140 171
124 142 173
118 136 168
119 137 169
112 127 164
115 132 166
113 129 166
111 127 165
114 129 180
112 125 188
102 113 182
109 120 194
108 120 197
105 117 191
106 118 193
107 119 194
108 119 194
106 118 192
110 122 197
106 118 192
113 125 201
110 122 197
108 119 195
112 124 200
114 126 202
113 125 202
110 122 197
110 121 196
112 124 200
109 121 196
115 127 204
109 121 195
112 124 199
104 117 190
111 123 198
110 122 198
111 123 198
112 124 201
113 125 202
109 121 195
116 128 205
111 124 199
109 121 195
114 127 204
109 122 196
110 122 197
108 120 195
117 129 207
113 126 202
113 125 202
110 122 197
110 122 196
111 123 198
108 120 194
111 124 198
114 126 202
109 122 196
114 126 203
112 125 200
110 123 198
105 118 191
110 123 198
108 121 195
107 119 193
111 123 198
112 124 199
110 122 197
111 123 199
108 121 196
109 121 195
110 123 198
113 126 202
113 125 202
110 122 196
115 128 205
110 122 197
110 122 196
107 119 193
115 127 204
109 121 195
106 119 192
109 122 197
110 123 198
114 126 203
109 121 197
106 119 192
113 125 200
111 123 198
111 122 197
112 124 200
114 127 203
110 122 196
107 120 194
113 125 200
109 121 196
111 122 198
109 121 197
109 121 196
109 122 196
113 124 200
110 122 197
112 124 199
109 121 197
113 124 201
117 130 208
110 123 198
114 126 201
108 120 194
106 118 194
112 124 201
114 126 202
111 123 199
108 120 196
115 127 205
111 124 201
112 124 201
110 122 197
109 121 195
108 120 195
109 121 197
109 121 197
110 121 197
107 119 194
106 118 193
112 123 199
110 122 199
107 119 194
105 116 190
111 123 199
106 118 193
109 121 196
111 123 199
106 118 194
110 122 196
106 118 193
106 117 190
109 121 196
101 113 186
108 120 195
107 119 194
110 122 199
99 111 185
103 115 189
101 113 186
107 119 192
109 120 195
106 118 189
105 117 187
107 121 186
109 123 183
110 124 179
111 126 176
118 135 173
121 139 170
124 142 172
121 138 170
125 145 173
128 147 176
125 143 174
125 144 174
126 144 174
126 144 175
130 150 178
125 144 174
126 145 174
128 147 176
126 145 174
128 147 176
129 149 177
128 147 177
130 150 178
128 147 175
131 150 178
129 148 177
130 150 178
128 148 177
132 152 180
130 151 178
130 150 177
130 150 178
130 151 179
131 151 179
133 153 180
133 153 180
131 151 178
132 152 178
132 152 180
131 151 179
129 149 178
133 153 179
132 152 179
132 152 179
132 153 180
131 152 179
132 152 179
131 152 179
132 152 179
133 154 180
132 153 180
133 152 179
133 153 180
132 152 179
133 153 180
132 153 180
132 152 179
132 153 180
133 153 179
133 154 180
134 154 180
133 154 181
134 154 180
134 154 180
133 153 180
133 153 180
132 152 180
133 153 180
133 153 180
133 154 181
133 153 180
135 154 180
133 154 181
134 154 181
132 153 180
133 153 180
133 154 181
134 154 181
132 152 180
134 154 180
133 154 180
133 153 180
133 154 181
134 154 180
133 153 180
133 154 180
133 154 180
133 154 181
134 154 181
133 153 180
133 154 180
134 155 181
133 154 180
134 154 180
134 154 181
133 154 181
133 154 181
134 154 181
134 154 181
134 154 181
133 154 181
133 153 180
133 154 181
133 154 181
134 154 181
133 154 181
134 154 181
134 154 181
134 154 181
133 154 181
133 154 181
134 154 180
135 155 181
135 155 181
134 154 181
133 154 181
133 154 180
134 154 181
134 154 181
132 153 180
134 154 181
134 154 181
133 154 180
134 154 181
134 154 181
133 154 181
134 154 181
134 154 180
134 154 181
134 154 181
134 154 180
134 154 181
133 154 181
133 154 181
133 154 181
134 154 181
134 154 181
134 154 181
134 154 181
134 154 181
133 154 181
135 155 181
134 154 181
134 154 181
134 154 181
133 154 181
134 154 181
134 155 181
133 154 181
134 154 181
133 154 181
133 154 181
134 154 181
134 154 181
134 154 180
134 154 181
134 154 180
134 154 181
134 154 181
134 154 181
133 154 181
133 154 181
134 154 181
134 154 181
134 154 181
133 154 181
133 154 181
133 154 181
135 155 181
133 153 180
134 154 181
134 155 181
135 155 181
132 153 181
134 154 181
133 154 181
133 154 181
134 154 181
133 154 181
134 154 181
134 154 181
134 154 181
134 154 181
134 154 181
133 154 181
134 154 181
134 154 181
134 154 181
134 154 181
133 154 181
134 154 181
134 154 181
135 155 181
134 154 181
133 154 181
134 154 181
133 154 181
134 154 181
134 154 181
134 154 181
133 154 181
133 154 180
134 154 181
133 154 181
133 154 181
134 154 181
133 154 181
133 154 181
133 154 181
133 154 181
134 154 181
134 154 181
133 154 181
134 154 181
132 152 180
131 151 179
133 153 180
131 151 179
131 151 179
131 152 179
132 153 180
132 152 179
130 150 178
129 149 177
131 150 178
131 151 179
132 153 180
131 151 179
130 150 178
131 151 179
131 151 179
130 150 179
128 147 176
129 149 177
130 150 178
128 147 177
127 146 176
129 149 177
128 148 177
128 147 175
129 148 176
129 149 177
125 144 173
126 146 173
127 146 175
125 144 173
125 144 175
121 139 170
125 144 173
124 143 173
119 137 169
118 136 169
124 142 173
120 138 170
117 134 168
115 132 164
114 130 165
117 135 168
112 129 164
108 124 159
113 129 166
106 121 165
106 119 174
108 121 181
109 121 190
103 115 187
108 120 195
110 121 197
110 123 199
112 124 200
113 125 202
108 120 196
107 119 194
111 122 197
110 122 198
109 121 196
114 125 201
112 124 201
110 122 197
110 123 199
110 122 196
108 120 195
114 126 204
113 125 200
113 125 202
108 120 194
105 117 191
110 122 196
108 120 194
111 123 199
111 124 198
110 122 197
111 122 198
107 120 193
111 123 198
113 126 201
107 119 193
112 124 200
108 121 195
116 128 204
113 126 202
112 124 198
111 123 198
107 119 193
106 118 191
109 121 196
113 125 200
112 125 200
114 126 202
113 126 203
112 125 201
110 122 197
112 124 200
110 123 199
109 122 197
116 128 205
113 125 200
112 124 200
110 123 199
113 125 201
112 124 201
110 122 198
111 124 200
112 124 199
113 125 199
112 125 202
109 121 196
108 120 194
111 123 198
109 122 197
113 125 201
111 124 200
111 122 196
110 123 199
113 126 204
109 121 196
106 118 192
110 122 198
114 126 202
113 125 201
114 126 202
112 124 201
112 125 200
106 118 192
106 119 193
108 120 195
112 124 200
111 123 198
109 122 197
111 123 198
111 123 198
111 123 198
108 120 195
109 121 196
111 124 199
110 123 198
111 123 197
110 122 196
114 126 203
109 120 195
110 121 196
111 123 199
111 123 199
105 117 191
105 117 191
112 124 199
116 128 205
114 126 204
106 118 192
108 119 193
107 118 192
106 118 192
111 123 198
108 120 195
112 124 200
104 116 189
108 121 196
104 116 189
109 121 196
107 119 193
109 121 196
106 117 191
108 120 194
109 122 198
112 124 201
103 114 187
110 122 198
104 115 190
107 119 194
108 120 196
109 120 195
110 122 198
109 121 194
109 120 192
105 117 188
107 119 183
107 120 183
104 116 181
108 122 181
109 124 175
112 128 173
107 122 165
113 128 169
119 136 169
120 138 171
121 140 170
121 140 171
123 142 172
124 143 173
126 146 175
124 142 171
127 146 174
128 146 176
127 146 175
126 145 175
126 145 174
127 146 175
126 145 174
128 148 177
129 149 177
131 151 179
128 148 176
131 151 178
130 150 178
130 150 178
131 150 178
132 152 179
129 149 177
130 150 178
129 148 177
132 152 179
130 150 178
131 151 179
130 150 178
131 151 179
133 153 180
131 152 180
131 151 178
133 153 180
132 152 180
132 152 179
132 152 179
133 153 180
131 151 178
133 153 180
133 153 180
133 154 180
133 152 179
134 154 180
131 151 179
133 154 181
133 153 180
133 153 180
132 153 180
133 154 180
132 152 180
133 154 180
133 153 180
133 154 180
132 153 180
131 152 180
133 153 180
131 151 179
134 154 180
132 153 180
133 154 180
133 154 180
133 153 180
133 153 180
133 154 180
133 153 180
133 154 181
134 154 181
134 154 180
133 154 180
134 154 181
133 154 181
133 153 180
133 154 180
133 153 180
134 154 181
133 154 180
133 154 181
134 154 180
133 154 180
133 154 181
133 154 181
133 154 181
133 154 181
133 154 181
133 153 180
133 153 180
133 154 181
134 154 181
134 154 181
134 154 181
133 154 181
133 153 180
134 154 181
133 154 181
134 154 181
133 154 181
134 154 181
133 154 181
134 154 181
133 154 181
134 154 181
133 154 181
134 154 180
134 154 181
133 154 181
133 154 181
134 154 181
134 154 181
133 154 181
133 154 181
133 154 181
134 154 180
133 153 180
133 153 180
134 154 181
134 154 181
134 154 181
133 154 181
134 154 181
134 154 181
133 154 181
133 154 181
134 155 181
134 154 181
132 153 180
133 154 180
132 153 180
134 154 181
134 154 181
134 154 181
134 154 181
133 154 181
133 154 181
133 154 181
134 154 181
134 154 181
134 154 181
133 154 181
134 154 181
133 154 181
133 154 181
134 154 181
134 154 181
133 154 181
134 154 181
133 154 180
135 155 181
133 154 181
134 154 181
132 153 180
135 155 181
133 154 181
133 154 181
134 154 181
134 154 181
133 154 181
133 154 181
134 154 181
134 155 181
135 155 181
134 154 181
134 154 181
135 155 181
134 155 181
134 154 181
133 154 181
133 154 181
134 154 181
133 154 181
133 154 181
133 154 181
134 154 181
133 154 181
134 154 181
134 154 180
134 154 181
134 154 181
134 154 181
134 154 181
133 154 181
133 154 181
133 154 181
134 154 181
134 155 181
134 154 181
133 154 181
133 154 181
134 154 181
134 154 181
134 154 181
133 154 181
133 154 181
133 154 181
134 154 181
134 154 181
134 154 181
134 154 181
134 154 181
135 155 181
133 154 181
134 154 181
134 154 181
134 154 181
134 154 181
133 154 180
133 154 181
133 154 180
134 154 181
133 153 180
133 153 179
132 152 180
130 151 178
133 154 180
131 150 178
133 153 179
133 153 179
132 152 179
131 151 179
131 151 178
133 153 180
131 152 179
129 148 177
130 149 177
130 150 178
130 150 178
128 148 176
130 150 178
131 151 179
130 150 178
128 148 176
128 146 177
123 142 172
127 146 174
127 146 175
127 147 175
129 149 177
126 145 175
127 147 176
121 139 171
126 146 175
124 142 173
123 143 173
120 138 170
122 140 171
123 142 171
122 140 171
115 132 166
120 137 170
113 130 164
116 133 166
117 133 168
117 134 168
115 132 165
117 133 168
109 124 162
111 126 163
111 127 163
105 119 166
112 126 178
107 119 185
106 117 189
107 119 193
101 112 184
112 124 200
115 126 203
106 117 192
106 117 191
112 123 199
108 120 195
104 116 189
108 120 195
111 123 200
108 120 194
110 122 198
112 125 201
107 119 193
108 120 194
113 124 200
110 122 197
108 120 196
112 124 200
113 124 199
110 122 198
107 119 193
109 121 197
111 123 198
109 121 195
114 126 202
109 121 195
115 127 204
117 129 207
113 125 201
113 126 203
110 122 198
112 124 200
106 118 191
111 123 199
113 125 201
115 127 204
110 122 196
111 123 198
110 122 196
112 123 198
111 123 198
109 121 195
112 124 200
111 123 198
112 124 199
113 125 202
113 125 200
106 118 192
108 121 194
110 122 197
115 126 202
114 126 202
110 122 196
114 125 200
108 120 194
109 122 197
113 126 201
113 125 201
108 121 195
113 125 201
112 124 200
111 123 200
114 127 204
114 126 203
113 125 201
111 122 197
112 124 200
109 121 195
111 123 199
108 120 195
110 122 198
113 125 201
112 124 199
110 122 197
110 122 197
112 124 199
113 125 202
108 120 195
111 123 200
112 124 200
110 122 197
114 126 202
110 123 199
105 117 191
111 124 200
113 125 202
110 121 197
112 124 199
108 121 195
107 119 193
106 118 192
111 123 198
109 121 196
107 119 193
106 118 192
112 124 200
112 124 200
111 123 199
112 123 198
106 118 193
102 113 186
108 119 195
107 119 193
110 122 197
109 120 195
112 124 201
105 117 191
111 123 199
105 116 190
107 119 194
109 120 195
109 120 195
108 120 194
105 116 191
104 115 189
104 116 189
108 120 194
100 110 182
105 116 189
103 115 188
106 118 188
106 118 186
109 122 183
110 123 182
109 122 180
111 125 180
106 120 166
107 121 170
110 124 165
111 128 165
115 131 167
116 133 167
113 130 164
120 138 170
115 132 164
121 138 171
123 141 172
126 145 174
123 141 171
125 144 174
126 145 174
124 143 173
125 143 173
123 141 172
126 145 174
125 144 173
129 148 177
129 148 177
128 148 176
129 148 177
131 150 179
131 151 179
128 146 175
127 147 176
129 149 177
130 150 178
130 149 179
131 150 178
129 149 178
131 151 179
131 151 178
131 151 179
131 152 180
130 149 177
133 152 179
131 151 179
133 153 179
131 151 179
132 152 179
129 148 176
132 152 179
133 153 180
129 149 177
132 153 180
133 153 180
132 153 180
131 152 178
131 151 178
132 153 180
133 153 180
132 152 179
131 151 179
132 153 179
131 151 179
133 154 180
133 153 180
134 154 181
133 153 180
133 153 180
134 154 180
133 153 180
134 154 180
130 150 178
133 153 180
134 154 181
134 154 181
134 154 180
133 153 180
133 153 180
133 153 180
134 154 180
134 154 181
133 153 179
134 154 181
132 153 180
132 152 179
134 154 181
134 154 180
134 154 181
134 154 181
133 153 180
133 154 181
134 154 181
134 154 181
134 154 180
133 154 181
133 154 180
133 153 180
133 153 180
134 154 181
133 154 181
133 154 181
134 154 181
134 154 181
134 154 181
134 154 181
133 154 181
133 154 181
134 154 181
134 154 181
134 154 180
133 154 181
133 154 181
133 154 180
133 154 181
133 154 180
133 154 181
134 154 180
135 155 181
134 154 181
133 154 181
133 154 181
134 154 180
133 154 181
134 154 181
134 154 181
134 154 181
133 154 180
132 153 180
134 155 181
134 154 181
134 154 181
133 154 181
134 154 181
134 154 181
133 154 181
133 154 181
134 154 181
134 154 181
134 154 181
134 154 181
135 155 181
134 154 180
135 155 181
132 153 181
134 154 181
134 154 181
134 154 181
133 154 181
133 153 180
133 154 181
134 154 181
134 154 181
133 154 181
133 154 181
134 154 181
134 154 181
134 154 181
133 154 181
133 154 181
134 154 181
134 154 181
134 154 181
134 154 181
133 154 181
135 155 181
134 154 181
134 154 181
134 154 180
133 154 181
134 154 181
134 154 181
134 154 181
134 154 181
134 154 181
135 155 181
134 154 181
134 154 181
134 154 181
134 154 181
133 154 180
134 154 181
135 155 181
134 154 180
134 154 181
134 154 181
134 154 181
134 154 181
134 154 181
134 154 181
134 154 181
133 154 181
134 155 181
133 154 180
134 154 181
133 154 181
133 154 181
134 154 181
133 154 181
135 155 181
133 154 181
134 154 181
133 154 181
134 154 181
133 154 181
134 154 181
134 154 181
133 154 180
133 154 181
134 154 181
134 154 181
133 154 181
133 154 181
133 154 181
134 154 181
134 154 181
133 154 181
134 154 181
133 154 180
134 154 181
134 154 181
134 154 181
133 154 181
134 154 181
134 154 181
133 153 180
132 153 180
132 152 179
132 153 180
132 152 180
131 150 178
129 149 177
132 151 179
128 149 178
132 152 179
130 150 178
129 150 178
130 150 179
129 149 177
133 153 179
127 147 176
130 151 178
129 148 177
127 147 176
127 147 176
127 147 176
130 150 179
129 149 177
125 144 174
128 148 177
127 147 176
128 148 177
123 142 173
128 148 177
125 145 174
126 146 175
126 145 174
124 143 174
123 141 172
126 144 174
124 143 173
120 138 170
121 139 170
119 137 168
120 138 171
120 137 169
118 135 167
115 133 166
114 130 166
112 128 163
116 132 167
112 128 163
110 125 161
114 130 164
111 127 163
108 123 163
108 123 167
104 117 171
105 117 183
106 117 191
112 123 199
109 120 195
103 115 190
105 117 192
111 123 199
112 125 201
110 121 196
109 121 197
107 119 195
111 123 198
111 123 199
115 127 204
113 125 202
111 123 200
115 127 203
106 117 191
110 122 196
112 125 201
113 125 200
107 119 192
107 119 193
109 122 197
114 126 201
114 126 202
111 123 198
110 122 196
111 123 198
108 120 194
114 126 202
111 123 198
112 124 199
115 128 204
115 128 205
110 122 197
114 126 203
111 123 198
111 123 198
112 125 200
113 126 202
107 119 194
109 121 196
111 123 198
111 123 199
113 125 200
112 124 199
112 125 203
115 126 203
105 117 191
111 123 198
111 123 198
111 123 198
114 127 203
109 121 195
109 121 195
111 123 198
110 122 196
112 124 200
109 121 195
110 122 196
115 127 204
113 125 201
108 120 194
114 126 202
110 122 197
110 122 199
108 119 193
111 124 199
110 122 197
111 123 199
110 122 198
112 123 199
113 125 201
108 120 196
110 122 197
109 121 196
108 121 196
112 124 200
107 119 194
111 123 197
113 125 201
107 119 194
106 119 193
109 121 198
106 118 192
106 118 193
107 119 194
106 118 192
108 120 195
104 116 189
106 117 192
110 121 196
112 124 200
105 117 191
111 123 199
106 117 191
108 120 195
103 115 189
109 121 196
113 125 201
111 122 199
109 121 196
107 119 193
108 120 194
106 117 192
104 116 189
106 118 193
108 119 193
108 119 193
105 117 191
108 120 195
104 116 190
107 119 195
104 115 189
105 117 192
108 120 194
112 124 196
110 122 193
109 122 191
105 118 175
107 120 181
108 122 177
106 120 174
106 120 166
108 122 164
112 128 167
112 127 166
112 128 164
113 130 164
114 130 164
116 133 167
117 135 167
117 135 168
121 138 170
115 132 166
120 139 169
119 137 170
122 140 171
128 148 176
127 146 175
124 143 172
122 140 171
125 144 174
129 148 177
128 148 176
128 147 176
127 146 175
129 149 177
128 147 176
126 145 175
127 147 175
127 147 176
130 150 178
131 151 179
130 150 178
126 145 174
131 152 179
128 148 176
130 150 178
130 150 179
132 152 179
133 153 180
129 150 179
130 149 176
132 153 179
131 151 179
128 148 176
132 152 179
132 152 179
132 152 179
132 152 179
132 152 179
132 151 178
133 153 180
133 153 180
134 155 181
133 153 179
130 150 178
134 154 180
133 153 180
132 153 179
133 153 180
134 154 180
133 153 180
133 153 180
134 154 181
132 152 179
133 153 180
132 152 180
133 153 179
133 154 181
133 153 180
133 154 181
132 153 180
133 153 180
134 154 181
133 153 180
133 154 180
133 154 180
133 154 181
133 153 180
133 154 180
133 153 180
133 154 181
134 154 181
134 154 181
134 154 181
134 154 180
134 154 181
133 154 181
134 154 181
133 154 181
133 153 180
134 154 181
134 154 181
133 154 181
134 154 180
133 154 181
134 155 181
134 154 181
133 154 181
134 154 181
134 154 181
134 154 181
133 154 180
133 154 181
133 154 180
135 155 181
133 154 180
134 154 181
133 154 181
134 154 181
134 154 181
133 154 180
134 154 181
133 154 180
133 153 180
134 154 181
134 154 181
133 153 180
134 154 181
133 154 181
133 154 181
134 154 181
133 154 181
134 154 181
134 154 181
133 153 180
134 154 181
134 154 181
133 154 181
134 154 181
133 154 181
133 154 181
134 154 181
134 154 181
133 154 181
134 154 180
133 154 181
133 154 181
134 154 181
133 154 181
133 154 180
133 154 181
133 154 181
134 154 181
133 154 181
134 154 181
134 154 181
134 154 181
134 154 181
133 154 181
133 154 181
135 155 181
133 154 181
134 154 181
134 154 181
133 154 180
133 154 181
135 155 181
134 154 181
133 154 181
134 154 181
135 155 181
134 154 181
133 154 181
133 154 181
134 154 181
134 154 181
135 155 181
133 154 181
133 154 181
134 155 181
134 154 180
134 154 181
133 154 181
134 154 181
133 154 180
134 154 181
133 154 181
134 154 181
135 155 181
134 154 181
133 154 181
133 154 181
134 154 181
133 154 181
134 154 181
133 154 181
134 154 181
133 154 181
134 154 181
134 154 181
133 154 181
133 154 181
133 154 181
134 154 181
134 154 181
133 154 181
133 154 181
134 154 180
134 154 181
134 154 181
134 154 181
133 154 181
133 154 180
133 154 181
133 154 181
134 154 181
133 154 180
134 154 181
134 154 181
134 154 181
134 154 181
135 155 181
133 154 181
134 154 181
134 154 181
134 154 181
134 154 181
134 154 181
135 155 181
134 154 181
133 154 181
134 154 181
134 154 181
133 153 179
134 154 180
132 152 179
133 153 180
131 151 178
131 151 179
131 152 180
130 151 178
131 151 178
130 150 178
131 152 180
132 152 180
130 149 178
131 150 178
129 149 177
130 150 177
131 150 177
130 150 177
129 148 177
127 147 176
130 150 178
130 150 177
130 149 178
126 146 176
127 147 176
129 149 177
127 146 175
128 148 178
125 144 173
124 142 173
125 144 174
127 146 175
122 141 171
121 139 170
124 143 173
126 144 174
119 137 170
120 138 169
124 142 172
122 140 172
120 138 170
121 139 169
116 133 168
119 137 169
111 128 163
117 134 167
110 125 161
109 125 160
114 131 166
116 133 166
113 130 164
113 129 164
109 124 166
100 113 164
105 118 175
104 117 181
113 125 199
106 119 194
101 112 186
106 118 194
107 119 195
106 118 192
109 121 196
110 123 199
107 119 193
114 126 202
105 117 191
109 121 196
108 120 196
108 120 194
112 124 200
109 121 197
108 120 196
114 126 203
106 118 191
112 124 199
108 120 194
111 123 199
114 126 202
112 125 201
118 130 207
109 121 195
116 128 205
108 120 194
109 121 194
111 124 199
110 122 197
114 126 202
110 122 196
109 121 194
108 121 196
114 127 204
115 127 202
106 118 191
111 123 198
115 127 203
111 123 197
113 125 201
109 121 196
111 123 199
113 125 202
114 126 201
113 125 201
109 120 194
112 124 201
113 125 201
110 123 198
110 123 198
112 124 199
112 124 200
109 122 197
111 124 200
114 127 204
114 125 201
111 124 200
105 117 191
108 120 195
111 123 199
107 118 191
108 120 195
114 126 203
110 122 197
107 119 194
107 119 193
104 116 189
109 121 195
110 123 199
109 120 195
113 125 201
111 123 199
109 121 196
113 125 202
111 123 199
110 122 197
112 123 199
110 123 198
113 125 201
108 120 195
108 120 194
109 121 195
112 124 201
108 120 194
109 121 196
110 122 198
107 119 193
110 122 197
109 120 195
110 122 197
108 119 195
108 119 194
106 118 193
108 119 194
110 121 197
101 112 186
109 120 196
108 120 195
106 118 193
109 120 195
108 120 196
103 115 188
107 118 193
101 112 185
106 118 193
104 115 189
108 119 194
109 121 195
107 118 192
105 117 184
102 114 178
111 125 185
104 117 172
114 129 180
110 125 170
113 129 170
107 122 161
112 129 165
113 128 165
109 125 159
116 133 167
116 133 166
116 133 166
117 135 167
118 136 169
116 134 167
113 130 163
118 136 168
116 133 167
119 136 168
122 141 172
121 139 171
124 143 173
125 144 174
124 143 173
125 144 174
126 146 175
125 144 174
125 144 173
125 143 173
125 144 174
130 150 178
128 148 176
128 147 176
129 149 178
126 145 176
129 148 177
130 150 178
128 147 176
131 151 179
129 149 177
132 152 179
127 147 175
132 152 179
130 150 178
132 152 180
131 152 180
132 152 179
130 150 178
130 150 178
131 152 179
133 153 180
131 152 179
132 152 180
133 153 180
132 152 180
132 153 180
131 151 178
133 152 179
131 152 179
132 153 180
133 153 180
132 152 179
132 152 179
132 153 180
131 151 179
133 154 180
132 152 179
133 154 181
133 154 181
132 152 180
133 153 179
133 153 180
133 153 180
132 153 180
134 154 181
133 153 180
133 153 179
134 154 181
133 154 180
134 154 181
132 153 179
134 154 181
133 153 180
133 153 180
134 154 181
134 154 181
134 154 180
133 153 180
134 154 181
134 154 181
134 154 181
134 154 180
134 154 180
133 154 181
133 154 181
133 153 180
134 154 181
134 154 181
134 154 181
134 154 181
134 154 181
133 154 181
134 154 181
132 153 180
134 154 181
134 154 181
133 154 181
133 154 181
134 154 181
135 154 180
133 154 181
134 154 181
135 155 181
133 153 180
135 155 181
133 154 181
133 154 181
134 154 181
134 154 181
133 153 180
134 154 181
134 154 181
133 154 181
133 153 180
133 154 181
134 154 181
134 154 181
134 154 181
135 155 181
134 154 181
135 155 181
134 154 181
134 153 179
134 154 181
133 154 181
134 154 181
133 154 181
135 155 181
135 155 181
133 154 180
134 154 181
133 154 181
133 154 181
134 154 181
135 155 181
133 154 181
134 154 181
134 154 181
134 155 181
134 154 181
134 154 181
134 154 181
133 154 181
133 154 181
134 154 181
134 154 181
134 154 181
134 154 181
133 154 181
134 154 181
133 154 181
133 154 181
134 154 181
134 154 181
135 155 181
134 154 181
134 154 181
133 154 181
134 154 181
134 154 181
134 154 181
134 154 181
133 154 181
133 154 181
134 154 181
133 154 181
133 154 181
134 154 181
134 154 181
133 154 180
133 154 181
133 153 180
133 154 181
134 154 181
133 154 181
134 154 181
134 154 181
134 154 181
133 154 181
134 154 181
133 154 181
134 155 181
134 154 181
134 154 181
134 154 181
134 154 181
134 154 181
133 154 181
134 154 181
133 153 180
133 154 181
134 154 181
134 154 181
133 154 180
134 154 181
133 154 181
134 154 181
135 155 181
134 154 181
134 154 181
134 154 181
134 154 181
133 154 181
134 154 181
133 154 181
133 154 181
134 154 181
134 154 181
133 154 181
135 155 181
134 154 181
134 154 181
134 154 181
133 154 181
134 154 181
134 154 181
133 154 181
133 154 181
134 154 181
133 154 181
133 154 181
132 151 179
130 150 177
130 150 179
130 150 178
131 152 179
131 150 177
130 150 178
133 153 180
132 152 179
129 149 177
130 150 178
132 152 180
129 148 177
128 148 177
129 149 177
129 149 177
132 152 179
127 146 176
128 148 177
129 149 177
126 145 175
130 150 178
128 147 175
126 146 175
127 146 175
127 147 176
127 147 176
126 145 175
124 142 172
125 144 173
121 139 171
125 144 175
127 146 176
125 144 174
126 146 175
125 143 172
121 140 170
113 129 163
121 140 171
123 142 173
118 136 167
118 137 168
119 137 169
120 138 169
115 133 167
117 134 167
118 135 167
116 133 166
112 128 162
117 134 168
114 130 166
113 129 164
108 124 160
110 126 162
112 127 169
115 130 181
107 121 177
106 118 189
105 116 189
115 126 203
113 124 201
104 116 189
112 124 200
109 120 196
107 118 192
106 118 192
106 118 193
108 120 194
103 114 187
111 122 198
118 130 209
106 117 191
112 124 201
106 117 192
105 117 191
112 124 200
110 122 198
112 124 200
111 124 199
110 123 199
109 121 196
111 123 198
110 122 197
108 120 194
109 121 197
110 122 196
114 127 204
115 128 206
112 124 200
110 122 197
112 124 200
107 120 193
113 125 201
113 124 201
106 118 191
106 118 192
109 121 197
108 120 194
110 122 197
108 120 193
111 123 198
114 127 203
110 122 196
115 128 206
112 124 200
110 122 196
113 125 200
110 122 198
110 122 197
110 122 198
113 125 201
109 121 195
112 124 199
108 119 193
109 121 196
108 120 194
110 122 198
110 121 195
110 122 198
112 124 199
111 122 197
110 121 196
109 121 195
112 123 199
111 122 198
108 120 195
109 122 199
114 126 202
108 119 193
110 122 197
111 123 199
106 118 193
108 120 195
111 122 198
107 119 193
112 124 200
107 118 193
109 121 196
108 120 196
111 123 200
111 123 198
108 119 193
103 115 188
110 122 197
109 121 196
112 124 201
106 117 191
107 118 192
110 122 199
104 116 191
111 123 199
109 120 195
113 125 202
111 123 199
109 121 197
107 118 193
107 118 193
103 115 189
107 119 194
108 120 196
106 118 192
105 117 187
109 120 192
100 111 178
101 113 172
108 121 183
110 124 181
112 127 174
109 124 169
109 124 165
105 119 161
111 127 165
111 127 163
115 132 166
113 130 164
116 134 165
115 132 166
116 132 167
114 131 165
117 134 167
117 133 167
117 134 168
119 137 170
119 136 169
118 135 169
124 143 173
122 141 171
122 140 171
122 140 170
122 140 171
123 142 173
126 144 174
127 146 176
124 143 174
125 144 174
125 143 173
124 143 173
127 146 174
126 145 174
127 146 176
124 143 173
124 142 173
127 147 175
128 148 176
129 148 177
132 152 179
128 148 176
128 148 177
131 151 178
130 149 177
130 150 178
129 149 178
132 152 180
131 151 178
130 150 178
129 149 177
129 149 176
131 151 179
131 151 179
131 150 178
132 152 179
133 152 179
133 153 180
131 152 179
131 151 179
133 153 180
132 151 178
134 154 180
132 153 180
134 154 181
134 154 181
133 153 180
132 153 180
132 152 180
133 154 180
132 153 180
133 153 179
133 153 180
134 154 181
133 154 180
133 153 180
134 154 180
133 153 179
133 154 181
132 152 179
133 153 180
133 153 180
134 154 180
133 153 180
132 153 180
133 154 181
133 154 180
133 153 180
134 154 181
133 154 181
133 153 180
134 154 181
134 154 180
134 154 181
134 154 181
134 154 181
133 154 180
134 154 181
134 154 181
135 155 181
134 154 180
134 154 181
133 154 180
133 154 180
134 154 180
133 154 180
134 154 180
134 154 181
133 154 181
133 154 181
133 154 180
133 153 180
134 154 181
133 154 180
133 153 180
133 154 181
134 154 181
133 154 181
133 154 181
133 154 181
134 154 181
133 153 179
133 154 181
134 154 181
135 155 181
134 154 181
133 154 180
134 154 181
133 154 181
133 154 181
133 154 181
133 154 181
134 154 181
134 154 181
134 154 181
134 154 181
133 154 181
134 154 181
134 154 181
133 154 181
133 154 181
133 154 181
134 154 181
135 155 181
133 154 181
133 154 181
133 154 180
134 154 181
133 154 181
134 154 181
133 154 181
133 154 181
134 154 181
134 154 181
134 154 181
134 154 181
134 154 181
133 154 181
134 154 181
133 154 181
133 154 181
134 154 181
134 154 181
133 154 181
134 154 181
134 154 181
134 154 181
134 154 181
134 154 181
133 153 180
133 154 181
134 154 181
134 154 181
134 154 180
133 154 181
133 154 181
134 154 181
134 154 181
134 154 181
133 154 181
134 154 181
133 154 181
134 154 181
134 154 181
134 154 181
134 154 181
133 154 181
134 154 181
134 155 181
134 155 181
134 154 181
133 154 181
134 154 181
133 154 181
134 154 181
134 154 181
135 155 181
134 154 181
134 154 181
133 154 181
134 154 181
134 154 181
133 154 181
135 155 181
134 154 181
133 154 181
133 154 181
133 154 181
134 154 181
134 154 181
134 154 181
134 154 181
134 154 181
135 155 181
135 155 181
133 154 181
134 155 181
133 154 181
134 154 181
133 154 181
133 154 181
134 154 181
133 154 181
134 154 181
134 154 181
133 154 181
133 154 181
134 154 181
133 154 181
134 154 181
133 154 181
134 154 181
133 154 181
133 154 181
134 154 181
131 151 178
133 153 180
132 152 179
132 153 180
131 151 178
131 151 179
131 151 179
131 151 179
130 150 177
133 152 179
129 149 177
133 153 180
129 148 176
130 151 179
130 150 178
129 149 177
128 147 176
130 149 178
131 152 179
128 147 176
128 147 176
128 148 176
128 148 176
129 148 177
127 146 175
128 147 176
127 147 175
125 145 174
122 140 171
127 146 176
124 143 173
125 145 175
122 140 170
121 140 171
121 140 170
125 144 173
122 140 171
123 141 172
118 136 169
122 140 171
117 135 168
121 139 170
114 131 164
118 136 168
119 136 169
116 133 167
118 135 166
117 134 167
117 135 166
113 130 166
115 131 166
112 128 163
115 132 167
111 127 162
112 128 161
115 132 167
112 127 174
109 122 174
106 119 178
107 120 187
105 116 191
111 122 198
108 120 195
111 122 198
105 117 191
107 118 193
107 119 192
105 117 190
109 121 195
109 121 197
110 122 198
104 116 189
111 123 199
106 117 191
114 126 203
108 120 195
110 122 198
113 126 202
112 124 200
109 121 196
108 121 196
107 119 193
108 120 195
107 119 193
113 125 202
111 123 199
110 122 196
110 123 198
114 126 202
108 121 196
109 121 196
108 120 194
104 116 189
112 124 199
115 128 205
110 122 198
112 124 199
113 126 202
117 130 208
111 123 197
108 120 194
106 118 191
105 117 190
110 123 197
110 122 196
107 119 193
111 122 197
107 119 194
114 126 203
113 124 200
109 122 196
112 125 201
110 122 197
109 121 197
111 123 198
115 127 204
112 124 201
108 120 194
110 123 198
109 122 197
110 122 197
109 121 196
113 126 203
111 123 197
109 121 196
111 123 199
110 122 197
107 118 192
108 120 195
113 126 202
109 121 196
108 119 193
110 122 198
115 127 205
112 124 201
103 116 189
109 121 196
107 119 193
107 119 194
111 123 198
104 115 188
105 117 191
109 121 195
111 123 200
107 119 193
106 119 194
110 122 198
107 119 195
105 117 191
108 120 195
112 124 201
105 117 192
106 117 191
109 120 196
103 115 188
105 117 190
103 114 186
108 119 193
111 123 191
106 119 180
109 122 179
110 125 178
115 129 184
111 127 175
115 132 171
112 128 167
114 132 167
109 125 159
108 124 160
114 130 165
113 130 165
116 132 166
116 133 166
119 136 169
115 132 167
117 134 167
121 139 172
121 139 171
115 132 166
121 139 171
120 137 169
121 139 171
120 138 171
118 136 169
120 138 170
120 138 169
125 144 175
122 140 170
123 140 172
124 143 173
124 143 173
126 146 175
125 144 173
124 143 173
124 144 173
129 148 176
127 146 175
129 149 178
127 146 175
127 146 174
129 148 176
129 149 177
130 150 178
132 152 179
128 147 175
131 151 179
130 150 178
129 149 178
129 149 179
130 150 178
131 151 178
131 152 179
131 151 179
129 149 177
132 152 179
132 152 180
132 153 180
130 150 177
130 151 179
131 151 178
133 153 180
132 152 179
131 151 179
132 153 179
132 152 179
134 154 180
131 151 179
132 152 180
132 152 180
132 153 180
133 153 180
133 153 180
133 154 180
133 153 180
133 153 180
132 152 179
132 152 179
133 153 180
133 153 180
133 154 181
133 153 180
132 152 180
135 155 181
133 154 181
133 153 179
132 152 179
132 153 180
132 152 179
133 153 180
133 154 181
133 154 181
133 154 181
133 154 181
133 153 180
133 154 180
134 154 181
135 154 180
133 153 180
132 153 180
133 154 180
134 154 179
134 154 181
134 154 180
132 153 180
133 154 180
133 154 181
134 154 181
133 154 180
133 154 181
132 153 180
133 154 180
134 154 181
133 153 180
134 154 181
134 154 180
134 154 181
134 154 181
133 154 181
134 154 180
133 153 180
134 154 181
135 155 181
133 153 180
133 154 181
134 154 181
134 154 181
134 154 181
134 154 181
134 154 181
134 154 180
133 154 181
133 154 181
133 154 181
133 154 181
134 154 181
133 154 181
134 154 181
134 154 181
134 154 181
134 154 181
133 153 180
134 154 181
132 153 181
132 153 181
133 154 181
133 154 181
134 154 181
134 154 181
134 154 181
133 154 181
132 153 180
134 154 181
134 154 181
134 154 181
134 154 180
133 154 180
133 154 181
134 154 181
135 155 181
133 154 181
133 154 181
134 154 181
133 154 181
134 154 181
134 154 181
133 154 181
133 154 180
134 154 181
133 154 181
134 154 181
134 154 181
134 154 181
133 154 181
134 154 180
134 154 181
133 153 180
133 154 181
134 154 181
133 154 181
134 154 181
133 154 181
134 154 181
134 154 181
133 154 181
134 154 181
133 154 181
134 154 181
133 154 181
134 154 181
134 154 181
135 155 181
134 154 181
134 154 180
134 154 181
134 154 181
134 154 181
134 154 181
135 155 181
134 154 181
134 154 181
134 155 181
134 155 181
133 154 181
133 153 180
134 154 181
133 154 181
134 154 181
134 155 181
133 154 181
134 154 181
134 154 181
135 155 181
134 154 181
134 154 181
134 154 181
133 154 181
135 155 181
134 154 181
134 155 181
134 154 181
134 154 181
133 154 181
133 154 181
133 154 181
133 154 181
133 154 181
134 154 181
134 154 180
133 153 180
134 154 181
134 154 181
133 154 181
135 155 181
134 154 181
134 154 181
134 154 181
134 154 181
134 154 181
134 154 181
132 153 181
131 152 180
131 151 179
131 152 179
132 153 180
132 153 180
134 154 180
131 152 180
129 149 177
132 152 179
132 152 179
131 151 178
130 149 178
126 146 176
131 151 178
128 147 175
131 152 179
132 152 179
131 150 178
129 149 177
129 149 176
127 147 175
129 149 177
125 144 174
126 145 175
129 149 178
126 145 175
129 148 177
127 146 175
123 141 172
122 141 173
129 148 178
127 146 176
129 149 177
125 145 175
123 142 173
122 141 172
117 135 167
119 137 169
122 141 173
116 134 167
120 138 171
122 140 172
122 141 173
118 136 169
116 133 164
117 134 165
117 134 167
118 135 170
121 138 170
117 134 168
119 136 170
110 126 162
112 128 164
111 126 163
110 126 161
109 124 161
113 129 163
112 128 164
109 124 165
107 121 177
110 122 189
105 117 186
111 123 199
104 115 190
109 120 195
112 124 201
109 120 195
107 119 192
107 119 194
112 123 199
107 119 194
109 121 196
110 122 198
110 122 197
110 122 197
106 118 192
110 122 197
108 120 194
115 127 204
110 122 197
110 122 196
113 125 201
106 119 193
112 125 200
108 120 194
114 127 204
114 126 202
114 127 204
111 124 199
113 125 202
111 123 199
115 127 204
112 124 199
114 127 205
110 122 196
110 122 197
107 120 195
109 121 196
106 119 193
116 129 206
111 123 199
113 124 199
107 119 193
110 122 196
105 117 189
113 126 202
108 120 195
109 121 195
108 120 195
116 128 205
109 121 196
110 122 198
110 122 197
108 120 194
110 122 198
118 130 209
112 124 200
109 121 196
114 125 201
116 128 205
99 110 182
113 126 203
112 124 199
107 119 194
111 123 199
108 120 195
106 118 192
108 120 195
108 120 195
109 121 197
107 118 192
111 122 197
104 115 189
112 124 200
110 122 198
107 118 194
107 119 194
108 120 194
108 120 196
108 120 196
109 121 197
105 117 191
106 118 192
107 119 193
107 119 193
103 115 189
105 117 191
105 116 190
107 118 193
107 119 194
106 117 191
102 114 185
111 123 196
104 115 183
110 123 186
107 120 181
105 118 172
114 128 183
112 127 173
108 123 169
110 125 169
112 127 167
114 130 166
113 129 165
114 131 165
109 125 159
112 129 164
116 133 166
113 130 164
118 135 169
114 130 165
115 133 166
117 133 167
118 135 168
120 138 170
118 135 168
120 138 171
114 132 165
121 139 170
118 135 168
124 143 174
124 144 174
120 138 170
124 143 173
122 140 171
121 139 172
125 144 173
123 142 171
122 141 171
124 142 175
123 141 173
126 146 175
123 142 172
126 145 175
123 141 173
125 144 174
126 144 174
127 146 176
126 145 175
129 148 176
128 148 176
128 148 176
128 148 176
130 150 178
131 151 179
131 151 179
131 150 178
131 151 178
126 145 174
131 151 178
131 151 179
129 149 177
132 152 180
131 151 178
131 152 179
132 152 179
133 154 180
130 150 178
131 152 179
130 150 177
132 153 180
133 153 179
134 154 181
131 151 179
132 152 179
131 151 179
132 151 179
132 152 180
131 150 177
134 154 180
131 152 179
133 154 180
132 153 180
133 154 180
133 153 180
133 153 180
132 153 180
134 154 180
132 152 179
133 154 180
134 154 180
132 153 180
134 154 180
133 154 181
133 153 180
133 153 180
132 153 180
132 153 180
133 154 181
134 154 181
134 154 181
133 153 180
133 153 180
133 154 180
133 154 180
133 154 181
134 155 181
133 154 180
133 154 181
133 154 181
133 154 181
132 153 179
133 154 180
134 154 181
133 154 180
133 154 181
133 154 181
133 154 181
134 154 181
134 154 181
134 154 181
134 154 181
134 154 180
134 154 181
133 154 181
133 154 180
133 154 181
133 154 180
133 154 180
133 154 181
133 154 181
134 154 181
133 154 181
134 155 181
133 153 180
134 154 181
134 154 181
134 154 181
133 154 181
134 154 181
133 154 181
134 154 181
134 154 181
134 154 181
132 153 180
133 154 181
135 155 181
132 153 179
134 154 181
133 154 181
134 154 181
133 154 181
134 154 181
134 155 181
134 154 181
135 155 181
134 154 181
133 154 180
134 154 181
134 154 181
133 154 181
134 154 181
134 154 181
134 154 181
133 154 181
133 154 181
134 154 180
134 154 181
135 155 181
133 154 181
134 154 181
134 154 181
133 153 180
134 154 181
134 154 181
134 154 181
133 154 181
134 154 181
133 154 181
133 154 180
133 154 181
133 154 181
135 155 181
134 154 181
133 154 181
133 154 181
134 154 181
133 154 181
134 154 181
134 154 181
133 154 181
134 154 181
134 154 181
133 154 181
134 154 181
133 154 181
133 154 181
134 154 181
133 154 181
133 154 181
134 154 181
134 154 181
133 154 181
133 154 181
134 155 181
133 154 181
134 154 181
134 154 181
134 155 181
133 154 181
134 154 181
134 154 181
134 154 181
133 153 180
134 154 181
134 154 181
134 154 181
133 154 181
133 154 181
134 154 181
133 154 181
134 154 181
134 154 181
133 154 181
135 155 181
133 154 181
133 154 181
134 154 181
134 154 181
134 154 181
134 154 181
134 154 181
134 154 181
134 154 181
134 154 181
134 154 180
134 154 181
134 154 181
133 154 180
134 154 181
133 153 180
133 154 181
134 154 181
133 154 181
134 154 181
134 154 181
133 154 181
134 154 181
133 154 181
135 155 181
131 152 179
132 152 180
132 152 179
130 151 178
132 152 179
131 151 179
131 151 178
129 149 178
131 151 179
130 150 178
130 149 177
129 149 177
132 153 180
131 151 178
129 149 177
131 151 179
129 148 176
128 147 176
129 149 177
129 149 177
129 149 177
127 147 176
128 148 176
128 147 176
128 147 175
127 146 176
128 147 176
127 147 176
119 138 169
126 146 176
129 149 177
127 146 176
123 142 173
124 142 173
122 140 172
121 139 171
126 146 175
120 139 171
119 137 169
125 143 173
120 138 169
123 141 173
122 140 171
117 135 168
120 138 170
120 138 170
121 139 171
117 135 168
117 135 168
118 134 168
117 134 167
116 133 167
117 135 167
107 122 158
115 131 165
115 132 165
116 133 166
113 130 162
109 124 163
113 129 166
108 123 165
108 122 178
113 126 189
107 118 191
110 122 198
106 117 192
110 122 198
104 116 189
104 116 189
108 120 195
108 120 195
110 122 197
114 125 202
107 119 194
107 118 192
107 119 194
111 123 199
107 119 193
110 122 197
116 128 206
109 121 196
109 121 195
111 123 199
110 122 197
112 125 201
109 121 197
112 124 199
109 120 193
110 122 196
108 120 194
112 124 201
111 123 197
111 123 198
107 119 193
112 124 199
111 124 199
112 125 201
114 126 202
110 123 199
111 124 200
114 126 202
110 122 198
116 128 205
106 118 192
108 120 194
109 121 197
109 121 197
114 126 202
109 121 195
109 121 196
108 121 196
105 117 190
107 119 194
105 117 191
111 123 199
113 125 201
108 119 193
113 125 200
110 122 198
109 122 197
109 120 195
109 121 196
105 117 192
109 121 197
108 120 196
108 120 194
103 115 189
108 120 196
107 119 192
111 122 197
106 118 192
110 122 197
107 118 194
108 119 195
108 120 196
113 125 201
112 123 200
112 123 199
110 122 198
108 120 195
110 121 196
109 120 195
108 120 195
104 115 189
109 121 197
104 116 190
107 118 192
109 121 194
104 116 186
107 120 188
103 115 179
105 119 178
109 123 181
110 125 172
108 123 169
113 129 173
113 129 167
117 133 168
112 129 164
110 127 162
114 130 164
114 131 164
115 132 167
110 125 161
117 133 166
118 136 169
112 129 164
115 132 165
118 135 169
121 139 170
116 132 165
118 135 166
113 131 163
115 133 167
120 138 169
122 141 171
121 139 171
123 142 172
121 139 171
122 140 171
121 140 171
119 137 169
121 139 172
126 145 176
124 143 173
124 143 172
125 144 173
126 145 175
127 146 176
127 146 175
125 144 174
129 149 177
122 142 173
126 146 175
127 147 175
128 148 176
124 144 174
130 150 178
127 146 176
129 149 177
129 149 177
128 148 177
127 146 176
128 147 176
131 151 179
129 149 177
130 150 178
132 152 179
131 151 179
130 150 177
130 150 177
130 150 178
130 150 178
132 152 179
131 152 179
131 151 179
131 151 179
130 150 177
132 152 179
131 151 178
133 154 180
132 152 179
132 153 179
132 151 178
131 151 179
133 153 180
133 152 179
133 153 180
133 153 180
131 151 178
133 153 180
132 153 180
132 153 180
132 153 180
132 153 180
133 153 180
134 154 180
131 152 180
131 152 179
133 153 180
132 153 180
134 154 181
133 153 180
134 154 180
132 152 180
133 153 180
133 154 181
132 152 180
133 154 180
133 153 180
134 154 181
134 154 181
133 153 180
134 154 180
133 154 180
133 154 181
133 153 180
133 154 180
134 154 180
134 154 180
134 154 181
134 154 181
133 153 180
133 153 180
134 154 181
134 154 181
133 154 180
133 154 181
133 154 181
133 153 180
133 153 180
134 154 180
133 153 179
134 154 181
133 154 181
133 154 181
134 154 181
133 154 181
134 154 180
133 154 180
134 154 181
133 154 181
134 154 181
134 154 181
133 154 181
132 153 180
133 154 181
134 154 181
133 154 180
134 154 180
133 154 181
134 154 181
134 154 181
134 154 181
134 154 181
134 154 181
133 154 181
133 154 181
132 154 181
135 155 181
135 155 181
134 154 181
134 154 181
134 154 181
133 154 181
134 154 180
134 154 181
134 154 181
134 154 181
134 154 181
134 154 181
133 154 181
133 154 181
134 154 181
134 154 181
133 154 181
133 154 181
133 154 181
133 154 181
134 154 181
135 154 180
133 154 181
134 154 181
134 154 181
133 154 181
134 154 180
134 154 180
134 154 181
134 154 181
133 154 181
134 154 181
134 154 181
133 154 180
134 154 180
134 154 181
134 154 180
134 154 181
134 154 181
134 154 181
134 154 181
134 154 181
133 154 181
133 154 181
133 154 181
133 154 181
133 154 181
135 155 181
134 154 181
133 154 181
134 154 180
133 154 181
133 154 181
133 154 181
133 154 181
133 154 181
133 154 181
135 155 181
133 154 181
133 154 180
134 154 181
134 154 181
133 154 181
134 154 181
133 154 181
133 154 181
134 154 181
134 154 181
133 154 181
134 154 181
133 154 181
133 154 181
133 154 181
134 154 181
133 154 180
134 154 181
133 154 181
134 154 180
135 155 181
134 154 181
134 154 181
134 154 181
134 154 181
133 154 181
134 154 181
134 154 181
134 154 181
134 154 181
133 154 181
133 154 181
133 154 181
133 154 181
133 154 181
133 154 181
134 154 181
134 154 181
133 154 181
133 154 181
134 154 181
134 154 181
134 154 181
129 150 177
132 153 180
130 150 178
131 151 179
130 150 178
132 153 180
131 152 179
132 152 179
132 152 179
133 153 180
130 150 178
130 150 178
130 150 179
131 151 178
129 149 177
130 150 178
128 147 176
129 149 178
129 149 178
130 150 178
127 146 174
125 144 175
131 151 178
127 147 176
128 147 176
128 148 176
125 144 174
129 149 176
127 146 176
126 145 175
125 144 174
125 145 174
125 144 174
124 143 173
126 145 175
124 142 172
127 146 176
124 143 173
123 141 173
116 134 167
124 142 173
122 141 171
118 136 169
121 138 170
122 141 173
121 139 171
118 135 169
122 141 172
114 130 165
119 137 168
117 134 168
121 140 170
116 133 165
116 132 168
117 134 167
115 131 167
118 135 168
119 136 169
117 134 167
117 133 165
109 125 161
109 124 166
105 120 165
109 122 181
103 114 184
108 120 191
103 115 188
105 116 191
112 124 202
101 113 186
103 115 188
106 118 192
104 115 189
111 123 199
112 124 200
110 122 197
109 121 196
108 121 196
105 118 191
110 121 196
109 121 197
111 124 200
113 126 202
111 123 199
110 122 197
109 120 194
111 124 199
115 128 205
107 119 192
107 119 194
105 117 190
107 119 193
113 125 201
112 124 200
112 124 200
113 125 201
110 121 196
104 116 189
108 120 194
107 119 193
109 122 197
112 124 201
110 122 197
109 121 195
107 118 192
113 125 201
113 125 201
106 118 193
108 120 195
110 122 197
109 121 197
105 117 191
108 120 195
115 126 203
108 119 193
112 124 201
106 117 192
111 123 198
106 118 191
107 119 194
112 124 200
109 121 197
107 119 193
108 120 195
113 126 203
107 119 194
111 123 201
107 119 195
106 117 192
103 114 188
110 122 197
105 117 191
107 119 194
108 120 195
105 117 192
109 121 198
105 117 191
104 115 189
106 118 193
109 120 196
103 114 189
103 115 189
106 117 190
105 117 188
107 119 187
100 112 178
101 114 172
101 113 170
105 119 172
107 121 173
108 123 168
111 127 167
112 128 164
112 128 166
112 127 164
112 128 164
112 129 163
111 128 164
112 128 163
116 134 166
111 127 163
118 136 169
122 140 172
111 128 163
119 137 168
117 134 168
120 138 169
116 133 167
116 133 166
120 138 169
118 136 167
120 138 170
121 139 170
123 142 172
123 142 173
117 134 168
121 140 172
121 139 172
122 140 171
123 141 173
123 142 172
123 142 173
124 143 172
124 143 173
125 145 173
121 139 170
127 147 176
124 143 173
127 146 175
124 143 174
125 143 174
123 141 172
127 146 175
128 148 175
129 148 177
128 147 176
129 149 177
126 145 175
128 148 177
130 149 177
129 149 177
131 151 179
128 147 175
130 150 179
129 149 177
130 150 178
132 152 179
129 149 177
131 152 179
132 152 178
132 152 179
130 150 178
131 151 178
131 151 178
133 153 179
132 152 180
130 150 178
130 150 177
132 152 179
133 153 180
132 152 179
132 152 179
131 151 180
132 152 179
133 154 180
132 153 180
131 151 179
132 152 179
132 152 180
130 151 179
132 152 179
132 152 179
133 153 180
133 153 180
133 154 180
132 152 179
134 154 180
133 153 180
132 153 180
132 153 180
132 153 180
133 154 181
134 154 180
133 153 180
133 154 180
133 153 180
132 153 180
134 154 181
133 153 180
133 154 181
133 153 180
132 152 180
134 154 181
133 154 180
133 154 180
133 154 181
134 155 181
133 154 181
133 153 180
134 154 181
133 154 181
134 154 180
134 154 181
134 154 181
133 153 180
133 153 180
133 154 180
133 154 180
134 154 181
133 154 180
134 154 181
134 154 180
132 153 180
134 154 181
133 154 181
134 154 180
133 154 181
134 154 181
133 154 180
133 153 180
134 154 181
134 154 180
133 154 181
134 154 181
134 154 181
133 154 181
134 155 181
135 155 181
134 154 180
134 154 181
134 154 181
133 154 181
134 154 180
134 155 181
134 154 181
134 154 181
133 154 181
134 154 181
134 154 181
134 154 181
134 154 181
134 154 180
133 154 181
134 154 181
134 154 181
134 154 181
133 154 181
133 154 181
134 154 181
133 154 181
134 154 181
134 154 181
133 153 180
134 154 180
134 154 181
134 154 180
134 154 181
134 154 181
134 154 181
133 154 180
134 154 180
134 154 181
133 154 181
134 154 181
134 155 181
133 154 180
133 154 181
133 154 181
134 154 181
134 154 181
133 154 181
134 154 181
134 154 181
134 154 181
133 154 181
134 154 181
135 155 181
133 154 180
133 154 181
134 154 181
133 154 181
133 154 181
134 154 181
133 154 181
134 154 181
134 154 181
134 154 181
134 154 181
134 154 181
134 154 181
133 154 181
134 154 181
134 154 181
134 154 181
135 155 181
133 154 181
133 154 181
134 154 181
134 154 181
134 154 181
133 154 181
134 154 181
133 154 181
134 155 181
134 154 181
133 154 181
134 154 181
134 154 181
134 154 181
134 154 181
134 154 181
133 154 181
134 154 181
134 154 181
134 154 180
135 155 181
134 154 181
134 154 181
134 154 181
133 154 181
135 155 181
134 154 181
134 154 181
134 154 181
134 154 181
133 154 181
134 154 181
133 154 181
133 154 181
133 154 181
133 154 181
134 154 181
133 154 181
134 154 181
134 154 181
134 154 181
134 155 181
134 154 181
133 154 181
134 154 180
134 154 180
131 151 179
131 152 179
133 153 180
132 152 179
131 151 178
129 149 177
132 152 179
131 151 179
132 152 179
132 152 179
131 151 178
129 149 176
130 150 178
130 150 178
126 145 175
128 148 177
132 152 179
128 148 176
126 146 175
129 148 177
129 149 177
128 148 177
126 145 175
130 149 178
128 147 176
128 149 178
129 149 177
125 144 174
126 145 175
123 142 172
126 145 175
126 146 175
126 145 174
126 145 175
124 143 174
125 144 174
124 143 172
125 144 173
125 145 174
120 139 171
125 145 175
124 143 173
120 138 171
122 141 172
124 143 173
118 136 169
119 137 169
118 136 169
113 130 164
121 139 172
118 135 169
118 136 170
116 134 167
119 136 170
116 133 165
113 130 164
116 133 168
112 128 162
114 131 165
114 131 165
117 133 168
109 125 161
110 125 165
106 119 168
101 114 175
110 122 191
108 120 195
108 120 195
104 115 190
107 119 195
106 119 193
111 124 200
110 121 196
110 122 196
108 119 194
113 125 201
113 125 201
108 120 194
109 121 196
112 124 200
112 124 200
108 120 195
111 123 198
113 125 201
114 126 202
114 125 201
114 127 204
111 123 198
116 128 205
112 125 201
110 122 197
111 124 200
110 122 196
111 123 197
112 124 201
108 120 195
108 120 195
113 125 201
111 123 199
115 126 202
118 130 209
111 123 198
110 122 198
109 121 196
107 119 192
107 119 193
104 117 191
106 119 193
106 118 192
106 119 193
107 119 194
109 121 196
104 116 189
109 121 197
112 124 200
105 116 190
109 120 195
112 124 200
113 125 201
108 120 195
110 121 197
108 120 195
107 119 194
108 120 195
108 120 195
107 119 194
108 120 196
102 114 187
109 120 195
108 120 195
107 118 193
110 122 198
105 116 191
106 118 193
99 110 182
110 121 198
105 116 189
107 119 191
108 120 190
110 121 191
107 120 181
107 120 179
109 122 177
104 117 167
109 125 169
114 130 169
113 128 167
109 125 167
109 125 162
113 129 163
109 125 160
114 130 163
114 131 165
113 130 165
115 133 167
115 132 166
114 131 167
121 139 171
115 132 166
115 132 167
112 128 162
120 139 172
117 135 166
123 141 173
116 134 166
120 138 169
119 136 169
120 138 170
119 136 168
116 133 166
123 141 172
124 143 173
121 139 170
118 135 168
125 144 174
125 143 172
123 141 172
124 143 173
122 140 171
119 138 169
125 144 174
121 140 171
120 138 170
125 144 173
124 144 173
126 145 174
125 144 175
127 147 175
128 147 176
128 148 176
130 150 178
127 146 176
128 147 175
126 146 175
125 145 174
128 149 177
129 148 177
130 150 177
129 149 177
132 152 179
130 149 177
129 150 178
131 151 179
129 150 177
130 150 178
131 151 178
132 152 179
130 151 179
131 151 178
132 152 179
131 151 179
130 150 178
132 152 179
130 150 177
133 153 180
132 152 179
133 153 180
131 151 179
132 152 179
132 153 180
133 153 180
133 153 180
132 152 179
131 152 179
133 153 180
131 151 179
133 153 180
133 153 179
132 152 180
132 152 179
134 154 181
134 154 181
133 154 180
132 153 180
133 154 181
133 154 180
134 154 180
134 154 180
132 153 180
132 152 179
132 153 179
132 152 179
133 154 180
133 153 180
133 154 180
133 153 180
133 153 180
133 153 180
132 152 180
133 154 181
134 154 181
133 153 180
133 153 179
134 154 181
133 154 180
133 154 180
134 154 180
133 154 180
133 154 181
133 154 180
133 154 180
133 154 180
133 154 180
133 153 180
133 153 180
133 154 181
134 154 181
133 154 181
133 154 180
132 153 179
133 154 181
134 154 181
133 153 179
132 153 179
134 155 181
134 154 181
133 153 180
133 154 180
134 154 181
134 154 181
133 153 180
134 155 181
134 154 181
134 154 180
134 154 181
135 154 180
133 154 181
133 153 180
134 154 181
133 154 180
133 154 181
132 153 179
133 154 180
134 154 180
134 154 181
134 154 181
133 154 181
135 155 181
133 154 181
134 154 181
134 154 181
133 154 181
133 154 181
134 154 181
134 154 180
132 153 180
134 154 181
133 154 181
135 155 181
135 155 181
133 154 181
134 154 181
133 154 181
133 154 181
133 154 181
133 154 181
133 154 181
134 154 181
133 154 181
133 154 181
134 154 181
134 154 180
134 154 181
133 154 181
133 154 181
133 154 181
134 154 180
134 154 181
133 154 181
133 154 181
133 154 181
133 154 181
134 154 181
134 154 181
134 154 181
133 154 180
134 154 181
134 155 181
134 154 181
133 154 181
134 154 181
134 154 181
133 154 181
134 154 181
134 154 181
134 154 181
134 154 181
133 154 181
134 154 181
134 154 181
134 154 181
134 154 181
135 155 181
134 154 181
134 154 181
133 153 180
134 154 181
134 154 181
134 154 181
134 154 181
135 155 181
133 154 181
133 154 181
133 154 181
135 155 181
133 154 181
134 154 181
133 154 181
134 154 181
134 154 181
133 154 181
134 154 181
134 155 181
133 153 180
133 154 181
134 154 180
133 154 181
134 154 181
133 154 181
134 154 181
134 154 181
134 154 181
134 155 181
134 154 181
134 154 181
134 154 181
134 154 181
134 154 181
134 154 181
133 154 181
134 154 181
134 154 181
134 154 181
133 154 181
134 154 181
134 154 181
134 154 181
134 154 181
134 154 181
131 151 179
132 152 179
133 154 180
131 151 177
130 149 177
131 151 179
129 148 177
132 153 180
131 151 179
132 152 179
128 147 176
131 152 179
131 151 178
132 152 180
128 148 176
132 151 179
130 150 178
129 148 176
131 151 178
127 147 176
132 152 179
128 147 176
129 148 177
127 147 175
127 146 176
128 148 178
127 147 176
127 146 175
129 149 178
125 144 174
128 148 178
128 148 177
126 146 174
128 148 177
125 144 175
125 145 175
127 147 176
126 145 176
126 145 175
129 149 178
124 144 174
121 139 170
122 140 173
125 144 174
122 140 171
126 145 175
119 137 169
117 134 167
122 140 172
116 133 167
121 139 171
115 133 166
116 133 165
117 134 167
119 137 171
115 132 166
118 135 169
117 134 168
112 128 164
111 127 164
117 134 167
114 130 165
111 127 161
106 122 158
112 128 164
109 124 164
110 124 175
109 123 182
104 116 187
109 121 195
108 120 195
105 117 191
107 118 193
106 118 193
106 118 192
108 120 195
109 121 196
111 123 199
109 121 197
110 122 197
107 119 194
111 124 199
111 123 199
108 120 195
111 123 198
112 125 201
110 122 196
109 122 197
117 129 206
109 121 196
109 121 196
113 125 201
111 124 199
111 123 198
111 124 200
110 122 198
109 121 195
110 122 197
108 121 195
108 120 195
112 125 201
112 124 200
115 127 203
104 116 190
109 120 195
107 119 193
110 123 198
109 121 196
113 125 201
111 123 199
109 121 197
107 119 194
108 120 195
103 116 190
111 123 198
103 115 188
109 120 195
107 118 193
108 119 194
108 119 193
108 120 197
107 119 194
110 122 198
107 118 193
106 117 192
110 122 199
108 119 194
113 125 202
106 117 191
104 116 191
101 111 185
102 114 187
107 118 191
112 124 199
111 123 197
109 122 194
104 116 180
105 117 177
110 124 180
108 121 174
106 120 167
113 128 168
114 130 170
109 125 163
114 131 166
110 125 162
116 133 166
114 131 165
113 130 164
115 132 166
115 131 166
113 129 166
109 125 161
111 127 163
120 138 170
118 136 167
116 133 167
114 131 164
124 142 172
119 136 169
117 135 167
120 138 170
123 141 172
119 137 169
120 138 170
120 138 170
117 135 168
121 139 171
120 138 170
121 139 170
123 141 172
121 140 171
125 143 173
124 143 173
122 140 171
122 140 173
126 145 174
128 147 175
123 142 172
128 148 177
127 146 175
128 148 176
127 146 175
124 144 174
126 145 173
127 146 175
123 142 172
129 149 178
128 148 176
127 146 175
129 149 178
127 146 174
127 147 176
129 149 178
129 149 177
131 151 178
129 149 177
130 150 177
128 149 177
131 151 178
127 146 175
130 149 177
131 152 179
130 151 179
130 150 178
131 151 179
130 151 179
128 148 177
131 151 179
131 150 178
131 151 178
132 153 180
131 151 178
132 153 179
131 150 178
131 150 178
134 154 180
133 153 180
133 153 180
131 152 179
133 154 180
133 153 180
134 154 180
132 153 180
133 154 181
133 153 180
134 154 180
133 153 180
132 153 180
133 153 180
132 152 179
134 154 180
132 154 181
131 151 179
133 154 180
133 153 179
131 152 179
134 154 181
132 153 180
134 154 180
132 153 180
134 154 181
132 152 179
133 153 180
133 153 180
133 154 181
132 153 179
133 154 180
135 155 181
134 154 180
133 154 181
133 154 180
133 154 180
134 154 181
132 153 180
133 154 181
133 154 180
133 153 180
133 154 181
133 153 180
132 153 179
132 153 180
134 154 181
134 154 181
133 153 180
134 154 181
134 154 181
134 154 181
133 153 180
134 154 181
133 154 181
133 154 181
134 154 181
134 154 181
134 154 181
133 153 180
133 153 180
134 154 181
133 153 180
133 154 181
133 154 180
133 154 181
133 154 181
134 154 181
134 154 180
134 154 180
133 154 181
133 154 181
134 154 181
135 155 181
134 154 181
134 154 181
134 154 181
134 154 181
134 154 181
133 154 181
133 154 180
134 154 181
134 154 181
134 154 181
133 153 180
134 154 181
135 155 181
134 154 181
134 154 181
134 154 181
133 154 181
133 153 180
133 154 180
134 154 181
134 154 181
134 154 181
135 155 181
133 154 180
134 154 181
133 154 181
133 154 181
133 154 181
135 155 181
134 154 181
133 154 181
133 154 181
133 154 181
133 154 180
134 154 181
134 154 180
134 154 181
134 154 181
134 154 180
134 154 181
133 154 181
134 154 181
133 154 181
134 154 181
133 154 181
133 153 180
134 154 181
133 154 181
133 154 181
134 154 181
134 154 181
133 154 181
133 154 181
134 154 181
134 154 181
134 154 181
134 155 181
134 154 181
133 154 181
133 154 181
134 154 181
134 154 181
133 154 180
133 154 181
134 154 181
133 153 180
134 154 181
135 155 181
133 154 181
134 155 181
134 154 181
134 154 181
134 154 181
134 154 181
134 154 181
134 154 181
133 154 181
134 154 181
134 155 181
134 154 181
134 154 181
134 154 181
135 155 181
134 154 181
133 154 181
134 154 181
134 154 181
134 154 181
135 155 181
134 154 181
134 154 181
134 154 181
134 154 181
133 154 181
135 155 181
134 154 181
134 154 181
133 154 181
134 154 181
134 154 181
133 154 180
133 154 181
133 154 180
134 154 181
134 154 181
134 154 181
133 154 181
134 154 181
134 154 181
134 154 181
132 152 179
132 153 179
131 151 178
131 151 178
133 153 180
132 151 178
130 150 178
132 152 179
132 152 179
130 151 178
132 152 179
130 151 178
133 153 180
130 150 179
128 148 177
132 151 179
131 151 179
131 151 178
128 148 177
129 149 177
127 147 176
129 149 177
130 149 178
127 146 175
127 147 176
128 148 177
130 150 178
124 143 173
128 148 177
130 150 179
127 148 176
123 142 172
125 144 174
129 148 177
124 143 174
127 147 176
127 147 176
122 141 171
123 142 173
124 144 174
122 141 171
122 141 170
123 142 174
123 141 172
124 143 173
124 143 173
118 136 168
123 141 172
119 137 170
116 133 166
121 139 172
120 138 170
117 134 167
123 142 172
116 133 166
115 132 167
117 135 168
115 132 165
113 130 163
112 128 165
110 126 163
114 131 166
115 132 165
111 127 162
114 130 165
113 129 164
110 125 160
109 124 167
104 118 172
108 120 183
110 122 194
109 120 195
103 114 187
110 122 198
111 123 198
107 118 193
108 120 195
107 119 193
109 121 197
107 119 192
111 123 198
105 117 190
114 125 201
111 124 200
108 120 195
112 124 199
112 124 200
111 123 197
110 121 196
110 122 197
113 125 201
110 122 197
105 117 190
110 122 197
110 122 196
112 125 200
112 124 199
115 127 205
114 126 202
110 122 196
114 126 203
109 121 196
109 121 196
107 119 194
107 120 195
106 118 191
116 128 205
111 123 198
105 117 192
110 122 198
112 123 199
109 122 197
109 121 195
108 120 196
106 117 192
104 115 188
111 123 199
104 116 190
107 119 194
111 123 200
103 115 188
109 121 197
103 115 189
104 116 190
111 122 198
109 120 196
112 124 201
108 119 193
109 121 197
108 119 192
113 125 199
107 119 186
111 125 186
103 117 172
108 121 177
106 120 168
109 123 169
112 127 166
112 128 169
105 121 158
116 134 168
113 130 164
109 125 160
113 130 166
114 131 164
115 132 165
116 133 167
115 131 165
115 132 166
115 132 166
119 137 169
119 137 169
116 133 167
122 140 171
118 136 170
115 133 166
120 138 170
123 142 171
120 138 170
116 133 167
117 135 167
120 139 171
120 139 171
123 142 173
123 141 172
120 139 170
122 141 172
122 140 172
123 142 173
124 142 173
124 142 173
126 145 175
121 140 172
129 149 176
122 141 171
124 143 173
124 144 173
123 142 173
128 147 176
127 146 175
127 146 176
124 144 173
128 148 176
129 149 177
126 146 175
131 151 178
128 147 176
128 147 176
124 143 173
127 147 176
127 146 175
127 146 175
130 149 178
131 151 179
131 151 179
131 151 179
128 147 176
131 151 178
129 149 177
129 149 178
130 150 177
130 150 178
131 151 179
130 149 178
129 149 177
130 150 178
131 152 179
132 152 179
132 152 179
132 152 179
131 152 179
132 153 180
133 153 180
132 152 180
129 149 176
131 151 178
132 152 179
132 153 180
133 153 180
132 152 180
132 152 179
132 152 179
132 152 179
133 153 180
132 152 179
133 153 180
130 150 178
134 154 181
132 152 179
131 152 180
133 154 180
133 153 180
133 153 179
133 153 180
134 154 180
133 153 180
133 154 180
132 152 179
133 154 180
133 153 180
132 153 180
133 154 180
133 154 181
133 154 181
133 154 180
133 154 181
133 154 181
133 154 180
134 154 180
134 154 180
132 152 180
133 154 181
134 154 181
133 154 180
133 154 181
133 154 181
134 154 180
133 153 180
134 154 181
133 154 180
134 154 181
133 154 181
134 154 181
133 154 181
132 153 180
134 154 181
133 154 180
133 154 181
134 154 181
133 154 181
134 154 181
133 154 180
134 154 180
133 154 180
134 154 180
134 154 181
133 154 181
133 154 180
134 154 181
134 154 181
134 154 180
133 154 181
134 154 181
133 154 181
134 154 180
133 154 181
134 154 181
133 154 181
133 154 181
134 154 181
133 154 181
133 154 181
133 154 180
133 154 181
134 154 181
134 154 180
133 154 181
134 154 181
133 154 181
132 153 180
134 154 181
133 154 181
134 155 181
133 153 179
134 154 181
134 154 181
133 154 181
134 154 181
133 154 181
134 154 181
133 154 181
134 154 181
134 154 181
135 155 181
134 154 181
134 154 181
135 155 181
134 154 181
134 154 181
134 154 181
133 153 180
134 154 181
134 154 181
135 155 181
133 154 181
134 154 181
134 154 181
133 153 180
134 154 181
134 154 181
133 154 181
134 154 181
134 155 181
133 154 181
133 154 181
134 154 181
133 154 181
133 154 181
133 154 180
134 155 181
133 154 181
133 154 181
133 154 181
134 154 181
134 154 181
133 154 181
134 154 181
134 154 181
133 154 181
134 154 181
133 154 181
135 155 181
134 154 180
134 154 181
134 154 181
134 154 181
133 153 180
134 154 181
134 154 181
134 154 181
134 154 181
134 154 181
133 154 181
134 154 181
134 154 181
134 154 181
134 154 181
134 154 181
133 154 181
133 154 181
133 154 181
134 154 181
134 154 181
134 154 181
134 154 181
134 154 181
134 154 181
133 154 181
134 154 181
135 155 181
133 154 181
133 154 181
134 154 181
134 154 181
133 154 181
133 154 181
134 155 181
133 154 181
133 154 181
134 155 181
134 154 181
134 154 181
134 154 181
133 154 180
133 154 181
134 155 181
133 154 181
134 154 181
133 154 180
134 154 181
132 152 179
131 152 180
133 153 180
134 154 180
131 151 178
132 152 179
130 150 177
128 148 176
131 150 178
131 151 178
130 150 178
129 149 177
130 150 177
128 148 177
128 147 176
129 148 177
129 150 178
132 151 178
126 146 175
127 147 177
131 152 179
126 145 175
129 149 178
130 150 178
128 148 176
128 147 176
128 148 176
129 149 177
126 145 174
126 145 176
129 149 177
125 145 174
129 148 176
126 145 176
126 145 174
126 145 174
127 147 176
125 145 174
127 146 176
123 142 172
124 143 173
123 141 172
125 144 174
125 144 174
120 139 170
119 138 170
122 140 171
121 139 171
123 142 172
124 142 173
120 138 170
123 142 173
117 135 168
119 138 170
122 140 171
118 136 169
120 137 170
116 133 168
117 134 167
116 134 166
115 132 165
109 125 159
116 133 166
115 132 166
109 125 160
110 127 161
115 131 166
114 130 165
111 126 163
108 123 166
113 126 183
106 117 188
106 117 190
107 119 195
104 116 190
109 121 196
106 118 192
112 124 200
112 124 201
111 123 200
112 124 200
112 124 199
110 122 197
111 123 198
108 120 195
108 121 196
109 121 196
109 122 196
104 117 191
115 127 203
109 121 195
104 116 188
109 121 196
111 123 199
109 122 196
111 123 198
106 117 190
106 118 192
107 119 194
107 119 193
107 119 194
107 120 194
107 119 194
114 126 202
108 120 195
105 117 191
104 116 190
103 115 190
108 120 196
107 118 193
109 121 196
108 119 194
108 120 195
109 121 196
107 118 192
108 119 195
106 118 193
104 116 188
108 119 194
108 119 195
105 117 192
108 120 195
108 119 194
106 118 192
107 119 192
107 119 190
100 111 177
106 118 185
109 122 183
110 124 174
101 115 166
107 121 169
111 126 169
110 126 162
114 131 167
106 121 158
110 126 162
110 127 161
114 130 164
114 131 164
109 125 161
112 128 162
115 132 165
122 139 171
117 135 168
119 137 168
125 143 173
119 138 170
119 137 169
119 137 169
117 135 168
119 137 169
120 137 171
118 136 169
122 140 171
122 140 171
119 137 169
120 138 171
119 137 170
123 142 172
123 143 173
119 137 169
121 140 171
119 137 168
124 142 174
122 141 171
123 142 172
125 144 173
125 144 175
127 146 176
124 143 173
124 143 174
124 143 172
129 148 177
129 149 177
124 143 174
126 146 174
126 146 176
125 144 174
124 143 172
128 147 176
126 145 175
128 148 177
129 149 177
129 149 178
127 147 176
129 149 177
128 147 176
127 147 176
128 148 176
129 149 177
131 151 179
131 150 178
130 150 178
130 149 177
130 150 177
131 151 179
130 150 178
130 151 178
131 150 178
131 151 178
131 151 178
133 153 180
130 150 177
132 153 180
130 150 178
131 151 179
131 151 179
130 151 179
132 152 179
132 152 180
132 152 179
131 152 179
131 152 179
132 152 179
132 152 179
133 153 180
131 152 179
132 153 180
133 153 179
132 153 180
133 154 180
133 153 180
133 153 180
133 153 180
132 152 180
133 153 180
132 153 180
132 152 180
132 153 180
133 154 181
133 153 180
134 154 181
132 153 179
132 152 179
133 153 180
133 154 180
132 152 179
133 153 180
134 154 181
132 153 180
132 152 179
133 153 180
133 154 180
133 154 180
133 154 181
132 153 180
133 153 180
133 153 180
133 153 180
133 154 181
133 153 180
133 153 180
134 154 181
134 154 181
134 154 181
133 154 181
134 154 181
133 154 181
134 154 181
134 154 180
134 153 180
134 154 181
132 153 179
134 154 181
133 154 181
133 154 180
134 154 180
134 154 181
134 154 181
134 154 181
134 154 181
134 154 181
133 153 180
133 154 180
134 154 181
134 154 181
134 154 181
133 154 181
134 154 181
133 154 181
134 154 181
134 154 181
133 154 181
134 154 181
133 154 181
134 154 180
133 153 180
133 154 181
133 153 180
133 154 181
133 154 181
134 154 181
134 155 181
134 154 181
134 154 181
133 154 181
133 154 181
133 153 180
134 154 181
133 153 180
134 154 181
135 155 181
133 154 181
133 154 181
134 154 180
134 154 180
134 154 181
134 154 181
133 154 181
133 154 181
134 154 181
134 155 181
133 154 180
133 154 181
133 154 180
133 154 181
133 154 181
134 154 181
134 154 181
134 154 181
134 154 181
134 154 180
134 154 181
133 154 181
134 154 181
134 154 181
133 153 180
134 154 181
134 154 181
135 155 181
134 154 181
134 154 181
134 154 181
134 155 181
134 154 181
134 154 181
134 154 181
133 154 180
133 154 181
134 154 181
133 154 181
134 154 181
133 154 181
134 154 181
135 155 181
134 154 181
134 154 181
134 154 181
133 154 181
134 154 181
134 154 181
134 154 181
134 154 181
134 154 181
133 154 181
134 154 181
133 154 181
134 154 181
133 154 180
133 154 181
134 154 181
135 155 181
133 154 181
133 154 180
134 154 181
133 154 181
133 154 180
134 154 181
134 154 181
133 154 181
133 154 181
133 154 181
133 154 181
134 154 181
134 154 181
133 154 181
133 154 181
134 154 181
134 154 181
133 154 181
134 154 181
134 154 181
133 154 181
134 154 181
133 154 180
134 154 181
134 154 181
134 154 181
134 154 181
135 155 181
134 154 181
133 154 181
133 154 181
133 154 181
134 154 181
134 154 181
134 154 181
133 154 181
134 154 181
132 152 180
132 152 178
131 151 179
130 150 177
132 152 180
130 150 178
131 152 180
129 150 178
133 153 179
128 148 176
131 151 179
133 154 180
132 153 180
130 150 178
131 151 179
133 153 180
130 150 179
131 151 179
127 148 177
131 150 178
129 149 177
128 148 176
131 150 178
129 149 177
132 152 179
130 150 178
126 145 175
128 149 177
129 149 177
127 147 176
129 148 176
125 145 174
127 147 176
128 147 177
128 147 176
126 145 175
129 150 179
126 145 176
125 144 174
125 144 175
124 143 173
125 144 174
125 144 175
122 140 170
125 144 173
124 144 174
121 139 171
124 143 173
122 141 171
121 139 170
120 139 172
123 141 173
116 133 166
120 138 169
116 134 168
115 133 167
123 140 172
118 136 169
118 134 167
115 133 166
117 134 168
113 129 165
114 130 165
117 134 166
116 133 168
114 131 165
111 127 162
107 122 159
107 122 157
109 124 162
110 126 166
107 121 167
105 118 179
109 123 187
111 124 198
107 118 192
107 119 193
110 122 198
101 113 184
107 119 193
116 128 205
110 121 195
110 122 197
112 124 200
110 123 199
108 120 194
109 121 195
113 126 202
112 124 200
111 123 198
110 121 196
105 117 191
113 125 201
105 117 190
112 124 200
111 123 199
110 122 198
110 122 197
109 120 196
101 113 186
107 118 192
108 120 195
109 121 197
107 119 194
111 123 198
108 120 196
108 119 194
105 116 190
111 123 198
104 116 190
103 114 188
113 125 201
108 120 196
106 118 192
107 118 192
108 120 197
106 117 192
100 111 183
110 121 197
102 113 186
109 121 193
109 122 193
109 121 187
109 121 182
114 128 185
108 122 173
111 126 175
106 120 164
109 125 165
111 126 166
112 128 164
116 133 168
112 127 161
115 131 164
117 133 168
113 129 165
114 131 166
124 142 174
113 130 164
120 138 170
118 135 168
119 137 170
117 134 167
119 137 169
117 134 168
116 135 168
116 134 168
117 135 167
122 140 172
117 134 167
119 137 170
120 139 170
121 139 171
118 136 169
121 139 171
121 139 171
127 146 176
122 140 172
120 139 170
124 143 173
126 145 176
126 145 175
120 140 171
123 142 172
124 143 173
127 146 176
127 147 176
125 143 173
121 139 170
127 146 175
125 144 173
124 143 173
129 149 178
126 145 175
128 148 177
123 141 172
128 148 176
126 146 175
128 148 177
127 146 175
127 147 176
128 148 177
131 151 179
129 150 177
128 148 177
129 149 177
129 149 177
129 149 177
128 148 176
131 151 179
132 152 179
131 150 178
129 149 177
129 149 177
127 147 176
127 147 176
132 152 180
131 152 179
131 151 179
133 153 180
131 151 178
133 154 180
131 152 179
129 149 177
131 151 179
132 152 179
129 149 177
131 152 180
132 152 179
131 151 178
132 152 179
131 151 179
132 152 179
132 152 179
132 152 179
133 153 180
133 153 180
131 152 179
132 152 179
133 154 181
132 152 180
133 154 180
133 153 180
132 152 179
134 154 180
133 153 180
133 153 180
134 154 180
133 153 180
131 152 179
133 153 180
134 154 181
134 154 181
133 154 180
133 153 180
133 154 180
132 152 179
132 152 180
133 153 180
133 154 181
133 153 179
132 152 180
133 153 179
132 152 180
133 154 180
134 154 181
132 153 180
133 153 180
134 154 180
133 154 180
133 153 179
134 154 180
133 153 180
135 155 181
134 154 181
133 154 180
132 153 180
134 154 181
133 154 181
133 153 180
135 155 181
134 154 181
134 154 180
134 154 181
133 154 181
132 153 180
134 154 181
133 154 181
133 153 180
134 154 181
133 154 181
133 153 180
133 154 180
134 154 181
134 154 181
134 154 181
134 155 181
134 154 180
134 155 181
134 154 180
134 154 181
136 155 181
134 154 181
134 154 181
135 155 181
132 153 180
134 154 181
134 154 180
133 154 181
134 154 181
133 154 181
134 154 180
134 154 181
133 154 180
134 154 181
133 154 181
133 154 180
134 154 181
134 154 181
134 154 180
134 154 181
133 154 181
133 154 181
134 154 181
133 154 181
134 154 180
133 154 181
134 154 181
134 154 180
134 154 181
134 154 181
134 154 181
134 154 181
133 154 181
134 154 181
133 154 181
134 154 181
134 154 181
134 154 181
134 154 181
134 154 181
133 154 181
134 154 181
134 154 181
134 154 181
134 154 181
134 154 181
133 154 181
134 154 181
133 154 181
134 154 181
134 154 180
133 154 181
133 154 181
133 154 181
133 154 181
134 155 181
135 155 181
134 154 181
134 154 181
133 154 181
134 154 181
135 155 181
133 154 181
135 155 181
134 154 181
134 154 181
134 154 181
134 154 180
133 153 180
134 154 181
134 154 181
134 154 181
134 154 180
134 154 181
133 154 181
134 154 181
133 154 181
134 154 181
134 154 181
134 155 181
135 155 181
134 154 181
133 154 181
133 154 181
134 154 181
134 154 181
134 154 181
133 154 181
134 154 181
134 154 181
134 154 181
134 154 181
134 154 181
134 154 181
134 154 181
134 154 181
133 154 181
134 154 181
134 154 181
133 154 180
134 154 181
134 154 181
134 154 181
134 154 181
134 154 181
134 154 181
134 154 181
133 154 181
133 154 181
134 154 181
135 155 181
133 154 181
133 154 181
133 154 181
134 154 181
135 155 181
133 154 181
134 154 181
133 154 181
130 150 178
132 153 180
132 152 179
134 154 181
131 151 178
132 153 180
131 151 179
131 151 179
131 152 180
131 151 179
132 153 180
130 150 178
130 151 179
131 151 179
128 148 176
130 150 178
130 150 179
131 151 179
129 149 178
131 151 179
130 150 177
129 149 177
130 149 177
129 149 177
128 148 177
129 149 177
131 151 179
129 149 177
131 151 178
127 145 175
128 148 177
129 149 178
127 146 175
125 144 174
127 146 176
124 143 174
124 143 173
126 144 174
127 147 176
126 145 174
128 148 177
127 146 176
124 143 174
126 145 175
125 144 175
122 141 173
124 142 173
123 142 171
125 144 174
119 137 169
122 141 171
126 146 176
116 133 167
118 136 168
125 143 173
120 138 170
117 135 168
120 137 169
118 136 169
120 138 170
116 133 166
117 134 167
117 134 167
121 139 172
114 131 165
110 126 162
116 133 167
115 132 164
117 134 167
114 130 164
109 125 161
111 127 163
116 133 169
109 124 171
113 127 187
109 121 190
103 114 187
110 121 196
113 126 203
108 119 195
105 116 189
115 126 203
110 122 198
104 116 189
110 122 197
108 119 192
111 123 198
116 128 206
105 117 190
110 122 198
109 121 196
108 120 195
109 121 196
104 116 189
108 120 195
106 118 193
107 118 192
110 122 198
106 117 191
108 121 196
110 121 196
104 115 189
108 120 194
102 114 187
107 120 195
103 114 188
104 115 189
108 119 194
108 120 194
108 120 195
103 115 189
106 118 192
109 120 194
106 117 191
110 121 197
103 114 187
107 119 189
107 119 188
103 116 178
107 120 184
110 123 177
111 126 171
110 125 170
105 119 162
112 127 168
110 126 161
111 127 163
108 124 160
115 131 166
116 133 166
112 128 163
112 129 164
117 134 166
120 138 170
118 135 168
115 131 166
120 137 170
119 136 168
117 134 167
118 136 168
116 134 168
119 136 171
118 136 169
117 134 167
120 138 170
117 134 167
119 137 169
118 136 168
122 141 172
119 136 169
120 138 171
123 142 171
124 142 173
125 144 175
122 140 171
124 143 174
126 145 175
125 143 173
125 144 174
127 146 176
125 144 174
125 144 174
124 144 174
128 147 175
125 144 173
124 143 174
124 143 173
128 148 176
127 147 176
126 146 175
126 146 175
131 152 179
123 142 172
129 150 178
129 148 177
129 149 176
127 147 176
128 148 177
126 146 176
131 151 179
131 151 179
124 143 172
127 146 174
131 150 178
126 145 175
129 149 178
128 147 176
130 149 178
131 151 178
130 150 178
129 149 178
130 150 178
130 149 177
129 149 177
131 151 178
131 151 179
131 151 179
131 152 179
132 152 179
132 152 180
132 152 178
131 151 179
133 152 179
131 151 178
131 152 178
132 153 180
132 152 179
131 151 179
132 151 178
133 153 179
133 154 181
131 151 179
131 151 178
132 153 180
132 152 180
132 152 180
132 152 179
133 153 179
133 153 180
133 153 180
131 152 179
130 151 178
132 152 179
132 152 179
133 154 180
132 153 179
133 154 180
132 152 179
134 154 181
132 152 180
133 153 180
132 153 180
133 153 180
134 154 180
134 154 180
133 153 180
132 153 180
133 154 180
132 152 180
132 153 180
132 153 180
133 154 181
133 153 180
134 154 181
133 153 180
131 151 179
133 154 181
133 153 180
134 154 181
133 154 180
133 154 180
134 154 180
133 154 180
133 154 180
134 154 181
133 154 181
133 154 181
132 153 180
132 153 180
134 154 180
134 154 180
133 154 181
135 155 181
134 154 181
133 154 181
134 154 181
133 154 181
133 154 181
133 154 180
134 154 181
133 154 181
134 154 180
133 154 181
133 154 180
133 154 181
134 154 181
133 153 180
134 154 181
134 154 181
133 154 180
133 154 181
134 154 180
133 154 181
134 154 181
134 154 181
134 154 181
133 154 181
133 154 181
134 154 181
134 154 181
134 154 181
134 154 181
134 154 181
134 154 181
134 154 181
134 154 181
133 154 181
134 154 180
134 154 181
134 154 181
134 154 181
134 154 181
134 154 181
134 154 180
133 154 181
133 154 181
134 154 181
134 154 181
133 153 180
134 154 181
134 155 181
134 154 181
133 154 181
134 154 181
134 154 181
134 154 181
135 155 181
134 154 181
135 155 181
134 154 181
133 154 181
134 154 181
133 154 181
135 155 181
133 154 181
133 154 181
134 154 181
134 154 181
134 154 181
134 154 181
135 155 181
134 154 181
132 153 180
134 154 181
134 154 181
134 154 181
134 155 181
134 154 181
133 154 181
134 154 181
134 154 181
133 154 181
134 154 181
133 154 181
133 154 181
134 154 181
134 154 180
133 154 180
133 154 181
134 154 181
133 154 181
135 155 181
133 154 181
134 154 181
134 154 181
133 154 181
133 154 181
133 154 181
134 154 181
134 154 181
133 154 181
133 154 180
134 154 181
134 154 181
133 154 181
134 154 181
134 154 181
133 154 181
134 154 181
134 154 181
134 154 181
133 154 181
134 154 181
133 154 181
133 154 181
134 154 181
134 154 181
134 154 181
133 154 181
134 154 181
133 154 181
134 154 181
134 154 181
133 154 181
134 154 181
133 154 181
133 154 181
134 154 181
133 154 181
134 154 181
134 154 181
134 154 181
133 154 181
133 154 180
133 154 181
133 154 181
133 154 181
133 154 181
134 154 181
133 154 181
132 152 179
131 151 179
131 151 179
132 153 180
132 152 180
131 151 178
131 151 178
131 151 179
131 151 179
132 152 179
130 150 177
131 151 178
130 151 179
130 151 179
131 151 179
130 150 177
131 151 179
128 148 176
130 150 178
132 152 179
129 150 178
130 150 177
129 149 178
127 146 175
129 149 178
129 150 178
130 150 178
131 151 178
129 148 177
128 148 176
126 145 174
128 148 176
128 148 176
128 148 177
128 148 177
127 146 175
127 146 176
128 147 177
122 141 172
129 148 176
128 148 176
122 141 171
130 149 177
128 148 177
123 142 172
125 144 174
124 142 173
124 143 174
125 145 174
125 145 174
122 141 172
124 142 173
121 140 171
120 139 171
122 141 172
124 142 173
116 134 167
119 137 169
119 137 169
120 138 171
117 135 168
117 134 168
113 130 165
116 133 166
111 127 164
111 128 164
117 135 168
115 132 164
113 129 164
113 130 165
115 131 166
113 129 165
115 131 166
109 125 160
113 129 170
113 127 181
112 125 188
108 120 191
109 121 198
106 118 193
103 115 188
106 118 192
105 117 190
108 120 194
108 120 195
109 121 196
108 120 194
110 122 197
111 123 199
112 124 201
109 121 197
110 122 198
115 127 204
107 119 193
109 120 195
115 127 204
109 120 195
107 118 194
111 123 199
106 118 192
108 120 194
106 118 193
109 120 196
105 116 190
100 112 184
107 118 193
110 122 198
109 121 196
106 118 192
102 113 187
107 119 193
103 115 188
107 119 188
110 122 190
107 120 180
108 121 175
101 114 168
111 126 175
106 120 170
108 123 163
112 127 166
114 130 167
111 127 162
112 127 163
113 129 164
110 126 161
111 127 162
114 132 166
115 132 165
117 134 167
118 136 169
116 133 166
116 133 167
119 137 168
119 137 168
118 135 168
120 138 172
121 139 171
122 141 173
114 132 166
119 137 169
116 133 168
121 139 171
115 132 167
120 138 170
121 139 170
124 143 173
123 141 172
123 142 174
124 142 173
121 140 171
124 144 173
121 140 171
121 139 171
120 139 170
125 144 174
127 147 177
124 143 173
125 144 174
124 143 172
123 142 172
127 147 176
129 148 177
128 147 176
127 147 176
126 146 176
128 148 177
127 147 175
128 147 176
127 147 174
127 146 175
129 150 178
126 145 176
129 149 177
129 149 177
126 146 175
128 148 177
129 149 177
128 148 176
128 148 176
130 150 178
131 151 179
131 150 178
128 148 177
131 150 177
130 150 179
131 151 179
130 150 178
129 150 177
132 152 179
131 151 178
132 152 179
130 149 177
132 152 179
131 151 179
131 151 178
132 152 179
130 150 178
131 151 179
130 150 178
133 153 179
131 152 180
132 152 179
130 150 178
131 151 179
133 153 180
130 150 178
131 151 179
131 151 178
132 153 180
132 153 180
131 151 179
133 154 181
133 153 179
132 152 180
132 153 180
131 151 179
134 154 180
134 154 181
133 153 180
131 152 179
133 153 180
133 153 180
133 153 179
133 153 180
132 152 179
134 154 181
133 153 180
134 154 181
132 153 180
133 153 180
133 153 180
134 154 180
133 153 180
134 154 180
134 154 181
133 154 181
134 154 180
133 153 180
133 153 179
134 154 181
133 154 180
133 154 181
133 153 180
133 153 180
134 154 181
133 153 180
133 154 180
133 153 180
134 154 180
134 154 181
134 154 181
134 154 181
134 154 181
134 154 181
134 154 181
135 155 181
133 153 180
133 154 181
133 154 181
134 154 180
134 154 181
133 154 180
133 154 181
134 154 181
133 154 180
133 153 180
133 154 181
135 155 181
134 154 181
134 154 181
133 154 180
134 154 181
133 153 180
134 154 181
133 153 180
133 153 180
134 154 181
134 154 180
134 154 181
133 154 181
134 154 181
134 154 181
133 154 181
134 154 181
134 154 181
133 153 180
134 154 180
134 154 181
134 154 181
134 154 181
134 154 181
133 154 181
134 154 180
133 154 181
133 153 180
134 154 181
133 154 181
133 154 181
135 155 181
134 154 181
133 154 181
134 154 181
134 154 181
133 154 181
134 154 181
134 155 181
134 154 181
134 154 181
133 154 181
133 154 181
134 154 181
133 154 181
135 155 181
134 154 180
134 154 181
134 154 181
134 154 181
133 154 181
133 154 181
133 154 181
133 154 180
134 154 181
134 154 181
133 154 181
134 154 181
134 154 181
134 154 181
134 154 181
134 154 181
135 155 181
134 154 181
134 154 181
132 153 180
134 154 181
134 154 180
133 154 180
133 153 180
134 154 180
133 154 181
134 154 181
134 154 181
133 154 181
134 154 180
133 154 181
133 154 181
134 154 181
133 154 181
134 154 181
134 154 181
133 154 180
134 154 181
134 154 181
133 154 181
134 154 181
133 154 181
134 154 181
133 154 181
133 154 181
133 154 181
134 154 181
133 154 181
133 154 181
134 154 181
134 154 180
134 154 181
134 154 181
134 154 181
134 154 181
134 154 181
133 154 181
135 155 181
134 154 181
133 154 181
133 154 181
134 154 181
134 154 181
134 155 181
134 154 181
134 154 180
134 154 181
133 154 181
134 154 181
133 154 181
134 154 181
133 154 181
134 154 181
133 154 181
133 154 181
134 154 181
134 154 181
134 154 181
134 154 181
133 154 181
133 154 181
134 154 181
133 154 181
134 154 181
134 154 181
134 154 181
131 151 179
130 150 178
132 152 180
131 151 179
132 153 180
133 153 180
131 151 179
131 151 179
130 150 178
131 151 178
131 152 179
132 152 179
130 150 179
131 151 179
131 152 179
129 149 177
131 151 179
132 152 180
129 149 177
130 149 177
133 153 180
129 149 176
130 150 178
132 152 179
131 150 178
131 151 179
130 150 178
128 148 176
130 150 179
128 148 176
129 149 177
127 146 176
129 149 178
126 146 175
127 147 176
129 148 177
124 144 174
125 145 175
130 149 177
121 140 172
126 145 175
125 144 175
125 144 174
127 146 176
123 143 174
125 144 174
124 143 174
126 145 175
128 147 176
121 140 172
123 142 172
123 141 172
124 143 174
124 143 173
121 140 171
123 142 175
121 139 170
121 139 171
119 137 169
120 138 169
117 135 168
119 137 170
118 135 168
122 140 171
118 136 169
115 133 166
111 127 163
119 136 169
119 137 170
118 134 168
112 128 161
113 130 163
109 125 162
116 132 167
113 129 165
107 122 161
104 118 159
110 124 174
107 120 183
99 110 180
105 117 192
111 123 198
112 124 201
110 122 198
106 118 193
114 126 202
110 122 197
109 121 196
111 123 199
107 118 192
111 122 197
112 123 199
110 122 198
112 124 199
107 120 195
112 124 200
107 118 192
110 121 197
105 116 189
110 121 196
108 120 196
104 116 189
106 117 192
106 118 194
103 115 188
104 115 188
104 115 187
109 121 192
105 117 186
107 119 183
105 118 177
105 117 176
108 123 173
112 127 167
109 125 166
113 129 165
108 124 162
112 128 163
111 128 163
109 124 161
117 134 167
112 128 163
116 134 168
118 136 168
115 133 168
114 131 166
113 130 166
118 136 168
118 137 169
119 137 170
119 137 169
118 136 168
119 137 170
119 137 170
113 129 164
113 130 163
121 139 171
121 140 172
121 139 171
120 139 170
123 141 172
123 142 173
122 139 171
116 134 167
123 142 173
125 145 175
123 142 173
122 140 172
121 140 172
120 138 171
124 144 174
125 144 175
125 144 173
122 141 171
124 144 173
122 141 171
126 145 175
124 144 174
125 144 173
124 143 173
123 141 173
125 144 173
129 149 178
128 147 176
127 147 176
127 146 175
128 148 176
124 142 173
126 146 176
129 149 177
128 148 176
127 147 176
128 147 176
129 149 177
130 150 178
128 148 177
128 148 176
127 146 175
129 149 178
128 148 176
129 148 176
131 150 178
131 151 179
130 150 178
131 151 179
128 148 177
130 150 178
130 150 178
132 151 179
129 149 177
131 152 180
130 150 178
130 151 179
130 149 176
132 152 179
132 152 179
132 153 180
131 151 178
132 152 179
132 152 179
132 153 179
134 154 181
132 152 179
131 151 178
132 153 180
132 152 179
131 151 179
133 154 180
132 152 179
133 153 180
131 152 179
133 154 181
132 152 179
132 152 180
133 153 180
134 153 180
133 153 180
131 151 178
132 153 180
131 152 180
132 153 180
133 153 180
132 152 179
132 152 180
133 153 180
133 153 180
132 152 179
133 153 180
132 153 179
132 152 179
132 152 180
132 153 179
133 153 180
133 153 180
134 154 181
132 152 179
133 154 180
134 154 180
132 153 180
133 154 180
133 154 180
133 154 181
133 153 180
133 154 181
133 153 180
133 154 181
133 153 180
134 154 181
133 154 180
134 154 180
134 154 181
133 154 180
133 153 180
133 154 180
133 153 180
134 154 180
134 154 181
134 154 181
133 153 180
133 154 181
134 154 181
134 154 181
134 154 181
133 154 181
134 154 181
133 154 180
134 154 181
133 154 181
134 154 180
135 155 181
134 154 181
135 155 181
134 154 181
134 154 180
133 154 181
133 154 180
133 154 181
133 153 180
134 154 181
133 154 181
133 154 181
134 155 181
133 154 181
134 154 180
133 154 181
134 154 181
134 154 181
135 155 181
134 154 181
134 155 181
134 154 180
133 154 181
133 154 181
134 154 181
134 154 181
134 154 181
133 154 181
133 154 181
134 155 181
134 154 181
133 154 181
133 153 180
134 154 181
133 154 181
134 154 181
133 154 181
134 154 181
134 154 181
133 154 180
134 154 181
134 154 181
134 154 181
134 154 181
133 154 181
135 155 181
135 155 181
133 154 180
133 154 181
133 153 180
133 154 181
134 154 181
134 154 181
132 153 180
134 154 181
134 155 181
134 154 181
134 154 181
133 154 181
134 154 181
133 154 181
134 154 181
134 154 181
133 154 180
133 154 181
134 154 181
134 154 181
132 153 180
134 154 181
133 154 181
133 154 181
134 154 181
133 154 181
134 154 181
134 154 181
134 154 181
134 154 181
134 154 181
134 154 181
134 154 181
135 155 181
133 154 181
134 154 181
134 154 181
134 154 181
134 154 181
133 154 181
133 154 181
133 154 181
134 154 181
134 154 181
134 154 181
133 154 181
134 154 181
134 154 181
133 154 181
133 154 181
134 154 181
134 154 181
134 154 181
133 154 181
134 154 181
134 154 181
134 154 181
133 154 181
133 154 180
133 154 181
133 154 181
134 154 181
134 154 181
134 154 181
134 154 181
133 154 181
133 154 181
134 154 181
133 154 181
133 154 181
133 154 181
134 154 181
134 154 181
134 154 181
134 154 181
134 155 181
134 154 181
133 154 181
133 154 181
132 153 180
134 154 181
134 154 181
133 154 181
133 154 181
130 150 178
131 152 179
132 153 180
132 152 180
130 150 178
132 152 179
130 151 178
132 152 179
133 153 179
130 150 178
132 152 179
132 152 179
132 152 180
133 154 180
131 151 179
132 152 179
130 151 179
132 152 179
130 150 178
133 153 180
130 151 179
130 150 178
131 151 179
131 151 179
130 150 178
130 150 178
127 147 176
128 148 176
128 148 176
126 146 176
129 149 177
129 149 178
125 145 174
126 145 174
129 149 177
126 146 175
129 149 177
129 148 177
127 146 176
124 143 172
126 145 174
125 144 175
127 147 176
128 148 177
123 142 173
123 141 173
128 148 176
124 143 174
123 142 173
128 147 174
121 140 172
120 138 170
126 145 175
120 139 172
123 142 173
126 146 175
122 140 172
121 140 172
119 137 169
119 137 168
121 139 170
120 138 171
121 140 171
122 140 172
121 140 171
118 136 168
111 128 164
113 130 162
117 134 167
116 133 167
119 137 169
114 131 165
116 133 167
115 132 166
114 131 166
108 123 160
109 124 160
108 124 160
107 122 168
108 122 177
108 121 187
104 116 188
115 127 203
110 121 196
106 118 192
112 123 199
103 115 189
106 118 193
109 121 196
110 122 198
106 118 192
109 122 197
110 122 198
107 118 193
109 121 196
110 122 198
108 120 194
109 120 196
107 118 192
111 123 199
106 118 191
107 118 193
106 117 191
102 114 185
108 120 185
108 121 182
108 122 177
108 122 172
104 119 167
113 129 168
110 126 166
110 126 164
113 130 165
113 130 164
110 126 162
114 131 166
113 129 163
117 134 167
114 131 164
115 132 164
114 131 165
112 129 163
119 136 169
114 131 164
119 136 170
111 127 162
115 131 164
121 140 171
118 135 169
122 140 173
120 138 169
120 139 171
123 142 172
120 139 170
119 137 169
119 137 170
121 140 171
121 139 171
117 135 168
122 141 172
122 141 172
124 143 173
121 140 172
120 139 170
126 146 176
124 144 173
123 142 173
124 143 173
125 144 174
123 142 173
123 141 173
127 147 176
126 146 176
127 147 177
124 144 174
127 147 177
126 145 176
125 144 174
126 145 175
128 147 176
124 143 173
127 146 177
125 144 174
129 148 177
125 145 175
129 149 177
125 145 176
130 150 178
127 147 176
128 148 176
128 149 177
129 149 178
130 150 178
129 148 177
129 149 177
131 151 179
129 148 176
129 149 177
127 147 175
126 145 174
127 146 176
128 149 177
130 150 178
130 150 178
129 149 177
130 150 178
131 151 179
131 151 179
129 149 178
131 151 178
131 151 179
132 152 180
130 150 178
131 152 179
132 152 179
133 153 180
130 151 179
131 151 179
133 152 179
132 152 179
130 150 177
132 152 180
130 149 177
131 151 179
132 152 179
132 152 180
133 153 179
132 153 180
133 153 180
132 153 180
131 152 179
133 153 180
132 153 180
134 154 180
134 154 180
132 152 179
133 154 181
131 151 178
133 153 180
133 153 179
133 153 179
133 153 180
133 153 180
134 154 180
134 154 181
134 154 180
133 153 179
132 153 180
134 154 180
133 153 180
134 154 180
133 153 180
133 154 181
133 154 180
134 154 180
133 153 180
133 153 180
133 153 180
134 154 181
133 153 180
133 154 180
134 154 181
133 154 181
133 154 180
133 154 181
132 153 180
133 153 180
133 154 180
133 153 180
133 153 179
134 154 180
134 154 181
133 154 181
133 154 180
133 153 180
133 154 181
133 154 180
134 154 180
134 154 181
133 154 180
134 154 181
133 153 180
133 153 180
134 154 180
133 154 180
135 155 181
132 153 180
133 154 180
134 154 181
134 154 181
134 154 181
134 154 181
134 154 181
133 154 181
134 154 181
133 154 181
134 154 181
133 153 180
133 154 181
133 153 180
134 154 181
134 154 181
134 154 181
134 155 181
134 154 181
133 154 180
134 154 181
134 154 181
134 154 181
134 154 181
134 154 181
133 154 181
135 155 181
134 154 181
133 154 181
134 154 181
134 154 181
133 154 181
133 154 181
133 154 181
133 154 181
133 154 181
135 155 181
133 154 181
132 153 180
134 154 181
133 154 181
134 154 181
134 154 180
134 154 181
134 154 181
133 154 181
133 154 181
134 154 181
133 154 181
133 154 181
135 155 181
133 153 180
133 154 181
134 154 180
134 154 181
134 154 181
133 153 180
134 155 181
134 154 181
133 153 180
133 154 180
134 154 181
134 154 181
133 154 181
134 154 181
134 154 181
134 154 181
134 154 181
133 154 181
134 154 181
133 154 181
134 154 181
134 154 181
134 154 181
134 154 181
134 154 181
133 154 181
134 154 181
133 153 180
134 154 181
134 154 181
134 154 181
134 154 181
134 154 181
134 154 181
134 154 181
134 154 181
132 153 181
134 154 181
133 154 181
134 154 181
135 155 181
134 154 181
133 154 180
134 154 181
133 154 181
134 154 181
135 155 181
135 155 181
134 154 181
134 154 181
134 154 181
134 154 181
133 154 181
134 154 181
133 154 181
134 154 181
134 154 181
134 154 181
134 154 181
133 153 180
134 154 181
133 154 181
134 154 181
134 154 181
133 153 180
134 154 181
134 154 181
134 154 181
133 154 181
132 153 180
134 154 181
133 154 181
134 154 181
134 154 181
133 154 181
133 154 181
134 154 181
133 154 181
133 154 181
133 154 181
134 154 181
134 154 181
134 154 181
131 152 179
132 153 180
130 150 178
132 153 180
133 153 180
131 152 180
133 152 179
131 151 179
133 153 180
131 151 178
132 152 179
130 150 178
129 149 177
131 151 179
131 151 179
131 151 178
131 151 178
130 150 177
132 152 179
133 152 179
130 150 178
132 152 179
131 151 179
132 152 180
130 150 178
130 150 178
130 150 177
131 151 179
129 149 178
129 149 177
128 148 177
128 148 177
129 149 177
130 150 178
129 149 177
129 149 177
128 148 177
128 148 177
129 149 177
125 145 175
127 146 175
125 145 176
126 145 175
123 141 172
128 148 177
127 147 176
125 145 175
125 144 173
123 142 173
129 148 177
122 141 172
122 142 172
124 143 173
124 143 173
124 143 173
122 142 172
120 138 171
121 139 171
122 140 171
122 140 170
121 140 171
122 141 172
118 137 168
120 138 170
115 132 167
116 134 167
114 131 165
117 134 167
113 130 164
119 137 170
118 136 168
115 132 167
118 136 167
116 132 167
115 131 166
115 133 167
115 132 165
112 129 161
110 126 163
107 122 161
109 124 171
109 123 179
110 123 191
104 116 189
101 112 185
111 123 199
108 120 195
111 123 199
108 121 196
114 126 202
107 119 193
107 119 194
106 117 192
102 114 187
106 118 193
104 115 190
108 120 195
105 117 191
108 120 188
103 115 185
102 114 176
107 120 178
113 127 184
107 122 169
109 124 170
109 125 164
111 127 163
115 132 166
115 132 166
113 129 162
113 129 165
114 131 167
115 132 166
116 132 166
122 140 172
115 132 167
116 133 166
121 139 171
117 134 168
117 134 168
117 134 170
118 136 169
115 133 166
121 140 171
119 137 169
121 140 172
115 133 166
121 140 170
118 136 168
124 143 173
118 136 169
120 138 170
122 140 171
119 137 169
117 135 168
123 142 173
120 138 171
122 141 172
125 144 175
126 146 175
124 143 172
128 148 176
125 144 174
123 143 173
126 144 174
124 143 173
126 145 174
124 143 173
129 148 177
127 146 176
124 143 173
126 145 175
123 142 173
128 148 176
126 145 174
127 146 175
125 145 173
126 145 174
128 147 176
128 148 176
128 147 176
128 148 176
128 148 176
128 148 176
126 146 175
126 145 174
129 149 177
129 149 178
127 147 176
132 152 179
129 149 177
129 150 178
131 151 179
128 147 176
127 147 175
130 150 177
130 150 178
129 148 176
129 149 178
128 148 176
131 151 179
131 151 178
131 152 179
131 151 178
132 152 180
130 150 179
133 153 179
129 150 178
132 153 180
132 153 180
131 151 179
130 150 178
132 152 179
131 151 179
132 151 179
131 151 179
133 153 180
130 151 179
132 152 179
132 153 180
132 152 180
131 152 180
130 150 178
133 153 179
131 151 178
131 151 178
132 152 180
133 153 180
132 152 179
133 153 180
133 153 179
133 154 180
133 154 181
133 153 180
133 153 180
132 153 180
132 152 180
132 153 180
133 153 180
133 153 180
133 153 180
132 152 179
134 154 181
132 152 179
133 153 180
133 153 180
133 153 180
134 154 181
133 154 180
133 153 180
134 154 180
132 153 180
132 152 179
132 153 180
133 154 181
134 154 180
133 154 181
132 153 181
133 154 181
134 154 181
133 154 181
132 153 179
134 154 181
133 154 180
133 153 180
133 154 180
132 153 179
133 153 180
133 154 181
134 154 180
132 153 180
133 153 180
134 154 181
134 155 181
134 154 181
133 154 181
134 154 181
133 154 181
134 154 180
134 154 181
134 154 181
134 154 181
132 152 179
134 154 181
133 153 180
134 154 181
134 154 181
134 154 180
133 154 180
133 154 181
133 154 181
134 154 181
133 154 181
134 154 181
133 154 181
134 154 180
134 154 181
132 153 180
134 154 181
133 154 181
133 154 181
134 154 180
134 154 181
135 155 181
134 154 181
134 154 181
133 153 180
134 154 181
133 154 181
134 154 181
133 154 181
133 154 181
134 154 181
134 155 181
134 154 181
133 154 180
134 154 181
134 154 181
134 154 181
134 154 181
134 154 181
133 154 181
134 154 181
134 154 181
133 154 181
133 154 181
133 154 181
133 154 181
133 154 181
133 154 181
134 154 181
134 154 181
133 154 180
133 154 181
133 154 181
134 154 181
134 154 181
133 154 181
133 154 181
134 154 181
134 154 181
133 154 181
133 154 181
134 154 181
134 154 181
133 154 180
133 154 181
134 154 181
133 154 181
133 154 181
133 154 181
134 154 181
134 154 181
133 154 181
134 154 181
134 154 181
134 154 181
134 154 181
134 154 181
134 154 181
133 154 180
134 154 181
134 154 181
133 154 181
134 154 181
134 154 181
134 154 181
134 155 181
133 154 181
133 154 181
133 154 181
133 154 181
133 154 181
133 154 181
134 154 181
134 154 181
133 154 181
134 154 181
134 154 181
133 154 181
133 154 181
133 154 181
134 155 181
134 154 181
134 154 181
133 154 181
134 154 181
134 154 181
134 154 181
134 154 181
134 154 181
133 154 181
133 154 181
134 154 181
133 154 181
134 154 181
134 154 181
135 155 181
134 154 181
133 154 181
135 155 181
133 154 181
134 154 181
134 154 181
134 154 181
134 154 181
133 154 181
134 154 181
134 154 181
134 154 181
134 154 181
134 154 181
134 154 181
133 154 181
134 154 181
134 154 181
134 154 181
134 154 181
133 154 181
133 154 181
133 153 179
133 153 180
133 153 180
132 153 180
132 152 178
133 153 180
131 151 178
133 153 180
133 153 180
133 153 180
132 152 179
133 153 180
132 152 178
132 152 180
131 151 179
134 154 180
130 149 178
130 151 179
131 151 178
131 151 179
130 151 178
131 151 179
130 150 178
130 150 178
129 148 177
130 150 178
130 150 178
130 150 179
129 149 178
131 151 179
128 148 176
129 149 178
129 149 178
129 148 177
130 149 178
130 150 178
130 150 178
129 149 177
132 152 179
130 150 178
128 147 176
126 145 175
125 144 173
125 145 174
128 147 177
127 146 176
123 141 172
125 145 175
123 142 173
125 144 173
125 144 175
125 145 175
126 145 175
120 139 170
127 147 176
127 146 175
126 144 174
120 138 171
124 143 173
121 140 171
125 144 173
122 141 172
122 139 170
123 141 172
123 142 173
118 137 168
121 138 169
121 139 170
119 137 169
119 136 169
119 137 169
117 135 168
122 140 171
116 133 168
116 133 166
114 130 166
118 135 169
111 127 165
111 127 163
113 129 162
116 133 166
107 121 160
113 129 175
109 122 183
107 119 189
111 124 197
108 120 194
107 118 193
111 122 197
104 116 189
105 117 190
107 119 193
109 120 195
113 125 199
107 119 192
111 123 189
107 120 180
111 125 174
113 128 178
111 126 171
109 123 165
113 130 166
113 130 165
113 130 164
113 130 165
113 129 165
118 135 168
113 129 164
111 127 162
119 136 170
117 134 167
121 139 171
117 134 168
117 134 167
121 139 172
119 136 169
116 133 168
120 138 170
122 140 171
116 133 165
117 135 167
119 136 169
119 137 170
125 143 174
122 141 171
122 140 171
120 138 170
123 142 172
125 143 174
119 137 169
120 139 171
123 141 173
123 142 173
119 137 168
124 143 173
125 144 175
125 144 173
124 142 173
127 146 176
126 146 175
126 146 175
125 144 173
124 142 173
125 144 174
120 139 170
127 147 175
126 145 174
123 141 172
124 143 173
124 143 173
128 148 178
126 146 175
127 146 176
127 147 176
126 145 175
127 147 176
127 147 176
130 149 177
129 149 177
128 148 177
129 149 177
130 150 178
128 148 177
128 148 176
128 147 176
128 148 177
129 149 177
129 149 177
129 149 178
126 145 174
130 150 179
130 150 179
130 150 177
129 149 177
131 151 179
130 150 178
131 152 179
131 151 179
130 150 178
131 151 179
130 150 178
130 150 178
131 151 179
131 151 178
129 149 178
129 149 177
132 152 179
131 152 179
131 151 179
132 152 179
130 150 177
133 154 181
131 150 178
132 152 180
132 153 180
131 151 179
130 149 177
130 151 179
133 153 180
132 153 180
133 153 180
131 151 178
131 152 179
130 151 178
131 151 178
132 152 179
133 154 180
132 153 180
132 152 179
132 153 180
134 154 181
133 153 180
132 153 180
133 154 180
131 151 179
131 152 179
133 153 179
133 154 180
134 154 180
133 153 180
134 154 181
134 154 181
132 152 179
132 152 179
133 154 180
134 154 181
134 154 181
132 152 179
133 154 180
132 152 179
132 153 180
133 154 180
132 152 179
134 154 181
133 153 180
134 154 181
132 152 179
133 154 180
133 153 180
133 154 180
134 154 180
134 154 181
133 154 181
134 154 180
134 154 181
134 154 181
134 154 181
133 154 181
132 152 179
134 154 181
134 154 181
134 154 181
133 154 180
133 153 180
133 153 179
133 154 181
133 154 180
133 154 180
134 154 181
133 154 181
132 153 180
133 153 180
133 154 181
133 154 181
134 154 181
134 154 181
134 154 181
134 154 181
134 154 181
133 154 181
133 153 180
134 154 181
133 154 181
134 154 180
134 154 181
133 153 180
135 155 181
134 154 181
134 154 180
134 154 181
134 154 181
134 154 181
133 154 181
134 154 180
133 154 181
133 154 180
133 154 181
133 154 181
133 154 180
133 154 181
134 155 181
133 154 180
133 153 180
134 154 181
134 154 181
134 154 181
134 154 181
134 154 181
134 154 181
133 154 181
134 154 181
133 154 181
135 155 181
134 154 181
133 154 181
133 154 181
134 154 181
134 154 181
134 154 181
134 154 181
134 154 181
134 154 181
135 155 181
135 155 181
133 154 181
134 154 181
134 154 181
133 154 181
134 154 181
134 154 181
134 154 181
134 154 181
135 155 181
134 154 181
134 154 181
132 153 180
133 154 181
133 154 181
133 154 181
135 155 181
134 155 181
134 154 181
135 155 181
132 153 180
134 154 181
134 154 181
134 155 181
133 153 180
133 154 181
134 154 181
133 154 181
134 154 181
134 154 181
134 154 181
134 154 181
134 154 181
134 154 181
133 154 181
134 154 181
133 154 181
132 153 181
133 154 181
134 155 181
133 154 181
133 154 181
133 154 180
134 154 181
134 154 181
134 154 181
134 154 181
134 154 181
134 154 181
134 154 180
133 154 181
134 154 181
134 154 181
133 154 181
133 154 181
134 154 180
133 154 181
134 154 181
134 154 181
133 154 181
134 154 181
134 154 181
133 154 181
133 154 181
134 154 181
133 154 181
134 154 181
133 154 181
134 154 181
134 154 180
133 154 181
134 154 181
134 154 181
134 154 181
135 155 181
133 154 181
133 154 181
134 154 181
133 154 181
133 154 181
134 154 181
133 154 181
134 154 181
133 154 181
134 154 181
134 154 181
134 154 181
133 153 180
134 154 181
132 152 179
133 153 180
132 152 180
132 152 180
132 153 179
133 153 180
132 152 179
132 152 179
132 153 180
131 152 179
131 151 178
131 151 179
131 150 178
131 151 178
130 150 178
130 150 178
132 152 179
129 149 177
132 153 180
133 153 180
132 152 179
131 151 179
131 151 179
131 151 179
131 151 178
129 148 176
130 150 178
130 150 177
127 147 176
129 149 177
131 151 178
131 150 178
130 151 179
130 150 178
129 149 177
129 149 177
126 146 175
130 150 177
126 145 175
131 151 178
129 148 177
131 150 178
130 150 178
128 148 177
127 146 175
127 146 175
127 147 176
123 141 173
126 145 175
125 144 174
126 145 175
126 145 174
120 138 169
127 146 175
124 142 173
123 142 171
124 142 173
126 145 175
120 138 170
121 140 171
121 141 172
125 144 174
120 138 170
123 142 171
121 139 170
117 134 168
122 141 173
122 141 172
115 133 167
121 139 170
123 141 171
121 139 171
116 133 167
116 133 168
115 132 167
119 136 168
122 139 172
114 131 166
117 134 167
111 127 163
114 130 167
111 126 165
109 123 175
109 122 183
104 116 184
109 121 197
111 123 197
104 116 187
109 122 187
107 119 184
101 115 172
113 127 179
109 123 174
111 126 172
119 136 172
111 127 164
114 130 164
106 121 159
110 126 161
119 136 169
116 132 168
115 132 166
118 137 169
112 129 163
116 133 167
119 137 170
115 133 166
116 133 166
120 138 171
117 134 167
115 132 167
122 140 171
118 135 169
123 141 172
116 134 167
121 139 171
119 137 169
122 140 171
125 144 174
123 141 171
121 139 171
125 144 173
121 139 172
121 139 171
125 143 174
124 143 175
126 145 175
123 142 173
124 142 171
123 142 172
128 148 176
126 146 175
125 144 174
129 149 177
125 144 174
127 146 176
126 146 175
125 145 174
125 143 173
125 144 174
127 146 174
124 143 173
129 149 177
126 146 176
129 149 178
129 149 178
127 146 176
124 143 172
128 147 176
125 144 173
128 148 177
128 147 177
131 151 178
127 147 176
129 149 178
129 149 177
130 150 179
130 150 178
126 146 175
129 149 177
130 150 178
128 148 177
129 149 177
130 150 178
128 147 176
128 148 176
129 148 177
132 152 179
128 148 176
130 150 177
131 151 178
131 151 179
131 151 179
132 153 180
132 153 180
130 150 178
130 150 178
131 151 179
132 153 180
132 153 180
129 148 177
132 152 179
130 150 178
133 153 179
132 152 179
132 153 180
131 152 179
133 153 180
132 152 179
133 153 179
131 151 179
131 152 179
133 153 179
133 153 179
130 150 178
132 152 179
132 152 179
133 153 180
132 153 179
133 153 180
133 153 180
132 152 179
134 154 181
133 153 180
132 152 180
131 151 179
132 152 180
132 152 179
131 152 180
130 150 177
133 153 179
132 153 180
132 152 179
132 152 179
132 152 179
133 154 181
132 153 180
133 154 180
132 153 180
134 154 180
134 154 181
133 154 180
134 154 181
132 153 180
134 154 180
131 151 178
133 153 180
133 153 180
134 154 181
133 154 181
133 154 181
134 154 181
134 154 181
134 154 180
133 153 180
131 152 179
134 154 181
134 154 181
133 153 180
132 153 180
133 154 181
132 153 180
133 153 179
132 153 180
134 154 180
134 154 181
134 154 181
133 154 180
133 154 181
132 153 180
133 153 180
134 154 181
132 152 179
134 154 181
134 154 181
133 154 181
133 154 180
133 154 180
134 154 181
133 154 181
132 154 181
134 154 181
134 154 180
133 154 181
134 154 181
134 154 181
133 154 180
133 153 180
133 154 181
133 154 181
134 154 180
133 154 181
133 154 180
134 154 181
133 153 180
133 154 181
133 154 181
133 154 181
134 154 181
134 154 181
134 154 181
134 154 181
133 153 180
134 154 181
134 154 181
134 154 181
133 153 180
134 154 180
133 153 180
134 154 181
134 154 181
133 154 181
134 153 180
134 154 181
133 154 181
134 155 181
134 154 181
133 154 180
134 154 181
134 154 181
134 154 181
134 154 181
134 154 181
134 154 181
134 154 181
133 154 181
134 154 180
133 154 181
134 154 181
134 154 181
134 154 181
133 154 181
134 154 181
134 154 181
133 154 181
135 155 181
134 154 181
134 154 181
134 154 181
135 155 181
133 154 181
134 154 181
133 154 181
134 154 181
134 154 181
133 154 181
134 154 181
133 154 181
134 154 181
134 154 181
133 154 181
134 154 181
134 154 181
134 154 181
134 154 181
134 154 181
134 154 181
134 154 181
133 154 181
134 154 181
134 154 181
134 154 181
134 155 181
134 154 181
134 155 181
134 154 181
134 154 181
134 154 181
134 154 181
134 154 181
134 154 181
133 154 181
134 154 181
134 154 181
133 154 181
134 154 181
133 154 181
133 154 181
134 154 181
134 154 181
134 154 181
132 153 181
134 154 181
134 154 181
132 153 180
134 154 181
134 154 180
133 154 181
133 154 180
134 154 181
133 154 181
135 155 181
134 154 181
134 154 180
133 154 180
134 154 181
135 155 181
134 154 181
134 154 181
134 154 181
134 154 181
135 155 181
134 154 181
132 153 180
134 154 181
134 154 181
133 154 180
133 154 181
133 154 181
134 154 181
134 154 180
134 154 181
133 154 181
134 154 181
134 154 181
133 154 181
134 155 181
134 154 181
132 153 180
133 153 179
131 151 179
130 150 179
132 152 179
132 153 180
133 153 180
132 153 180
131 151 179
132 152 179
131 151 179
132 152 180
132 152 179
131 152 179
131 151 179
130 150 178
132 152 179
133 153 180
131 151 178
132 152 180
130 151 179
130 150 177
130 150 179
131 150 178
131 151 179
131 151 178
132 153 180
129 150 178
128 148 176
129 149 178
131 150 178
130 150 179
129 149 178
128 148 177
128 148 176
130 150 178
128 148 176
130 150 178
130 150 178
127 146 175
127 147 176
128 148 176
131 150 178
128 147 176
123 142 172
125 143 173
128 148 177
130 150 177
128 148 177
126 145 176
126 145 174
127 146 174
124 143 173
126 145 175
128 148 176
125 144 174
126 145 175
125 144 174
125 144 174
122 141 172
119 138 170
122 141 172
127 146 175
123 142 172
123 142 172
122 140 170
124 142 173
122 141 172
125 144 173
123 142 173
119 137 169
122 140 172
121 138 170
119 136 168
121 139 170
116 133 166
119 137 169
125 144 175
123 141 172
112 129 163
119 137 169
118 135 168
114 131 164
113 129 164
115 131 168
115 131 170
116 132 179
110 124 177
112 127 181
113 127 177
113 128 172
119 136 174
113 130 168
114 131 166
116 132 165
116 134 166
112 129 163
116 133 168
111 128 163
122 140 173
117 134 167
116 133 167
117 133 167
118 135 169
118 136 168
121 138 169
114 131 165
117 135 168
115 132 165
115 133 167
120 138 169
121 138 170
116 133 166
121 139 171
121 139 170
123 142 173
119 137 168
123 141 172
123 141 172
123 142 173
124 144 174
127 146 175
121 140 171
119 137 169
123 142 172
124 143 174
125 145 174
126 145 175
124 143 173
128 148 176
124 143 174
124 142 173
122 140 172
126 146 176
125 144 175
127 147 175
125 144 174
124 143 173
130 150 178
128 148 177
127 147 176
125 145 174
126 146 174
127 146 176
128 148 177
129 148 177
128 147 176
130 150 179
127 146 175
129 149 178
127 147 177
131 151 179
127 147 176
127 146 175
128 149 177
129 149 177
129 149 177
127 147 176
129 149 177
126 146 175
128 148 177
129 149 177
129 148 176
129 149 177
129 148 177
131 150 178
132 153 180
131 151 178
130 150 177
131 151 179
131 151 178
129 149 177
129 148 176
128 148 177
131 151 178
132 152 179
130 150 178
131 152 179
130 150 178
132 152 179
132 152 179
132 152 179
131 152 179
130 151 179
132 152 179
131 151 179
132 152 179
131 151 179
131 151 179
131 152 179
131 151 178
132 152 179
131 151 179
132 152 180
133 153 180
131 152 179
132 152 179
132 152 179
134 154 181
133 153 180
130 150 177
133 153 179
133 153 180
133 153 180
131 152 179
133 153 180
134 154 180
132 152 180
131 152 179
131 152 178
133 153 180
132 152 179
131 151 179
132 153 180
133 153 179
133 154 180
133 153 180
134 154 180
133 154 181
133 154 180
133 154 180
132 153 179
133 153 180
135 155 181
133 153 180
134 154 181
132 153 181
132 152 180
133 154 180
133 154 181
133 154 181
134 154 181
134 154 181
132 153 180
134 154 180
133 154 181
134 154 180
133 154 180
132 153 180
133 154 181
133 154 181
133 153 180
134 154 180
133 154 181
134 154 180
134 154 181
133 153 180
133 154 180
134 154 181
133 154 181
134 154 181
134 154 181
134 154 181
134 154 181
133 154 181
133 154 181
133 154 180
132 152 180
133 154 181
134 154 180
134 154 181
134 154 181
134 155 181
134 154 181
133 154 181
133 154 181
133 154 180
133 154 181
133 154 180
134 154 181
133 154 181
133 154 181
134 154 181
133 154 181
133 154 180
134 154 181
134 154 181
134 154 181
134 155 181
133 153 180
134 154 181
134 154 181
134 154 181
135 155 181
134 154 181
133 154 180
134 154 181
134 154 181
134 154 181
134 154 181
133 154 181
133 154 181
134 154 181
134 154 181
134 154 181
133 154 180
134 154 181
133 154 181
134 154 181
133 154 181
133 154 180
134 154 181
134 154 181
133 154 181
134 154 181
133 154 181
134 154 181
134 154 181
134 154 181
135 154 180
134 154 181
134 154 181
134 154 181
134 154 181
134 154 181
134 154 181
134 154 181
134 154 181
134 154 181
134 154 181
134 154 181
134 154 181
134 155 181
134 154 181
134 154 181
134 154 181
134 154 181
133 154 181
134 154 181
133 154 181
133 153 180
133 154 181
134 154 181
133 154 181
134 154 181
133 154 181
133 154 181
133 154 181
134 154 181
134 154 181
133 154 181
133 154 180
134 154 181
133 154 181
133 154 181
134 154 181
134 154 181
134 154 181
134 154 180
134 154 181
133 154 181
133 154 181
133 154 181
134 154 181
134 154 181
134 154 181
133 153 180
133 154 181
133 154 181
134 154 181
134 154 181
134 154 181
134 154 181
134 154 181
134 154 181
134 154 181
135 155 181
133 154 181
133 154 181
133 154 181
134 154 181
133 154 181
134 154 181
135 155 181
134 154 181
134 154 181
133 154 181
133 154 181
134 154 181
134 154 181
134 154 181
133 154 181
134 154 181
134 154 181
134 155 181
133 154 181
134 154 181
133 154 181
134 154 181
134 154 180
134 154 181
133 154 181
134 155 181
134 154 181
133 154 181
134 154 181
133 154 181
133 154 181
133 154 181
133 154 180
132 152 180
132 152 179
132 153 180
132 153 180
133 154 180
132 152 179
132 152 179
133 153 180
131 151 178
132 153 180
130 150 178
130 150 178
132 152 179
131 151 179
130 151 178
132 152 179
129 149 177
133 153 179
131 152 179
131 150 178
131 151 179
131 151 179
129 149 177
130 150 179
130 151 179
133 153 180
130 150 178
129 149 177
131 151 178
132 151 179
132 152 179
132 153 180
128 148 177
131 151 179
132 151 179
130 151 178
129 149 178
129 149 178
128 148 176
133 153 180
128 148 176
129 148 177
128 148 176
127 147 176
129 148 176
128 148 177
127 147 176
129 149 177
128 148 176
127 146 175
129 150 178
128 147 176
125 144 174
130 150 179
121 140 173
127 146 175
124 143 174
127 145 175
126 146 175
126 145 175
127 147 176
126 146 175
127 147 176
126 145 174
123 142 172
124 143 174
124 143 173
123 141 173
124 143 172
127 147 176
125 144 174
120 138 170
123 141 170
123 142 172
124 142 173
123 141 173
123 142 172
123 141 172
123 141 171
117 135 167
121 139 171
122 140 171
124 142 171
121 138 170
122 140 171
121 139 171
121 139 171
122 140 173
122 140 171
123 142 172
119 137 169
119 137 170
122 140 171
119 137 169
118 135 169
117 135 168
123 141 171
119 137 170
119 136 168
121 139 170
122 140 171
120 138 170
117 134 166
122 141 172
119 136 168
122 141 172
123 142 173
119 137 168
122 139 169
122 141 173
126 144 173
122 141 171
121 140 171
122 140 171
119 138 170
126 145 175
123 141 172
124 143 173
123 141 173
124 143 174
122 140 171
126 145 174
127 147 175
125 145 174
128 147 176
123 142 173
124 143 174
128 148 176
129 148 177
127 146 175
127 147 175
122 141 172
126 146 176
126 146 175
127 147 176
129 148 177
126 146 176
129 149 177
127 147 175
127 146 175
127 147 176
128 148 176
126 146 175
128 148 177
126 146 175
128 148 177
129 149 177
129 149 177
126 146 175
127 147 175
130 150 178
126 145 174
130 150 179
130 149 178
129 149 177
131 151 178
129 149 177
131 151 179
128 149 177
129 149 177
130 149 177
131 151 178
130 151 178
128 148 177
129 150 178
129 149 176
130 150 178
130 151 178
130 150 178
131 150 178
130 150 178
132 152 179
132 153 180
133 154 181
131 151 179
131 151 179
132 152 180
132 153 179
130 149 177
129 149 178
131 151 179
132 153 180
131 151 178
132 153 180
132 151 179
133 153 180
131 151 179
132 152 180
133 154 181
132 152 179
132 152 179
132 153 180
133 153 180
132 152 179
131 151 179
131 152 179
133 153 180
134 154 181
131 152 179
133 153 180
132 153 179
133 154 180
133 154 180
131 153 180
133 153 179
132 153 180
133 154 180
130 151 179
132 153 180
133 153 180
132 152 180
133 153 179
133 153 180
133 153 180
132 152 179
132 153 179
133 153 180
134 154 181
133 154 180
132 153 180
132 152 179
134 154 181
132 153 180
133 154 181
133 153 180
133 154 181
133 154 180
133 153 180
134 154 181
133 154 181
133 154 180
134 154 180
133 154 181
133 153 180
134 154 181
134 154 181
133 153 180
135 155 181
133 154 180
134 154 181
133 153 180
134 154 181
133 154 181
134 154 181
134 154 180
134 154 181
133 154 180
134 154 180
134 154 181
133 154 181
133 153 180
134 154 180
134 154 181
133 154 181
133 154 181
133 154 180
134 154 181
133 153 180
133 154 181
134 154 180
135 155 181
134 154 181
134 154 181
134 154 180
133 154 181
134 154 181
134 154 181
133 154 181
134 154 181
134 154 181
134 154 181
133 153 180
134 154 180
134 154 180
134 154 181
134 154 181
134 154 181
134 154 181
133 154 181
133 154 180
133 154 180
133 154 181
134 154 181
133 153 180
133 154 181
134 154 181
134 154 181
133 154 181
133 154 181
134 154 181
133 154 180
133 154 181
133 154 181
134 154 180
134 154 181
134 154 181
134 154 181
134 154 181
133 154 181
133 154 181
133 153 180
133 154 181
134 154 180
134 154 181
135 155 181
133 153 180
133 154 181
134 154 181
132 153 181
133 154 181
133 154 181
133 154 181
133 154 181
134 154 181
133 154 180
133 154 181
134 154 181
133 154 181
133 154 181
134 154 181
134 154 181
133 154 181
134 154 181
134 154 181
134 154 181
134 154 181
133 154 181
134 154 181
134 154 181
133 153 180
134 154 181
134 154 181
133 154 181
135 155 181
133 154 181
134 154 181
133 153 180
134 154 181
133 154 181
134 154 180
133 154 181
133 154 181
134 154 181
133 154 181
135 155 181
133 154 181
134 154 181
134 154 181
133 154 181
133 154 181
133 154 180
134 154 181
133 154 181
133 154 181
134 154 181
134 154 180
134 154 181
133 154 180
134 154 181
133 154 181
134 154 181
134 154 181
134 154 181
134 154 181
134 154 181
134 154 181
135 155 181
134 154 181
134 154 181
134 154 181
134 154 181
133 154 181
134 154 181
134 154 181
133 154 181
133 153 180
135 155 181
133 154 181
133 154 181
134 154 181
134 154 181
133 154 181
134 154 181
134 154 181
134 154 181
134 154 181
134 155 181
133 154 181
135 155 181
134 154 181
134 154 181
133 154 181
134 154 181
134 154 181
133 154 181
132 153 180
133 154 181
134 154 181
132 154 181
133 154 181
133 153 180
131 152 178
132 153 180
132 153 180
131 152 179
133 153 180
132 152 179
132 152 179
133 152 179
131 152 179
132 153 180
132 151 178
132 152 179
130 150 178
132 152 179
131 151 179
133 153 180
132 152 180
131 152 179
130 151 178
132 152 179
130 151 178
131 151 179
133 153 180
131 151 178
130 150 177
128 148 176
131 151 178
125 145 175
130 150 178
131 152 179
128 148 176
132 152 179
131 152 179
129 149 178
130 149 178
129 149 176
128 147 176
129 149 178
132 153 179
131 151 178
129 149 178
128 148 176
129 149 177
129 148 177
126 146 175
130 150 178
130 149 178
131 152 180
127 146 175
129 149 178
130 149 177
130 150 177
130 149 177
128 148 177
127 147 176
128 148 178
123 142 172
122 140 172
128 148 176
128 147 176
126 144 174
126 145 174
128 147 175
124 143 172
127 147 175
125 144 174
124 143 173
127 147 176
124 143 173
122 140 171
125 144 172
125 144 174
125 144 173
124 143 172
128 147 176
123 141 171
124 142 172
127 146 174
124 143 173
125 144 174
120 138 169
124 143 173
123 142 172
123 141 172
125 144 173
125 144 173
121 139 171
123 141 172
121 140 170
122 141 173
121 139 169
124 143 172
124 142 173
123 142 173
121 139 171
123 142 172
122 140 172
122 140 171
124 143 173
119 136 169
120 139 170
121 139 170
120 139 170
120 139 170
121 140 173
120 138 170
123 141 172
124 144 174
122 140 171
124 143 172
125 144 174
124 143 173
127 146 176
125 144 173
124 142 173
126 145 175
124 143 173
125 144 174
124 143 174
125 144 174
125 144 173
122 141 172
127 146 175
130 149 178
127 147 176
127 146 177
127 146 176
129 148 177
124 144 173
122 141 171
128 148 177
129 149 178
126 146 175
127 146 175
125 145 174
125 144 172
130 150 178
127 147 176
126 145 175
125 144 174
126 146 175
130 150 178
127 147 175
129 149 177
128 148 176
128 148 176
128 148 176
130 150 178
131 151 179
129 148 177
129 148 177
128 148 176
131 151 179
128 148 176
131 151 179
132 152 179
128 148 177
130 150 178
131 152 179
129 149 178
130 150 177
130 150 178
128 149 177
131 151 179
129 149 177
131 152 179
132 152 180
130 151 179
130 150 178
130 150 178
132 152 179
132 152 179
132 152 179
130 150 178
131 151 179
132 152 179
129 149 177
131 151 178
133 153 180
132 152 179
132 152 179
132 152 179
132 152 179
133 153 180
132 152 179
132 153 180
133 153 180
132 153 180
132 153 180
132 153 180
133 154 180
132 152 179
132 152 179
132 152 180
133 153 180
132 153 180
131 152 179
132 152 179
134 154 180
134 154 180
131 151 179
133 154 181
133 153 180
132 152 180
133 153 180
133 153 180
133 153 180
133 154 181
132 152 179
133 153 180
133 154 180
134 155 181
132 152 179
132 153 180
133 154 180
135 154 180
134 154 181
133 153 180
132 153 180
133 153 179
133 153 179
133 154 181
131 151 178
132 153 180
131 151 179
132 152 179
133 154 181
134 154 180
134 154 181
134 154 181
133 154 180
134 154 180
133 154 180
132 153 180
133 154 180
134 155 181
134 154 180
133 154 181
132 153 180
134 154 180
133 153 180
134 154 181
133 153 179
134 154 181
133 154 180
133 153 180
134 154 181
132 153 179
133 153 180
134 154 181
134 154 181
133 154 181
134 155 181
134 154 181
135 155 181
133 154 180
132 153 179
133 153 180
133 154 181
133 153 180
134 154 180
133 154 180
134 154 180
133 154 181
134 154 180
133 154 181
133 154 180
134 154 181
133 154 181
134 154 181
133 154 180
134 154 181
134 154 181
133 153 180
135 155 181
133 154 181
134 154 181
133 154 180
134 154 181
134 154 180
134 154 181
134 154 181
132 152 179
134 154 181
133 154 181
135 155 181
134 154 181
134 154 180
134 154 180
133 154 181
134 154 181
133 153 180
133 153 180
134 154 181
133 154 181
133 154 180
133 154 181
134 154 181
134 154 181
134 154 181
134 154 180
135 155 181
133 154 181
134 154 181
134 154 181
134 154 181
134 154 181
134 154 181
133 154 181
134 154 181
133 154 181
135 155 181
134 154 181
135 155 181
134 154 181
134 154 181
134 154 181
133 154 181
134 154 181
133 154 181
134 154 181
133 154 181
133 154 181
134 155 181
134 154 181
133 154 181
134 154 181
133 154 181
134 154 181
134 155 181
133 154 181
134 154 181
134 154 181
133 154 181
134 154 181
135 155 181
134 154 181
134 154 181
134 155 181
133 154 181
133 154 181
134 154 181
134 154 181
134 154 180
133 154 181
133 154 181
134 154 181
135 155 181
134 154 181
134 154 181
135 155 181
134 154 181
134 154 181
133 154 181
135 155 181
134 154 181
133 154 181
134 154 181
134 154 181
134 154 181
134 154 181
134 154 181
134 155 181
135 155 181
133 154 181
133 154 181
133 154 181
133 154 181
133 154 181
133 154 181
134 154 181
133 154 181
133 154 181
133 154 181
133 154 181
134 154 181
134 154 181
134 154 181
134 154 181
133 154 181
134 154 181
133 154 181
134 154 181
134 154 181
134 154 181
134 154 181
134 154 181
134 154 181
134 154 181
134 154 181
133 154 180
134 154 181
134 154 181
133 154 181
133 154 181
134 154 181
133 154 181
133 154 181
134 154 181
133 154 180
132 153 179
132 153 180
132 152 179
132 152 179
133 153 179
132 153 180
133 153 180
132 152 179
131 152 179
132 152 179
133 153 180
132 152 180
132 152 179
133 153 180
132 153 180
131 151 179
132 153 179
130 150 179
132 152 180
131 152 179
131 151 178
131 152 179
130 150 178
130 150 178
132 153 180
131 151 179
131 151 179
130 150 178
131 151 178
133 153 179
131 152 179
132 152 179
129 149 178
129 149 177
130 150 178
132 152 179
130 150 178
130 151 179
131 151 178
128 149 178
128 148 177
131 151 178
130 151 178
131 150 178
129 149 177
129 149 177
128 148 176
130 151 178
128 148 176
131 151 179
127 147 176
124 143 173
127 147 176
129 148 176
127 147 175
126 145 173
127 146 175
128 148 176
129 149 177
129 149 178
125 144 174
124 142 173
129 149 177
126 145 174
126 145 174
127 147 176
123 142 172
127 146 175
129 147 175
126 145 175
128 148 177
128 148 176
126 146 176
127 146 176
126 146 176
123 142 173
126 146 175
126 145 174
128 147 175
126 145 176
127 147 176
126 144 174
125 144 174
126 145 175
124 143 173
125 144 175
124 142 175
124 142 172
125 145 175
125 144 173
125 144 173
127 146 176
124 143 173
126 144 174
122 140 171
118 136 168
124 143 174
125 144 172
122 141 171
121 138 171
128 147 176
124 143 173
122 140 171
121 140 170
122 141 172
123 142 173
124 143 173
126 144 174
125 144 175
124 143 173
127 146 175
129 148 176
126 145 174
129 149 179
126 145 175
124 142 173
125 145 173
127 146 176
128 148 176
126 146 176
126 145 174
125 144 174
128 147 176
124 143 174
124 144 174
126 145 174
128 148 176
126 144 174
127 146 176
127 147 176
127 146 175
130 149 177
128 147 176
130 150 177
130 150 177
126 146 175
129 148 177
126 146 176
127 147 176
127 147 176
130 150 178
131 151 179
129 149 177
128 148 176
129 149 177
128 147 175
131 152 179
130 150 178
128 148 177
132 152 179
131 152 180
130 150 178
131 151 179
128 148 176
129 149 177
131 151 179
131 152 179
130 150 178
132 152 180
130 150 178
131 151 179
131 151 179
131 151 178
128 148 176
130 150 178
131 152 180
132 152 180
132 153 180
132 153 180
130 149 176
132 153 180
131 151 179
133 153 180
131 152 179
133 154 181
132 153 180
132 152 180
130 150 178
132 152 179
131 151 179
131 152 179
131 151 179
133 152 179
132 153 180
132 153 179
131 151 179
133 153 179
132 152 180
131 151 178
133 154 180
133 154 180
132 152 179
133 153 179
132 152 180
132 153 180
133 153 179
133 154 181
134 154 181
133 153 180
134 154 180
133 153 179
132 152 179
133 153 180
133 153 180
133 154 181
132 153 179
133 153 180
132 153 180
133 154 181
133 153 180
132 153 179
132 152 179
133 153 180
134 154 180
134 154 180
134 154 180
133 153 180
133 154 181
134 154 181
133 154 180
133 153 180
134 154 181
134 154 181
133 153 180
133 153 179
132 153 180
134 154 180
134 154 180
132 153 180
133 153 180
133 153 180
134 154 181
134 155 181
134 154 181
134 154 181
133 153 180
133 154 181
134 154 180
133 153 180
133 154 181
133 154 181
132 153 180
133 154 181
132 153 180
134 154 181
133 153 179
133 154 181
134 154 181
133 154 181
133 154 181
133 154 181
133 154 181
133 154 181
134 154 181
133 154 181
133 153 180
134 154 181
135 155 181
134 154 181
134 154 181
134 154 181
134 154 181
133 154 181
133 154 181
132 153 180
133 154 181
134 154 181
134 154 181
134 154 181
134 154 181
134 154 181
134 154 181
133 154 180
133 154 181
133 154 180
133 154 181
133 153 180
134 154 181
134 154 181
133 154 181
133 154 181
133 154 181
133 154 181
133 153 180
134 154 181
133 154 181
133 154 181
133 154 180
134 155 181
134 154 181
134 154 181
134 154 181
133 154 181
134 154 181
133 154 181
134 154 181
133 154 180
134 154 181
134 154 181
133 154 181
134 154 181
133 154 180
133 154 181
133 153 180
134 154 181
134 154 181
133 154 181
135 155 181
134 154 181
134 154 181
134 154 181
134 154 181
134 154 181
134 155 181
133 154 181
133 154 181
134 154 181
134 154 181
134 154 181
133 154 181
134 154 181
135 155 181
135 155 181
133 154 181
135 155 181
134 154 181
134 154 181
134 154 181
134 154 181
134 154 181
134 154 181
135 155 181
134 154 181
134 155 181
134 154 181
133 154 181
133 154 181
134 154 181
133 154 181
134 154 181
133 154 181
135 155 181
133 154 180
133 154 181
134 154 181
133 154 181
134 154 181
133 154 181
134 154 180
134 154 181
133 154 181
134 154 181
134 154 181
134 154 180
133 154 181
135 155 181
134 154 181
134 154 181
133 154 180
134 154 181
134 154 181
134 154 181
134 154 181
134 154 181
133 154 181
134 154 181
134 155 181
134 154 181
133 154 181
134 154 181
133 154 181
134 154 181
134 154 181
133 154 181
133 154 180
132 153 181
135 155 181
134 154 181
134 154 181
134 154 181
133 154 181
135 155 181
134 154 180
134 154 181
133 154 181
134 154 181
133 154 181
134 154 181
134 154 181
135 155 181
133 154 181
133 154 181
134 154 181
134 154 181
133 154 181
134 154 181
134 154 180
134 154 181
133 154 181
133 153 180
132 152 179
130 151 178
132 152 179
132 153 180
132 152 179
132 152 179
133 153 180
133 153 180
133 153 180
130 150 178
132 152 179
132 153 180
130 151 179
134 154 181
132 152 178
131 150 178
132 152 180
132 152 179
133 153 180
133 154 180
132 153 179
133 153 179
131 151 179
130 150 178
132 151 179
131 151 178
130 150 177
132 152 179
131 151 179
131 151 178
131 150 178
131 151 179
129 149 177
130 150 178
130 150 178
131 150 178
130 151 179
129 149 177
131 151 179
131 151 179
129 149 177
131 151 179
129 149 177
130 150 178
127 146 174
129 149 177
126 145 174
129 149 177
131 151 179
127 147 177
130 150 178
130 149 177
129 149 178
129 148 178
128 148 177
129 149 178
128 147 175
127 147 176
127 147 176
126 145 175
125 144 174
130 150 178
129 149 177
129 149 177
126 145 175
125 145 174
127 146 175
128 147 176
128 147 176
123 142 173
131 150 178
126 145 175
129 149 178
128 147 175
130 148 176
126 145 174
127 146 176
126 145 175
127 147 176
128 147 176
124 142 173
127 146 174
126 145 173
123 142 172
125 144 173
130 149 179
125 143 173
123 142 173
126 144 174
126 145 175
125 143 173
126 145 174
132 152 179
127 146 176
129 149 176
128 147 176
127 147 176
125 143 173
129 148 176
127 145 176
128 147 177
125 144 174
126 145 175
128 147 176
125 145 175
127 146 175
128 147 176
126 145 174
126 146 175
126 145 174
126 146 175
128 148 176
126 145 175
125 144 174
129 148 176
127 147 177
127 146 176
125 145 175
126 145 175
129 148 177
127 147 176
125 144 173
127 147 176
126 145 176
129 149 178
128 148 176
127 146 175
127 146 175
130 150 178
126 145 175
128 148 176
128 148 175
126 146 175
128 148 176
127 147 175
129 149 178
129 148 177
132 153 180
130 150 178
128 149 177
131 152 179
129 150 177
131 151 179
130 151 179
131 151 179
129 149 177
130 150 178
131 150 178
131 151 179
130 150 177
129 150 178
131 152 179
130 150 178
131 151 179
131 151 178
130 150 179
131 152 179
130 151 178
131 152 179
131 150 178
132 152 179
132 152 179
130 150 178
131 151 179
132 153 180
133 154 181
131 151 179
132 152 180
132 152 179
132 152 179
132 153 180
133 153 180
132 152 179
131 151 179
133 153 179
132 153 180
133 153 180
131 151 179
133 153 180
132 153 180
132 151 178
132 152 179
133 153 179
134 153 180
132 152 179
130 151 178
133 153 180
132 153 179
129 148 176
133 153 180
132 152 180
133 153 180
134 154 180
133 154 180
133 153 180
132 152 180
132 152 179
133 153 180
133 154 180
132 152 179
133 153 180
133 153 180
134 154 181
133 153 180
133 153 180
132 152 180
133 154 181
134 154 181
132 153 180
134 154 181
133 154 180
134 154 181
134 155 181
132 153 180
134 154 181
133 154 181
133 153 179
133 153 180
133 154 181
133 154 181
133 153 180
134 154 181
133 153 180
134 154 180
132 153 180
133 153 180
133 153 180
133 154 181
133 154 180
133 153 180
135 155 181
134 154 181
134 154 181
133 154 180
134 154 181
134 154 181
133 154 181
134 154 181
134 154 181
133 153 179
133 154 181
134 154 181
134 154 180
133 153 180
134 154 181
133 154 181
133 154 181
134 154 181
133 154 181
134 154 180
134 154 181
134 154 181
133 154 181
134 154 181
134 154 180
133 154 180
133 154 181
134 154 181
134 154 180
134 154 181
133 154 181
133 154 180
134 154 181
134 154 181
134 154 181
133 154 180
134 155 181
133 154 181
133 154 180
133 154 181
134 154 181
133 154 181
133 154 181
134 154 181
134 154 180
133 154 181
134 154 181
133 154 181
135 155 181
133 154 180
133 154 181
133 153 180
133 154 181
133 154 181
133 154 181
134 154 181
133 154 181
134 154 181
134 154 181
134 154 181
133 154 180
134 154 181
133 154 180
132 153 180
133 153 180
133 154 181
133 154 181
133 154 181
133 154 181
134 154 181
135 155 181
134 155 181
134 154 181
134 154 181
134 154 180
133 154 180
135 155 181
133 154 181
133 154 181
134 154 181
134 154 181
134 154 181
134 154 181
133 154 181
133 154 181
135 155 181
133 154 181
134 154 181
134 154 181
134 154 181
133 154 181
133 154 181
133 154 181
133 154 181
134 154 181
134 155 181
134 154 181
133 154 180
133 154 181
134 154 181
133 154 181
134 154 181
134 154 180
134 154 181
133 154 181
134 154 181
132 153 181
134 154 181
134 154 181
134 154 181
133 154 181
133 154 181
134 154 181
134 154 181
134 154 181
134 154 181
134 154 181
134 154 181
133 154 181
133 154 181
134 154 181
134 154 181
134 154 181
135 155 181
134 154 181
134 154 181
133 154 181
135 155 181
134 154 181
134 154 181
135 155 181
134 154 181
133 154 181
134 154 180
134 154 181
134 154 181
134 154 181
134 154 181
134 154 181
133 154 181
133 154 181
134 154 181
135 155 181
133 154 181
134 154 181
133 154 180
134 154 181
134 154 181
134 154 181
135 155 181
133 154 181
134 154 181
134 155 181
133 154 181
134 154 181
133 154 181
133 154 181
133 154 181
134 154 181
134 154 181
134 154 181
133 154 181
133 154 181
133 154 181
134 154 181
134 154 181
134 154 181
134 154 181
133 154 181
131 151 179
134 154 181
133 153 180
131 152 180
132 152 179
131 151 178
132 153 180
131 151 178
133 154 181
132 152 179
131 151 179
132 153 181
132 153 179
134 154 180
131 151 179
132 153 180
132 152 179
133 153 180
132 152 179
132 152 179
133 153 179
132 152 180
133 153 180
131 150 178
130 151 179
132 152 179
130 151 178
131 152 179
132 153 180
130 150 178
132 153 180
130 150 177
130 150 177
131 151 179
133 153 180
129 149 178
130 150 177
131 151 179
129 149 176
128 148 176
130 150 178
130 151 179
130 150 178
128 148 176
129 149 177
133 153 180
129 149 177
129 149 177
130 150 178
129 149 177
129 149 177
128 148 177
132 151 178
130 150 177
130 150 178
130 149 177
128 147 176
129 149 176
130 149 177
128 148 177
126 145 175
130 150 178
129 149 178
128 148 176
131 151 179
131 151 179
127 146 176
126 145 175
127 146 175
124 143 171
129 148 176
126 146 175
128 148 176
129 149 178
127 147 176
127 147 176
127 146 175
129 149 178
129 148 176
128 148 177
128 147 175
127 147 175
130 150 178
125 144 174
126 146 175
126 145 176
128 147 177
126 146 175
127 146 176
128 147 175
125 145 173
125 143 172
128 147 176
126 144 173
125 144 175
129 149 176
129 149 177
128 147 176
128 148 177
130 149 178
126 145 175
128 147 176
125 145 174
126 144 174
127 146 176
125 144 175
126 145 174
128 148 177
128 147 176
128 148 176
128 148 177
125 145 174
125 143 174
128 147 175
128 148 176
127 146 174
126 146 174
127 148 177
127 147 176
129 149 176
126 145 174
130 150 178
126 145 174
130 150 178
126 145 174
129 149 176
128 148 176
128 148 176
130 150 177
129 149 177
131 152 179
129 149 178
129 148 177
130 150 178
129 149 178
127 147 175
127 147 175
131 151 179
131 151 178
131 151 178
131 151 179
128 147 176
131 151 179
130 151 179
128 147 175
130 150 179
129 149 178
129 149 178
131 151 179
132 152 179
132 152 180
132 153 180
130 150 178
129 150 178
131 152 179
131 151 178
131 151 178
130 151 179
131 151 179
131 152 179
131 151 179
132 152 179
131 152 179
132 152 180
132 153 180
131 151 178
130 150 178
131 151 179
132 152 179
131 151 179
131 151 179
130 151 178
132 153 180
133 153 180
131 152 179
133 153 180
130 150 178
131 152 180
131 152 179
132 152 179
132 152 179
131 151 179
131 151 179
133 153 180
132 152 180
132 153 179
132 152 180
131 152 179
133 153 180
132 152 179
134 154 181
132 153 180
133 153 180
133 153 180
132 152 179
133 154 180
133 153 180
133 153 179
132 153 180
133 153 180
132 153 180
133 153 180
134 154 180
133 154 181
132 153 180
134 154 181
134 154 181
133 153 180
133 154 180
133 153 180
133 154 181
133 153 180
133 153 180
134 154 181
132 153 179
133 154 180
133 154 180
133 154 181
134 154 181
133 153 180
133 154 181
132 153 180
134 154 181
133 153 180
133 154 180
134 154 181
133 154 181
133 153 180
133 153 180
133 153 180
134 154 181
133 153 180
133 154 180
133 153 180
134 154 181
134 154 180
134 154 181
134 154 181
134 154 181
133 153 180
132 153 180
133 154 180
134 154 181
134 154 180
133 154 181
135 155 181
134 154 180
134 154 180
134 154 181
134 154 181
134 154 181
133 154 180
133 154 180
133 154 181
134 154 181
134 154 181
134 154 181
134 154 181
133 153 180
134 154 181
134 154 181
134 154 181
134 154 181
134 154 181
133 154 181
134 154 180
134 154 181
134 154 180
133 153 180
134 154 181
134 154 181
134 154 181
133 154 181
134 154 181
135 155 181
134 154 180
134 154 181
133 154 181
133 154 181
134 154 181
133 153 180
134 154 181
134 154 181
134 154 181
133 154 181
134 154 181
134 154 181
133 154 181
133 154 181
133 154 181
133 154 181
133 154 181
134 154 181
134 154 181
133 154 181
134 154 181
133 154 181
134 154 181
134 155 181
133 154 181
133 154 181
134 154 181
134 154 181
133 154 181
135 155 181
134 154 180
133 154 181
134 154 181
133 154 181
134 154 181
133 154 181
133 154 181
133 154 181
133 154 181
135 155 181
134 155 181
134 154 181
134 155 181
134 154 180
134 154 181
133 154 181
134 154 181
134 154 181
134 154 181
133 154 181
132 153 181
133 154 181
133 154 181
134 154 181
135 155 181
134 154 181
133 154 181
134 154 181
134 154 181
134 154 181
134 154 181
134 154 181
133 154 181
134 154 181
134 154 181
134 154 181
134 154 181
134 154 181
134 154 180
134 154 181
133 154 181
133 154 181
135 155 181
134 154 181
133 154 181
134 154 181
134 154 180
134 154 181
133 154 181
133 154 180
134 154 181
134 154 181
134 154 181
134 154 181
134 154 180
135 155 181
134 154 181
134 155 181
134 154 181
134 154 181
134 154 181
133 154 181
134 154 181
134 154 181
134 154 181
133 154 181
133 154 181
134 154 181
134 154 181
133 154 181
133 154 181
133 154 181
134 154 181
134 154 181
134 154 181
134 154 181
133 154 181
134 154 181
133 154 181
134 154 181
134 154 181
134 154 181
134 154 181
133 154 181
134 154 181
134 154 181
133 153 180
135 155 181
133 154 181
134 154 181
133 154 181
134 154 181
133 154 181
135 155 181
133 154 181
133 153 180
133 153 180
134 155 181
132 153 179
132 153 180
132 152 179
133 154 180
132 153 179
131 152 179
132 153 180
132 152 178
132 152 180
131 151 180
133 153 180
133 153 180
133 153 180
131 152 179
133 154 180
133 153 179
132 152 179
132 153 179
131 151 179
132 153 180
132 153 180
132 152 179
131 151 179
131 151 179
132 153 179
132 151 179
133 153 180
130 150 178
131 152 180
132 152 179
131 151 178
128 147 176
129 149 177
131 152 179
131 151 178
131 151 179
132 152 179
130 151 179
132 152 179
130 150 178
129 149 177
131 151 179
130 150 178
130 151 179
128 147 176
132 152 179
129 149 177
129 148 177
132 151 178
129 149 178
131 150 178
130 150 178
130 151 179
127 146 174
129 149 178
127 147 176
129 148 176
128 147 176
128 148 177
131 151 178
130 150 178
131 151 179
131 151 178
126 146 175
130 149 177
126 145 174
129 149 177
128 148 177
127 147 176
132 151 178
129 148 176
129 149 176
131 151 178
128 148 176
128 148 176
131 152 179
129 149 178
126 145 175
128 147 176
130 149 177
130 151 179
129 149 177
127 146 176
126 145 175
131 150 178
126 145 174
125 144 173
127 145 174
129 148 176
128 148 177
128 148 177
129 149 177
127 147 176
126 145 174
128 147 176
128 147 176
128 147 175
125 144 174
129 148 177
128 148 176
126 145 173
127 147 175
129 148 177
128 148 176
127 147 176
127 146 175
129 149 176
130 149 178
130 150 178
130 150 178
129 149 177
129 149 176
129 149 176
128 147 177
128 147 176
126 145 174
131 151 179
131 151 178
130 149 177
129 148 177
129 149 178
129 149 177
130 150 178
129 149 177
130 150 177
131 152 179
129 149 178
129 148 177
132 152 178
130 151 178
130 150 178
131 151 179
128 149 178
131 151 179
131 151 179
130 150 178
129 150 178
131 151 178
132 152 179
131 150 178
132 152 179
127 147 176
131 151 179
132 152 179
132 153 180
132 153 180
130 150 178
130 150 178
131 152 179
131 151 180
131 151 179
130 151 178
131 151 179
132 153 180
131 151 178
130 150 178
130 150 178
131 152 180
132 153 180
132 152 179
130 150 179
132 153 180
130 150 177
132 153 180
132 153 179
131 152 179
133 153 180
133 153 180
131 152 178
131 152 180
130 151 178
133 153 180
132 152 180
131 151 179
132 152 179
133 153 180
132 153 180
131 152 179
132 153 180
132 152 179
132 153 180
131 151 179
132 152 180
133 153 179
132 153 179
133 153 180
132 152 179
133 153 179
132 152 179
133 154 180
133 154 181
132 152 180
134 154 181
133 153 180
132 152 179
133 153 180
134 154 181
133 153 180
133 153 179
132 152 179
132 153 180
134 154 181
133 153 180
133 154 180
133 154 180
134 154 180
134 154 180
134 154 180
133 154 180
133 154 181
133 153 179
133 153 179
133 153 180
134 154 181
133 154 181
133 153 180
133 154 180
133 153 180
133 153 179
134 154 181
133 154 181
131 152 179
133 153 180
132 153 180
134 154 181
133 153 180
133 154 180
134 154 181
133 154 180
132 153 180
133 154 181
134 154 180
135 155 181
134 154 181
133 154 180
134 154 180
134 154 181
133 153 180
133 154 180
134 154 181
134 154 180
130 151 179
133 153 180
134 154 181
135 155 181
132 153 180
133 153 180
134 154 181
134 155 181
133 153 180
134 154 181
134 154 181
134 154 181
135 154 180
134 154 181
134 154 180
133 154 180
134 154 181
133 153 180
134 154 181
134 154 180
134 154 181
133 154 181
134 154 180
133 154 181
133 154 181
134 154 181
133 154 181
133 153 180
134 154 181
135 155 181
134 154 181
134 154 181
133 154 181
133 154 181
134 154 181
134 154 181
134 154 181
133 154 181
135 155 181
133 154 180
134 154 180
133 154 180
133 154 181
133 154 181
133 154 181
134 154 180
134 155 181
133 154 181
133 154 181
134 154 181
133 154 181
134 154 181
134 154 181
133 154 180
133 154 181
132 153 180
134 155 181
134 154 181
132 153 181
134 154 181
135 155 181
133 154 181
134 154 181
133 154 181
134 154 181
135 155 181
134 155 181
134 154 181
134 154 181
133 154 181
134 154 181
133 154 181
134 154 181
135 155 181
133 154 181
134 154 181
133 154 181
133 154 181
134 154 181
134 154 181
134 154 180
134 154 181
134 154 181
134 154 181
133 154 181
134 154 181
132 153 180
134 154 181
134 154 181
134 154 181
133 154 181
134 154 181
133 154 181
134 155 181
132 153 180
134 154 181
133 154 181
133 154 181
134 154 181
133 154 180
133 154 181
135 155 181
135 155 181
133 154 181
134 154 181
133 154 181
134 154 181
134 154 180
134 154 181
133 154 181
133 154 181
135 155 181
133 154 181
134 154 181
134 154 181
134 154 181
133 154 180
133 154 181
133 154 181
134 154 181
133 154 181
134 154 181
133 154 180
134 154 181
134 154 181
134 154 181
134 154 181
133 154 181
133 154 181
133 154 181
135 155 181
133 154 181
134 154 181
134 154 181
134 154 181
133 154 181
134 154 181
133 154 181
133 154 181
134 154 181
133 154 181
134 154 181
134 154 181
133 154 181
134 154 181
133 154 181
133 154 181
133 154 181
134 155 181
134 154 181
134 154 181
133 153 180
134 154 181
134 154 181
135 155 181
134 154 181
132 153 179
133 153 180
132 153 179
134 154 181
133 153 180
133 153 180
131 151 179
132 152 179
131 152 179
133 153 180
131 152 179
133 154 180
133 153 179
133 153 180
133 153 180
131 151 179
133 153 180
133 153 180
132 152 179
133 153 180
134 154 181
131 152 179
132 153 180
131 152 179
129 149 177
133 153 180
132 152 180
132 153 180
132 152 179
132 152 180
133 153 180
133 152 179
131 150 177
132 152 179
131 151 179
130 150 177
131 152 180
132 153 180
132 153 180
130 150 179
129 149 176
131 151 179
130 150 178
129 149 178
131 151 178
130 151 178
129 148 177
132 152 179
128 149 177
131 151 179
132 152 179
130 149 177
129 149 177
131 151 178
131 150 179
131 151 178
130 151 178
132 152 179
131 151 179
127 147 176
131 152 179
129 148 177
131 149 177
130 150 178
130 150 178
130 150 178
129 149 177
132 152 179
127 146 176
127 146 175
128 148 176
130 150 178
130 149 177
131 150 178
130 150 178
128 148 176
130 150 179
128 148 176
130 149 178
129 149 177
128 147 176
128 148 177
131 150 177
130 150 177
130 150 178
129 149 177
129 149 177
130 150 177
128 148 177
128 147 176
128 148 176
129 148 177
128 148 177
130 150 178
131 151 178
129 149 177
130 150 177
127 147 176
130 150 178
129 149 177
132 152 179
126 145 175
129 150 178
126 145 175
130 151 179
132 152 180
128 148 176
130 150 178
126 146 176
128 147 176
131 150 177
125 144 174
127 147 176
126 146 175
128 148 177
130 150 179
130 150 177
130 149 178
129 148 176
131 150 177
127 146 175
128 148 176
131 151 178
129 149 178
130 149 177
131 151 178
130 150 179
131 151 179
131 151 178
130 150 178
129 150 178
132 152 179
131 151 179
130 150 178
129 148 177
131 151 179
130 150 178
130 150 178
130 151 178
131 151 179
131 150 178
132 152 179
130 150 177
129 149 177
130 150 178
132 153 180
131 151 178
131 152 179
130 150 177
132 152 179
132 152 180
130 151 179
131 151 179
130 150 178
132 152 179
131 151 178
130 151 178
132 152 180
131 151 178
130 150 178
131 151 179
131 151 179
133 153 180
132 153 180
131 152 179
130 151 179
133 153 180
130 150 178
132 152 180
134 154 181
132 153 180
132 153 180
132 153 180
132 153 180
133 153 180
133 153 180
132 152 180
131 152 179
133 153 180
133 153 180
133 154 180
132 153 180
132 153 180
131 152 179
132 152 179
133 154 180
134 154 181
134 154 180
133 154 181
134 154 181
133 153 180
132 153 179
132 152 179
133 153 180
133 154 180
133 153 180
133 153 180
133 153 180
133 153 180
132 153 180
132 152 179
133 154 181
132 152 179
133 153 180
134 154 180
134 154 180
134 154 181
134 155 181
134 154 180
133 153 180
133 154 181
133 153 180
134 154 181
133 154 180
134 154 181
134 154 181
133 154 180
134 154 181
133 153 180
133 153 180
134 154 181
134 154 180
132 153 179
135 155 181
133 154 180
133 154 181
133 154 180
132 153 181
133 154 181
132 153 180
134 154 181
133 154 181
133 153 180
133 154 181
134 154 181
133 154 181
133 154 181
133 154 180
134 154 181
133 154 180
135 155 181
133 154 181
134 154 180
133 154 180
132 152 180
133 154 181
134 154 181
133 154 181
133 154 180
133 154 180
133 154 180
133 154 180
133 154 181
133 154 180
134 154 181
134 155 181
133 154 181
133 154 180
134 154 181
134 154 181
133 153 180
133 154 181
133 154 180
133 154 181
134 154 181
133 154 181
134 154 181
133 154 181
134 154 181
133 154 180
134 154 180
133 154 180
133 154 181
132 153 180
133 153 180
134 154 180
133 154 181
133 154 181
134 154 181
134 154 181
133 154 181
134 154 181
133 154 181
134 154 181
134 154 181
133 154 180
135 155 181
134 154 181
134 154 181
134 154 181
134 154 181
134 154 181
134 154 181
135 155 181
135 155 181
133 154 181
134 154 181
133 154 181
133 154 181
134 154 181
134 154 181
134 154 181
134 154 181
134 154 181
134 155 181
133 154 180
134 154 181
133 154 181
134 154 181
133 154 181
134 154 181
134 154 181
134 154 181
135 155 181
134 154 181
134 154 181
134 154 181
133 154 181
133 154 180
134 154 181
133 154 181
134 154 181
135 155 181
134 154 181
133 154 181
134 154 181
134 154 180
133 154 181
134 154 180
134 154 181
134 154 181
134 154 181
134 154 181
134 154 181
134 154 181
134 154 181
133 154 180
133 154 181
134 154 181
134 154 181
134 154 181
134 154 181
134 154 180
134 154 181
135 155 181
133 154 180
133 154 181
134 154 181
135 155 181
133 154 181
133 154 181
135 155 181
133 154 181
133 154 181
134 154 181
134 154 180
134 154 181
133 154 181
134 154 181
134 154 181
134 155 181
134 154 181
134 154 181
134 154 181
134 154 181
134 154 181
133 154 181
133 154 181
133 154 181
133 154 181
134 154 181
134 154 181
134 154 181
133 154 181
134 154 181
134 154 181
134 154 181
134 154 181
135 155 181
134 154 181
134 154 181
134 154 181
133 154 181
134 154 181
134 154 181
133 154 181
134 154 181
133 154 181
134 154 181
135 155 181
134 154 181
134 154 181
135 155 181
134 154 181
134 154 181
134 154 181
134 154 181
133 154 181
134 154 181
133 154 181
134 154 180
132 153 179
133 153 180
133 154 181
133 153 180
132 152 180
132 153 180
132 153 180
134 154 181
132 151 179
131 152 179
134 154 181
133 153 180
134 154 181
133 153 180
132 152 180
133 153 179
133 153 180
131 152 179
131 151 178
130 150 178
133 153 180
132 153 180
132 153 180
130 150 178
133 153 180
131 151 179
133 153 180
133 153 180
133 153 180
130 150 179
129 149 177
132 152 179
132 152 179
133 153 180
132 152 179
130 151 179
132 153 180
133 152 180
133 153 179
131 151 179
132 152 179
131 152 179
131 151 179
131 152 178
129 148 176
131 152 178
131 151 178
133 153 180
129 149 177
129 148 176
131 151 178
130 150 178
131 151 179
132 152 179
132 152 179
130 150 178
129 150 178
131 151 178
131 150 178
132 152 179
131 151 178
130 151 179
131 150 178
132 151 179
128 148 177
132 152 179
131 151 179
129 148 176
130 150 178
131 150 178
130 150 178
129 149 177
132 152 179
129 150 178
129 148 176
129 148 177
129 149 178
128 148 176
128 147 176
129 149 177
130 150 179
129 148 176
130 149 177
131 151 178
128 148 176
132 152 180
127 147 176
127 147 176
131 151 179
131 151 179
131 150 178
131 151 178
130 150 178
130 150 177
130 150 178
131 151 179
133 154 180
129 150 178
131 151 179
130 150 178
128 148 177
125 145 175
132 152 180
129 148 177
127 147 176
131 151 178
129 149 177
129 149 177
130 150 178
129 148 178
129 149 177
130 150 179
129 148 177
131 151 179
129 149 177
131 150 178
129 149 177
132 153 180
129 149 177
132 153 180
131 152 179
128 148 176
130 150 178
130 151 178
131 151 179
127 146 176
131 151 179
130 150 178
128 148 177
131 151 179
132 152 179
130 150 178
131 151 178
132 152 179
130 150 177
130 150 178
131 151 178
132 153 180
131 151 179
130 150 178
132 152 179
128 148 177
130 150 178
131 151 178
130 150 178
131 151 178
130 150 178
133 153 179
131 152 179
133 153 180
131 151 178
132 152 179
132 153 180
131 151 179
130 150 178
130 150 179
131 152 179
131 151 179
133 153 180
132 152 179
132 152 179
133 153 180
133 153 180
131 152 180
133 153 180
132 152 179
132 152 179
133 153 180
132 152 179
133 153 180
130 150 178
133 153 179
132 152 179
130 151 178
131 152 180
133 153 180
133 153 180
133 153 180
133 153 180
133 154 180
133 152 179
133 154 180
133 154 180
132 153 180
133 154 181
133 154 181
133 154 181
134 154 181
132 153 180
133 154 180
133 153 180
133 154 181
133 154 181
133 153 180
134 154 180
133 154 181
133 154 180
134 154 181
133 153 180
132 153 180
133 154 180
134 154 181
134 154 181
131 152 180
133 154 181
134 154 181
134 154 181
134 154 180
134 154 181
133 153 180
134 154 181
133 153 180
133 153 180
133 153 180
133 153 180
133 154 180
133 153 180
134 154 180
134 154 181
133 154 181
132 153 180
134 154 181
134 154 181
132 153 180
134 154 180
134 154 180
132 152 179
133 153 180
134 154 180
133 153 180
133 153 179
133 153 180
134 154 180
134 154 181
134 154 181
134 154 181
133 154 180
133 154 181
133 154 181
133 153 180
132 152 180
135 155 181
134 154 180
134 154 180
134 154 181
134 154 181
133 154 180
133 154 180
134 154 181
134 154 181
133 154 180
133 154 181
133 154 181
134 154 181
133 153 179
134 154 181
134 154 181
133 154 181
133 154 181
133 154 181
134 154 181
134 154 181
133 153 180
134 154 181
133 154 181
133 154 180
134 154 181
133 154 181
134 154 181
134 154 181
134 154 181
134 154 181
133 153 180
134 154 181
133 154 181
134 154 181
132 153 180
135 155 181
133 154 181
133 154 181
133 154 181
132 153 180
133 154 181
134 155 181
135 155 181
134 154 181
134 154 181
133 153 180
134 154 181
134 154 181
133 154 180
133 154 181
134 154 181
134 154 181
134 154 180
134 154 181
135 155 181
133 154 181
134 154 181
133 154 181
134 154 181
134 154 181
133 154 180
133 154 181
134 154 180
132 153 180
134 154 181
134 154 181
134 154 181
134 154 181
134 154 181
134 154 180
133 154 180
135 155 181
134 154 180
133 154 181
134 154 181
134 154 181
135 155 181
133 154 181
133 154 181
134 154 181
133 154 180
133 154 181
134 154 181
133 154 181
133 154 181
133 154 181
133 154 181
134 154 181
134 154 181
133 154 181
133 154 180
134 154 181
134 154 181
134 154 181
134 154 181
133 154 181
133 154 180
135 155 181
134 154 181
134 154 181
134 154 181
133 154 181
133 154 181
134 154 181
134 155 181
134 154 181
134 154 181
133 154 181
134 154 181
134 154 181
134 154 181
133 154 181
134 154 181
134 154 181
134 154 181
134 154 180
135 155 181
134 154 181
133 154 181
134 154 181
134 154 181
135 155 181
133 154 181
134 154 181
133 154 181
134 154 181
133 154 181
134 154 181
134 154 181
133 154 180
133 154 181
135 155 181
134 154 181
134 154 181
133 154 181
134 154 181
134 154 181
134 154 181
133 154 181
134 154 181
134 154 181
134 154 181
133 154 181
134 154 181
134 154 181
133 154 181
133 154 181
133 154 181
133 154 181
135 155 181
134 154 181
134 154 181
134 154 181
133 154 181
134 154 181
134 154 181
134 154 181
133 153 179
133 153 180
132 152 179
133 153 179
133 153 179
132 152 179
133 154 180
133 153 180
132 153 179
133 154 180
132 153 180
133 153 180
132 153 180
132 152 179
132 152 179
133 153 180
132 153 180
133 152 179
131 151 178
133 152 179
132 153 180
132 153 180
130 151 179
133 153 180
131 152 179
132 152 179
133 154 181
132 153 180
132 152 179
132 152 179
131 151 179
132 152 179
131 151 178
130 151 179
130 150 178
130 151 178
130 150 178
131 151 179
131 151 179
133 153 180
132 152 180
132 152 179
131 152 180
132 152 179
131 151 179
131 151 179
133 153 180
133 153 180
132 151 179
132 152 179
132 153 180
131 152 179
133 153 180
130 150 177
132 152 179
131 152 180
132 153 180
130 149 177
131 151 179
131 151 179
130 150 178
130 150 178
131 151 179
130 149 177
131 151 179
130 150 179
132 152 179
130 150 178
131 151 179
133 154 180
130 150 178
132 152 179
132 153 180
131 151 178
129 149 178
131 151 179
129 149 177
131 150 178
128 148 176
128 147 176
129 149 177
129 149 177
131 151 178
129 150 178
131 151 178
127 146 175
128 147 175
130 150 178
132 153 180
127 147 176
129 149 178
131 152 179
130 149 178
132 151 179
129 149 178
130 150 178
130 150 178
129 150 178
130 150 178
130 150 179
130 150 178
129 148 176
131 151 179
129 149 178
128 147 177
132 152 180
127 147 176
131 151 178
130 150 178
127 147 176
131 151 178
130 150 178
130 149 177
130 149 177
131 151 179
131 151 179
129 148 177
131 150 178
129 149 177
131 151 178
128 148 176
131 151 179
133 153 179
131 152 179
129 149 177
129 149 177
131 151 179
130 150 178
129 148 177
131 151 179
131 151 179
130 150 178
131 152 179
131 151 178
131 151 179
131 151 179
133 153 179
133 154 180
130 150 178
131 151 179
131 151 179
131 151 179
131 151 179
132 152 179
132 152 179
132 152 179
131 152 179
134 154 180
133 153 180
132 152 180
133 153 180
131 151 179
131 151 179
130 151 179
131 151 178
132 153 180
132 153 180
132 152 179
133 153 180
131 152 179
132 153 180
132 152 179
133 154 181
131 152 179
133 153 179
131 151 178
132 152 179
133 153 180
132 152 179
133 153 179
132 153 180
133 152 179
133 154 180
133 153 179
134 154 180
133 153 180
131 150 178
133 152 179
132 152 179
132 152 178
134 154 180
134 154 180
133 153 180
132 153 179
132 152 180
132 153 180
133 154 180
134 154 181
131 151 179
133 153 180
133 153 180
133 154 180
132 152 179
132 153 180
133 154 180
133 154 181
133 154 181
133 154 181
133 154 180
132 153 180
134 154 180
133 154 180
132 153 180
133 154 180
133 153 180
132 153 180
131 152 179
133 154 181
133 154 181
133 153 180
133 154 181
133 154 181
132 153 179
134 154 181
133 153 180
133 153 180
131 152 179
133 153 179
134 154 180
134 154 181
133 154 181
133 154 180
133 154 181
133 154 181
133 153 180
134 154 181
134 154 181
134 154 180
134 154 180
133 154 181
134 154 181
134 154 180
134 154 181
132 153 180
133 154 180
134 154 181
134 154 181
134 154 180
133 154 181
133 154 181
133 154 181
132 153 180
133 154 181
133 153 180
134 154 181
133 154 180
134 154 181
134 154 181
133 153 180
133 154 181
134 154 181
133 154 181
134 154 181
134 154 181
134 154 181
133 154 181
134 154 181
134 154 181
133 154 180
133 154 181
133 153 180
133 154 181
134 154 181
134 154 181
134 154 180
134 154 181
133 154 181
134 154 181
134 154 181
134 154 181
134 154 181
134 154 181
133 154 181
134 154 181
133 154 181
133 154 181
133 153 180
134 154 181
133 154 181
134 154 181
133 154 181
134 154 181
134 154 181
134 154 181
134 154 181
134 154 181
133 153 180
133 154 181
133 154 181
134 154 180
133 154 181
133 154 180
134 154 181
134 154 181
133 154 180
134 154 181
133 154 181
134 154 180
133 153 180
133 154 181
134 154 181
133 154 181
134 154 181
133 154 181
133 154 181
134 154 181
134 154 181
134 154 181
134 154 181
135 155 181
134 154 181
133 154 181
133 154 181
134 154 181
134 154 181
133 154 181
134 154 181
135 154 180
133 154 181
135 155 181
133 154 181
134 154 181
134 154 181
134 154 181
134 154 181
134 154 181
134 154 181
134 155 181
134 154 181
134 154 181
133 154 181
133 153 180
133 154 181
133 154 181
133 154 181
134 154 181
134 154 181
133 154 181
134 154 180
134 154 181
135 155 181
133 154 181
134 154 181
134 154 181
133 154 181
133 154 181
133 154 181
134 154 181
133 154 181
134 154 181
133 154 181
134 154 181
134 154 181
133 154 181
134 154 181
133 154 181
134 154 181
134 154 181
133 154 181
133 154 181
133 154 181
134 154 181
134 154 181
134 154 181
133 154 181
134 154 181
133 154 181
133 154 181
133 154 181
134 154 181
134 154 181
134 154 181
134 154 181
133 154 181
133 154 181
134 154 181
134 154 180
134 154 181
134 154 181
134 154 181
134 154 181
134 154 181
133 154 180
134 154 181
134 154 181
133 154 181
134 154 181
134 154 181
133 154 181
134 155 181
134 154 181
133 154 181
134 154 181
134 154 181
134 154 181
133 154 181
134 154 181
134 154 180
134 154 181
134 154 181
133 154 181
132 153 180
133 154 181
134 154 180
133 153 180
133 153 180
132 152 179
133 153 180
133 154 181
134 154 181
132 153 180
133 154 180
133 153 179
132 152 179
133 153 180
132 153 180
133 153 180
133 153 180
132 152 179
133 153 180
132 153 179
132 153 179
133 154 180
132 152 179
133 153 179
133 153 180
133 153 180
132 152 179
130 150 178
132 152 179
132 152 179
132 152 180
131 150 178
134 154 180
132 153 180
132 152 179
131 152 179
133 154 181
132 152 179
132 152 179
133 153 180
132 153 180
130 150 178
131 150 178
130 151 178
132 153 180
132 153 180
130 151 179
132 153 180
131 152 179
132 152 179
132 152 179
130 150 178
131 151 179
132 152 179
132 152 179
132 152 179
131 151 179
132 152 180
132 152 179
131 150 177
130 150 178
131 151 178
130 150 177
132 153 180
128 148 176
131 151 178
131 151 179
128 148 177
132 152 179
130 150 178
132 153 180
132 152 179
130 151 179
131 150 178
130 151 179
130 150 177
131 151 179
130 149 178
131 152 179
129 149 178
129 148 177
130 150 177
131 151 178
130 150 177
132 152 179
131 152 179
131 151 178
131 151 179
131 151 178
132 152 179
129 148 176
131 151 179
132 153 180
130 150 178
130 149 177
128 147 176
129 149 176
130 150 178
130 150 178
131 150 178
130 150 178
132 152 179
130 150 177
132 152 179
129 150 177
129 150 178
131 151 177
129 149 177
132 152 180
132 152 180
130 151 178
131 152 179
131 151 178
131 151 178
131 151 179
131 152 179
131 151 179
129 149 177
131 151 179
130 150 178
132 152 179
130 150 178
132 152 179
131 151 179
132 152 179
131 151 179
131 151 179
131 151 179
130 150 177
131 151 179
131 151 179
131 151 179
131 151 179
129 149 177
132 152 179
131 151 179
131 151 178
133 154 180
133 153 180
132 152 180
132 152 179
131 152 179
130 150 177
130 150 178
133 153 180
131 151 178
133 153 180
131 152 179
132 152 180
133 153 180
133 154 181
133 152 179
131 152 180
132 152 179
131 152 179
132 152 179
131 151 179
131 151 179
132 153 180
134 154 181
133 154 180
133 153 180
131 151 178
132 152 180
132 153 180
132 152 180
130 150 178
133 153 180
133 153 180
132 153 180
132 153 180
133 154 180
133 153 180
133 153 179
135 155 181
133 153 180
134 154 181
132 152 179
134 154 181
133 154 180
133 153 180
134 154 181
133 153 180
132 152 179
134 154 181
132 152 179
132 153 180
133 153 180
134 154 180
134 154 181
133 154 180
133 153 180
133 154 180
133 153 179
133 153 179
134 154 181
133 153 180
132 152 178
133 153 180
133 153 180
133 154 180
134 154 180
132 153 180
132 153 180
133 154 180
133 154 180
133 154 180
133 154 181
132 152 179
133 154 181
133 154 180
134 154 180
133 154 180
134 154 181
133 154 180
134 154 180
134 154 181
133 154 181
134 154 180
133 153 180
134 154 180
133 154 181
134 154 181
134 154 181
134 154 180
134 154 181
133 153 180
134 154 181
133 154 181
133 154 181
133 154 181
133 153 180
133 154 180
133 154 181
134 154 181
133 154 181
134 154 181
132 153 179
133 153 180
133 153 180
134 154 181
133 154 180
133 154 180
134 154 181
134 154 181
134 154 181
133 153 180
134 154 181
133 154 180
134 154 181
135 155 181
134 154 181
133 154 181
134 154 181
133 154 180
133 153 180
133 154 180
134 154 181
134 154 181
134 154 181
134 154 180
133 153 180
134 154 181
133 153 180
134 154 181
133 154 180
133 154 181
134 154 181
134 154 181
134 154 181
133 153 179
133 154 181
134 154 181
134 154 181
133 153 180
133 154 181
133 154 181
134 154 181
134 154 181
133 154 181
133 154 180
134 154 181
133 154 181
133 154 181
133 154 181
133 154 181
135 155 181
134 154 180
134 154 181
133 154 180
133 154 181
133 154 181
134 154 181
133 154 181
133 154 181
133 154 181
134 154 181
133 154 181
133 154 181
134 154 181
134 154 181
134 154 181
133 154 181
134 154 181
133 154 181
134 154 181
134 154 181
134 154 181
134 154 181
134 154 181
133 154 181
133 154 181
134 154 181
134 154 181
133 154 180
134 154 181
133 154 181
133 154 181
133 154 181
133 154 181
134 154 181
134 154 181
134 154 181
133 154 181
134 154 181
133 153 180
134 154 181
134 154 181
134 154 181
134 154 181
134 154 180
133 154 180
133 154 181
134 154 181
134 154 181
134 154 181
134 154 181
133 154 180
134 154 181
133 154 181
134 154 181
135 155 181
134 154 181
134 154 181
134 154 181
134 154 181
134 154 181
134 154 181
134 154 181
133 154 181
134 154 180
134 154 181
133 154 181
134 154 181
134 154 181
133 154 181
134 154 181
134 154 181
134 154 181
133 154 181
134 154 181
134 154 181
134 154 181
134 154 181
133 154 181
134 154 181
134 154 181
134 154 181
134 154 181
134 154 181
133 154 181
133 154 181
133 154 181
134 154 181
134 154 181
135 155 181
135 155 181
133 154 181
134 154 181
133 154 181
134 154 181
134 154 181
134 154 181
135 155 181
133 154 181
133 154 180
133 154 181
134 154 181
134 154 181
135 155 181
134 154 181
135 155 181
135 155 181
135 155 181
134 154 181
134 154 181
134 154 181
134 154 181
133 154 181
133 153 180
132 153 179
133 153 180
132 153 180
133 154 180
132 152 179
133 153 180
132 152 180
133 154 181
133 153 180
132 152 179
133 153 180
132 152 179
134 154 180
131 151 178
132 152 179
131 151 179
133 154 180
133 153 180
132 152 179
132 152 179
134 154 180
133 153 180
131 151 179
134 154 180
131 151 179
133 153 180
131 151 179
131 151 179
132 152 179
132 153 180
133 153 180
132 152 179
132 153 180
131 151 179
133 154 181
131 151 179
129 149 176
132 152 179
129 150 178
133 153 180
129 149 177
131 151 178
132 152 179
133 153 180
131 152 179
131 151 179
132 153 180
132 152 179
130 150 177
133 153 179
129 149 177
132 152 179
133 153 179
131 151 179
130 150 178
131 151 178
132 152 179
133 153 180
129 149 177
133 152 180
130 150 178
132 152 179
132 152 179
130 150 177
131 151 178
131 151 178
132 152 179
133 154 181
130 151 178
132 153 180
131 151 179
132 152 179
128 148 176
131 151 178
132 153 180
131 151 179
132 152 179
132 152 179
129 149 176
132 153 180
131 151 179
129 149 178
133 153 179
131 151 179
130 150 177
130 149 177
130 150 177
132 152 179
128 148 175
129 149 178
132 152 179
129 149 178
132 152 179
131 151 178
131 151 179
132 152 179
130 150 178
132 152 179
131 151 179
131 151 179
130 149 177
131 151 179
132 152 180
131 151 179
131 151 178
132 153 180
130 150 177
133 153 180
131 152 179
130 150 178
132 152 179
131 151 178
132 152 179
130 150 178
130 150 178
131 151 179
132 152 179
132 153 180
131 151 178
132 152 180
128 149 178
130 150 179
130 150 177
130 150 178
133 153 180
131 151 178
130 151 178
131 151 179
132 152 179
131 152 179
132 152 179
133 153 180
131 152 179
132 151 179
131 151 179
133 153 180
132 153 180
131 151 178
132 153 180
131 151 179
132 152 179
132 152 179
133 153 180
131 151 179
132 152 179
131 151 179
133 153 180
130 150 178
132 152 179
132 152 179
133 153 180
132 153 179
134 154 181
133 153 180
131 151 178
132 152 179
131 152 179
133 153 180
130 151 179
133 153 180
132 153 180
134 154 180
133 153 179
131 152 179
134 154 181
132 153 180
133 153 180
132 152 179
134 154 180
134 154 180
133 153 180
134 154 181
132 153 180
134 154 181
133 154 181
134 154 180
133 154 180
133 153 180
133 154 180
133 153 180
134 154 181
134 154 181
132 153 180
131 152 179
132 153 180
133 154 181
132 153 180
133 153 180
133 153 180
134 154 180
132 153 180
133 153 180
133 154 181
134 154 180
133 154 180
134 154 181
132 152 179
133 154 181
134 154 181
134 154 181
133 153 180
133 153 180
134 154 180
132 153 180
134 154 181
134 154 181
133 153 180
134 154 181
132 153 180
134 154 181
132 153 180
133 153 180
133 153 180
133 154 180
133 154 180
133 153 180
134 154 181
133 154 180
133 154 181
133 153 180
133 153 180
133 153 180
133 154 181
134 154 181
133 153 180
132 152 179
133 154 181
133 154 180
134 154 181
133 154 181
134 154 181
134 154 181
135 155 181
134 154 181
134 154 181
135 155 181
133 153 180
133 154 180
134 154 181
133 154 180
132 153 180
133 154 180
134 154 181
134 154 181
134 154 181
134 154 181
134 154 180
134 154 181
133 153 180
134 154 181
134 154 181
133 154 181
134 154 181
132 153 181
134 154 181
134 154 181
133 154 181
134 154 181
134 154 181
133 154 180
133 154 181
135 155 181
133 154 180
133 154 181
133 154 180
134 154 181
134 154 181
134 154 181
133 153 180
133 154 181
132 153 180
134 154 180
133 154 181
134 154 180
133 154 181
133 154 181
134 154 181
133 153 180
134 154 181
134 154 181
134 154 180
133 154 181
133 154 181
134 154 181
133 154 181
134 154 181
134 154 180
134 154 181
134 154 181
133 154 181
133 154 181
134 154 181
134 154 181
133 154 181
133 154 181
134 154 181
134 154 181
134 155 181
134 154 181
134 154 181
135 155 181
134 154 181
134 154 181
134 154 181
133 154 181
133 154 181
134 154 181
134 154 181
134 154 181
134 154 181
134 154 180
134 154 181
134 154 181
133 154 181
134 154 181
134 154 181
134 154 181
133 154 181
134 154 181
133 154 181
135 155 181
134 154 181
133 154 181
134 154 181
135 155 181
134 154 181
133 154 181
135 155 181
134 154 181
133 154 181
133 154 181
134 155 181
133 153 180
135 155 181
133 154 181
133 154 181
133 154 181
135 155 181
133 154 181
134 154 181
134 154 181
134 154 181
135 155 181
134 154 181
134 154 181
133 154 180
134 154 181
134 154 181
134 154 181
133 154 180
134 154 181
134 154 181
134 154 181
134 154 181
133 153 180
134 154 181
133 154 181
135 155 181
134 154 181
133 154 181
134 154 181
134 154 181
135 155 181
134 154 181
133 154 180
134 154 181
134 154 181
133 154 181
133 154 181
133 154 181
133 154 181
134 154 181
133 154 181
133 154 181
134 154 181
133 154 181
135 155 181
134 154 181
133 153 180
133 154 181
134 154 181
133 154 181
133 154 181
134 154 181
134 154 181
134 154 181
135 155 181
134 154 181
134 154 181
133 154 181
134 154 181
133 154 181
133 154 181
134 154 181
134 154 181
135 155 181
134 154 181
133 154 181
133 154 181
133 154 181
133 153 180
133 153 180
132 153 180
132 152 179
134 154 181
133 153 180
133 153 180
132 153 180
133 153 180
133 154 181
133 153 180
132 153 179
133 154 181
132 153 179
133 153 180
132 153 180
132 153 180
133 153 179
132 152 179
133 153 180
131 151 179
132 153 180
132 153 179
131 152 179
132 153 180
133 153 180
133 153 180
131 151 178
133 153 180
133 153 180
131 152 179
132 152 180
131 151 179
133 153 180
132 152 179
131 151 178
133 153 179
133 154 180
133 154 180
132 153 180
132 152 178
131 152 180
131 151 178
132 153 180
132 152 179
131 151 180
132 153 180
132 152 179
131 151 179
131 151 178
133 153 180
133 153 180
132 152 179
132 152 180
132 152 179
131 152 179
132 153 180
132 152 179
131 151 178
131 152 179
132 152 180
132 152 179
133 154 180
131 151 178
131 151 179
131 151 179
130 151 178
130 150 177
132 152 179
130 150 178
132 152 179
131 151 179
131 151 178
130 150 178
130 151 178
132 152 179
132 152 180
131 151 178
132 152 179
129 149 177
130 150 177
130 150 178
131 151 179
133 153 179
130 150 179
130 150 178
131 150 177
132 152 179
131 152 178
132 153 180
132 153 180
131 151 179
131 151 179
129 149 177
131 151 178
131 151 179
133 153 180
131 151 179
130 150 178
133 153 180
132 152 179
132 152 179
132 152 180
128 149 177
131 151 178
132 152 179
131 152 179
131 151 179
130 150 178
130 151 179
131 151 178
131 152 179
132 152 179
130 149 177
130 150 178
131 151 179
132 153 180
130 151 178
132 153 180
132 153 180
132 152 179
132 152 180
132 152 179
132 152 179
131 151 178
132 152 180
131 151 179
133 153 179
132 153 179
132 152 179
132 153 180
131 152 179
131 152 180
134 154 180
133 153 180
130 150 178
131 152 179
132 152 179
133 153 180
133 153 179
133 153 180
132 152 180
131 152 179
130 150 178
132 152 179
131 151 178
132 152 179
131 151 178
134 154 180
132 152 180
133 153 180
134 153 180
132 153 180
134 154 180
132 152 179
133 153 180
132 153 180
132 153 180
131 152 179
133 154 181
133 153 180
132 152 180
132 152 179
133 153 180
133 153 180
132 153 180
133 153 180
133 153 180
132 152 179
132 152 179
132 152 179
133 153 180
131 152 178
133 154 180
133 153 180
133 153 180
132 152 179
133 153 180
132 151 178
133 154 180
133 154 180
132 152 180
132 152 180
132 153 180
133 153 180
133 154 181
132 153 180
134 154 181
133 153 180
133 153 180
132 153 179
133 154 181
132 152 179
132 152 180
132 152 180
133 153 180
133 154 180
133 154 180
132 153 180
133 154 181
134 154 181
133 153 180
133 154 180
133 153 180
133 153 180
134 154 181
134 154 181
134 154 181
133 154 180
133 153 180
133 154 181
134 154 180
134 154 181
133 153 180
132 153 180
133 154 180
134 154 181
133 153 180
133 154 181
134 154 180
134 154 181
133 154 181
133 154 181
133 154 180
133 154 181
133 154 181
133 154 180
133 154 180
133 153 180
133 154 181
134 154 181
133 153 180
133 154 181
134 154 181
133 154 181
134 154 180
134 154 181
134 154 181
134 154 181
134 154 181
134 154 181
133 153 180
134 154 181
135 155 181
133 154 181
134 154 181
134 154 180
134 154 181
134 154 181
133 154 181
133 153 180
133 154 181
134 154 181
135 155 181
134 154 181
134 154 181
133 153 180
134 154 181
134 154 181
134 154 181
134 154 181
134 154 181
133 154 181
133 154 181
133 153 180
133 154 181
133 154 181
134 154 181
133 154 181
134 154 181
134 155 181
133 154 180
133 154 180
133 154 181
134 154 181
134 154 181
134 154 181
133 154 180
134 154 181
134 154 181
134 154 181
134 154 181
134 154 181
134 154 181
133 154 181
134 154 181
135 155 181
133 154 181
134 154 180
134 154 181
133 154 180
132 153 180
134 154 181
134 154 180
134 154 181
135 155 181
134 154 181
133 154 181
133 154 181
134 154 180
133 153 180
132 153 181
134 154 181
133 154 181
134 154 181
133 153 180
133 154 181
134 154 181
134 154 181
134 154 181
134 154 181
134 154 181
134 154 181
134 154 181
134 154 181
134 154 181
134 154 181
133 154 181
134 154 181
134 154 181
134 154 180
134 154 181
133 154 181
133 154 181
134 154 181
134 154 181
134 154 180
134 154 181
134 154 181
133 154 181
134 154 181
133 154 181
134 154 181
134 154 181
133 153 180
135 155 181
134 154 181
134 154 181
133 154 181
133 154 181
134 154 181
133 153 180
134 154 181
134 154 181
134 154 181
134 154 181
134 154 181
134 154 181
134 154 181
133 154 181
134 154 181
133 154 181
134 154 181
134 154 181
133 154 181
133 154 181
134 154 181
133 154 181
133 154 181
132 153 180
133 154 181
135 155 181
133 154 181
133 154 181
133 154 181
134 154 181
133 154 181
134 154 181
135 155 181
133 154 181
133 154 180
133 154 181
135 155 181
133 154 181
133 154 181
134 154 181
134 154 181
134 154 181
134 154 181
134 154 181
134 154 181
134 154 181
133 154 181
133 154 181
133 154 181
134 154 181
134 154 181
133 154 181
134 154 181
133 154 181
134 155 181
134 154 181
133 154 181
134 154 181
134 154 181
134 154 181
135 155 181
134 154 181
134 154 181
132 153 180
133 154 180
133 153 180
133 154 180
134 154 181
133 153 180
134 154 181
132 153 180
132 152 179
134 154 181
132 153 180
132 153 179
133 153 180
133 154 180
134 154 180
133 154 180
132 153 180
132 153 180
132 152 179
131 152 179
133 153 180
132 152 179
134 154 180
132 152 179
132 153 180
132 153 180
133 154 180
133 153 180
132 152 179
133 154 180
131 152 179
133 153 180
132 153 180
132 152 179
132 152 180
131 151 179
132 153 180
132 153 180
131 151 179
133 153 180
132 152 179
132 152 179
132 153 179
133 153 179
133 154 180
131 151 179
132 153 180
133 154 180
132 152 179
130 151 178
132 152 179
131 152 179
133 153 180
130 149 177
132 153 180
130 151 179
132 153 179
131 152 179
132 153 180
132 153 180
131 152 179
131 152 179
131 152 179
131 151 178
132 153 180
131 151 178
131 151 178
131 151 179
131 151 178
133 153 180
131 151 179
129 150 178
132 153 180
131 152 180
132 152 179
130 150 178
132 152 179
130 150 178
130 151 179
132 152 179
131 152 179
130 150 177
132 152 179
130 151 178
132 152 180
132 152 179
131 151 179
132 152 179
131 152 179
134 154 180
132 152 179
133 153 180
132 153 180
130 151 178
132 153 180
132 153 180
131 151 179
130 151 179
131 151 179
131 151 179
133 153 180
132 152 179
131 151 179
132 152 179
131 150 178
132 152 179
130 150 178
131 151 179
133 154 180
131 151 179
132 153 179
131 151 179
132 153 180
132 152 179
131 152 179
133 154 180
131 152 180
132 152 179
132 152 179
130 151 179
131 151 178
132 152 179
133 153 180
132 152 179
132 153 180
131 151 179
133 153 179
133 153 179
133 153 179
132 152 179
133 152 179
131 151 179
133 153 180
131 151 178
131 151 179
133 153 179
132 152 179
130 151 179
132 152 179
133 153 180
132 152 179
132 152 179
133 153 179
132 152 180
133 153 180
133 153 179
133 153 180
134 154 181
133 153 179
132 152 179
132 152 179
133 153 179
131 151 178
131 151 179
134 154 180
133 154 180
132 152 179
130 150 178
134 154 181
132 152 179
132 152 179
132 152 179
134 154 181
134 154 180
133 153 180
133 153 179
133 154 181
132 153 180
134 154 180
133 153 180
134 154 181
132 152 179
132 152 179
134 154 180
133 153 179
132 152 179
133 153 179
133 154 181
134 153 180
134 154 180
134 154 180
133 154 180
133 154 180
133 153 180
133 154 181
134 154 181
133 154 181
134 154 180
132 153 180
133 153 180
134 154 180
133 154 180
133 153 180
133 153 180
133 153 180
133 154 181
135 155 181
133 154 181
133 153 180
133 154 181
133 154 181
133 153 180
133 153 180
133 154 181
134 154 180
133 153 180
133 154 181
134 154 181
133 154 181
134 154 181
133 153 180
134 154 180
134 154 181
133 153 180
133 153 180
134 154 181
132 153 180
133 153 180
133 154 180
133 153 180
134 154 181
133 153 180
132 153 180
135 155 181
134 154 181
135 155 181
132 153 180
134 154 181
134 154 180
134 154 181
133 153 180
133 154 181
133 154 181
134 154 181
133 154 180
133 154 180
133 154 181
134 154 181
134 154 181
133 154 181
134 154 181
133 154 181
133 154 181
133 154 181
134 154 181
134 154 180
133 154 181
133 154 181
134 154 180
133 154 181
134 154 181
133 153 180
135 155 181
133 154 181
135 155 181
133 153 180
133 153 180
134 154 181
133 154 181
133 154 181
134 154 181
133 154 181
134 154 181
133 154 181
134 154 181
133 154 180
134 154 181
134 154 181
133 153 180
134 154 181
134 155 181
133 154 181
134 154 180
133 154 181
132 153 181
134 154 181
134 155 181
134 154 181
134 154 181
134 154 181
134 154 181
134 154 181
134 154 181
134 154 181
134 154 181
134 154 181
134 154 181
133 154 181
134 154 181
134 154 181
134 155 181
133 154 181
134 154 181
134 154 181
133 154 181
134 154 181
133 154 181
134 154 181
135 155 181
134 154 181
133 154 180
134 154 181
133 154 181
134 154 181
134 155 181
134 154 181
134 154 181
134 154 181
134 154 181
134 154 181
133 153 180
134 154 181
133 154 181
134 154 181
134 154 181
133 154 181
135 155 181
134 154 181
134 154 181
134 154 181
134 154 181
134 154 181
133 154 181
133 154 181
134 154 181
134 154 181
134 154 181
134 154 181
134 155 181
135 155 181
134 154 180
133 153 180
134 154 181
133 154 180
134 154 181
134 154 180
133 154 181
133 153 180
134 154 181
134 154 181
134 154 181
134 154 181
133 154 181
134 154 181
133 154 181
134 154 181
134 154 181
134 154 180
134 154 181
134 155 181
135 155 181
134 154 181
134 154 181
133 154 180
133 154 181
133 154 181
134 154 181
134 154 181
133 154 181
134 154 181
134 154 181
133 154 181
134 154 181
133 154 181
134 154 181
133 154 181
134 154 181
134 154 181
134 154 181
134 154 181
134 154 181
134 154 181
133 154 181
135 155 181
133 153 180
134 154 181
134 154 181
133 154 181
134 154 181
134 154 181
134 154 181
133 154 181
134 154 181
134 154 181
134 154 181
134 154 181
134 154 181
133 154 181
134 154 181
134 154 181
134 154 181
133 154 181
133 154 181
133 154 181
133 153 180
134 154 180
133 154 181
134 154 181
134 154 181
133 154 181
133 154 181
132 152 179
133 153 180
132 153 180
133 153 180
133 153 179
132 153 179
133 154 181
132 152 179
133 154 181
133 154 180
133 154 181
132 152 179
133 153 180
133 153 180
133 153 180
133 153 180
133 153 179
133 154 181
133 153 180
131 152 178
132 153 180
131 152 179
133 154 181
132 152 179
132 152 179
133 153 180
134 154 180
132 153 180
134 154 181
133 154 180
134 154 181
134 154 181
133 154 181
133 153 180
134 154 180
133 154 180
130 149 177
133 154 180
132 152 179
132 152 180
131 152 179
132 152 179
132 151 179
133 153 180
132 153 180
133 153 180
134 154 180
132 152 179
133 154 180
131 152 179
133 153 180
133 153 179
132 152 180
132 153 179
132 152 179
130 151 179
132 152 179
131 152 180
132 152 179
132 152 179
131 152 179
133 153 180
132 152 179
131 151 179
133 153 180
130 150 178
133 154 180
131 151 179
132 152 179
132 152 179
133 153 180
131 151 179
134 154 180
132 153 180
132 152 180
132 152 179
131 152 179
132 153 180
133 153 180
133 153 179
132 153 180
129 149 178
132 152 179
132 152 180
131 151 179
131 151 179
132 152 179
133 154 181
132 152 179
133 153 179
132 152 179
131 151 178
132 152 179
132 152 179
132 152 179
132 152 179
133 153 180
130 150 177
132 152 179
133 154 181
130 151 178
132 152 179
133 153 180
133 153 180
131 151 178
130 150 178
130 149 178
132 153 179
133 153 180
131 151 179
131 151 178
131 151 179
133 152 179
133 153 180
132 152 179
131 151 178
134 154 180
132 152 179
133 153 180
132 153 180
131 151 179
132 152 180
133 154 181
133 153 180
132 152 179
130 150 177
133 153 180
132 153 180
132 153 180
132 152 178
133 153 180
133 153 180
133 153 180
132 153 180
133 153 180
133 153 180
133 153 180
132 152 179
132 152 179
133 154 180
132 153 180
132 152 180
132 152 179
132 152 179
133 153 180
132 153 180
133 153 180
133 153 180
133 154 180
132 152 179
133 153 179
132 152 180
133 153 180
133 154 180
134 154 180
134 154 180
132 152 179
133 153 180
134 154 180
133 153 180
132 153 179
133 153 179
132 153 180
131 152 179
133 153 180
134 154 181
133 153 180
135 155 181
132 153 180
133 153 180
132 152 179
133 154 180
133 153 180
134 154 181
134 154 180
133 153 180
132 153 180
133 154 181
133 154 180
132 153 180
133 153 180
133 154 181
133 153 180
133 153 180
133 154 181
133 153 180
133 153 180
133 154 180
132 153 180
132 153 180
134 154 181
134 154 181
132 152 180
134 154 181
134 153 179
134 154 181
133 154 181
133 153 179
134 154 181
134 154 181
133 153 180
134 154 181
133 153 180
134 154 181
133 154 180
133 153 180
134 154 181
134 154 181
134 154 181
133 153 180
133 153 180
134 154 181
134 154 181
134 154 181
133 154 181
132 153 180
133 154 181
134 154 181
133 154 181
133 154 180
134 154 181
133 153 180
134 154 180
133 153 180
134 154 181
132 153 180
133 154 180
134 154 180
133 154 180
133 153 180
133 154 181
133 154 181
134 154 181
133 154 181
134 154 181
133 154 180
134 154 181
133 154 180
133 154 181
133 154 181
134 154 181
134 154 181
133 154 181
133 154 181
133 154 181
133 154 181
133 153 180
134 154 181
134 154 180
134 154 181
133 154 181
133 154 180
134 154 181
133 154 181
134 154 180
135 155 181
133 154 181
133 154 181
133 153 180
133 154 181
134 154 181
134 154 181
134 154 181
133 154 181
133 154 181
134 155 181
134 154 181
134 154 180
135 155 181
133 153 180
134 154 181
133 154 181
134 154 181
133 154 181
134 154 180
133 154 181
134 154 181
133 154 181
134 154 180
134 154 181
133 153 180
134 154 181
134 154 181
134 154 181
134 154 181
134 154 181
134 154 181
134 154 180
134 154 181
133 154 181
134 154 181
134 154 181
134 154 181
134 154 180
133 154 181
134 154 181
134 154 181
134 154 181
134 154 181
134 154 181
133 154 181
134 154 181
135 155 181
134 154 181
134 154 181
134 154 181
134 154 181
134 154 181
134 154 181
134 154 181
134 154 181
134 154 181
134 154 181
133 154 181
134 154 180
133 154 180
134 154 181
134 154 181
134 154 181
134 154 181
134 154 181
133 154 181
135 155 181
134 154 181
134 154 181
134 154 181
133 154 181
134 154 181
134 154 181
133 154 181
134 154 181
133 154 181
134 154 180
134 154 181
133 154 181
133 154 181
134 154 181
134 154 181
133 154 181
134 154 181
134 154 181
133 154 181
134 154 181
134 154 181
134 154 181
134 154 181
133 154 181
133 154 181
135 155 181
134 154 181
133 154 181
133 154 181
134 155 181
133 154 181
134 154 181
134 154 181
134 154 181
134 154 181
134 154 181
133 154 181
134 155 181
134 154 181
134 154 181
134 154 181
133 154 181
133 154 181
133 153 180
135 155 181
134 154 181
133 154 181
134 154 181
133 154 181
133 154 181
134 154 181
133 154 181
134 154 181
134 154 181
133 154 181
133 154 181
134 155 181
133 154 181
135 155 181
133 154 181
134 154 181
134 154 181
133 154 181
134 154 181
133 154 181
134 154 181
133 154 181
134 154 181
134 154 181
134 154 181
134 154 181
133 154 181
134 154 181
133 154 181
134 154 181
133 154 181
133 153 180
134 154 181
134 154 181
134 154 181
133 154 180
133 153 179
133 153 179
133 154 181
133 153 180
133 153 180
134 154 181
134 154 180
134 154 181
134 154 180
132 152 179
134 154 181
133 154 181
132 153 180
133 153 180
133 154 181
132 153 180
132 152 179
131 152 179
133 154 180
133 153 180
133 153 180
133 153 180
133 153 180
133 154 180
133 153 180
132 153 180
132 153 180
134 154 180
133 153 180
131 151 178
133 153 180
134 154 180
132 152 179
134 154 181
134 154 181
133 153 180
131 151 179
133 153 180
132 153 180
132 152 179
132 152 179
130 150 178
131 152 179
132 152 179
133 153 180
133 153 180
132 152 179
132 152 179
133 153 180
133 153 180
131 151 178
132 152 179
131 152 180
131 152 179
134 154 180
131 151 178
133 153 180
132 152 179
132 152 178
133 153 180
132 153 180
132 153 180
132 153 180
132 153 180
132 152 179
133 153 180
132 152 179
132 152 179
131 152 179
132 152 179
131 151 179
133 154 180
132 152 180
132 152 180
131 152 179
133 153 180
132 153 179
132 153 180
132 153 180
132 152 179
132 153 179
133 153 179
132 153 180
131 151 179
131 151 179
132 152 179
131 151 178
131 152 179
131 151 178
131 152 179
132 152 179
131 151 178
132 152 180
132 152 179
132 153 180
132 152 179
133 154 180
133 153 179
131 151 178
132 152 179
133 153 179
131 152 179
132 152 179
131 152 179
131 151 179
131 153 180
132 152 179
132 152 180
132 152 180
132 152 179
133 153 180
132 152 179
132 152 179
132 153 180
133 153 180
132 152 179
131 151 179
134 154 181
133 153 180
131 151 179
131 152 179
133 153 180
131 152 179
132 152 180
133 154 180
132 153 179
130 150 178
132 152 179
132 153 180
133 154 180
133 154 180
133 152 179
132 153 180
132 153 179
132 152 179
132 152 179
132 153 180
131 151 178
134 154 180
133 153 180
132 153 180
133 153 180
133 154 180
133 154 180
133 153 180
132 153 179
134 154 181
133 154 181
133 153 180
133 153 180
133 153 179
132 152 179
133 153 180
133 153 180
133 154 180
133 153 180
133 154 180
133 154 181
132 152 179
133 154 181
133 153 180
133 154 181
134 154 181
133 154 181
133 154 180
133 153 180
133 154 181
133 154 181
134 154 180
132 152 179
133 154 180
134 154 181
133 153 180
133 154 180
134 154 181
133 153 180
133 154 180
133 153 180
133 153 180
133 154 181
133 154 180
132 153 179
132 153 180
133 154 180
133 154 181
134 154 180
133 154 180
133 154 181
133 153 179
133 153 180
134 154 181
134 154 181
134 154 180
134 154 181
134 154 181
134 154 181
133 153 180
133 153 180
133 153 180
132 152 179
134 154 180
133 153 180
135 155 181
133 154 181
133 153 180
133 153 180
133 154 181
134 154 181
133 153 180
134 154 181
135 155 181
132 153 180
134 155 181
132 153 180
133 153 180
133 153 179
134 154 180
133 154 180
133 154 180
134 154 181
133 154 181
133 154 181
134 154 180
133 154 181
134 154 180
134 155 181
134 154 181
134 154 181
134 154 181
133 153 180
134 154 181
134 154 181
133 154 181
134 154 181
135 155 181
132 153 180
134 154 181
133 154 181
134 154 181
133 154 180
134 154 181
134 154 180
135 155 181
134 154 181
135 155 181
134 155 181
133 153 180
134 154 181
134 154 180
133 154 181
133 154 181
133 154 181
134 154 181
135 155 181
133 154 180
134 154 181
134 154 181
134 154 181
132 153 180
134 154 181
134 154 181
134 154 181
133 154 181
134 154 181
134 154 181
134 154 181
134 154 180
134 154 181
133 154 180
134 154 181
133 154 181
133 154 181
134 154 181
134 154 181
134 155 181
134 154 181
133 154 181
133 154 181
133 154 181
134 154 181
133 154 181
134 154 181
133 154 181
134 154 181
132 153 180
133 154 181
132 153 181
134 154 181
133 154 181
133 154 181
135 155 181
133 154 180
134 154 181
134 154 181
133 154 181
133 154 181
133 154 180
134 154 181
134 154 181
133 154 181
134 154 181
134 154 181
134 154 181
134 154 181
133 154 181
133 154 181
133 154 181
134 154 181
133 154 181
133 154 181
134 154 181
134 154 181
134 154 181
134 154 181
134 154 181
133 153 180
133 153 180
135 155 181
132 153 180
133 154 181
134 154 181
134 154 181
134 154 181
135 155 181
133 154 180
133 154 181
134 154 181
134 154 181
133 154 181
134 155 181
134 154 181
134 154 181
133 154 181
133 154 180
134 154 181
134 154 181
134 154 181
133 154 181
134 154 181
134 155 181
134 154 181
133 153 180
134 154 181
134 154 181
133 154 181
134 154 181
134 154 181
133 153 180
133 154 181
133 153 180
134 154 181
134 154 181
134 154 181
135 155 181
135 155 181
134 154 181
133 154 181
134 155 181
133 154 181
134 155 181
134 154 181
134 154 181
134 154 181
133 154 181
134 154 181
132 153 181
133 153 180
134 154 181
134 154 181
133 154 181
134 154 181
134 154 181
134 154 181
134 154 181
134 154 181
134 154 181
133 154 181
134 154 181
133 154 181
134 154 181
134 154 181
133 154 181
133 154 181
134 154 181
134 154 180
134 154 181
134 154 181
134 154 181
133 154 181
134 154 181
133 153 180
133 154 181
133 154 181
134 154 181
134 154 181
133 153 179
133 153 180
133 153 180
134 154 180
132 153 180
133 153 180
133 154 181
133 154 180
134 154 180
134 154 181
133 154 180
134 154 180
134 154 181
133 153 180
132 153 180
134 154 181
132 153 180
132 153 180
132 153 179
133 154 181
134 154 181
133 154 181
133 153 180
133 154 180
133 153 179
133 153 180
132 153 180
134 154 180
134 154 180
133 153 180
132 152 179
133 154 181
133 154 181
133 153 180
132 153 180
132 153 180
133 154 180
134 154 181
133 153 180
133 153 180
133 154 180
132 153 180
133 154 180
131 152 179
134 154 180
132 152 180
132 152 179
133 154 180
133 153 180
132 153 180
133 153 180
133 154 181
132 152 179
133 153 180
133 153 180
131 152 179
133 153 180
131 152 179
132 153 180
132 152 179
132 152 179
131 152 179
132 153 179
132 153 180
133 153 180
131 151 178
132 152 179
131 151 179
134 154 180
131 152 179
133 153 180
132 153 179
132 152 180
131 151 179
130 150 178
132 153 180
132 152 179
131 151 179
133 153 179
132 152 179
131 151 179
132 153 179
133 153 180
133 153 180
132 153 180
132 153 180
134 154 180
132 151 178
131 151 178
133 153 180
132 152 179
132 153 180
130 151 179
132 152 179
133 154 181
132 152 179
132 152 179
132 153 180
133 153 180
132 152 179
133 154 180
131 151 179
131 152 179
133 152 179
132 152 179
131 151 179
133 154 180
134 154 180
132 153 180
132 153 180
134 154 181
133 153 180
133 154 180
133 153 180
132 153 180
131 152 179
133 153 180
132 153 180
133 153 180
132 153 180
132 152 179
133 153 180
133 154 180
131 152 179
131 152 179
131 151 179
133 153 180
132 153 179
134 154 180
133 154 180
133 153 180
133 153 180
132 152 180
133 154 181
132 152 179
133 154 180
132 152 180
133 154 180
133 153 180
133 153 180
133 153 180
133 153 180
134 154 180
133 154 181
132 152 179
133 153 180
132 152 180
132 152 179
133 153 179
132 153 180
131 151 179
132 153 180
134 154 181
132 153 180
133 153 180
133 154 181
132 153 180
133 153 180
133 153 180
132 152 179
132 153 180
133 153 180
133 154 180
132 153 179
133 153 180
133 154 181
132 152 179
134 154 181
133 153 180
134 154 180
132 153 179
133 153 180
134 154 180
132 153 180
134 154 181
134 154 181
132 153 180
134 154 180
133 154 181
134 154 181
133 154 181
133 154 180
132 153 180
133 153 179
132 153 180
133 154 180
134 154 181
134 154 181
134 154 181
134 154 180
134 154 181
132 153 180
133 153 180
132 153 181
132 152 179
133 154 181
133 153 180
133 153 180
133 153 180
133 153 180
133 153 180
133 154 180
134 154 181
133 153 180
133 154 181
133 154 180
134 154 181
133 154 181
132 152 179
133 154 181
133 154 181
133 153 180
134 154 181
134 154 181
134 154 181
134 154 181
134 154 181
133 154 181
134 154 181
133 154 181
133 154 181
133 153 180
133 153 180
133 153 180
134 154 181
134 154 181
134 154 181
133 153 180
134 154 181
134 154 181
134 154 181
133 154 181
133 154 181
134 154 181
134 154 181
134 154 181
133 154 181
135 155 181
133 154 181
133 154 181
134 154 180
134 154 180
134 154 181
133 154 180
134 154 181
135 155 181
134 154 181
134 154 181
133 153 180
134 154 181
134 154 181
133 154 181
134 154 181
134 154 181
134 154 181
134 154 181
134 154 181
134 154 180
134 154 180
133 154 181
133 154 180
132 153 180
134 154 181
133 154 180
133 154 181
133 154 181
134 154 181
133 154 181
134 154 181
133 154 181
134 154 181
134 154 181
134 154 181
133 154 181
133 154 181
133 154 181
132 153 180
133 154 181
133 154 181
133 154 181
134 154 181
133 154 181
133 154 181
135 155 181
132 153 181
133 154 181
133 154 181
134 154 181
133 154 181
134 154 181
134 154 181
133 154 181
134 154 181
133 154 181
134 154 181
133 154 180
133 154 181
134 154 181
134 154 181
134 154 181
134 154 181
132 154 181
134 154 181
133 154 181
133 154 180
134 154 181
133 154 180
133 154 181
134 154 181
133 154 181
134 154 181
133 154 181
133 154 181
133 154 181
134 154 181
134 154 181
135 155 181
133 154 181
134 154 181
134 154 181
133 154 181
134 154 181
134 154 181
134 154 181
134 154 181
134 155 181
133 154 181
134 154 181
134 154 180
133 154 181
134 154 181
134 154 181
133 154 181
134 154 181
135 155 181
135 155 181
135 155 181
134 154 180
134 154 181
133 154 181
134 154 180
134 154 181
133 154 180
134 154 181
134 154 181
134 154 181
134 154 181
134 154 181
134 154 181
134 154 181
134 154 181
134 154 181
133 154 181
134 154 181
134 154 181
134 154 181
133 154 181
134 154 181
134 154 181
134 154 181
134 154 181
133 154 180
135 155 181
134 154 181
134 154 181
134 154 181
134 154 181
134 154 181
133 154 181
135 155 181
135 155 181
133 154 181
134 154 181
134 154 181
134 154 181
133 154 181
134 154 181
135 155 181
133 154 181
133 154 181
134 154 181
134 154 181
134 154 181
133 154 181
133 154 181
134 154 181
133 154 181
133 154 181
134 154 181
133 154 181
134 154 181
133 154 181
134 154 181
133 154 181
134 154 181
134 154 181
134 154 181
134 154 181
134 154 181
133 154 181
132 153 179
134 154 181
132 152 179
134 154 181
133 154 181
134 154 181
132 153 180
133 153 180
133 153 180
134 154 181
133 154 181
132 152 179
133 154 180
134 154 181
133 153 180
134 154 181
133 153 180
133 154 180
133 153 180
133 154 180
132 152 179
131 151 179
134 154 181
132 153 180
134 154 180
131 152 179
133 153 180
133 153 180
132 153 179
133 153 180
132 153 180
133 154 180
132 152 179
132 152 179
132 153 180
131 152 179
134 154 180
134 154 180
131 152 179
133 153 180
133 153 180
133 153 180
131 151 179
133 153 180
132 153 180
133 153 180
134 154 181
134 154 181
132 153 180
133 153 180
133 153 180
133 153 180
132 153 180
132 153 180
132 153 180
133 153 180
133 153 179
133 153 180
133 153 180
133 153 179
133 153 180
133 154 180
131 152 179
134 154 180
132 153 179
133 154 180
133 153 180
133 154 180
131 152 179
133 153 180
133 153 180
132 153 179
132 153 180
133 153 180
131 151 179
133 153 180
132 152 180
134 154 180
132 152 179
131 152 179
132 152 180
131 151 179
133 153 179
131 152 179
132 152 179
131 152 179
131 151 179
133 154 181
132 152 179
132 153 180
132 152 180
131 151 179
130 151 179
131 152 179
130 150 178
133 153 180
134 154 180
132 152 179
132 152 179
132 153 180
133 153 180
132 152 179
132 151 178
132 153 179
133 154 180
134 154 181
132 152 180
134 154 181
132 152 179
133 154 180
134 154 180
133 154 181
133 153 180
132 153 180
132 153 180
132 152 179
132 153 180
132 153 180
132 152 180
132 153 180
132 153 180
131 152 179
133 154 180
133 153 180
132 152 179
133 153 180
133 153 180
132 152 180
134 154 180
134 155 181
133 153 180
132 152 179
133 154 181
132 153 179
133 153 180
133 153 180
133 154 180
131 152 180
134 154 180
133 153 180
133 153 180
134 154 180
133 153 180
131 151 179
134 154 181
133 154 180
133 153 180
133 153 180
133 154 181
134 154 180
131 151 178
133 154 181
134 154 180
133 153 180
132 153 179
132 153 179
132 152 180
133 154 180
133 153 180
134 154 181
133 153 179
132 152 180
135 154 180
133 153 180
133 154 181
133 153 180
133 154 181
133 153 180
134 154 180
135 155 181
133 153 180
133 154 181
133 153 180
132 153 180
133 154 180
133 153 179
133 154 180
133 154 181
134 154 180
133 153 180
133 153 180
133 153 180
132 153 180
133 154 181
134 154 181
134 154 181
133 154 181
133 153 180
134 154 180
133 154 181
133 153 180
133 154 181
133 154 181
132 153 180
134 154 181
134 154 181
134 154 180
133 154 180
134 154 181
133 153 180
133 153 180
133 154 180
133 154 180
133 154 181
133 154 181
133 153 180
133 153 180
134 154 181
133 154 181
134 154 181
133 153 180
133 154 181
134 154 181
133 153 180
133 154 180
133 154 181
132 152 179
134 154 181
133 154 181
135 155 181
133 153 180
133 154 180
133 154 181
134 155 181
135 155 181
133 154 181
134 154 181
134 154 180
133 154 181
133 154 180
134 154 181
134 154 181
134 154 181
134 154 180
133 154 181
133 154 180
134 154 181
134 154 180
134 154 181
135 155 181
133 154 181
134 154 181
134 154 180
134 154 181
134 154 180
134 154 181
133 153 180
134 154 181
134 154 181
135 155 181
134 154 181
134 154 181
134 154 181
134 154 180
134 154 181
134 154 181
134 154 181
133 154 181
134 154 181
135 155 181
134 154 180
133 154 181
135 155 181
134 154 181
133 154 180
133 154 181
133 154 181
133 154 181
134 155 181
134 154 181
134 154 181
134 154 181
133 154 181
134 154 181
133 154 181
134 154 181
134 154 181
134 154 181
134 154 181
134 154 181
134 154 181
133 154 181
134 154 181
134 154 180
133 154 181
134 154 181
133 154 180
133 153 180
133 154 181
134 154 180
135 154 180
135 155 181
133 154 181
133 154 181
133 154 181
133 154 181
133 154 181
133 154 181
133 154 180
134 154 181
133 154 181
134 154 181
134 154 181
134 154 181
134 154 181
134 154 181
134 154 181
133 154 180
134 154 181
134 154 181
134 154 181
134 154 181
133 154 181
135 155 181
134 154 181
134 154 181
134 154 180
133 154 181
134 154 181
134 154 181
134 154 180
134 154 181
134 154 181
134 154 181
134 154 181
134 154 181
133 153 180
134 154 181
133 154 181
134 154 181
133 154 181
134 154 181
134 155 181
134 154 181
134 154 181
133 154 181
133 154 181
135 155 181
133 154 181
134 154 181
133 153 180
133 154 181
134 154 181
134 154 181
133 154 181
134 154 181
134 154 181
133 154 181
134 154 181
133 154 181
133 154 181
133 154 181
134 154 181
134 154 181
134 154 181
134 154 181
134 154 181
133 154 181
134 154 181
133 154 181
134 154 181
134 154 181
133 154 181
134 154 181
133 154 181
133 154 181
134 155 181
134 154 181
134 154 181
133 154 181
133 154 181
134 154 181
133 154 181
133 154 181
134 154 181
133 154 181
134 154 181
134 154 181
133 154 181
133 154 181
133 154 181
134 154 181
134 154 181
133 154 181
133 154 180
134 154 181
133 154 181
133 154 181
134 154 181
134 154 181
134 154 181
133 154 181
133 154 181
134 154 181
134 154 181
133 154 181
133 154 181
134 154 181
134 154 181
133 154 181
133 153 180
134 154 181
135 155 181
132 153 180
133 154 181
133 154 181
133 153 179
133 154 181
133 153 179
134 154 181
131 152 179
133 153 180
133 154 180
133 154 181
134 154 180
134 154 180
133 153 180
133 153 180
133 153 180
133 153 179
133 154 180
132 152 179
132 153 180
132 152 180
133 154 180
134 154 181
132 153 180
134 154 180
131 151 179
133 154 181
134 154 180
133 154 180
133 154 180
134 154 181
133 153 179
132 153 180
133 154 180
133 153 179
133 154 181
134 154 181
133 154 180
133 153 180
132 152 179
132 153 180
133 154 180
133 153 179
134 154 181
134 154 181
133 153 180
133 153 180
134 154 180
133 153 180
132 152 179
135 155 181
133 153 180
133 153 180
133 154 180
133 154 180
132 153 180
132 152 180
133 153 180
132 152 179
132 152 179
131 151 179
133 153 180
133 153 180
132 153 180
133 153 180
133 153 180
131 152 179
133 153 180
132 153 180
132 153 180
133 153 179
133 153 180
132 152 179
133 153 180
132 153 180
133 153 180
132 152 180
131 151 179
134 154 181
134 154 180
131 152 179
133 153 180
134 154 181
132 152 179
132 153 179
132 153 180
133 153 179
131 151 179
133 153 180
132 153 180
132 152 179
132 152 179
132 152 179
133 153 180
132 153 179
133 153 180
133 153 180
134 154 181
132 152 179
134 154 181
133 153 180
131 151 179
131 151 178
132 153 180
133 154 181
132 152 179
133 153 180
132 153 180
133 153 180
133 154 180
132 153 180
132 152 180
132 153 179
132 153 179
132 153 180
133 153 180
133 154 181
133 153 180
132 152 179
131 152 179
132 153 180
132 153 180
131 152 179
131 151 179
134 154 180
130 151 179
133 152 180
132 153 180
133 153 180
132 152 179
132 153 179
133 154 181
133 154 181
133 153 179
133 153 180
132 153 180
134 154 181
131 151 179
133 153 179
133 154 180
132 153 180
133 153 180
132 153 180
133 154 180
132 152 179
134 154 180
133 154 181
132 153 180
133 154 180
133 153 180
133 153 180
134 154 180
132 153 179
133 154 181
133 154 181
134 154 181
133 153 180
133 154 181
132 152 179
134 154 181
133 153 179
134 154 180
134 154 180
133 153 180
133 154 180
133 154 181
134 154 180
134 155 181
133 153 180
134 154 180
134 154 181
132 153 180
132 153 180
133 154 180
132 153 180
133 153 180
133 153 180
133 154 180
133 154 181
134 154 181
133 154 180
134 154 181
133 154 180
133 154 181
132 153 180
134 154 180
133 153 180
134 154 181
134 154 180
134 154 181
133 154 180
134 154 180
134 154 180
133 154 180
133 154 180
133 153 180
133 154 181
134 154 180
135 155 181
133 153 180
133 153 180
134 154 181
134 154 181
134 154 181
133 153 180
133 154 181
134 154 181
134 154 181
133 154 181
133 154 180
134 154 181
134 154 180
133 153 180
133 154 181
135 154 180
134 154 181
134 154 181
133 153 180
134 154 181
133 153 180
133 154 181
133 154 181
134 154 180
133 154 181
134 154 180
134 154 181
133 153 180
132 153 179
133 154 181
134 154 181
134 154 181
134 154 181
134 154 181
134 154 181
135 155 181
134 154 181
134 154 180
134 154 180
133 154 181
134 154 180
135 155 181
134 154 180
133 153 180
134 154 181
133 154 180
133 154 180
134 154 181
133 154 181
133 154 181
133 154 181
133 154 180
134 154 181
133 153 179
133 154 181
135 155 181
134 154 181
134 154 181
134 154 181
135 155 181
134 154 181
135 155 181
133 154 181
134 155 181
133 154 181
134 154 181
134 154 181
134 154 181
133 154 181
134 154 181
133 154 181
133 154 181
133 154 181
133 154 181
133 154 180
133 154 180
134 154 181
134 154 181
134 154 181
135 155 181
133 154 181
133 154 181
134 154 181
134 154 181
133 154 181
134 154 180
133 154 181
134 154 181
134 154 181
134 154 181
134 154 180
133 154 181
134 154 181
134 154 181
134 154 181
134 154 181
133 154 181
133 154 181
133 154 181
133 154 181
133 154 181
134 154 181
133 154 181
133 154 181
133 154 181
134 154 181
133 154 181
134 154 181
133 154 181
134 154 181
134 154 181
133 154 181
134 154 181
134 154 181
133 154 181
133 154 181
134 154 181
133 154 180
133 154 181
134 155 181
133 154 181
134 154 181
134 154 181
133 154 181
134 154 181
134 154 181
134 154 181
135 155 181
134 154 181
135 155 181
134 154 181
134 154 181
134 154 181
134 154 181
133 154 180
134 154 181
133 154 181
134 154 181
134 154 181
133 154 180
134 154 181
133 154 180
134 154 181
134 154 181
134 154 181
133 154 181
134 155 181
134 154 181
133 154 181
134 154 181
135 155 181
133 154 180
134 154 181
133 154 181
134 154 181
134 154 181
133 154 181
134 154 181
134 154 181
135 155 181
134 154 181
134 154 181
133 154 181
133 154 181
134 154 181
134 154 181
133 154 181
134 154 181
135 155 181
134 154 181
135 155 181
134 154 181
134 154 181
134 154 181
133 154 181
134 154 181
133 154 180
134 154 181
134 154 180
134 154 181
134 154 181
133 154 181
134 154 181
133 154 181
134 154 181
134 154 181
134 154 181
135 155 181
134 154 181
134 154 181
134 154 181
133 154 181
133 154 181
134 154 181
134 154 181
133 153 180
134 154 180
133 154 181
132 153 180
133 153 180
134 154 180
133 153 180
133 153 180
133 154 181
133 153 180
133 154 180
133 154 180
133 154 181
134 154 181
134 154 181
133 153 180
133 154 180
134 154 181
132 153 180
133 153 180
134 154 180
134 154 181
134 154 181
133 154 180
134 154 181
134 154 181
134 154 180
133 154 181
133 154 181
132 153 180
133 154 180
133 154 180
133 153 180
134 154 181
134 155 181
133 154 180
132 153 180
133 154 181
134 154 180
133 153 180
134 154 180
131 151 179
133 154 180
132 152 179
133 154 180
133 153 179
134 154 180
134 154 180
132 153 180
133 153 180
134 154 181
132 153 180
133 154 180
134 154 181
132 152 179
133 153 180
133 153 180
134 154 181
132 153 180
134 154 180
133 153 180
134 154 181
132 152 179
133 154 181
134 154 181
132 153 180
133 154 181
132 152 179
133 154 181
132 153 180
132 152 179
133 154 181
134 154 180
133 154 181
132 152 180
132 152 179
131 152 179
132 152 180
130 150 179
131 152 179
134 154 180
132 152 179
132 152 179
132 152 179
133 154 180
133 154 180
133 153 180
133 153 179
132 153 180
134 154 181
133 154 181
131 152 179
132 152 179
131 151 178
132 153 181
133 154 180
133 153 180
133 153 180
132 153 180
133 153 180
133 153 180
133 153 180
133 153 180
133 153 180
134 154 180
131 152 179
133 153 180
133 153 180
132 153 180
133 153 180
134 154 180
130 149 177
133 153 180
132 153 180
133 153 180
134 154 181
133 153 180
133 154 181
132 152 179
132 152 178
133 153 180
132 153 180
133 153 179
134 154 181
132 153 180
134 154 180
131 152 179
134 154 181
132 152 179
132 153 180
133 154 180
131 152 180
132 153 179
132 152 179
133 154 181
132 153 180
133 153 180
133 154 180
133 153 180
134 154 180
134 154 180
133 153 180
134 154 181
133 154 180
134 154 180
134 154 180
133 154 180
132 153 180
133 154 180
133 154 180
133 153 180
133 153 180
132 153 180
134 154 181
133 153 180
134 154 181
134 154 181
134 153 179
133 153 180
133 153 180
133 153 180
133 154 181
134 154 180
134 154 180
133 154 180
134 154 180
134 154 180
132 153 180
133 154 181
133 154 181
134 154 180
134 154 181
133 153 180
134 154 181
133 153 180
132 153 179
134 154 181
133 154 181
133 153 180
133 153 180
133 153 180
132 153 180
133 154 181
133 154 180
133 153 180
134 154 181
134 154 181
134 154 181
133 154 180
134 154 181
132 152 180
134 154 180
133 153 180
133 153 180
133 154 181
133 154 180
133 154 180
133 153 180
134 154 181
134 154 181
132 153 181
135 155 181
134 154 181
133 153 180
133 154 181
134 154 181
134 154 181
133 153 180
133 153 180
134 154 181
134 154 181
134 154 181
134 154 181
135 155 181
133 154 181
135 155 181
134 154 180
134 154 181
133 154 180
134 155 181
134 154 181
134 154 181
133 154 180
134 154 180
133 153 180
134 154 181
134 154 181
133 154 181
133 154 180
133 153 180
134 154 181
133 154 180
136 155 181
133 154 180
133 154 181
133 154 180
133 154 181
133 153 180
133 153 179
133 154 181
135 155 181
134 154 181
134 154 181
134 154 181
133 154 181
134 154 181
133 154 181
133 154 181
133 154 181
134 154 181
133 153 180
134 154 181
133 154 181
133 154 181
133 154 181
134 154 181
134 154 180
133 153 180
134 154 181
133 154 180
133 154 181
133 153 180
133 154 181
135 155 181
134 154 181
134 154 181
134 154 181
134 154 181
133 153 180
134 154 181
133 154 181
133 154 181
134 154 181
133 154 180
134 154 180
135 155 181
134 154 181
133 154 181
134 154 181
133 154 181
133 154 181
133 154 181
134 154 181
133 154 181
134 154 181
134 154 181
134 154 181
133 154 181
133 154 181
134 154 181
132 153 181
134 154 181
133 154 181
134 154 181
133 154 181
134 154 181
134 154 181
134 154 181
134 154 181
133 154 181
134 154 181
133 154 181
133 154 181
133 154 181
133 154 181
134 155 181
133 154 180
133 154 180
134 154 181
133 154 180
134 154 181
134 154 181
134 154 181
134 154 180
133 154 181
134 154 181
134 154 181
134 154 181
133 154 181
134 154 181
134 154 181
133 154 181
134 154 181
134 154 181
133 154 181
133 154 181
134 154 181
133 154 181
133 153 180
133 154 181
134 154 181
134 154 181
133 154 181
134 154 181
134 154 181
135 155 181
133 154 181
134 154 181
134 154 181
134 154 181
133 154 181
134 154 181
134 154 181
133 154 181
133 154 180
134 155 181
134 154 181
133 154 181
134 154 181
134 154 181
135 155 181
134 154 181
133 154 181
133 154 181
134 154 181
134 154 181
134 154 181
134 154 181
134 154 181
134 154 181
133 154 181
133 153 180
133 154 181
133 154 181
134 154 181
133 154 181
133 154 181
133 154 181
133 154 181
134 154 181
134 154 181
132 153 181
133 154 180
133 154 181
134 154 180
133 154 181
133 154 181
134 154 181
133 154 181
133 154 181
133 154 181
134 154 181
133 153 180
134 154 181
133 154 181
134 154 181
134 155 181
134 154 181
134 154 181
134 154 181
134 154 181
134 154 181
135 155 181
133 154 181
134 155 181
133 154 181
134 154 181
134 154 181
133 154 181
134 154 181
133 154 181
134 154 181
134 154 181
133 153 180
134 154 181
133 154 180
134 154 180
134 154 181
133 154 181
134 154 180
133 154 180
134 154 181
134 154 180
134 154 181
132 153 180
134 154 181
132 153 179
133 154 181
134 154 181
133 154 180
132 153 180
133 153 180
133 153 180
133 153 180
134 154 180
134 154 181
133 153 180
134 154 181
132 152 179
134 154 180
132 152 179
134 154 181
132 152 179
134 154 180
133 153 180
134 154 180
134 154 181
134 154 180
133 154 180
134 155 181
133 153 180
132 153 180
134 154 181
133 154 180
133 153 180
133 154 180
133 154 181
133 154 181
131 151 179
133 154 180
133 153 180
133 153 180
133 153 179
133 154 180
134 154 180
133 153 180
133 154 181
132 153 180
133 153 180
133 153 180
132 153 180
133 153 180
134 154 180
134 154 180
133 153 180
133 153 180
133 153 180
132 152 179
132 153 180
133 153 180
131 152 179
133 153 180
133 154 180
133 153 180
133 153 179
133 154 181
133 153 180
132 152 179
132 153 180
133 154 180
133 154 180
134 154 180
133 153 180
133 153 179
133 153 180
133 153 179
133 153 180
131 152 179
132 153 180
133 153 180
130 151 179
132 153 179
134 154 180
134 154 180
133 153 180
132 153 179
132 153 179
132 152 180
133 153 180
133 154 181
131 152 179
132 153 180
132 152 179
134 154 180
133 153 179
133 153 180
134 154 180
132 153 180
132 152 179
133 154 180
133 154 180
133 153 180
134 154 180
132 152 180
133 154 181
134 154 180
133 153 180
131 152 180
133 153 180
133 153 180
132 153 180
133 153 179
133 154 181
133 153 180
133 154 181
133 154 181
133 153 180
133 154 181
133 154 181
131 152 179
132 153 180
133 153 180
134 154 181
134 154 181
133 154 180
133 154 180
133 154 180
133 154 181
132 153 180
133 153 179
132 152 179
131 151 179
133 153 180
133 153 180
132 153 180
133 154 180
133 153 180
133 154 181
132 153 180
134 154 181
134 154 181
132 153 180
133 154 180
132 152 179
134 153 180
134 154 180
132 153 180
133 154 181
134 154 181
133 154 180
132 153 180
133 154 180
133 153 180
133 153 180
134 154 180
134 154 181
134 154 181
134 154 181
133 154 181
133 154 181
134 154 181
134 154 181
133 154 180
134 154 180
134 154 181
134 154 181
133 154 180
134 154 181
133 154 181
132 152 180
135 155 181
134 154 180
134 154 181
133 154 181
133 154 181
132 153 180
133 154 180
133 153 180
133 154 180
133 153 180
132 153 180
135 155 181
133 154 181
133 153 180
133 154 180
133 154 181
133 154 181
133 154 180
133 154 181
134 154 180
134 154 180
133 154 180
133 154 181
134 154 181
133 153 180
134 154 181
134 154 180
134 154 181
133 153 180
133 154 181
133 154 181
134 154 181
132 153 181
133 154 181
134 155 181
134 154 181
132 153 180
133 154 181
134 154 181
134 154 181
133 153 180
133 154 181
133 153 180
133 154 181
133 154 181
134 154 180
133 154 181
134 154 181
133 154 181
134 154 181
133 154 181
134 154 181
133 154 181
133 154 181
133 153 180
133 154 181
134 154 181
133 153 180
134 154 181
133 153 180
134 154 181
134 154 180
133 154 180
133 154 181
133 154 181
133 154 181
134 154 181
134 154 181
134 154 181
134 154 181
133 154 181
134 154 181
134 154 181
134 154 181
135 155 181
134 155 181
135 155 181
134 154 181
133 153 180
134 155 181
133 154 181
133 154 181
133 153 180
133 153 180
133 154 181
133 154 181
134 154 180
134 154 181
134 154 181
134 154 181
133 154 181
133 154 181
132 153 180
134 154 180
134 154 181
134 155 181
134 154 181
133 154 181
133 154 181
134 154 181
133 154 181
133 154 181
133 154 181
134 154 181
133 154 181
134 154 181
134 154 181
133 154 181
133 154 181
133 154 181
134 154 181
133 153 180
134 154 180
133 154 181
133 153 180
134 154 180
134 154 181
133 154 181
133 153 180
133 154 181
134 154 181
134 154 181
134 154 181
134 154 181
134 154 181
134 154 181
133 154 181
134 154 181
133 154 181
134 154 181
134 154 181
134 154 181
134 154 181
133 154 181
133 154 181
134 154 181
133 154 181
133 154 181
133 154 181
132 153 181
134 154 181
133 154 181
134 154 181
134 154 181
134 154 181
134 154 181
134 154 181
134 154 181
134 154 181
134 154 181
134 154 181
134 154 181
134 154 181
134 154 181
133 154 181
133 154 181
133 154 181
134 154 181
134 154 181
134 155 181
133 154 181
133 154 181
134 154 181
133 154 181
134 154 180
134 154 181
134 154 181
134 154 181
135 155 181
133 154 181
134 154 181
133 154 181
134 154 181
134 154 181
134 154 181
134 154 181
134 155 181
134 154 181
133 154 181
134 154 181
134 154 181
133 154 181
134 154 181
134 154 181
134 154 181
134 154 181
133 154 181
134 154 181
134 154 181
134 154 181
133 154 181
134 154 181
134 154 181
133 154 181
134 154 181
134 154 181
133 154 181
134 154 181
133 154 181
133 154 181
134 154 181
134 154 180
133 154 181
134 154 181
134 154 181
134 154 181
133 154 181
134 154 181
134 154 181
133 154 181
134 154 181
134 154 181
134 154 181
133 154 181
134 154 181
133 154 181
135 155 181
132 153 181
133 154 181
134 154 181
133 154 181
133 154 181
135 155 181
133 153 180
133 154 180
135 155 181
134 154 180
134 154 181
133 154 180
134 154 180
134 154 181
132 153 179
133 154 181
133 153 180
134 154 180
132 153 180
133 153 180
133 154 180
133 153 180
133 153 180
133 154 180
133 154 180
132 152 179
133 154 180
132 153 180
133 153 179
133 154 180
133 153 180
134 154 181
133 154 181
133 153 179
133 153 180
134 154 181
134 154 180
133 153 179
134 154 181
133 153 180
134 154 180
134 154 181
133 154 180
134 154 181
132 153 179
132 153 180
133 154 181
134 154 181
134 154 181
134 154 180
134 154 181
132 152 180
132 152 180
133 153 180
134 154 181
130 151 178
133 154 180
133 154 181
134 154 180
131 152 179
134 154 180
131 151 178
133 153 180
135 155 181
132 153 179
135 155 181
133 153 180
133 153 180
132 152 179
134 154 181
132 152 179
133 153 180
132 152 179
132 152 179
133 153 180
134 154 180
133 153 179
133 153 180
133 153 180
133 153 179
133 154 180
133 153 180
133 153 180
132 152 179
134 154 181
133 154 181
132 152 180
133 153 180
133 153 180
133 153 180
133 153 180
134 154 181
132 153 180
132 153 180
133 153 180
132 153 179
133 153 180
133 154 181
134 154 181
132 152 179
133 154 180
133 153 180
133 153 180
133 153 180
131 152 179
131 152 179
133 154 180
133 153 180
132 152 179
133 153 180
134 153 179
133 153 179
134 154 180
133 153 180
133 154 180
133 154 181
133 154 180
131 152 179
133 153 180
133 153 180
132 153 180
134 154 180
131 152 179
134 154 180
133 154 181
134 154 180
132 153 179
132 153 179
134 154 181
133 153 180
133 154 180
133 153 180
134 154 181
134 154 181
133 154 180
132 153 180
132 152 179
133 153 180
133 152 179
132 152 179
133 153 180
133 153 180
133 153 180
134 154 181
132 153 180
133 153 180
133 154 180
133 154 180
134 154 181
133 154 180
134 154 180
133 153 180
134 154 180
134 154 181
133 154 180
132 153 180
132 153 180
134 154 181
134 154 181
133 153 180
133 153 179
134 154 181
133 154 180
133 154 180
134 154 180
133 154 181
133 154 180
134 154 181
133 154 181
133 153 180
133 154 181
134 153 180
133 154 180
133 153 179
134 154 180
133 153 180
134 154 181
133 154 181
134 154 181
134 154 180
133 153 180
132 153 180
133 153 180
134 154 181
133 154 180
133 153 180
132 153 180
134 154 181
133 154 180
134 154 181
132 153 180
133 154 180
134 154 180
132 153 180
134 154 181
133 153 180
133 153 180
133 154 180
133 154 181
134 154 181
133 153 180
133 154 180
134 154 181
134 154 180
133 153 180
134 154 181
133 154 181
133 153 180
134 154 181
134 154 181
134 154 181
133 154 181
134 154 181
134 154 181
134 154 180
134 154 181
134 154 181
133 153 180
133 154 181
134 154 181
135 155 181
133 154 181
134 154 181
134 154 181
133 153 180
133 154 180
134 154 181
133 154 181
133 154 181
134 154 181
134 154 180
133 154 181
134 154 181
133 154 181
133 154 181
134 154 181
133 154 181
134 154 181
133 154 181
134 154 180
133 154 181
133 154 181
133 154 180
134 154 181
134 154 181
133 154 181
133 154 181
133 153 180
133 153 179
133 154 181
133 154 181
134 154 181
134 154 181
134 154 181
134 154 181
133 154 181
134 154 180
133 154 181
134 154 181
134 154 181
133 154 181
134 154 181
134 154 181
134 154 180
133 154 181
135 155 181
134 154 181
133 154 180
134 154 181
134 154 181
134 154 180
134 154 181
133 153 180
134 154 181
134 154 180
133 153 180
134 154 181
133 154 181
134 154 181
133 154 181
134 154 181
134 154 181
134 154 181
134 154 181
133 154 181
134 154 181
134 154 181
134 154 181
134 154 181
134 154 181
134 154 181
134 154 181
134 154 181
134 154 181
134 154 181
134 154 181
134 154 181
133 154 181
133 154 181
135 155 181
134 155 181
133 153 180
133 154 181
134 154 181
134 154 181
133 154 181
134 154 181
134 154 181
133 154 181
133 154 181
135 155 181
133 154 181
133 154 181
133 153 180
134 154 181
134 154 181
132 153 180
133 154 181
134 154 181
134 154 181
133 154 181
133 154 181
135 155 181
133 154 181
133 154 181
134 154 181
134 154 181
133 154 181
133 154 181
134 154 181
134 154 181
134 154 181
133 154 181
134 154 181
134 154 181
134 154 181
134 154 181
134 154 180
133 154 181
133 154 181
134 154 181
133 154 181
134 154 181
134 154 181
134 154 181
134 154 181
133 154 181
134 154 181
134 154 180
133 154 181
133 154 181
134 154 181
134 154 181
134 154 181
135 155 181
133 154 181
133 154 181
133 154 180
133 154 181
133 154 180
133 154 180
133 154 181
133 154 180
133 153 180
133 154 181
134 154 181
134 154 181
134 154 180
134 154 181
134 154 181
135 155 181
134 154 181
133 154 181
133 154 181
133 154 181
134 154 181
134 154 181
134 154 181
134 154 181
134 154 181
134 154 181
135 155 181
134 154 181
134 154 181
133 154 181
134 154 181
133 154 181
133 154 181
134 154 181
133 154 181
134 154 180
135 155 181
134 154 181
134 154 181
134 154 181
134 154 181
133 154 181
133 154 181
134 154 181
134 154 181
134 154 181
134 154 181
133 154 181
135 155 181
134 154 181
132 153 181
134 154 181
134 154 181
134 154 181
133 153 180
133 154 181
133 153 180
134 154 181
132 153 181
134 154 180
133 154 180
133 153 179
133 153 180
133 154 180
132 153 180
132 153 179
133 153 180
131 152 179
133 153 180
133 154 181
133 153 180
134 154 181
133 153 180
133 154 181
133 153 180
132 152 179
134 154 181
134 154 181
132 153 179
133 153 180
133 153 180
133 153 180
134 154 181
133 154 181
132 153 180
133 154 181
133 153 180
132 153 180
133 153 180
133 154 180
133 153 180
134 154 180
133 153 179
133 154 181
132 153 180
134 154 180
133 153 180
133 153 180
133 154 180
131 151 178
133 154 181
133 153 180
134 154 181
133 154 180
134 154 180
132 152 179
132 153 179
133 153 180
133 153 179
132 153 180
133 153 180
132 153 180
132 152 180
134 154 180
134 154 181
133 153 180
133 154 181
134 154 181
133 153 180
133 153 180
133 154 180
134 154 180
132 153 180
131 152 179
132 153 179
133 154 181
134 153 180
133 154 180
133 153 180
133 153 180
133 153 180
133 153 180
133 154 180
132 153 180
133 153 180
134 154 181
133 153 180
132 153 180
133 154 180
133 154 180
133 154 181
133 153 180
133 154 181
133 152 179
133 153 180
132 152 179
133 153 180
134 154 181
134 155 181
133 153 180
134 154 181
131 152 179
133 154 180
133 154 181
133 153 180
133 154 180
133 153 180
134 154 180
133 154 181
132 153 180
133 153 180
133 154 180
133 153 179
134 154 180
133 153 180
133 153 180
133 153 180
132 152 179
132 153 180
133 153 180
134 154 181
134 154 180
133 153 180
133 154 181
134 154 181
134 154 181
132 153 180
132 153 180
133 153 180
132 153 179
132 153 179
133 153 180
133 154 180
132 153 180
131 151 179
133 153 180
134 154 180
134 154 181
134 155 181
133 153 180
133 154 181
133 154 180
133 154 180
132 153 180
132 153 179
133 153 180
133 153 180
133 153 180
132 153 180
134 154 181
133 154 181
134 154 181
133 154 181
134 154 180
133 153 180
134 154 181
133 153 180
133 154 181
133 154 181
134 154 181
133 153 180
135 155 181
133 153 180
133 153 180
132 153 180
133 153 180
133 153 180
132 152 179
134 154 181
132 153 180
133 153 180
133 154 181
133 154 181
133 154 181
134 154 181
134 154 180
133 154 180
133 154 180
133 154 181
134 154 181
134 154 181
134 154 180
134 154 181
133 153 180
134 155 181
134 154 181
134 154 181
133 153 180
134 154 180
133 153 180
133 154 180
134 154 180
134 154 181
132 152 179
133 154 181
133 154 181
133 154 180
133 153 180
134 154 181
134 154 181
134 154 181
133 154 180
133 154 180
134 154 181
134 154 181
133 154 180
134 154 181
134 154 181
134 154 181
134 154 180
134 154 180
133 154 181
134 154 181
133 154 181
134 154 180
133 153 180
133 154 181
134 154 181
134 154 181
133 154 181
133 154 181
134 154 181
134 154 180
134 154 181
134 154 180
133 154 181
133 153 180
134 154 181
133 154 181
133 154 181
133 154 181
133 154 181
134 154 181
134 154 181
134 154 181
133 154 181
133 153 180
134 154 180
134 154 181
133 154 180
133 154 181
134 154 181
133 154 181
134 154 181
134 154 181
134 154 180
134 154 181
134 154 181
133 154 181
132 152 179
134 154 181
133 154 180
134 154 181
133 154 181
134 154 181
134 154 181
134 154 181
134 154 181
133 153 180
134 154 181
133 154 181
134 154 181
133 153 180
133 154 180
133 154 181
133 154 180
133 153 180
134 154 181
134 154 181
134 154 181
134 154 181
133 154 181
134 154 180
134 154 181
133 153 180
134 154 181
134 154 181
135 155 181
133 154 181
133 154 181
134 154 180
134 154 181
133 154 181
133 154 180
134 154 181
133 154 181
133 154 181
133 154 180
133 153 180
133 153 180
133 154 181
134 154 181
133 154 181
135 155 181
134 154 181
134 154 181
133 154 181
135 155 181
134 155 181
133 154 181
134 154 181
134 154 181
134 154 181
133 154 181
134 154 181
134 154 181
133 154 181
133 154 181
133 154 181
133 154 181
134 154 181
133 154 181
134 154 180
133 154 181
134 154 181
134 154 180
134 154 181
134 154 181
134 154 181
133 154 181
134 154 181
134 154 181
133 154 181
133 154 181
134 155 181
135 155 181
134 154 181
133 154 181
134 154 181
134 154 181
135 155 181
134 154 181
133 154 181
134 154 181
134 154 181
134 154 181
133 154 181
133 154 181
133 153 180
134 154 181
134 154 181
133 154 181
133 154 181
134 155 181
134 154 181
133 154 181
134 154 181
134 154 181
134 154 181
134 155 181
134 154 181
134 154 181
133 154 181
133 154 181
135 155 181
134 154 181
134 154 181
134 154 180
133 154 181
133 154 181
133 154 181
133 154 181
134 154 181
133 154 181
133 154 181
134 154 181
134 154 181
135 155 181
133 154 181
133 154 181
133 153 180
134 154 181
133 154 181
134 154 181
133 154 181
134 155 181
134 154 181
134 154 181
133 154 181
134 154 181
135 155 181
134 154 181
133 154 181
134 154 181
134 155 181
134 154 181
134 154 181
133 154 181
134 154 181
135 155 181
135 155 181
134 154 181
133 154 181
135 155 181
134 154 181
133 154 181
133 154 180
134 154 181
133 154 181
135 155 181
133 154 181
133 154 180
133 154 181
133 154 181
134 154 181
133 154 181
134 154 181
134 154 180
133 153 180
133 154 181
135 155 181
133 154 181
134 154 180
135 155 181
133 153 180
134 154 180
134 154 180
132 153 180
134 154 181
133 154 181
133 153 180
133 154 181
134 154 181
133 154 181
133 153 180
133 154 180
132 153 180
133 153 179
133 154 180
131 152 179
132 152 179
133 154 180
132 153 180
133 153 180
133 154 180
133 154 181
134 154 180
133 154 180
134 154 181
134 154 180
133 153 180
133 153 180
133 153 180
133 153 180
134 154 180
134 154 180
134 154 180
133 154 181
133 154 180
132 152 179
132 152 180
134 154 181
133 153 180
133 154 180
133 154 181
133 153 180
133 154 180
133 154 180
133 154 181
133 154 180
134 154 180
133 153 180
133 153 179
132 153 180
133 154 181
133 153 180
133 153 180
134 154 180
134 154 181
131 151 178
132 153 180
133 153 180
132 153 180
133 153 180
133 154 181
134 154 180
133 154 181
133 153 180
133 153 180
133 154 181
131 151 179
133 154 180
133 153 180
132 153 179
134 154 181
134 154 180
133 154 181
132 153 180
134 154 180
133 154 180
133 153 179
132 152 179
132 153 180
133 153 180
134 154 180
134 154 181
133 153 179
134 154 180
134 154 181
134 154 180
133 154 181
133 153 180
133 153 180
132 153 180
133 154 180
133 154 181
133 154 181
132 153 180
132 153 180
132 153 180
132 153 180
134 154 181
132 153 180
133 153 180
134 154 181
132 153 179
133 153 180
133 154 181
133 154 180
134 154 181
132 153 180
132 154 181
133 153 180
133 153 180
134 154 181
132 153 179
133 153 180
133 153 180
133 153 180
132 153 180
133 154 181
134 154 181
134 154 180
134 154 181
133 153 180
132 152 179
133 153 179
134 154 180
133 154 181
133 154 180
133 153 180
133 153 179
133 153 180
134 154 181
133 154 181
133 154 181
134 154 181
133 154 180
134 154 180
133 153 179
134 154 180
132 153 180
133 154 181
134 154 180
133 153 180
134 154 181
133 154 181
133 154 181
133 154 181
133 154 181
133 154 181
134 154 181
134 154 181
134 154 181
134 154 180
134 154 180
134 154 181
134 154 180
132 152 180
133 154 180
132 153 180
133 154 180
134 154 180
133 154 181
134 155 181
133 154 180
133 154 180
134 154 180
132 153 180
133 154 180
133 154 181
134 154 181
134 154 181
133 154 181
135 155 181
134 154 181
133 154 181
134 154 181
133 153 180
133 153 180
133 154 181
133 154 181
133 154 180
135 155 181
133 154 181
134 154 181
133 154 181
133 153 180
133 154 181
133 154 181
134 154 181
133 153 180
133 154 181
134 154 181
133 154 181
133 154 181
133 154 181
133 154 181
134 154 181
133 154 181
133 154 181
134 154 181
133 154 180
133 153 180
134 154 181
133 154 181
134 154 181
133 154 181
134 154 180
134 154 181
134 154 181
134 154 181
133 154 181
133 153 180
134 154 181
132 153 179
133 154 181
133 154 180
134 154 181
135 155 181
133 154 180
132 153 180
134 154 181
135 155 181
133 154 181
134 154 181
134 154 181
134 154 180
134 154 181
134 154 180
133 154 181
133 154 181
133 154 181
133 154 181
133 154 181
133 153 180
134 154 181
134 154 181
133 154 181
134 155 181
134 154 181
134 154 181
133 154 180
134 154 181
133 154 181
133 154 181
133 154 181
134 154 181
134 153 180
133 154 181
133 154 181
135 155 181
134 154 181
134 154 181
134 154 181
134 154 181
134 154 181
133 154 181
134 154 181
134 154 181
134 154 181
133 154 181
134 154 181
133 153 180
134 154 181
134 154 181
133 154 181
134 154 180
134 154 181
134 154 181
133 154 181
134 154 181
134 154 181
133 154 181
133 154 181
133 154 181
133 154 181
133 154 181
134 154 181
134 154 181
133 154 181
133 154 181
133 154 181
134 154 181
133 154 181
133 154 181
134 154 181
134 154 181
134 154 181
133 154 181
133 154 181
133 154 181
134 154 180
134 154 181
133 154 181
133 154 181
133 154 180
133 154 181
133 154 181
134 154 181
133 154 181
134 154 180
134 154 181
134 154 181
134 154 181
134 154 181
134 154 181
133 154 181
134 154 181
133 153 180
134 154 181
135 155 181
133 154 181
134 154 181
134 154 181
134 154 181
135 155 181
134 154 181
134 154 181
134 154 181
134 155 181
133 154 181
135 155 181
134 154 181
133 154 181
133 153 180
134 154 181
134 154 181
134 154 181
133 154 181
134 154 181
134 154 181
134 154 181
134 154 181
134 154 181
134 154 181
133 154 181
133 154 181
133 154 181
133 154 180
134 154 181
134 154 181
134 154 181
134 154 181
133 154 181
134 154 181
132 153 181
133 154 181
134 154 181
133 154 181
133 154 181
134 154 181
133 154 181
134 154 181
133 154 181
134 155 181
134 154 181
133 154 181
134 154 181
134 154 181
134 154 181
134 154 181
133 154 181
133 154 181
134 154 181
133 154 181
133 154 181
134 154 181
134 154 181
134 154 181
134 154 181
134 154 181
134 154 181
134 154 181
133 154 181
134 154 181
134 154 181
134 154 181
134 154 181
133 154 181
134 154 181
134 154 181
133 154 181
134 154 181
134 154 181
133 154 181
134 154 181
134 154 181
134 154 181
133 154 181
134 154 181
134 154 181
133 153 180
134 154 181
133 154 181
134 154 181
133 153 180
133 154 180
133 153 180
133 153 180
134 154 180
133 153 180
132 153 180
133 153 180
134 154 180
134 154 181
133 154 181
133 154 181
133 153 180
133 153 180
133 154 180
133 153 180
133 154 180
134 154 181
133 154 180
133 153 180
134 154 181
133 154 181
134 154 181
133 154 180
134 154 181
133 154 181
133 153 180
135 155 181
133 154 181
135 155 181
132 153 180
133 153 180
134 154 180
133 153 180
133 154 181
133 154 180
134 154 181
133 153 180
134 154 181
132 152 180
132 153 180
134 154 181
133 154 180
133 153 180
133 153 180
134 154 181
134 154 181
133 153 180
134 154 181
133 154 181
134 154 181
133 153 179
132 153 180
134 154 181
132 153 180
133 154 180
134 154 181
132 153 180
134 154 180
133 153 180
134 154 181
132 153 180
133 154 181
133 153 180
133 154 180
134 154 180
134 154 181
134 154 181
133 153 180
133 154 181
133 153 180
133 154 181
132 153 180
132 153 180
134 154 180
133 153 180
134 154 181
132 153 180
134 154 180
132 153 180
133 153 180
133 154 180
133 153 179
133 153 180
133 153 180
133 153 180
133 154 180
132 153 179
132 153 180
133 154 180
133 153 180
133 154 181
133 153 180
134 154 181
133 154 180
133 153 180
133 154 180
134 154 181
134 154 181
131 152 179
133 153 180
133 153 180
133 154 181
134 154 181
133 154 181
133 154 180
133 153 180
133 153 180
134 154 180
132 153 180
133 153 180
132 152 179
134 154 181
133 153 180
133 153 179
133 154 181
133 153 180
133 153 180
132 153 179
133 154 181
133 154 180
133 153 180
133 154 181
134 154 181
133 154 181
134 154 180
133 153 180
133 153 180
134 154 181
134 154 181
134 154 181
134 154 181
132 153 180
133 154 181
134 154 181
132 153 180
134 154 181
134 154 181
134 154 180
133 154 181
133 154 181
134 154 180
133 154 181
133 154 181
133 154 181
134 154 181
134 154 180
134 154 181
133 154 180
134 154 181
133 153 180
134 154 181
134 154 181
134 154 180
134 154 181
133 153 180
133 154 180
133 153 180
134 154 181
135 155 181
133 154 181
133 153 180
133 153 180
134 154 181
133 154 181
134 154 181
133 154 181
133 154 181
134 154 181
133 154 181
134 154 181
133 153 180
132 153 180
134 154 181
133 154 181
135 155 181
133 154 181
132 153 180
133 154 180
133 154 180
133 154 180
134 154 180
133 154 181
133 154 181
133 154 180
133 154 180
134 155 181
133 154 181
134 154 181
135 155 181
133 154 180
133 154 181
133 154 181
134 154 181
133 153 179
134 154 181
134 154 181
134 154 181
134 154 181
134 154 181
133 153 180
134 154 181
133 154 180
134 154 180
135 155 181
134 154 181
133 154 180
133 154 181
134 154 181
133 154 181
134 154 180
133 154 181
135 155 181
134 154 181
133 154 181
134 154 180
134 154 181
134 154 181
134 154 181
134 154 180
134 154 181
133 154 180
134 154 181
133 154 180
133 154 181
134 154 181
133 154 180
134 154 181
134 154 181
133 154 181
134 154 181
134 154 181
134 154 180
133 154 181
133 154 181
133 154 181
134 154 181
134 154 181
133 154 180
134 154 181
134 154 180
133 154 181
133 154 181
133 154 181
134 154 181
134 154 181
133 154 180
134 154 181
133 154 181
133 154 181
134 154 181
133 154 181
134 154 181
134 154 181
133 154 181
134 154 181
133 154 180
134 154 181
133 154 181
134 154 181
134 154 181
134 154 180
133 154 181
134 154 181
133 154 181
133 153 180
133 154 181
134 154 181
133 154 181
134 154 181
134 154 180
132 154 181
133 154 181
133 154 181
133 154 181
134 154 181
134 154 181
134 155 181
134 154 181
133 153 180
134 154 181
134 154 181
133 154 181
134 154 181
133 154 181
133 154 181
134 154 181
134 154 181
133 154 181
134 154 180
134 154 181
134 154 180
133 154 181
133 154 181
134 154 181
134 154 181
134 154 181
134 154 181
134 154 181
134 155 181
133 154 180
134 154 181
135 155 181
132 153 181
134 154 181
134 154 181
134 154 181
134 154 181
134 154 181
134 154 181
134 154 181
134 154 181
134 154 181
134 154 181
134 154 181
134 154 181
134 154 181
134 154 181
134 154 181
134 154 181
134 154 181
133 154 181
134 154 181
134 154 180
134 154 181
134 154 181
133 154 181
134 154 181
133 154 181
135 155 181
134 154 181
134 154 181
134 154 181
134 154 181
134 154 181
133 154 181
134 154 181
133 154 181
135 155 181
133 154 181
134 154 181
134 154 181
133 154 181
133 154 181
134 154 181
133 154 181
134 154 181
134 154 181
134 154 181
133 154 180
134 154 181
133 153 180
133 154 181
134 154 181
134 154 181
133 154 181
133 154 181
133 154 181
134 154 180
134 154 181
134 154 180
134 154 181
134 154 181
134 154 181
134 154 180
134 154 181
134 154 181
134 155 181
133 154 181
133 154 180
134 154 181
134 154 181
134 154 181
134 154 181
134 154 181
134 154 181
134 154 181
134 155 181
134 154 181
134 154 181
133 154 180
134 155 181
133 154 181
132 153 180
133 154 181
134 154 181
134 154 181
134 154 181
134 154 181
134 154 181
134 154 181
134 154 181
134 154 181
133 154 181
134 154 181
134 154 181
133 153 180
133 154 180
134 154 181
133 154 181
135 155 181
134 154 180
135 155 181
132 153 180
133 153 179
133 154 181
133 154 181
134 154 181
134 154 180
132 153 180
133 153 180
132 153 180
134 154 180
133 154 181
133 154 181
133 154 181
133 154 181
134 154 180
132 153 179
133 154 181
133 154 180
132 153 180
133 154 181
133 154 181
133 154 181
132 153 180
133 153 180
133 153 180
134 154 181
134 154 180
134 154 181
134 154 181
134 154 181
132 153 179
134 154 180
133 153 180
133 154 180
134 154 181
133 153 180
134 154 180
134 154 181
134 154 181
133 154 180
134 154 180
134 154 180
133 153 180
132 153 180
133 153 180
133 154 181
133 154 180
133 154 181
133 153 180
133 154 180
133 154 181
134 154 181
133 153 180
133 154 181
133 154 181
132 153 180
133 154 180
132 153 180
133 154 180
133 153 180
134 154 181
133 153 180
133 153 180
132 153 181
134 154 181
133 153 180
134 154 181
133 154 180
133 153 180
134 154 180
134 154 181
132 152 179
132 153 180
133 153 180
133 153 180
134 154 181
134 154 180
133 153 180
133 154 181
134 154 181
133 153 180
133 154 180
133 153 180
133 154 180
133 154 180
133 153 180
134 154 181
134 154 180
133 153 180
134 154 180
134 154 181
133 153 180
133 153 180
134 154 181
134 154 181
133 153 180
133 154 180
132 152 180
133 153 180
133 154 180
133 153 180
135 154 180
133 154 181
133 154 180
133 153 180
133 153 180
132 153 180
134 154 181
134 155 181
133 154 181
131 152 179
133 153 180
133 153 179
133 153 180
133 154 180
134 154 180
134 154 180
134 154 181
133 154 181
134 154 180
134 154 180
134 154 181
133 154 181
134 154 181
133 154 181
134 154 181
133 154 181
133 153 180
133 153 180
134 154 181
134 154 181
133 154 181
134 154 181
133 153 180
133 153 180
133 154 181
132 153 180
134 154 180
133 154 181
133 154 181
133 153 180
133 154 180
132 153 179
133 153 180
134 154 181
134 154 181
133 154 181
134 154 181
133 153 180
134 154 181
133 153 180
134 154 181
133 154 181
134 154 181
134 154 181
133 154 180
134 154 180
133 154 181
133 153 180
134 154 181
133 154 180
134 154 180
134 154 181
134 154 181
133 153 180
132 152 179
133 154 180
133 154 181
133 154 181
134 154 180
133 154 181
133 154 181
134 154 181
134 154 181
134 155 181
133 154 181
134 154 181
133 154 181
134 155 181
134 154 181
134 154 181
134 154 181
134 154 181
134 154 181
133 154 180
134 154 181
133 154 181
134 154 180
134 154 181
133 154 181
135 155 181
134 154 180
133 154 180
133 153 180
134 154 181
134 154 181
134 154 180
134 154 181
134 154 181
134 154 180
134 154 181
133 153 180
134 154 180
133 154 181
134 154 181
135 155 181
133 154 181
133 154 180
133 154 180
133 154 181
134 154 181
134 155 181
133 154 181
134 154 181
134 154 181
134 154 181
133 154 181
134 154 180
134 154 181
134 154 181
133 154 181
134 154 181
134 154 181
133 154 181
134 154 181
133 154 181
133 153 180
133 154 181
133 153 180
134 154 181
133 154 181
134 154 181
134 154 181
134 154 181
135 155 181
133 154 181
135 155 181
133 154 180
133 154 181
134 154 181
134 155 181
134 154 181
134 154 180
134 154 181
135 155 181
134 154 181
134 154 181
133 154 181
134 154 181
134 154 181
135 155 181
134 154 181
134 154 181
134 154 181
133 154 180
135 155 181
133 154 181
134 154 181
134 154 181
134 154 181
134 154 181
134 154 181
134 154 181
134 154 181
134 154 180
134 154 181
133 154 181
134 154 181
134 154 181
135 155 181
134 154 181
134 154 180
134 154 180
134 154 181
133 154 181
134 154 181
134 154 180
134 154 181
134 154 181
133 154 181
135 155 181
133 153 180
134 154 181
135 155 181
134 154 181
134 154 181
134 154 181
133 154 180
134 154 181
134 154 181
134 154 181
133 154 181
134 154 181
135 155 181
134 154 181
134 155 181
133 154 181
134 154 181
133 154 181
132 153 181
133 154 181
134 154 181
134 154 181
134 154 181
134 154 181
135 155 181
134 154 181
134 154 181
133 154 181
133 154 180
135 155 181
134 154 181
134 154 181
134 154 181
134 154 181
133 154 181
134 154 180
133 154 181
135 155 181
134 154 181
133 154 181
134 154 181
133 154 181
134 154 180
134 154 181
134 154 181
134 154 181
134 154 181
134 154 181
134 154 181
135 155 181
134 154 181
133 154 181
134 154 181
133 154 181
134 154 181
133 154 181
133 154 181
134 154 181
133 154 181
134 154 181
133 154 181
134 154 181
134 154 181
133 154 181
133 154 181
134 154 181
135 155 181
133 154 181
134 154 181
133 154 181
132 153 181
134 154 181
134 154 181
134 154 181
133 154 180
134 155 181
135 155 181
134 154 181
134 154 181
134 154 181
135 155 181
134 154 181
133 154 180
134 154 181
134 154 181
134 154 181
135 155 181
133 154 181
134 154 181
134 154 181
133 154 181
134 154 181
133 154 181
135 155 181
134 154 181
133 154 181
134 154 180
134 154 181
134 154 181
134 154 181
134 154 181
135 154 180
133 154 181
134 154 181
134 154 180
133 154 181
134 154 181
133 154 181
133 154 181
135 155 181
134 154 181
133 153 180
133 154 180
133 154 181
134 154 181
133 154 180
134 154 180
133 154 180
134 154 180
134 155 181
135 155 181
134 154 180
133 153 180
133 153 180
134 154 180
133 154 180
134 154 181
134 154 181
134 154 181
134 154 180
135 154 180
134 154 181
134 154 180
133 153 180
133 154 181
134 154 181
134 154 180
133 153 180
134 154 180
131 151 178
134 154 180
132 153 180
133 154 180
133 153 180
133 153 180
133 154 181
134 154 181
132 153 180
134 154 181
134 154 181
132 152 179
134 154 181
134 154 181
134 154 181
132 152 179
133 153 180
133 153 179
134 154 181
134 154 181
134 154 180
133 154 180
133 154 181
133 154 181
132 153 180
133 154 181
133 153 180
135 155 181
134 154 180
133 154 181
132 153 180
133 154 180
133 153 180
134 154 181
132 153 180
133 154 181
134 154 181
133 154 181
133 154 180
135 155 181
133 153 180
134 154 181
134 154 181
133 153 180
133 154 181
133 153 179
133 154 180
133 154 180
133 153 180
133 154 180
133 154 181
133 154 181
134 154 181
134 154 180
133 153 180
132 153 179
133 154 181
132 153 180
133 154 181
132 153 180
131 151 179
134 154 181
134 154 181
133 153 180
134 154 180
134 154 181
133 153 180
133 154 180
133 154 180
133 154 180
132 153 179
133 153 180
133 153 180
133 153 180
133 154 181
133 154 181
134 154 181
133 154 181
134 154 181
133 153 180
133 154 181
133 154 180
134 154 181
133 153 180
134 154 181
133 154 180
133 154 180
134 154 181
133 153 180
134 154 180
134 154 181
134 154 181
133 153 180
133 153 180
133 154 181
134 154 180
133 153 180
134 154 181
134 154 181
133 154 180
133 154 181
134 154 181
132 152 180
134 154 181
133 154 180
133 154 180
133 154 181
133 154 180
133 153 180
134 154 181
133 153 180
134 154 180
133 154 181
133 154 180
134 154 181
133 154 180
133 154 181
133 153 180
133 154 181
134 154 181
134 154 180
134 154 180
134 154 181
133 153 180
133 153 180
134 154 180
133 153 180
133 154 181
133 154 181
133 154 181
134 154 180
134 154 180
133 154 181
133 154 180
133 154 180
134 154 181
134 154 181
134 154 181
133 153 180
133 154 181
133 153 180
134 154 181
134 154 181
134 154 181
133 153 180
133 154 181
133 154 181
134 154 181
134 154 181
134 154 181
134 154 181
134 154 181
134 154 180
134 154 180
133 153 180
133 154 181
133 153 180
133 154 181
135 155 181
134 154 180
134 154 181
134 154 181
134 154 181
133 154 180
133 153 180
134 154 181
134 154 181
133 154 181
134 154 181
133 154 180
134 154 181
134 155 181
133 154 181
134 154 180
134 154 181
133 154 181
134 154 181
134 154 181
134 154 181
134 154 181
135 155 181
133 154 180
133 154 181
135 155 181
134 154 180
133 154 181
134 154 181
134 154 181
134 154 181
134 154 181
133 154 181
133 154 181
134 154 180
135 155 181
134 154 181
133 154 181
134 154 180
134 154 181
133 154 181
135 155 181
134 154 181
134 154 181
134 154 181
135 155 181
133 154 180
134 155 181
134 154 181
134 154 181
133 154 181
133 154 181
135 155 181
134 154 181
134 154 181
134 154 181
134 154 181
134 154 181
135 155 181
133 154 180
133 154 181
134 155 181
134 154 181
134 154 181
134 154 181
133 154 181
134 155 181
133 154 181
133 154 181
133 153 180
133 154 181
134 154 181
134 154 181
134 154 181
134 154 181
134 154 181
133 154 180
133 153 180
133 154 181
134 154 181
133 154 181
134 154 181
134 154 181
134 154 181
134 154 181
134 154 181
134 154 181
133 154 181
134 154 181
134 154 181
134 154 181
134 154 181
134 154 181
133 154 181
133 154 181
134 154 181
133 154 181
133 154 181
134 154 181
133 154 180
134 154 181
133 154 181
134 154 181
134 154 180
134 154 181
134 154 181
133 154 181
133 154 181
134 154 181
133 154 181
135 155 181
135 155 181
133 154 181
133 154 181
133 154 181
134 154 181
133 153 180
133 154 181
134 154 181
134 154 181
133 154 181
133 154 181
134 155 181
134 154 181
133 154 181
134 154 181
134 154 181
133 153 180
134 154 181
134 154 181
134 154 181
134 154 181
134 154 181
134 154 181
133 154 181
134 154 180
134 154 180
134 154 181
133 154 181
133 154 181
133 154 181
133 154 181
134 154 181
134 154 181
134 154 181
134 154 181
134 154 181
133 154 181
134 154 181
134 154 180
133 154 181
133 154 181
134 154 181
134 154 181
134 154 181
133 154 181
134 155 181
134 154 181
133 154 181
134 154 181
133 154 181
134 154 181
133 154 181
134 154 181
133 154 181
134 154 181
133 154 181
133 154 181
134 154 181
134 154 181
134 154 181
133 154 180
134 154 181
134 154 181
133 154 181
134 154 181
134 154 181
133 154 181
134 154 181
133 154 181
133 154 181
134 154 181
133 154 181
133 154 181
134 154 181
135 155 181
134 154 181
134 154 181
134 154 181
134 154 181
134 154 181
133 154 181
133 154 180
133 154 181
134 154 181
134 154 181
133 154 181
132 153 181
134 154 181
133 154 181
134 154 181
133 154 180
134 154 181
133 154 181
134 154 181
134 154 181
133 154 181
133 154 181
134 154 181
134 154 181
134 154 181
133 154 181
134 154 181
134 154 181
133 154 181
133 154 181
134 154 181
134 154 180
133 154 180
134 154 181
133 153 180
133 154 180
133 153 180
134 154 181
134 154 180
133 153 180
134 154 180
134 154 181
133 153 180
132 153 180
134 154 181
133 154 181
132 153 180
133 154 181
133 154 180
133 154 180
133 154 180
134 154 181
133 154 181
134 154 181
133 154 180
134 154 181
132 153 180
133 154 180
132 153 180
133 154 180
132 152 179
134 154 181
133 153 180
134 154 181
133 154 180
134 154 181
134 154 181
132 153 180
132 152 179
133 154 180
133 154 180
133 154 181
132 152 180
133 153 180
133 154 181
134 154 181
133 154 180
132 153 180
133 153 180
134 154 181
133 153 180
133 154 181
133 154 181
134 154 181
133 154 181
133 153 180
132 153 180
133 154 180
134 153 180
133 154 180
133 154 180
134 154 181
133 154 180
133 153 180
133 153 180
134 154 181
133 153 180
133 154 180
133 154 180
133 154 181
134 154 180
134 154 181
132 153 180
134 154 180
133 153 180
133 154 180
133 153 180
133 153 180
134 154 180
134 154 181
133 153 180
133 153 180
134 154 180
133 154 181
134 154 181
133 154 181
133 153 180
133 153 180
132 152 179
133 154 181
133 154 180
134 154 180
134 154 181
133 154 180
134 154 180
134 154 181
132 153 179
133 153 180
133 153 180
133 153 180
134 154 181
133 154 181
133 153 180
132 153 180
133 154 180
133 153 180
133 153 180
133 153 180
133 153 180
134 154 180
133 154 180
132 153 180
133 153 180
134 155 181
133 153 180
133 154 181
133 154 181
133 154 181
133 154 181
132 152 179
132 152 179
133 154 181
133 153 180
133 153 180
133 154 181
133 153 180
133 153 180
134 154 181
133 153 180
134 154 181
133 153 180
133 154 180
134 154 181
135 155 181
133 154 180
134 154 181
134 154 181
134 154 181
132 153 179
133 154 181
134 154 180
134 154 181
133 154 181
133 154 180
134 154 181
133 153 179
134 154 181
134 154 181
134 154 181
134 154 181
133 153 180
134 154 181
134 154 181
133 153 180
134 154 181
133 154 181
133 154 180
134 154 181
135 155 181
134 154 181
133 154 181
133 154 180
133 153 180
133 154 181
133 154 180
133 154 181
135 155 181
133 154 181
133 153 180
133 154 180
134 154 181
133 154 181
134 154 181
134 154 181
133 154 181
133 154 181
134 154 181
133 154 180
133 153 180
132 153 180
134 154 181
133 154 180
133 153 180
133 154 180
134 154 181
133 154 181
133 154 181
133 154 181
134 154 181
133 154 181
133 154 181
134 154 181
134 154 181
133 154 181
133 154 180
133 154 180
133 154 181
133 154 180
133 154 180
133 154 181
135 155 181
134 154 181
134 154 181
134 154 181
133 153 180
134 154 181
134 154 180
134 154 181
133 154 181
134 154 181
133 154 181
134 154 181
133 154 180
133 154 180
133 154 180
133 154 181
134 154 181
133 153 180
134 154 180
134 154 181
133 154 180
133 154 181
135 155 181
134 154 181
133 154 181
134 154 181
133 154 181
134 154 181
133 154 180
133 154 181
135 155 181
134 154 180
134 154 181
134 154 180
133 153 180
134 154 181
134 154 181
133 154 181
134 154 181
133 154 181
133 154 181
134 154 181
134 154 181
133 154 181
133 154 180
134 154 181
134 154 180
134 154 181
133 154 180
134 154 181
133 154 180
133 154 181
133 154 181
135 155 181
134 154 181
134 154 181
134 154 180
133 154 181
134 154 181
134 154 181
133 154 181
134 154 180
133 154 181
134 154 181
134 154 181
133 154 180
134 154 181
134 154 181
134 154 181
133 154 181
134 154 180
134 154 181
134 154 181
133 154 181
133 154 181
134 154 181
134 154 180
134 154 181
134 154 181
134 154 181
134 154 181
134 154 181
134 154 181
133 154 181
134 154 181
134 154 181
133 154 181
134 154 181
134 154 181
133 154 181
133 154 181
134 154 181
133 154 181
133 154 181
134 154 181
134 154 181
134 155 181
133 154 181
134 154 181
133 154 181
134 154 180
133 154 181
134 154 181
134 154 181
134 154 181
134 154 180
134 154 181
133 154 181
133 154 180
134 154 181
134 154 181
134 154 181
134 154 181
133 154 181
135 155 181
134 154 181
134 154 181
133 154 181
134 155 181
133 154 181
133 154 181
134 154 181
134 154 181
134 154 181
133 154 181
133 154 181
133 154 181
134 154 181
134 154 181
133 154 181
133 154 181
134 154 181
133 153 180
133 154 181
134 154 181
134 154 181
134 154 181
134 154 181
134 155 181
134 154 181
134 154 181
133 154 181
133 154 181
134 154 181
134 155 181
134 154 181
134 154 181
133 154 180
133 154 181
134 154 181
133 154 181
133 154 181
134 154 181
134 154 181
134 154 181
134 154 181
133 154 181
134 154 181
134 154 181
135 155 181
133 154 181
134 154 181
134 154 181
133 154 181
134 154 181
134 154 181
134 154 181
134 154 181
134 154 181
134 154 181
135 155 181
134 154 181
134 154 181
135 155 181
134 154 181
134 154 181
133 154 181
134 154 181
134 154 181
133 154 181
133 154 181
134 154 181
133 154 181
134 155 181
133 154 181
134 154 181
134 154 181
133 154 181
134 154 181
134 154 181
134 154 181
134 154 181
133 154 181
133 154 181
134 154 181
132 153 181
134 154 181
133 154 181
133 153 180
134 154 180
134 154 180
133 154 181
133 154 180
134 154 181
134 154 180
132 153 180
134 154 180
133 154 181
133 154 181
133 153 180
133 154 181
134 154 181
134 154 181
132 153 180
134 154 181
134 154 181
132 153 179
134 154 181
134 154 181
134 154 180
133 154 181
133 153 180
134 154 181
133 154 181
134 154 180
133 153 180
133 153 179
133 154 180
134 154 181
133 154 181
134 154 181
133 154 180
134 154 181
134 155 181
132 153 180
133 154 180
133 154 181
133 154 181
133 153 180
133 153 180
134 154 181
133 154 180
133 154 181
133 154 181
133 153 180
135 155 181
134 154 181
133 153 180
135 155 181
132 153 180
134 154 180
133 154 181
132 153 180
133 153 180
132 153 180
134 155 181
134 154 181
134 154 181
134 154 181
134 154 181
132 153 180
134 154 181
134 154 181
133 153 180
133 153 180
134 154 180
133 154 181
132 153 180
134 154 181
133 153 180
133 153 180
133 154 181
133 154 181
134 155 181
133 153 180
133 154 180
132 153 180
133 154 180
133 153 180
133 154 180
133 154 180
133 153 180
134 154 181
134 154 181
133 153 180
133 153 180
134 154 180
133 154 180
134 154 180
133 154 181
132 153 179
132 153 180
131 152 179
133 154 181
133 153 180
134 154 181
134 154 180
133 154 181
134 153 180
134 154 180
133 153 180
133 153 180
133 154 180
132 153 180
133 154 181
133 153 180
133 153 180
134 154 181
133 154 181
133 154 180
133 154 181
133 154 180
133 154 181
134 154 181
134 154 181
134 154 180
133 153 180
134 154 181
133 154 180
134 154 181
134 154 180
133 154 180
134 154 180
133 153 180
134 154 180
133 154 181
134 154 180
133 153 180
133 153 180
134 154 181
132 152 179
133 154 180
133 153 180
133 153 180
135 155 181
133 154 181
135 155 181
133 154 181
134 154 181
134 154 180
134 154 181
134 154 181
134 154 181
134 154 181
134 154 181
134 155 181
133 154 181
134 154 181
134 154 181
134 154 181
134 154 181
134 154 181
134 154 180
133 154 181
133 154 181
133 154 180
134 154 181
134 154 180
133 153 180
133 154 181
133 154 181
133 154 180
134 154 181
134 154 181
133 153 180
133 154 181
134 154 180
134 154 181
134 154 181
134 154 181
135 155 181
133 154 181
132 153 180
134 154 181
133 154 181
134 154 180
133 154 180
134 154 181
133 153 180
135 155 181
133 154 181
133 154 181
133 154 180
134 154 181
133 154 180
133 154 181
133 153 180
133 154 181
133 154 180
134 154 180
135 155 181
134 154 181
133 154 180
134 154 180
134 154 181
134 154 181
134 154 181
133 153 180
133 153 180
134 154 181
134 154 181
133 154 181
133 154 181
135 155 181
133 154 180
134 154 181
133 153 180
134 154 181
134 154 181
133 153 179
133 154 181
133 154 181
133 154 180
134 154 181
134 154 181
133 153 180
135 155 181
134 154 180
134 154 181
134 154 181
133 154 180
133 154 181
133 154 181
133 154 181
134 154 181
134 154 181
133 154 181
134 154 181
134 154 180
133 153 180
134 154 181
133 154 181
134 154 181
133 154 181
134 154 180
133 154 181
132 153 181
133 154 181
134 154 181
134 154 181
133 154 181
133 153 180
134 154 181
133 154 181
133 154 181
134 154 181
134 154 181
134 154 181
133 154 180
134 154 181
133 153 180
134 155 181
135 155 181
133 154 181
134 154 181
134 154 181
134 154 181
134 154 181
134 154 181
135 155 181
133 154 181
134 154 181
134 154 181
134 154 181
134 154 181
134 154 181
134 154 180
135 155 181
133 154 181
133 154 181
133 154 181
133 154 181
133 154 180
134 154 181
134 154 181
134 154 180
133 154 181
135 155 181
133 154 181
134 154 181
134 155 181
133 153 180
133 154 181
134 154 181
134 154 181
134 154 181
133 154 181
133 154 181
134 154 181
134 154 181
133 154 180
133 154 181
134 154 181
133 154 181
134 154 181
134 154 181
134 154 181
134 154 181
134 154 181
134 154 181
134 154 181
134 154 181
134 154 181
133 154 181
134 154 181
133 154 181
134 154 181
133 154 181
134 154 181
134 154 181
133 154 180
133 154 181
134 155 181
134 155 181
134 154 181
135 155 181
134 154 181
133 154 181
133 154 181
133 154 181
134 154 181
134 154 181
133 154 181
133 154 181
134 154 181
133 154 181
134 155 181
134 154 181
134 154 181
134 154 181
134 154 181
135 155 181
133 154 181
133 154 181
134 154 181
134 154 181
133 154 181
134 154 181
134 154 181
134 154 181
133 154 181
135 155 181
133 154 181
134 154 181
134 154 181
134 154 181
133 154 181
135 155 181
134 154 181
134 154 180
133 154 181
134 154 181
134 154 181
134 154 181
133 154 181
134 154 181
134 154 181
135 155 181
134 154 181
133 154 181
133 154 181
134 155 181
134 154 180
134 154 181
134 154 181
133 154 181
134 154 181
134 154 181
134 154 181
135 155 181
134 154 181
133 154 181
134 154 181
133 154 181
133 153 180
134 154 181
134 154 181
135 155 181
133 154 181
134 154 181
133 154 181
134 154 181
133 154 181
134 154 181
134 154 181
133 154 181
133 154 181
134 154 181
135 155 181
134 154 181
133 154 181
134 154 181
134 154 181
134 155 181
134 154 181
134 154 181
134 154 181
134 154 181
134 154 180
134 154 181
133 154 181
134 154 181
134 154 181
134 154 181
134 154 181
133 153 180
133 153 180
133 154 181
134 154 181
133 154 180
133 153 180
133 153 180
134 154 181
132 152 179
134 154 181
134 154 181
132 153 180
133 154 181
134 154 181
134 154 181
134 154 180
134 154 181
133 154 181
133 153 180
134 154 180
134 154 180
133 153 180
133 154 180
134 154 181
134 154 181
132 153 180
134 154 181
134 154 180
133 153 180
134 154 181
133 154 181
134 154 181
133 154 180
133 154 180
133 153 180
134 154 180
132 153 180
134 154 181
135 155 181
133 154 181
133 153 179
133 153 180
133 154 181
133 154 181
133 154 181
132 153 180
133 154 180
133 154 180
132 153 180
133 154 181
132 152 179
133 153 180
132 153 180
133 153 179
134 154 180
133 153 180
132 152 179
133 154 181
133 154 181
133 153 180
134 154 181
134 154 181
133 154 181
134 154 181
132 153 179
134 154 181
132 153 180
132 152 179
134 154 180
134 154 180
133 153 180
133 153 180
133 154 180
133 154 180
131 153 180
134 154 181
132 153 180
134 154 181
134 154 181
133 154 180
133 154 181
133 154 181
133 154 180
133 154 180
133 153 180
132 153 180
133 154 181
133 154 180
134 154 181
133 153 180
133 154 181
132 152 179
133 154 180
133 154 180
132 153 180
134 154 181
133 154 180
132 153 180
134 154 181
135 155 181
134 154 181
133 154 181
133 154 181
133 154 181
133 154 181
132 153 180
133 153 180
133 153 180
132 153 179
133 154 180
134 154 180
132 153 179
133 154 181
133 154 181
134 154 181
134 154 181
133 154 180
133 154 181
133 153 180
134 154 180
133 154 180
133 154 181
134 154 181
134 154 181
134 154 181
134 154 181
134 154 181
134 154 181
134 155 181
134 154 181
133 153 180
132 153 180
134 154 181
134 154 181
133 154 181
134 154 181
133 154 181
134 154 181
133 154 181
134 154 181
132 153 180
133 154 181
133 153 180
133 154 181
134 154 181
133 153 180
133 153 180
133 153 180
133 153 180
133 154 181
133 154 181
134 154 181
134 154 181
134 154 181
134 154 181
134 154 180
134 154 181
133 154 180
134 154 181
133 154 181
133 153 180
133 154 181
134 154 181
134 154 181
134 154 181
133 153 180
133 154 180
132 153 180
133 154 181
134 154 181
133 154 181
134 154 181
134 154 181
133 154 181
134 154 181
135 155 181
135 155 181
134 154 181
133 153 180
134 155 181
134 154 181
134 154 181
134 154 181
134 154 181
134 154 181
133 153 180
133 154 181
133 154 181
134 154 181
133 154 181
133 154 181
133 154 181
134 154 181
134 154 181
134 154 181
134 154 181
134 154 181
134 154 181
134 154 181
134 154 181
133 154 180
134 154 180
134 154 181
134 154 180
134 154 181
134 154 181
133 153 180
134 154 180
133 154 181
135 155 181
133 153 180
134 154 181
134 154 180
133 154 181
133 154 181
134 155 181
134 154 181
131 152 179
133 154 180
133 154 181
134 154 181
134 154 181
132 153 180
134 154 180
134 154 181
134 154 180
133 154 180
134 154 181
133 154 180
133 154 181
134 154 180
133 153 180
135 155 181
133 154 181
134 154 181
134 154 181
133 154 181
133 154 181
134 154 181
133 153 180
134 154 181
133 154 181
133 153 180
134 154 181
134 154 181
133 154 180
134 154 181
134 154 181
133 154 181
134 154 180
135 155 181
134 154 181
135 155 181
134 154 181
134 154 181
134 154 181
134 154 181
134 154 181
134 154 181
135 155 181
133 154 181
134 154 181
135 155 181
133 153 180
133 154 181
134 155 181
135 155 181
134 154 181
133 154 181
134 154 181
133 154 181
134 154 181
133 154 180
134 154 180
132 153 181
133 154 181
133 154 181
135 155 181
134 154 181
133 154 181
134 154 181
134 154 181
134 154 181
134 154 181
134 154 181
134 154 181
134 154 181
134 154 181
133 154 181
134 154 181
133 154 181
133 154 180
133 154 181
134 154 181
134 154 181
134 154 181
134 154 181
134 155 181
133 154 181
134 154 181
134 154 181
135 155 181
135 155 181
134 154 181
133 154 181
134 154 181
134 154 181
133 154 181
133 154 181
133 154 181
134 154 181
134 154 181
134 154 181
134 154 181
134 154 181
133 154 181
134 154 181
133 154 181
134 154 181
134 154 180
134 154 180
135 155 181
134 154 181
134 154 181
134 154 181
134 154 181
134 154 181
134 154 181
134 154 181
134 154 181
134 155 181
134 154 181
133 154 181
134 154 181
134 154 181
133 154 181
133 154 181
133 154 181
134 154 181
134 154 181
133 153 180
133 154 181
133 154 181
134 154 181
134 154 181
134 154 181
134 154 181
134 154 181
133 154 181
133 154 181
135 155 181
134 154 181
134 154 181
134 154 181
133 154 181
134 154 181
134 154 181
134 154 181
133 154 181
133 154 181
134 154 181
134 154 181
134 154 181
134 155 181
133 153 180
134 154 181
133 154 181
134 154 181
134 154 181
133 154 181
134 154 181
134 154 181
133 154 181
134 154 181
134 154 181
133 154 181
134 154 181
135 155 181
133 154 181
133 154 181
134 154 181
134 154 181
134 154 181
134 154 181
134 154 181
133 154 181
134 154 181
134 154 181
134 154 181
133 154 181
133 154 181
133 154 181
134 154 181
133 154 181
133 154 181
133 154 180
133 154 181
133 154 180
132 152 179
133 153 180
134 154 180
133 154 181
134 154 181
135 154 180
133 153 180
133 154 180
134 154 180
132 153 180
134 154 181
134 154 181
133 154 181
133 153 180
134 154 180
133 153 180
133 153 180
133 154 180
133 153 180
134 154 181
133 154 181
133 154 181
133 154 180
134 154 181
134 154 181
134 154 181
133 154 181
134 154 180
134 154 181
134 154 181
134 154 181
133 153 180
133 153 180
135 155 181
134 154 181
133 153 180
134 154 180
133 154 180
134 154 180
133 154 180
133 154 181
133 154 180
134 154 180
134 154 181
134 154 181
133 153 180
133 153 180
134 154 181
134 154 180
134 154 180
133 154 180
133 154 181
133 153 180
134 154 181
134 154 181
133 154 181
134 154 181
133 153 180
134 154 181
132 152 179
134 154 181
132 153 180
134 154 181
133 154 181
134 154 180
134 154 181
133 154 181
134 154 181
133 153 180
133 154 181
133 153 180
134 154 181
134 154 180
132 153 180
133 154 180
133 153 180
133 154 180
134 154 181
134 154 181
133 153 180
134 154 180
133 154 181
133 154 180
133 154 181
133 154 180
133 153 180
133 153 180
134 154 181
132 153 180
134 154 181
134 154 180
133 153 180
134 154 181
134 154 181
134 154 181
134 154 181
133 154 180
133 154 180
132 152 179
134 154 181
133 154 180
133 154 180
133 154 181
133 153 180
133 153 180
133 154 181
133 154 180
133 154 180
134 154 180
134 154 181
133 153 180
132 153 180
133 154 180
133 153 180
133 154 181
133 154 181
133 154 181
134 154 181
133 154 180
135 155 181
133 153 180
135 155 181
135 155 181
134 154 181
133 153 180
132 153 181
133 153 180
133 153 180
133 153 180
133 154 181
133 154 181
134 154 181
133 154 180
135 155 181
133 153 179
133 154 181
134 154 180
134 154 181
133 154 181
134 154 181
134 154 181
133 153 180
134 154 181
134 154 181
133 154 180
132 153 181
133 154 181
134 154 181
133 154 181
133 153 180
133 154 181
133 154 181
134 154 181
134 154 181
135 155 181
133 153 180
134 154 181
134 154 181
134 154 181
133 154 181
134 154 180
134 154 181
134 154 181
134 154 181
133 153 180
132 153 180
134 154 181
134 154 180
133 154 180
134 154 181
133 154 181
133 153 180
133 154 181
133 153 180
134 154 181
133 153 180
133 154 181
134 154 181
134 154 181
133 154 181
133 153 180
135 155 180
133 154 181
133 154 180
134 154 181
133 154 181
134 154 181
133 154 180
134 154 181
134 154 181
133 154 181
133 154 181
133 154 181
133 153 180
134 154 181
134 154 181
134 154 181
133 154 181
134 154 181
133 153 180
134 154 181
134 154 181
133 154 180
134 154 181
134 154 181
133 153 180
134 154 181
134 154 181
134 154 180
133 154 181
134 154 181
134 154 181
134 154 180
134 154 181
134 154 181
133 154 181
135 155 181
134 154 181
134 154 181
133 154 181
133 154 181
134 154 181
133 154 181
134 154 181
134 154 181
132 153 180
133 154 181
133 154 181
134 154 181
133 154 181
133 154 181
134 154 181
134 154 181
133 153 180
134 155 181
134 154 181
134 154 181
133 153 180
133 154 181
133 154 181
133 154 181
133 154 181
133 154 181
134 154 181
133 154 181
133 154 181
134 154 180
134 154 181
133 154 181
133 154 181
132 153 180
135 155 181
134 154 181
134 154 181
133 154 181
133 153 180
133 154 181
134 154 181
134 154 181
133 154 181
133 154 181
134 154 181
134 154 181
134 154 180
133 154 181
133 154 181
133 153 180
133 154 181
133 154 181
134 154 181
133 154 181
135 155 181
134 154 181
134 154 181
133 154 181
133 154 180
133 154 181
134 154 181
134 154 180
134 154 181
133 154 181
134 154 181
134 154 180
134 155 181
133 154 181
133 154 181
133 154 181
134 155 181
133 154 181
134 154 181
134 154 181
133 154 181
134 154 181
133 154 180
134 154 181
133 154 181
134 154 181
134 154 181
133 153 180
134 154 181
134 154 181
133 154 181
134 154 181
133 154 181
133 154 181
133 154 181
132 153 181
133 154 181
134 154 181
134 154 181
133 154 181
133 154 180
134 154 181
133 154 180
133 154 181
133 154 181
133 153 180
134 154 181
133 154 181
134 154 181
134 154 181
134 154 181
134 154 181
134 154 181
133 154 180
134 154 181
133 154 181
134 154 181
134 154 181
134 154 181
133 154 181
134 154 181
133 154 181
133 154 181
133 154 181
133 154 181
135 155 181
134 154 181
133 154 181
133 153 180
133 154 181
134 154 181
134 154 181
134 154 181
133 153 180
135 155 181
133 154 181
134 154 181
133 154 181
134 154 181
134 154 181
134 154 181
133 154 181
134 154 181
134 154 181
134 154 181
134 154 181
134 154 181
134 154 181
134 154 181
134 154 181
134 154 181
134 154 181
133 154 181
134 154 181
134 154 181
134 154 181
134 154 181
133 154 181
134 154 181
134 154 181
133 154 181
133 154 181
134 154 181
134 154 181
134 154 181
134 154 181
133 154 180
133 154 181
134 154 181
134 154 181
134 154 181
133 154 181
134 154 181
134 154 181
134 154 181
134 154 181
134 154 180
133 154 181
134 154 181
134 154 181
133 154 181
133 154 181
134 154 181
134 154 181
133 154 181
133 154 181
134 154 181
134 154 181
134 154 181
133 153 180
133 153 180
134 154 181
133 153 180
133 154 181
133 153 180
132 153 181
134 154 181
133 153 180
135 155 181
133 153 180
134 154 181
133 154 181
133 154 180
133 153 180
133 154 181
133 154 181
133 153 180
133 153 180
133 154 181
134 154 181
134 154 181
133 154 180
133 154 181
133 153 180
133 153 180
133 154 181
133 153 180
135 155 181
134 154 181
134 154 181
134 154 180
133 154 181
132 153 180
134 154 180
133 154 181
134 154 181
134 154 180
132 154 181
133 154 180
134 154 181
134 154 181
133 154 181
132 153 180
133 154 181
133 154 181
133 153 180
133 153 179
134 154 181
133 154 181
133 153 180
134 154 180
134 154 181
133 154 181
134 154 180
133 153 180
134 154 181
134 155 181
133 154 181
133 154 180
134 154 181
133 154 181
134 154 181
133 154 181
132 152 180
132 152 180
134 154 181
134 154 180
134 154 181
133 154 181
133 154 181
133 153 180
134 154 180
133 154 181
134 154 181
133 154 180
133 154 180
134 154 181
134 154 181
133 154 181
134 154 181
134 154 180
133 154 181
133 154 180
133 153 180
135 155 180
133 154 181
134 154 181
134 154 180
132 153 180
133 154 180
135 155 181
133 154 180
134 154 180
134 154 181
133 154 180
133 154 181
134 154 180
133 153 180
134 154 181
133 154 181
133 153 180
133 154 181
133 153 180
134 154 181
134 154 181
132 153 181
133 154 181
133 153 179
133 153 180
133 154 180
133 154 181
134 154 181
133 154 181
134 154 181
134 154 181
134 153 180
133 154 180
134 154 181
133 154 180
133 154 180
134 154 180
133 154 180
134 154 180
134 154 181
133 153 180
133 153 180
133 154 180
134 154 181
134 154 181
133 154 181
134 154 180
134 154 180
133 154 181
133 154 181
133 154 181
134 154 181
134 154 181
135 155 181
133 154 181
133 153 180
134 154 180
134 154 180
134 154 180
132 153 180
133 153 180
134 154 181
133 154 181
134 154 181
134 154 181
134 154 181
133 154 181
133 154 181
133 154 181
134 154 181
133 154 181
134 154 180
134 154 181
134 154 181
134 154 181
133 154 181
134 154 181
133 153 180
134 154 181
133 154 181
134 154 181
134 154 181
133 154 181
134 154 181
134 154 181
133 154 180
133 154 181
134 154 181
134 154 181
134 154 181
133 154 181
134 154 181
133 154 181
132 152 180
133 154 180
135 155 181
134 154 181
134 154 181
133 153 180
134 154 181
134 154 181
134 154 181
134 154 181
133 154 180
134 154 181
133 154 181
133 154 180
134 154 181
135 155 181
134 154 181
134 154 181
133 154 181
134 154 181
133 154 181
135 155 181
134 154 181
133 154 180
134 155 181
134 154 180
133 154 180
134 154 181
134 154 181
133 154 181
135 155 181
135 155 181
133 153 180
133 154 181
135 155 181
133 154 181
134 154 181
133 154 181
135 155 181
134 154 181
134 154 181
133 154 181
134 154 181
134 154 180
133 154 180
133 154 181
133 154 181
133 154 180
133 154 181
132 153 180
134 154 181
134 154 181
133 154 181
133 154 181
135 155 181
133 154 181
133 154 181
134 154 181
134 154 181
133 154 181
134 154 181
133 154 181
133 153 180
133 154 181
135 155 181
134 154 181
134 154 180
134 155 181
133 154 181
135 155 181
134 154 181
133 154 181
133 153 180
133 154 181
134 154 181
134 154 181
134 154 181
133 154 181
135 155 181
134 154 181
134 154 181
133 154 180
134 154 180
135 155 181
134 154 181
134 154 181
133 154 181
134 154 181
133 154 181
134 154 180
133 154 181
133 154 181
133 154 181
134 154 181
133 154 181
133 154 181
134 154 181
133 154 181
134 154 181
134 154 181
134 154 181
133 154 181
134 154 181
134 154 181
133 154 181
134 154 181
134 154 181
133 154 181
133 154 181
134 154 181
134 154 181
134 154 181
134 154 181
133 154 181
133 154 181
133 153 180
134 154 181
133 154 181
133 154 181
135 155 181
134 154 181
133 154 181
134 154 181
133 153 180
134 154 181
134 155 181
133 154 181
134 154 181
134 154 181
134 154 181
134 154 181
133 154 181
133 154 181
134 154 181
133 154 181
134 154 181
134 154 181
134 154 181
134 154 181
134 154 181
134 154 181
133 154 181
133 154 181
134 154 181
134 154 181
133 154 181
134 154 181
134 154 181
133 154 181
134 154 181
133 154 181
134 154 181
133 153 180
134 154 181
135 155 181
133 154 181
134 154 181
134 154 181
134 154 181
134 154 181
134 154 181
134 154 181
134 154 181
134 154 181
134 154 181
135 155 181
134 154 181
133 154 181
134 154 181
134 154 181
135 155 181
133 154 181
134 154 181
134 154 181
133 154 180
134 154 181
133 154 181
133 154 181
134 154 181
134 154 181
134 154 181
134 154 181
133 154 181
134 154 181
135 155 181
133 154 181
134 154 181
133 154 181
134 154 181
133 154 181
134 154 181
134 154 181
134 154 181
133 154 181
133 154 181
132 153 180
134 154 181
133 154 181
133 154 181
133 154 180
134 154 181
134 155 181
134 154 180
134 154 181
133 154 181
134 154 181
134 154 181
133 154 181
134 155 181
133 154 181
134 154 181
132 153 181
134 154 181
134 154 181
133 154 181
134 154 181
134 154 181
134 154 181
133 154 181
134 154 181
133 154 180
133 154 180
133 154 180
133 153 180
135 155 181
134 154 181
134 154 181
133 154 181
134 154 181
133 153 180
133 154 181
133 154 180
133 154 181
133 154 181
134 154 180
135 155 181
133 154 180
134 154 180
134 154 181
134 154 181
134 154 181
133 154 181
133 153 180
134 154 181
134 154 181
133 153 180
133 153 180
134 154 181
133 154 181
132 153 181
134 154 181
134 154 180
133 153 180
134 154 181
133 154 181
132 153 180
134 154 181
134 154 181
134 154 181
133 153 180
134 154 181
134 154 181
134 154 181
133 153 180
134 154 181
133 154 180
134 154 181
134 154 181
134 154 180
133 153 180
132 153 180
134 154 180
133 154 180
134 154 181
134 154 180
134 154 181
133 154 181
133 154 180
133 153 180
134 154 181
133 153 180
133 154 181
133 153 180
134 154 181
134 154 181
134 154 180
133 154 180
134 154 181
133 154 180
133 154 181
133 154 181
134 154 180
133 154 180
134 154 181
133 153 180
134 154 180
133 154 181
133 154 181
133 154 180
133 153 180
134 154 181
132 152 179
132 153 180
134 154 181
134 154 181
133 153 180
133 154 180
134 154 181
133 154 180
132 153 180
133 154 180
134 154 180
134 154 180
134 154 180
133 154 180
133 153 180
134 154 181
133 154 181
133 154 180
134 154 180
133 154 180
132 153 180
134 154 181
134 154 181
134 154 181
133 153 180
133 154 180
133 154 181
132 152 180
133 154 181
133 154 181
133 154 180
132 153 180
133 154 181
134 154 180
134 155 181
134 154 181
133 154 181
133 154 181
133 154 180
132 153 180
134 154 181
134 154 181
133 154 181
134 154 181
134 154 181
133 154 180
134 154 181
135 155 181
134 154 181
133 154 181
133 153 180
134 154 181
134 154 181
134 154 180
133 154 180
134 154 181
133 154 181
133 154 181
133 154 180
134 154 181
134 154 181
133 153 180
133 154 181
134 154 181
135 155 181
133 154 181
135 155 181
134 155 181
134 154 181
134 154 180
133 154 181
134 154 180
134 154 181
133 154 181
135 155 181
133 154 181
132 153 180
134 154 181
133 153 180
134 154 181
133 153 179
133 153 180
134 154 181
133 154 180
133 154 181
133 154 181
134 154 180
133 153 180
134 154 181
133 154 181
134 155 181
134 154 181
134 154 181
134 155 181
133 154 181
134 154 181
134 154 181
134 154 181
133 154 180
133 154 181
135 155 181
134 154 181
133 154 181
134 154 181
134 154 181
134 154 181
135 155 181
134 154 181
133 154 181
134 154 181
134 154 181
134 155 181
135 155 181
135 155 181
133 154 181
133 154 181
133 153 180
134 154 181
133 154 181
134 154 180
133 154 181
135 155 181
133 154 181
134 154 181
134 154 181
135 155 181
133 154 181
134 154 181
134 154 181
134 154 181
134 155 181
134 154 181
133 154 181
133 154 181
134 154 180
133 154 181
134 155 181
134 154 181
134 154 180
134 154 180
133 154 181
134 154 181
134 154 181
134 154 180
134 154 180
134 154 181
134 154 181
133 154 180
134 154 181
133 154 181
134 154 181
134 154 181
134 154 181
133 154 181
133 154 181
134 154 181
134 154 181
134 154 181
134 154 181
134 154 180
133 154 180
134 154 181
134 154 181
133 154 181
134 154 181
133 154 181
134 154 181
133 154 181
133 154 181
133 154 181
134 154 181
134 154 181
134 154 181
133 153 180
134 154 181
134 154 181
134 154 181
134 154 181
133 154 180
134 154 181
133 153 180
133 154 181
134 154 181
133 154 181
134 154 181
133 154 180
133 154 181
134 154 181
134 154 181
133 154 181
134 154 181
133 154 181
134 154 181
134 154 181
134 154 181
134 154 181
134 154 181
133 154 181
134 154 181
134 154 181
133 154 181
134 154 181
134 154 181
134 154 181
134 154 181
133 154 181
134 154 181
134 154 181
134 154 181
134 154 181
134 154 180
133 154 181
134 154 181
134 154 181
134 154 181
134 154 181
134 154 181
134 154 181
134 154 181
135 155 181
133 154 181
134 154 181
134 154 181
134 154 181
133 154 181
134 154 181
134 154 180
134 154 181
133 154 181
133 154 181
134 154 181
134 154 181
133 154 181
133 154 181
134 154 181
134 154 181
134 154 181
133 154 181
134 154 181
134 154 181
134 154 181
134 154 181
133 154 180
134 154 181
134 154 181
134 154 181
133 154 181
133 153 180
135 155 181
133 154 181
133 154 181
134 154 181
133 154 181
133 154 181
134 154 181
134 154 181
133 154 181
134 154 181
133 154 181
135 155 181
134 154 181
134 154 181
134 154 181
134 154 181
134 154 181
134 154 181
134 154 181
133 154 180
134 154 181
133 154 181
134 155 181
134 154 181
133 154 181
133 154 181
134 154 181
134 154 181
134 154 181
134 154 181
133 154 181
134 154 181
134 154 181
133 154 181
134 154 180
134 154 181
134 154 181
133 154 181
134 154 181
134 154 181
133 154 181
134 154 181
133 154 181
134 154 181
133 154 181
134 154 181
134 154 181
134 154 181
134 154 181
133 154 181
134 154 181
134 155 181
133 154 181
134 154 180
134 154 181
134 154 181
133 154 181
133 154 181
134 154 181
134 154 181
134 154 181
134 154 181
134 154 181
132 154 181
133 154 181
134 154 180
134 154 181
133 154 181
133 154 181
135 155 181
134 154 181
134 154 181
134 154 181
133 154 180
133 154 180
134 154 181
134 154 181
133 154 181
133 153 180
133 154 181
134 154 181
134 154 181
134 154 181
134 154 180
133 154 181
134 154 180
133 154 180
134 154 181
134 154 181
133 154 180
133 154 181
135 155 181
133 154 181
134 154 181
134 154 181
134 154 181
134 154 181
134 155 181
134 154 181
133 154 181
134 154 181
132 153 180
133 154 181
132 153 180
133 153 180
133 154 181
133 153 179
133 153 180
133 153 180
133 153 180
134 154 180
134 154 180
133 154 181
133 153 180
133 154 181
133 154 181
133 153 180
134 154 181
134 154 181
133 154 181
134 154 180
133 153 180
134 155 181
133 154 180
133 154 181
134 154 181
133 153 180
133 153 180
133 153 180
134 154 181
133 153 180
133 154 181
133 154 181
134 154 181
133 154 181
134 154 181
134 154 181
133 154 180
133 154 181
133 154 181
132 153 180
133 154 180
134 154 181
132 153 180
132 153 179
132 153 180
133 153 180
133 153 180
133 154 181
134 154 181
133 154 181
133 154 180
134 154 181
131 152 180
132 153 180
134 154 181
133 154 181
133 154 181
132 153 179
133 154 181
134 154 180
132 152 179
133 153 180
133 154 181
133 154 181
133 154 181
133 153 180
133 153 179
134 154 181
134 154 181
133 154 181
134 154 181
133 153 180
134 154 181
134 154 181
134 154 181
133 154 180
132 153 179
133 153 180
134 154 181
133 154 181
134 155 181
133 154 181
134 154 181
133 154 180
133 154 180
133 153 180
132 153 179
133 153 180
133 154 181
133 154 180
132 153 180
134 154 181
134 154 181
133 154 181
134 154 181
134 154 181
134 154 181
133 154 181
132 153 180
134 154 180
133 154 180
133 154 180
133 153 180
133 154 180
134 154 181
133 153 180
134 154 181
133 154 181
133 154 181
134 154 180
135 155 181
133 154 181
135 155 181
133 154 180
133 153 180
134 154 180
133 154 181
133 154 180
133 154 180
133 153 180
134 154 181
134 154 181
134 154 181
134 154 181
134 155 181
134 154 181
134 154 181
134 154 180
133 154 181
133 154 180
134 154 181
134 154 181
135 155 181
133 154 181
134 154 181
133 154 181
133 154 181
134 154 180
133 154 181
133 154 180
134 155 181
133 154 181
133 154 181
133 153 180
134 154 181
133 154 180
134 154 181
134 154 181
133 154 180
133 154 181
133 154 181
133 154 180
134 154 181
133 154 181
133 153 180
134 154 181
134 154 181
133 154 181
134 154 181
133 153 180
134 154 181
133 154 181
134 154 181
134 154 181
134 154 181
134 154 180
134 154 180
133 154 181
134 154 181
133 153 180
133 154 181
134 154 181
134 154 181
134 154 181
133 153 180
134 154 181
134 154 180
133 153 180
134 154 181
132 153 180
134 154 181
134 154 181
133 154 180
133 154 180
133 154 181
134 154 180
133 154 181
134 154 181
133 154 180
133 154 181
134 154 181
133 154 181
133 154 181
133 154 180
133 154 180
133 154 181
133 154 181
134 154 181
134 154 181
133 154 181
134 154 181
134 155 181
134 154 181
133 154 180
133 154 181
134 154 180
134 154 181
134 154 181
134 154 181
133 154 181
134 154 181
134 154 181
134 154 181
133 154 181
133 154 181
133 154 181
133 154 181
133 154 181
133 154 181
134 154 181
133 154 181
134 154 181
134 154 181
133 154 180
133 154 181
133 154 181
134 154 181
133 154 180
134 154 181
134 155 181
133 154 181
134 154 181
134 154 181
134 154 181
135 155 181
133 154 181
134 154 181
134 154 181
134 154 181
133 154 180
134 154 181
134 154 181
135 155 181
133 154 181
133 154 181
133 154 181
134 154 181
134 154 181
134 154 181
134 154 181
134 154 181
134 154 181
134 154 181
134 154 181
134 154 181
134 154 180
134 154 181
133 154 181
134 154 181
133 154 180
133 154 181
134 154 181
134 154 181
133 154 181
133 154 181
134 154 181
134 154 181
133 154 181
133 154 181
134 154 181
133 154 180
134 154 180
133 154 181
133 154 181
133 153 180
134 154 181
133 154 180
133 154 181
133 154 180
135 155 181
133 154 180
134 154 181
133 154 181
134 154 181
135 155 181
133 154 181
134 154 181
135 155 181
134 154 181
134 154 181
133 154 181
133 154 181
134 154 181
133 154 181
134 154 181
133 154 181
133 154 181
134 154 181
134 154 181
134 154 181
133 154 181
134 154 181
133 154 180
134 154 181
135 155 181
133 154 181
134 154 181
134 154 181
134 154 180
133 154 181
133 154 180
134 154 181
134 154 181
134 154 181
135 155 181
134 154 181
133 154 181
134 154 181
134 154 181
133 154 181
134 154 181
133 154 180
134 155 181
134 154 181
133 154 181
134 154 181
134 154 181
135 155 181
133 154 181
134 154 181
133 154 181
134 154 181
133 154 181
134 154 181
133 154 181
134 154 181
134 154 181
133 154 181
134 154 181
133 154 181
134 154 181
134 154 181
133 154 181
133 154 180
134 154 181
134 154 181
134 154 181
133 154 181
134 154 181
135 155 181
134 154 181
134 154 181
133 154 181
133 154 181
133 154 181
134 154 181
133 154 181
133 154 181
134 154 181
134 154 181
133 154 181
132 153 180
134 154 181
134 154 181
134 154 181
133 154 181
134 154 181
134 154 181
134 154 181
134 154 181
133 153 180
134 155 181
133 153 179
134 154 181
134 154 180
134 154 181
134 154 181
134 154 180
134 154 180
135 155 181
133 153 180
133 154 181
134 154 181
133 154 181
133 154 180
134 154 181
134 154 180
134 154 181
134 154 181
134 154 181
133 153 180
134 154 181
134 154 181
135 155 181
133 154 181
134 154 180
132 153 180
133 154 181
133 154 181
133 154 181
134 154 181
134 154 181
132 153 180
133 153 180
134 154 181
132 153 180
134 154 181
134 154 181
133 153 180
133 154 181
133 154 181
133 154 181
134 154 180
133 153 180
133 154 181
133 154 180
134 154 181
133 154 181
133 153 180
133 154 180
134 154 181
133 154 181
134 154 181
134 154 181
134 154 181
133 154 181
133 154 181
134 155 181
133 153 180
133 153 180
133 154 181
133 154 181
134 154 180
134 154 181
134 154 181
133 154 181
134 154 180
133 154 180
133 154 181
133 154 181
134 154 181
133 154 181
134 154 181
133 153 180
134 154 181
134 154 181
134 154 181
132 153 180
133 153 180
133 154 180
134 154 181
134 154 180
134 154 181
133 153 180
133 154 181
133 154 180
133 153 180
134 154 181
133 154 180
132 153 180
133 154 181
134 154 181
133 154 181
133 154 180
134 154 181
134 154 181
135 155 181
133 153 180
134 154 181
134 154 181
133 154 181
134 154 181
133 153 180
134 154 181
134 154 181
132 153 180
133 154 180
134 154 181
133 153 180
133 154 180
134 154 181
134 154 181
132 153 180
133 154 180
134 154 181
134 154 181
135 155 181
133 154 181
134 154 181
133 154 181
134 154 181
134 154 181
133 153 179
133 154 181
133 154 180
133 154 181
134 154 180
134 154 181
134 154 181
134 154 181
133 154 181
134 154 181
133 154 181
134 154 181
133 154 181
133 154 181
134 154 181
133 154 181
135 155 181
134 154 181
133 153 180
134 154 181
133 153 180
134 154 181
134 154 181
133 154 181
133 154 181
132 153 181
134 154 180
133 154 180
133 153 180
133 154 181
134 154 181
134 154 181
134 154 181
134 154 181
133 154 181
133 154 181
134 154 180
134 154 181
133 153 180
135 155 181
134 154 181
134 154 180
133 154 181
133 153 180
133 153 180
134 154 180
133 154 181
133 154 181
134 154 181
135 155 181
132 153 179
134 154 181
133 154 180
134 154 181
134 154 181
134 154 181
134 154 181
133 154 181
134 155 181
134 154 181
134 154 180
133 154 181
133 154 181
133 154 181
134 154 181
134 154 181
134 154 181
134 154 181
134 154 181
132 153 181
134 154 181
134 154 181
133 153 180
133 153 180
133 153 180
134 154 181
134 154 181
134 154 181
134 154 181
133 154 181
134 154 180
134 154 181
133 154 181
133 154 181
133 154 181
134 154 181
134 154 181
134 154 181
133 154 181
134 154 180
133 153 180
133 154 180
134 154 181
134 154 181
133 154 180
134 154 181
134 154 181
133 154 181
135 155 181
133 154 181
133 154 181
133 154 181
133 154 180
134 154 181
133 154 181
134 154 181
135 155 181
134 154 181
134 154 180
133 154 181
133 153 180
134 154 181
134 154 181
133 154 181
133 154 181
133 154 180
133 153 180
134 154 181
133 154 181
134 154 181
134 154 180
133 154 181
133 154 181
132 154 181
134 155 181
134 154 181
134 154 181
134 154 181
135 155 181
133 154 181
133 154 180
134 154 181
134 154 181
133 154 181
134 154 181
134 154 181
134 154 181
134 154 181
134 154 181
134 154 181
135 155 181
134 154 181
133 154 181
133 154 181
133 154 181
133 154 181
133 154 181
134 154 181
134 154 181
133 154 181
133 153 180
134 154 181
134 154 181
134 154 181
133 154 181
134 154 181
134 154 181
134 154 181
134 154 181
135 155 181
134 154 181
134 154 181
133 154 181
133 154 181
135 155 181
134 154 181
134 154 181
134 154 181
134 154 181
134 154 181
134 154 181
134 154 181
133 154 181
134 154 181
133 154 181
133 154 181
133 154 181
134 154 181
133 154 181
134 154 181
133 154 181
134 154 181
134 154 181
133 154 181
134 154 181
133 154 181
134 154 181
134 154 181
134 154 181
134 154 181
134 154 181
133 154 181
133 154 180
133 154 181
134 154 181
134 154 181
135 155 181
133 154 181
135 155 181
135 155 181
134 154 181
133 154 181
134 154 181
134 155 181
134 154 181
133 154 181
134 154 181
133 154 181
133 154 180
134 154 181
133 154 181
133 154 181
134 154 181
134 154 181
135 155 181
134 154 181
132 153 181
134 154 181
133 153 180
134 154 181
134 154 181
134 154 181
133 154 181
134 154 181
133 154 181
134 154 181
133 154 181
133 154 181
134 154 181
133 154 181
134 154 181
134 154 181
134 154 181
135 155 181
134 154 180
134 154 181
134 154 181
134 154 180
135 155 181
134 154 181
133 154 181
134 154 181
133 154 181
133 154 181
134 154 181
134 154 181
134 154 180
133 154 181
133 154 180
134 154 181
133 154 181
133 154 181
134 154 181
133 154 181
133 154 181
134 154 181
134 154 181
134 154 181
134 154 181
133 154 181
134 154 181
133 154 181
134 154 181
134 154 181
133 154 181
133 154 181
134 154 181
133 154 181
134 155 181
134 155 181
133 154 181
134 154 181
134 154 181
134 154 181
133 154 181
133 154 180
134 154 181
134 154 181
134 154 181
134 154 180
134 154 181
134 154 181
134 154 181
134 154 181
134 154 181
133 154 181
134 154 181
134 154 180
132 153 180
133 154 181
134 154 181
133 153 180
133 154 180
133 154 181
133 154 181
134 154 181
133 154 180
133 153 180
134 154 181
134 154 181
135 155 181
133 153 180
133 154 181
134 154 181
133 154 180
134 154 181
134 154 180
133 153 180
133 153 180
133 154 181
134 154 181
133 154 181
133 154 180
134 154 181
134 154 181
133 153 180
134 154 181
133 154 180
134 154 181
133 154 181
134 154 181
133 153 180
134 154 181
133 154 181
133 154 181
133 154 181
134 154 181
134 154 180
133 154 180
133 154 181
133 154 180
133 154 180
134 154 180
133 154 181
133 154 181
133 154 181
134 154 180
133 153 180
133 154 181
133 153 180
133 154 181
134 154 181
133 154 181
134 154 181
134 154 181
134 154 181
134 154 181
133 154 180
134 154 181
134 154 180
133 153 180
133 154 180
133 154 181
132 154 181
134 154 181
133 154 181
134 154 181
134 154 181
133 154 181
134 154 181
133 154 181
134 154 181
132 153 180
134 154 181
133 154 180
134 154 180
133 154 181
133 153 180
134 154 181
134 154 181
133 154 181
134 154 181
134 154 181
134 154 181
134 154 181
133 153 180
134 154 181
135 155 181
133 154 181
134 154 180
132 153 180
134 154 181
134 154 181
134 154 181
133 154 180
133 154 181
133 154 181
134 154 181
133 153 180
134 154 181
133 154 181
133 154 181
133 154 180
134 154 181
133 154 181
134 154 181
133 154 181
133 154 180
133 154 180
134 154 181
134 154 180
133 153 180
133 153 180
134 154 181
133 154 181
133 153 180
133 154 180
133 154 181
134 154 181
133 154 181
134 154 180
133 153 180
134 154 180
133 154 181
133 154 181
133 154 181
133 154 181
133 153 180
134 154 181
133 153 180
133 154 180
134 154 181
134 154 181
134 154 181
135 154 180
134 154 180
134 154 181
133 154 181
134 154 181
133 153 180
134 154 181
132 153 180
134 154 181
134 154 181
133 154 181
134 154 180
133 154 181
135 155 181
134 154 181
135 155 181
134 154 181
134 154 181
132 153 181
133 153 180
133 154 181
134 154 181
134 154 181
134 154 180
134 155 181
132 153 179
133 154 181
134 154 181
134 154 181
133 153 180
134 154 181
132 153 180
133 154 180
134 154 181
134 154 181
133 154 181
133 154 181
132 153 180
133 154 181
134 154 181
133 154 180
134 154 181
134 154 181
134 154 181
133 153 180
134 154 181
134 154 181
134 154 181
133 154 181
134 154 181
133 154 181
134 154 181
136 155 181
134 154 181
134 154 181
134 154 181
135 155 181
133 154 181
134 154 181
134 154 181
134 154 180
134 154 181
134 154 181
133 153 180
134 154 181
133 154 181
133 154 181
134 154 181
134 154 181
133 154 181
134 154 181
135 155 181
134 154 181
133 154 181
132 153 179
134 154 181
134 154 181
133 154 181
134 154 181
134 154 181
134 154 181
134 154 180
134 154 181
133 153 180
134 154 181
134 154 181
134 154 181
134 154 181
133 154 181
134 154 181
135 155 181
133 153 180
134 154 181
133 153 180
134 154 181
133 154 181
134 154 181
133 154 181
134 154 181
133 154 181
134 154 181
135 155 181
134 154 181
134 154 181
134 154 181
134 154 181
134 154 180
134 154 181
133 154 181
134 154 181
133 154 181
133 154 181
134 154 181
134 155 181
133 154 181
134 154 181
134 154 181
134 154 181
133 154 181
134 154 180
134 154 181
134 154 180
134 154 181
134 154 181
133 154 181
133 154 181
134 154 181
133 154 181
134 155 181
133 154 181
134 154 181
135 155 181
134 154 181
135 155 181
134 154 181
134 154 181
133 154 180
133 153 180
134 154 181
134 154 181
134 154 181
134 155 181
133 154 181
133 154 181
134 154 181
134 154 181
134 154 181
133 154 181
133 154 180
134 154 181
133 154 181
133 154 181
135 155 181
134 155 181
134 154 181
134 154 181
133 154 181
133 154 181
134 154 181
133 154 181
133 154 181
134 154 181
134 154 180
133 154 181
133 154 181
133 154 180
133 154 181
134 155 181
134 154 181
134 154 181
134 154 181
133 154 181
133 154 181
134 154 181
133 154 181
134 154 181
133 154 181
134 154 181
133 154 181
134 154 181
134 154 181
135 155 181
134 154 181
134 154 181
133 154 181
133 154 181
133 154 181
133 154 181
134 154 181
134 154 181
134 154 180
134 154 181
133 154 181
134 154 181
134 154 181
133 154 181
133 154 181
133 154 181
134 154 181
134 154 181
133 154 181
133 154 181
134 154 181
134 154 181
134 154 180
134 154 181
134 154 181
133 154 180
133 154 181
133 154 181
134 154 181
134 154 181
133 153 180
133 154 181
134 154 181
135 155 181
134 154 181
134 154 181
134 154 181
133 154 181
134 154 181
134 154 181
134 154 181
134 154 181
134 154 181
134 154 181
133 154 180
132 153 181
134 154 181
134 154 181
134 154 181
134 154 181
133 154 181
133 154 181
133 154 181
134 154 181
134 154 181
133 154 181
134 154 181
134 154 181
134 154 181
134 154 181
134 154 181
134 154 181
134 154 181
133 154 181
134 154 181
133 154 181
134 154 181
133 154 181
134 154 181
134 154 181
133 153 180
133 154 181
133 153 180
133 154 181
133 154 181
134 154 181
133 153 180
133 154 180
134 154 181
133 154 181
134 154 181
134 154 180
133 154 181
133 153 180
134 154 181
134 154 181
135 154 180
133 154 180
134 154 181
134 154 181
134 154 181
133 154 181
133 154 181
133 153 180
134 154 180
133 154 181
134 154 181
134 154 180
134 154 181
134 154 181
134 154 181
134 154 181
133 154 181
133 154 180
133 154 180
133 153 180
134 154 180
134 154 181
134 155 181
134 154 181
133 154 180
133 154 181
134 154 180
134 154 181
133 154 181
134 155 181
134 154 181
134 154 180
134 154 181
134 154 181
132 153 179
133 154 181
133 153 180
134 154 181
132 153 180
134 154 181
134 154 180
133 154 181
134 154 181
135 155 181
133 153 180
133 154 181
134 154 181
134 154 181
134 154 180
134 154 181
134 154 181
133 154 181
134 154 181
134 154 181
134 154 181
134 154 181
133 154 181
134 154 181
134 154 180
134 154 181
133 153 180
133 153 180
134 154 181
134 154 181
134 154 180
134 154 181
133 154 181
133 154 180
133 154 180
132 153 181
133 154 181
132 153 180
133 154 181
133 154 181
135 155 181
134 154 181
133 154 180
134 154 181
133 153 180
135 155 181
133 154 181
133 154 180
133 154 180
133 154 181
134 154 181
134 154 181
134 154 181
134 154 180
135 155 181
133 154 181
135 155 181
134 154 181
134 154 181
133 154 181
134 154 180
132 153 180
133 154 181
133 154 181
133 153 180
134 154 181
134 154 181
134 154 180
133 153 180
133 153 180
134 154 180
134 154 181
134 154 181
134 154 181
133 154 181
134 154 181
133 154 181
132 153 179
134 154 181
133 154 181
133 154 181
133 153 180
133 154 181
133 154 181
133 154 180
133 154 181
133 154 181
133 154 181
134 154 181
134 154 181
133 154 181
134 154 180
134 154 181
134 154 181
133 154 181
134 154 181
133 154 180
134 154 180
133 153 180
133 154 180
134 154 181
132 153 180
133 154 180
134 154 181
134 154 181
132 153 179
133 154 181
133 154 180
133 154 180
134 154 180
134 154 180
133 154 180
134 154 181
134 154 181
134 154 181
133 154 181
133 154 181
134 154 181
132 153 179
133 153 180
133 154 180
134 154 180
133 154 180
133 154 181
134 154 181
134 154 181
134 154 181
134 154 181
134 154 181
134 154 181
134 154 181
133 154 181
133 154 181
134 154 181
134 154 181
133 153 180
134 154 180
133 153 180
135 155 181
133 154 181
135 155 181
134 154 181
134 154 181
134 154 181
134 154 181
133 153 180
134 154 181
133 154 181
134 154 180
134 154 181
135 155 181
134 154 181
134 154 181
134 154 181
133 153 180
133 154 181
134 154 181
133 154 181
134 154 181
134 154 181
134 154 181
134 154 181
134 154 181
133 154 181
133 154 180
133 154 181
134 154 181
133 154 181
134 154 181
133 154 180
134 154 181
133 154 181
133 154 181
133 154 181
134 154 181
134 154 180
133 154 181
134 154 181
133 154 181
135 155 181
134 154 181
134 154 181
134 154 181
133 153 180
133 153 180
133 153 180
134 154 181
134 154 181
134 154 181
133 154 180
133 154 181
133 154 181
134 154 181
134 154 181
134 154 181
133 154 180
133 154 181
133 154 181
134 154 181
133 154 180
134 154 181
134 154 181
134 154 181
134 154 181
134 154 181
133 154 181
134 154 180
134 154 181
134 154 181
134 154 181
133 154 181
134 154 181
134 154 181
134 154 181
134 154 181
134 155 181
134 154 181
134 154 181
133 154 181
135 155 181
134 154 181
134 154 181
134 154 181
134 154 181
134 155 181
135 155 181
133 154 181
134 154 181
135 155 181
134 154 181
133 154 181
133 154 181
134 154 181
134 154 181
134 154 181
135 155 181
134 154 181
133 154 181
134 154 181
134 154 181
134 154 181
133 154 181
133 154 181
135 155 181
133 154 181
135 155 181
135 155 181
134 154 181
133 154 181
134 154 181
134 154 181
134 154 181
134 154 181
134 154 181
133 154 180
133 154 181
134 154 181
133 154 181
133 153 180
133 154 181
133 154 181
133 154 181
134 154 181
133 154 181
134 154 181
134 154 181
134 155 181
133 154 181
133 154 181
133 154 181
134 154 181
134 154 181
133 154 181
135 155 181
133 154 181
135 155 181
134 154 181
134 154 181
134 154 181
134 154 181
134 154 180
134 154 181
134 155 181
133 154 181
133 154 181
134 154 181
134 154 181
133 154 181
134 154 181
134 154 180
133 154 181
134 154 181
134 154 181
134 154 181
133 154 181
134 154 181
133 154 181
134 154 181
134 154 181
133 154 181
134 154 181
134 154 181
134 154 181
134 155 181
134 154 181
134 154 181
133 154 181
134 155 181
133 154 181
134 154 181
133 154 181
132 153 181
134 154 181
134 154 181
134 154 181
133 154 180
133 154 181
134 154 181
134 154 181
134 154 181
134 154 181
134 154 181
135 155 181
134 154 181
134 154 181
134 155 181
134 154 181
133 154 181
134 154 181
134 154 181
133 154 181
133 154 181
135 155 181
133 154 181
133 154 181
133 154 181
135 155 181
133 154 181
133 154 181
134 154 181
133 154 181
133 154 181
134 154 181
133 154 181
133 154 181
134 154 181
135 155 181
134 154 181
133 154 181
134 154 181
134 154 181
133 153 180
133 154 181
133 154 181
134 154 181
133 154 181
133 154 181
133 154 180
133 154 181
133 154 181
134 154 181
134 154 181
134 154 181
133 153 180
134 154 181
134 154 181
134 154 181
134 154 181
134 154 181
134 154 181
132 153 180
134 154 181
132 153 180
133 154 181
133 154 181
135 155 181
133 154 180
132 153 180
134 154 180
134 154 181
133 154 181
134 154 180
133 153 180
134 154 181
134 154 181
133 154 181
134 154 181
134 154 180
134 154 181
134 154 181
133 154 181
132 153 180
134 154 181
134 154 181
134 155 181
134 154 181
133 154 180
133 154 181
134 154 181
133 154 181
135 155 181
133 154 181
134 154 181
134 154 181
134 154 181
133 154 180
134 154 181
134 154 181
134 154 181
134 154 181
133 153 179
134 154 181
133 154 181
134 154 181
133 154 181
134 154 181
134 155 181
134 154 181
133 154 181
133 154 180
133 154 181
133 154 181
133 153 180
133 154 181
133 153 180
134 154 180
134 154 181
134 154 181
133 154 181
133 154 181
134 154 181
134 154 181
134 154 181
133 154 181
134 154 180
134 154 181
132 152 179
134 154 181
133 154 180
133 153 180
133 154 180
134 154 181
134 154 181
134 155 181
133 154 180
132 153 180
133 154 180
134 154 181
133 154 181
134 154 180
134 155 181
133 153 180
134 154 181
134 154 180
134 154 181
134 154 181
133 154 180
132 153 180
134 154 180
134 154 181
134 154 181
133 154 181
134 154 181
133 154 181
133 154 181
134 154 180
135 155 181
134 154 181
132 153 179
135 155 181
133 154 181
133 154 180
133 153 179
134 154 180
133 154 181
134 154 181
133 154 180
134 154 181
133 154 181
134 154 181
134 154 180
133 154 181
134 154 180
134 154 181
133 154 180
134 154 181
133 154 181
134 154 181
133 154 181
135 154 180
134 154 181
134 154 181
134 154 181
134 154 181
134 154 181
133 154 180
134 154 181
134 154 181
132 153 180
134 154 181
134 154 181
133 153 180
133 154 181
134 154 181
133 153 180
133 153 180
134 154 181
133 154 180
134 154 181
134 154 181
134 154 181
133 154 181
134 154 181
134 154 181
134 154 181
134 154 180
133 154 180
134 155 181
134 154 181
133 154 181
135 155 181
134 154 181
134 154 181
134 154 181
134 154 181
133 154 181
133 154 181
133 154 181
134 154 180
134 154 181
133 153 180
134 154 181
134 154 181
132 153 181
133 153 180
134 154 181
133 154 181
133 154 181
133 154 181
134 154 180
133 154 181
132 153 179
132 153 180
133 154 181
133 154 181
134 154 181
133 153 180
134 154 180
134 154 181
133 154 181
134 154 181
134 155 181
134 154 181
134 154 181
134 154 181
134 154 181
134 154 181
134 154 181
134 154 180
134 154 181
134 154 181
134 154 181
134 154 181
133 154 181
134 154 181
133 154 180
134 154 181
134 154 181
133 154 180
134 154 181
133 154 181
134 154 181
133 154 181
133 154 181
134 154 181
134 154 181
134 154 181
134 154 181
133 154 181
134 154 180
134 154 181
134 154 180
135 155 181
134 154 181
134 154 181
133 154 180
134 154 181
134 154 181
134 154 181
133 154 181
134 154 181
133 154 181
133 154 181
134 154 181
134 154 181
134 154 181
134 154 181
135 155 181
135 155 181
134 154 181
133 154 180
134 154 181
133 154 181
133 154 181
134 154 181
134 154 181
134 154 181
134 154 181
134 154 181
134 154 181
134 154 181
134 154 181
133 154 181
134 154 180
134 154 181
133 154 181
134 154 180
133 154 181
134 154 181
135 155 181
134 154 181
134 154 181
133 154 180
134 154 181
133 154 181
134 154 181
134 154 181
134 154 181
134 154 181
134 154 181
134 154 181
134 154 181
134 154 181
134 154 181
134 154 181
133 154 181
134 154 181
133 154 181
134 154 181
134 154 181
134 154 181
134 154 181
133 154 181
134 154 181
134 154 181
133 154 181
134 154 181
135 155 181
134 154 181
134 154 181
134 154 181
133 154 181
133 154 181
133 154 181
134 154 181
132 153 181
134 154 180
134 154 181
133 154 181
134 154 181
133 153 180
134 154 181
133 154 181
133 154 181
133 154 181
133 154 181
133 154 181
133 154 181
134 154 180
133 154 181
133 154 180
134 154 181
134 154 181
134 154 181
134 154 181
134 154 181
133 154 181
133 154 181
133 153 180
135 155 181
135 155 181
135 155 181
134 154 181
133 154 181
134 154 181
134 154 181
133 154 181
134 154 181
134 154 181
134 154 181
134 154 181
134 154 181
133 154 181
135 155 181
133 154 181
134 154 181
134 154 181
133 154 181
134 154 181
134 154 181
133 154 181
134 154 181
133 154 180
133 154 181
134 154 181
134 154 181
133 154 181
135 155 181
134 154 181
134 154 181
134 154 181
134 154 181
134 154 181
133 154 181
134 154 181
134 154 181
134 154 181
133 154 181
134 154 181
133 154 181
134 154 181
134 155 181
134 154 181
133 154 181
134 154 181
135 155 181
134 154 181
134 154 181
133 154 181
134 154 181
134 154 181
134 154 181
134 154 181
133 154 181
133 154 181
134 154 181
133 154 181
133 154 181
134 154 181
134 154 181
133 154 181
133 154 181
135 155 181
134 154 181
134 154 180
133 153 180
134 154 181
133 153 180
134 154 181
133 154 181
134 154 181
134 155 181
134 154 181
132 153 180
133 154 181
133 154 180
134 154 181
134 154 181
134 154 180
133 154 180
133 154 181
133 154 181
133 154 181
134 154 181
134 154 181
133 154 181
133 153 180
134 154 181
134 154 181
134 154 181
134 154 181
133 154 181
132 153 179
132 153 180
134 154 181
133 153 180
133 154 181
134 154 181
133 153 180
134 154 181
134 154 181
133 154 181
133 154 180
135 155 181
134 154 181
134 154 181
134 154 181
134 154 181
133 153 180
134 154 181
133 154 181
134 154 181
134 154 181
134 154 181
134 154 181
133 154 181
133 153 180
135 155 181
134 154 181
134 154 180
134 154 181
133 154 181
134 154 181
133 154 181
134 154 181
133 153 180
132 153 181
134 154 181
133 154 180
134 154 181
133 154 181
133 154 180
133 153 180
134 154 181
133 154 180
133 153 180
133 154 181
134 154 181
133 154 181
134 154 181
133 154 180
134 154 180
132 153 180
133 154 181
133 154 181
134 154 181
134 154 181
134 154 181
134 154 181
135 155 181
133 154 180
134 154 181
133 154 180
133 154 180
133 153 180
133 154 180
133 153 180
133 154 181
134 154 181
133 153 180
134 154 181
134 154 181
133 154 180
133 154 180
134 154 181
134 154 181
133 153 180
133 153 179
135 155 181
133 154 180
134 154 181
134 154 181
133 154 181
132 153 180
133 154 180
133 154 181
134 155 181
133 154 181
133 153 180
134 154 181
134 154 180
133 154 180
133 154 181
133 153 180
133 154 181
134 154 181
133 153 180
134 154 181
133 154 180
134 154 181
134 154 181
133 154 181
134 154 181
134 154 181
134 154 181
134 154 180
133 153 180
133 154 181
134 154 181
133 154 181
134 154 181
134 154 180
134 154 181
134 154 181
134 154 181
134 155 181
134 154 181
134 153 179
134 154 181
133 154 181
133 154 180
134 154 181
134 155 181
134 154 180
134 154 181
134 154 181
133 153 180
133 154 181
133 153 180
133 154 181
133 154 181
135 155 181
133 154 181
133 153 180
133 153 180
134 154 180
133 154 181
134 154 181
134 154 181
133 154 181
133 154 180
134 154 181
133 154 181
133 154 181
133 153 180
134 154 181
133 154 180
133 153 180
134 154 181
134 154 181
133 154 181
133 154 181
134 154 181
134 154 181
135 155 181
135 155 181
134 154 181
134 154 181
133 153 180
133 154 181
134 154 181
134 154 181
133 154 181
133 154 181
133 154 181
132 153 180
134 154 181
134 154 181
134 154 181
134 154 180
133 154 181
133 154 181
133 154 181
134 154 180
134 154 181
133 154 181
134 154 181
134 154 181
133 154 181
134 154 181
133 154 181
133 154 181
133 153 180
133 153 180
134 154 180
134 154 181
134 154 181
134 154 181
133 154 181
133 154 181
134 154 181
134 154 181
133 154 181
133 154 181
134 154 181
133 154 181
133 153 180
133 154 181
134 154 181
134 154 181
134 154 181
133 154 180
134 154 181
135 155 181
134 154 181
133 153 180
134 154 181
134 154 181
134 154 181
134 154 181
133 154 181
133 154 181
134 154 181
134 154 181
134 154 181
134 154 181
133 154 181
134 154 181
134 154 181
134 154 181
134 154 181
134 154 181
133 153 180
135 155 181
134 154 181
133 154 181
134 154 181
133 154 181
134 154 181
134 154 181
133 154 181
134 154 181
133 153 180
134 154 181
133 154 181
134 154 181
133 154 180
134 154 181
135 155 181
134 154 181
132 153 180
133 154 181
135 155 181
134 154 181
135 155 181
134 154 181
134 154 181
134 154 181
133 154 181
134 154 181
134 154 181
134 154 181
134 154 181
134 154 181
133 154 181
133 154 180
134 154 181
134 154 181
134 154 181
133 153 180
134 155 181
134 154 180
134 154 181
134 154 181
134 154 181
134 154 181
133 154 181
135 155 181
134 154 181
133 154 181
133 154 181
132 153 180
133 154 180
134 154 181
134 154 180
134 154 181
134 154 181
134 154 181
134 154 181
134 154 181
133 154 181
135 155 181
133 154 181
133 154 181
134 154 181
133 154 181
134 154 181
134 154 181
134 155 181
134 154 181
134 154 181
133 154 181
135 155 181
134 154 181
135 155 181
133 154 180
134 154 181
133 154 181
134 154 181
134 154 181
133 154 181
133 154 181
134 154 181
134 154 181
133 154 181
134 154 181
134 154 181
133 154 181
134 154 181
134 154 181
134 154 181
134 154 181
133 154 180
133 154 181
133 154 181
133 154 181
134 155 181
133 154 181
133 154 181
133 154 181
133 154 180
134 154 181
134 154 181
134 154 181
133 154 181
134 154 181
134 154 181
133 154 181
134 154 181
134 155 181
134 154 181
133 154 181
134 154 181
134 154 181
133 154 181
133 154 180
134 154 181
134 154 181
134 154 181
134 154 181
134 154 181
133 154 181
134 154 181
134 154 181
134 154 181
134 154 181
134 154 181
134 154 180
134 154 181
135 155 181
134 154 181
134 154 181
134 154 181
134 154 181
133 154 181
134 154 181
134 154 181
133 154 181
134 154 181
133 154 181
134 154 181
134 154 181
133 154 181
134 154 181
134 154 181
134 154 181
133 154 181
134 154 181
133 154 181
134 154 181
133 154 181
134 154 181
134 154 181
134 155 181
133 154 181
133 154 181
133 154 181
132 153 181
134 155 181
133 154 181
133 154 180
134 154 181
134 154 181
134 154 181
134 154 181
133 154 181
134 154 180
134 154 181
133 154 181
134 154 181
133 153 180
133 154 181
134 154 181
134 154 181
133 154 180
133 154 181
133 154 181
133 153 180
132 153 180
134 154 181
133 154 180
134 154 181
134 154 181
134 154 181
134 154 181
133 154 181
133 154 180
134 155 181
134 154 180
133 153 180
132 153 180
133 154 181
134 154 181
133 153 180
134 155 181
133 154 181
134 154 181
134 154 181
133 154 181
133 153 180
133 154 180
133 153 180
134 154 180
133 154 181
133 154 181
134 154 181
133 154 180
133 154 180
133 154 181
133 154 181
134 154 181
134 154 181
134 154 181
134 154 181
133 154 181
134 154 181
134 154 181
133 154 181
134 154 181
133 154 180
133 153 180
134 154 180
134 154 180
134 154 181
133 154 181
134 154 181
134 155 181
134 154 181
133 154 181
134 154 181
134 154 181
134 154 181
134 154 181
133 154 181
133 153 180
133 154 180
134 154 181
133 154 181
133 154 180
133 154 181
133 154 181
134 154 181
134 154 181
134 154 181
134 154 181
134 154 181
133 154 181
134 154 181
134 154 181
133 154 181
133 154 181
134 154 181
134 154 181
134 154 181
134 154 181
134 154 181
134 154 181
133 154 181
133 154 181
134 154 181
133 154 181
133 154 180
134 154 180
134 154 181
134 154 181
135 155 181
134 154 180
133 153 180
134 154 181
134 154 180
135 155 181
134 154 181
134 154 181
133 154 180
135 155 181
133 154 181
133 154 181
134 154 181
133 154 181
134 154 181
133 154 181
133 153 180
132 153 180
133 154 181
133 154 181
133 154 180
134 154 181
134 155 181
133 154 180
134 155 181
134 154 181
133 154 181
133 154 180
134 154 180
134 154 181
134 154 181
134 154 181
133 153 180
133 153 180
133 154 180
133 153 180
133 154 181
134 154 181
134 154 181
133 153 180
133 154 181
134 154 181
134 154 181
133 153 180
134 154 180
134 154 181
134 154 181
133 154 180
134 154 181
133 154 181
133 153 180
134 154 181
134 155 181
134 154 181
134 154 180
134 155 181
133 154 181
133 154 181
133 154 181
134 154 181
134 154 181
134 154 181
134 154 181
133 154 181
134 154 181
133 154 181
135 155 181
134 154 180
133 154 180
134 154 181
133 154 181
133 154 181
134 154 180
133 154 181
134 154 181
134 154 181
134 154 181
134 154 181
132 154 181
134 154 180
134 154 180
133 154 180
133 153 180
134 154 181
133 154 181
133 154 180
134 154 181
134 154 181
134 154 181
133 154 181
134 154 181
134 154 181
133 154 181
134 154 181
134 154 181
134 154 181
133 154 181
134 154 181
134 154 181
134 154 181
134 154 181
134 154 181
134 154 181
134 154 181
133 154 181
133 154 181
133 154 181
134 154 181
134 154 180
133 154 181
134 154 181
134 154 181
133 154 181
133 154 181
134 154 181
133 154 181
133 154 181
133 154 181
134 154 181
134 154 181
134 154 181
133 154 181
135 155 181
134 154 181
134 154 181
133 154 181
134 154 181
134 154 181
134 154 181
135 155 181
134 154 181
134 154 181
134 154 181
133 154 181
134 155 181
133 154 181
134 154 181
133 153 180
134 154 181
133 154 181
133 154 181
134 154 181
133 154 181
133 154 181
134 155 181
135 155 181
134 154 181
133 154 181
134 154 181
134 154 181
135 155 181
134 154 181
133 154 181
134 154 181
134 154 181
134 154 180
134 154 181
134 155 181
133 154 181
133 153 180
134 154 180
133 154 181
134 154 181
134 155 181
134 154 180
134 154 181
133 154 181
133 154 181
134 154 181
133 154 181
133 154 181
134 154 181
134 154 181
133 154 181
134 154 181
134 154 181
133 154 181
134 154 181
134 154 181
134 154 181
134 154 181
135 155 181
134 154 181
133 154 181
134 154 181
133 154 181
134 154 181
134 154 181
135 155 181
133 154 181
134 154 181
134 154 181
134 154 181
134 154 180
134 154 181
134 154 181
134 154 181
134 154 181
134 154 181
134 154 181
133 154 181
133 154 181
134 154 181
134 154 181
133 154 181
134 154 181
135 155 181
134 154 181
134 154 181
134 154 181
133 154 180
133 154 181
135 155 181
134 154 181
135 155 181
133 154 181
134 154 181
134 154 181
134 154 181
134 154 181
134 154 181
133 154 181
133 154 181
134 154 181
134 154 181
133 154 181
133 154 181
134 154 181
134 154 181
134 154 181
134 154 181
133 154 181
134 154 181
134 154 181
134 154 181
134 154 181
134 154 181
133 154 181
134 154 181
134 154 181
135 155 181
133 154 181
134 154 181
134 154 180
133 154 181
134 154 181
134 154 181
133 154 181
133 154 180
135 155 181
134 154 181
133 154 181
134 154 181
133 154 181
134 154 181
134 154 181
134 154 181
133 154 181
134 154 181
133 154 181
133 154 181
134 154 181
134 154 180
133 154 181
133 154 181
134 154 181
133 154 181
134 154 181
134 154 181
133 154 181
134 154 181
133 154 180
133 154 181
134 155 181
134 154 181
133 154 181
133 154 181
133 154 181
133 154 181
133 154 181
134 154 181
133 154 181
134 154 181
135 155 181
134 154 181
133 154 181
134 154 181
134 154 181
134 154 181
134 154 181
134 154 181
133 154 181
133 154 181
133 154 181
133 153 180
135 155 181
133 153 180
134 154 181
133 154 181
133 154 181
133 154 181
133 154 181
134 154 181
133 153 180
133 154 181
133 154 181
134 154 181
135 155 181
133 154 181
133 154 181
133 154 181
134 154 180
134 154 181
133 154 181
134 154 181
132 153 181
133 154 181
133 154 181
133 153 180
133 154 180
135 155 181
134 155 181
133 154 181
133 154 181
134 154 181
133 154 181
133 154 181
133 153 180
133 153 180
134 154 180
134 154 181
133 154 181
134 154 181
133 154 181
134 154 181
133 154 181
133 154 180
133 154 181
134 154 180
133 154 181
134 154 180
134 154 181
133 154 181
134 154 180
135 155 181
134 154 181
133 154 181
132 153 180
133 154 180
134 154 181
134 154 181
134 154 181
134 154 181
134 154 181
134 154 181
134 154 181
134 154 181
133 153 180
134 154 181
134 154 181
133 153 180
133 153 180
134 154 181
134 154 181
132 152 180
133 153 180
133 153 180
134 154 181
133 154 180
133 154 181
133 154 181
134 154 181
133 154 180
134 154 181
134 154 181
132 153 180
134 154 181
133 154 181
133 154 181
134 154 181
134 154 181
134 154 181
133 154 181
133 153 180
135 155 181
133 154 181
134 154 180
134 154 181
133 153 180
135 154 180
133 153 180
134 154 181
133 153 180
133 154 181
133 154 181
133 154 181
133 154 181
134 154 181
132 153 180
134 154 181
134 154 181
133 154 180
133 154 180
134 154 181
133 153 180
133 154 181
134 155 181
133 154 181
133 153 180
134 154 181
134 154 181
134 155 181
133 154 181
133 154 181
133 153 180
133 153 180
133 154 181
135 154 180
134 154 181
134 154 181
133 154 181
133 154 181
134 154 180
134 154 181
134 154 181
134 154 180
133 154 181
132 153 180
134 154 181
133 154 181
133 154 180
134 154 181
134 154 181
134 154 181
133 154 181
133 153 180
133 154 181
133 154 181
133 154 180
134 154 181
133 153 180
134 154 181
134 154 181
134 154 181
134 154 181
134 154 181
133 154 181
133 154 181
133 154 181
135 155 181
134 154 181
134 154 181
133 154 181
134 154 181
134 154 181
135 155 181
133 154 181
134 154 181
135 155 181
134 154 181
133 153 180
134 154 181
133 154 180
134 154 181
134 154 181
134 154 181
134 154 181
134 155 181
134 154 181
134 154 181
133 154 181
134 154 181
134 155 181
134 154 181
133 154 181
133 154 180
135 155 181
133 154 181
134 154 181
134 154 181
134 154 181
133 154 180
134 154 181
134 154 181
134 154 180
133 154 181
133 154 180
133 154 181
133 154 181
133 154 181
134 155 181
133 154 181
134 154 181
133 154 181
134 154 181
134 154 181
134 154 181
133 153 180
133 154 181
134 154 181
134 154 181
134 154 181
134 154 181
134 154 181
135 155 181
133 153 180
134 155 181
134 154 181
134 154 181
134 154 181
134 154 181
133 154 181
133 154 181
133 154 180
133 153 180
132 152 179
133 154 181
134 154 181
133 154 181
132 153 180
133 154 181
134 154 181
134 154 181
134 154 181
134 154 181
133 154 181
134 154 181
134 154 181
134 154 181
134 154 181
133 154 181
134 154 181
134 154 181
134 154 181
135 155 181
135 155 181
134 154 181
134 154 181
134 154 181
134 154 181
134 154 181
134 154 181
134 154 181
134 154 181
133 154 181
134 154 181
133 154 181
134 155 181
133 154 181
134 154 181
133 154 181
133 154 181
133 154 181
133 154 181
134 154 181
133 154 181
134 154 181
134 154 181
134 154 181
134 155 181
134 154 181
133 154 181
133 154 181
133 154 181
133 154 181
133 154 181
133 154 181
133 154 181
134 154 181
135 155 181
134 154 181
133 154 181
134 154 181
134 154 181
133 154 181
134 154 181
133 154 181
134 154 181
134 154 181
134 154 181
134 154 181
134 154 180
134 154 181
134 154 181
134 154 181
134 154 181
134 154 181
133 154 181
133 154 181
134 154 181
134 154 181
134 154 181
133 154 181
133 154 180
134 154 181
133 154 181
133 154 181
134 154 181
134 154 181
133 154 181
134 154 181
135 155 181
134 154 181
134 154 181
134 154 181
134 154 181
134 154 181
133 154 181
133 154 181
134 154 181
133 154 181
133 153 180
134 154 181
134 154 181
134 154 181
134 154 181
134 154 181
134 154 181
134 154 181
134 154 181
134 154 181
134 154 181
134 154 181
134 154 181
134 154 181
133 154 181
134 154 181
134 154 180
133 154 180
133 154 181
135 155 181
135 155 181
134 154 181
133 154 181
133 154 181
133 154 181
133 154 181
134 154 181
134 154 181
133 154 181
133 154 181
134 154 181
133 154 181
134 154 181
135 155 181
134 154 180
133 154 181
133 154 181
134 154 181
133 154 181
134 154 181
133 154 181
135 155 181
133 154 181
133 154 181
134 154 181
134 155 181
134 154 181
133 154 181
134 154 180
134 154 181
133 154 181
135 155 181
133 154 181
134 155 181
134 154 181
134 154 181
134 154 181
134 154 181
134 154 181
134 154 181
134 154 181
133 154 181
134 154 181
133 154 181
134 154 181
134 154 181
133 154 181
133 154 181
133 154 181
133 154 180
134 154 181
134 154 181
134 154 181
133 154 181
135 155 181
134 154 181
134 154 181
134 154 181
133 154 181
134 154 181
134 154 181
134 154 181
134 154 181
133 154 181
134 154 181
134 154 181
133 153 180
135 155 181
133 154 180
134 154 181
133 154 181
133 154 181
133 154 181
134 154 181
133 153 180
134 154 181
133 154 181
134 154 181
132 153 180
133 154 181
134 154 181
133 154 181
133 154 181
134 154 181
133 154 181
134 154 181
135 155 181
134 154 181
134 154 181
134 154 181
134 154 181
134 154 181
135 154 180
134 154 181
134 154 181
134 154 181
133 153 180
133 154 181
134 154 180
133 154 181
134 155 181
134 154 181
133 154 180
133 154 181
134 154 181
133 154 181
134 154 181
133 154 181
133 153 180
133 154 180
134 154 180
133 154 181
134 154 181
134 154 181
134 154 181
133 154 180
134 154 181
134 154 181
132 153 180
134 154 181
135 155 181
133 154 181
133 153 180
134 154 181
134 154 181
133 154 181
135 155 181
133 154 181
133 154 181
134 154 181
133 154 180
134 154 181
134 154 181
133 154 181
133 154 181
133 154 181
133 153 180
134 154 180
135 155 181
134 154 181
133 154 181
133 154 180
132 153 181
133 154 181
134 154 181
133 154 180
134 154 181
135 155 181
133 154 181
134 154 180
134 154 181
133 154 181
133 154 181
134 154 180
134 154 181
134 154 181
133 154 181
134 154 181
134 154 181
134 154 181
134 154 181
133 154 181
134 154 181
133 154 181
134 154 181
134 154 181
134 154 181
135 155 181
133 154 181
133 153 180
135 155 181
134 154 181
134 154 181
134 154 181
135 155 181
134 154 181
134 154 181
134 154 181
133 154 181
134 154 181
134 154 181
134 154 181
134 155 181
133 154 181
133 154 181
134 154 181
133 154 180
134 154 181
134 154 181
133 154 181
133 154 181
134 154 181
133 153 180
134 154 181
134 154 181
133 154 181
134 154 181
134 154 181
134 154 181
135 155 181
133 154 180
134 154 181
133 154 181
134 154 181
133 153 180
133 154 181
134 154 181
134 154 181
133 154 181
134 154 181
134 154 181
133 154 181
133 154 181
132 153 180
134 154 181
134 155 181
133 153 180
134 154 181
133 154 181
134 154 181
133 153 180
133 154 180
133 154 180
133 154 181
132 153 179
133 153 180
133 154 181
134 154 181
134 154 181
134 154 181
133 154 181
134 154 181
134 154 181
133 154 181
134 154 181
134 154 181
132 153 180
133 154 181
134 154 181
134 154 181
134 154 181
134 154 180
134 154 181
134 154 181
135 155 181
135 155 181
134 154 181
134 154 181
133 154 181
133 154 181
134 154 181
134 154 181
134 154 181
135 155 181
134 154 181
133 154 181
134 154 181
133 154 180
133 153 180
134 154 181
134 154 181
134 154 181
133 154 180
134 154 181
134 154 181
133 154 181
133 154 181
133 154 181
134 154 181
134 154 181
134 154 181
134 154 181
134 154 181
133 154 181
134 154 181
133 154 180
133 154 181
132 153 180
134 154 181
134 154 181
134 154 181
134 155 181
134 154 181
133 154 181
134 154 181
133 154 180
133 154 181
134 154 181
133 153 179
133 154 181
133 154 181
133 154 181
133 154 181
134 154 181
134 154 181
133 154 180
133 154 181
134 154 181
134 154 181
134 154 181
133 154 180
133 154 180
134 154 181
133 154 180
134 154 181
133 154 181
134 154 181
134 154 181
133 154 181
134 154 181
134 154 181
133 154 181
134 155 181
133 154 181
134 154 181
134 154 181
133 154 181
134 154 181
133 153 180
133 154 181
135 155 181
134 154 181
133 154 181
133 154 181
133 153 180
133 154 181
133 154 181
134 154 181
133 154 181
134 154 181
133 154 181
133 154 181
133 154 180
134 154 181
134 154 180
134 154 181
134 154 181
133 154 181
133 154 180
133 154 181
133 154 181
134 154 181
133 154 181
133 154 181
133 154 181
135 155 181
133 154 181
133 153 180
133 154 181
133 154 180
134 154 181
134 154 181
133 154 181
134 154 181
133 154 181
135 155 181
134 154 181
134 154 181
133 154 181
134 154 181
134 154 181
134 154 181
134 154 181
133 154 181
134 154 181
134 154 180
134 154 181
134 154 181
133 153 180
134 154 181
134 154 181
133 154 181
134 154 181
134 154 181
134 154 181
133 154 181
134 154 181
133 154 181
134 154 181
134 154 181
133 154 180
134 154 181
134 154 181
133 154 181
134 154 181
134 154 181
133 154 181
134 154 181
134 154 181
133 154 181
133 154 181
133 154 181
134 154 181
134 154 181
134 154 181
134 154 181
133 154 181
133 154 181
134 154 181
134 155 181
134 154 181
134 154 181
134 154 181
134 155 181
133 154 181
134 154 181
133 154 181
134 154 181
134 154 181
134 154 181
134 155 181
134 154 181
134 154 181
133 154 181
134 154 181
133 154 181
133 154 181
133 154 181
133 154 181
133 154 181
134 154 181
134 154 181
135 155 181
133 154 181
134 154 181
133 154 181
134 154 181
133 154 181
134 154 181
134 154 181
134 154 181
134 154 181
134 155 181
134 155 181
134 154 181
134 154 181
133 154 181
134 154 181
133 154 181
134 154 181
134 154 181
134 154 181
134 154 181
135 155 181
133 154 181
134 154 181
135 155 181
134 154 181
133 154 181
135 155 181
134 154 181
134 154 181
133 154 181
133 154 181
134 154 181
134 154 181
133 154 181
133 154 181
133 154 181
133 154 181
134 154 181
133 154 181
133 154 181
134 154 181
134 154 181
134 154 181
134 154 181
133 154 181
133 154 181
134 154 181
133 154 181
133 154 181
134 154 181
133 154 180
132 153 180
134 154 181
133 154 181
133 154 181
134 154 181
135 155 181
134 154 181
132 153 180
133 153 180
134 154 181
134 154 181
134 154 181
133 154 181
134 154 181
134 154 181
132 153 180
132 153 180
133 154 181
134 154 181
133 154 181
133 154 181
134 154 181
134 154 181
133 154 181
133 154 181
134 154 181
133 154 181
134 154 181
134 154 181
134 154 181
134 154 181
134 154 181
133 154 181
133 153 180
134 155 181
134 154 181
133 154 181
134 154 181
134 154 181
134 154 181
134 154 181
132 153 180
134 154 181
132 153 180
134 154 181
134 154 181
134 154 181
133 154 181
133 154 180
133 154 181
133 154 181
134 154 181
132 152 180
133 154 180
133 153 180
134 154 180
133 153 180
134 154 181
133 154 180
134 154 181
133 153 180
134 154 180
134 154 181
133 153 180
133 154 180
133 154 181
134 154 181
134 154 180
134 154 181
135 155 181
134 154 181
133 154 180
133 154 181
133 154 181
132 153 179
134 154 181
133 154 181
134 154 181
133 154 181
134 154 181
133 154 180
133 154 181
133 154 181
133 154 181
134 154 181
134 154 181
133 154 181
134 154 181
133 154 181
134 154 181
134 154 181
135 155 181
134 154 181
134 154 180
133 154 180
134 154 181
134 154 181
134 154 181
134 154 180
134 154 180
134 154 181
134 154 181
133 154 181
133 154 181
134 154 180
134 154 181
135 155 181
133 154 181
133 153 180
134 154 181
133 154 180
133 154 180
131 152 180
133 154 180
134 154 181
133 154 181
134 154 181
134 154 180
133 154 181
134 154 181
133 154 181
134 154 181
133 154 181
133 153 180
133 153 180
134 154 181
134 154 181
134 154 181
134 154 181
134 154 181
133 154 181
133 154 180
134 154 181
134 154 181
133 154 181
133 154 181
135 155 181
134 154 181
133 154 180
134 154 181
133 154 181
133 154 180
133 154 181
134 154 181
135 155 181
133 153 180
133 153 180
134 154 181
133 154 181
134 154 181
134 154 181
134 155 181
133 154 180
134 154 181
134 154 181
134 154 181
134 154 181
134 154 181
133 154 181
134 155 181
133 154 181
134 154 181
134 154 181
135 154 180
133 154 180
134 154 181
134 154 181
134 154 181
134 154 181
134 154 180
134 155 181
134 154 181
133 154 181
133 154 181
134 154 180
133 154 181
134 154 181
133 154 181
133 154 181
132 153 180
134 154 181
133 154 181
134 154 181
133 154 181
133 154 181
133 154 181
133 154 181
134 154 181
134 154 181
135 155 181
133 154 181
134 154 181
133 153 180
134 154 181
133 154 181
133 154 181
134 154 181
134 154 181
133 154 181
134 154 181
135 155 181
133 154 180
134 154 181
134 154 181
134 154 181
133 154 181
133 153 180
134 154 181
134 155 181
135 155 181
134 154 181
134 154 181
133 154 181
134 154 181
134 154 181
134 154 180
134 154 181
133 154 181
133 154 181
134 154 181
134 154 180
133 153 180
133 154 181
133 154 181
133 154 181
133 154 181
133 153 180
134 154 181
134 154 181
133 154 181
134 154 181
134 154 181
132 153 180
133 154 181
134 154 181
134 154 181
134 155 181
133 154 181
135 155 181
134 154 181
134 154 181
133 154 181
133 154 181
133 154 181
133 154 181
134 154 181
135 155 181
133 154 181
134 154 181
133 154 181
133 154 181
133 154 181
134 154 181
133 154 181
133 154 181
134 154 181
134 154 181
135 155 181
134 154 181
133 154 181
134 154 181
133 154 181
135 155 181
134 154 181
134 154 181
134 154 181
133 154 181
134 154 181
134 154 181
133 154 181
134 154 181
134 154 181
134 154 181
133 154 181
134 154 181
134 154 181
134 155 181
134 154 181
133 154 181
134 154 181
134 154 181
133 154 180
133 154 181
134 154 181
134 154 181
133 154 181
134 154 181
133 154 181
134 154 181
133 154 181
134 154 181
133 154 181
133 154 181
133 154 181
134 154 181
135 155 181
133 154 181
133 154 181
134 154 181
134 154 181
133 154 181
134 154 181
134 154 181
133 154 181
133 154 180
134 154 181
133 154 181
134 154 181
134 154 181
134 154 180
134 154 181
133 154 181
134 154 181
134 154 181
134 154 181
134 154 181
134 154 181
134 154 181
133 154 181
134 154 180
134 154 181
134 154 181
133 154 181
134 155 181
133 154 181
133 154 181
134 154 181
134 154 181
133 154 181
134 154 181
133 154 181
133 154 181
134 154 181
134 154 181
134 154 181
133 154 181
134 154 181
134 155 181
134 154 181
133 154 181
133 154 181
134 154 181
134 154 181
133 154 181
135 155 181
133 154 181
135 155 181
133 154 181
134 154 181
133 154 181
133 153 180
134 154 181
133 154 181
133 154 181
134 154 181
134 154 181
134 154 181
134 154 181
134 154 181
134 154 181
133 154 181
134 154 181
134 154 181
133 154 181
133 154 181
133 154 181
134 154 181
134 154 181
135 155 181
134 154 181
134 154 181
134 154 181
134 154 181
133 154 181
133 154 181
134 154 181
134 154 181
133 154 181
134 154 180
134 154 181
134 154 181
133 154 181
134 154 181
134 154 181
134 154 181
134 154 181
134 154 181
133 154 181
134 155 181
133 154 181
132 153 179
133 154 180
133 154 181
133 154 180
134 154 181
133 154 181
133 154 181
134 154 181
134 154 181
134 154 181
134 154 181
134 154 181
133 154 181
133 154 181
134 154 180
133 154 181
134 154 181
135 155 181
134 154 181
133 154 180
134 154 181
133 154 180
133 154 181
134 154 181
134 154 181
133 154 181
134 154 181
134 154 181
134 155 181
134 155 181
134 154 181
133 154 181
135 155 181
133 154 180
134 154 181
135 155 181
133 154 181
134 154 181
134 154 180
132 153 181
134 154 181
134 154 181
134 154 181
134 154 181
134 154 181
134 154 181
133 154 181
134 154 181
134 154 181
134 154 181
134 154 181
134 154 181
133 154 181
134 154 181
134 154 180
132 153 181
133 153 180
133 154 181
134 154 181
134 154 181
133 154 181
134 154 181
134 154 181
133 153 180
134 154 181
133 154 181
133 154 181
133 154 180
134 154 181
134 154 181
134 154 181
134 154 181
134 154 181
134 154 181
134 154 181
134 154 180
133 154 180
134 154 180
134 154 181
134 154 180
133 154 181
133 154 181
133 153 180
134 155 181
134 154 180
133 154 181
134 154 181
134 154 180
134 154 181
133 154 181
134 154 181
134 154 181
134 154 181
134 154 181
134 154 181
133 154 181
133 154 181
132 153 181
133 154 181
133 154 181
133 154 180
133 154 181
134 154 181
133 153 180
134 154 181
133 154 180
134 154 180
133 154 181
133 154 181
133 154 181
133 154 181
134 154 181
134 154 181
133 153 180
134 154 181
134 154 181
134 154 181
132 153 180
134 154 181
133 154 181
134 154 181
133 154 180
133 154 181
133 153 180
134 154 181
133 154 180
134 155 181
133 154 181
134 154 181
134 154 180
134 154 181
134 154 180
134 154 181
133 154 181
134 154 181
133 154 181
133 154 181
133 154 181
134 154 181
134 154 181
134 154 181
133 154 181
135 155 181
134 154 181
133 154 181
133 154 180
134 154 181
134 154 181
133 154 181
132 153 180
134 154 180
133 154 181
134 154 181
134 154 181
134 154 181
133 154 181
134 154 181
133 154 181
134 154 181
134 154 180
133 154 181
133 154 181
133 154 181
134 154 181
134 154 180
134 154 181
134 154 181
133 153 180
133 154 181
133 153 180
133 154 181
135 155 181
134 154 180
133 154 181
134 154 181
134 154 181
133 153 180
134 154 181
132 153 181
134 154 181
134 154 181
133 154 181
133 154 181
134 154 181
133 154 181
134 154 181
134 154 181
134 154 180
133 154 181
133 154 181
134 154 181
134 154 181
134 154 181
134 154 181
133 154 181
134 154 181
133 154 181
134 154 181
134 154 181
133 154 181
133 154 180
133 154 181
133 154 181
134 154 181
134 154 181
134 154 181
134 154 181
134 154 181
133 153 180
133 154 181
134 154 181
133 154 181
134 154 180
134 154 181
134 154 181
134 154 181
134 154 181
134 154 180
134 154 181
134 154 181
133 154 181
134 154 181
133 154 181
134 154 181
133 153 180
134 154 181
133 154 181
133 154 181
134 154 181
133 154 180
134 154 180
134 154 181
134 154 181
134 154 181
134 154 181
133 153 180
134 154 181
133 154 181
134 154 181
133 154 181
133 154 180
134 155 181
134 154 181
134 154 180
134 154 181
133 154 181
133 154 181
134 154 181
133 154 180
133 153 180
133 154 181
133 153 180
134 154 181
133 154 181
134 154 181
133 154 181
134 154 181
133 154 181
133 154 181
134 154 181
134 154 181
134 154 181
133 154 181
133 154 181
133 154 181
133 154 181
134 154 181
134 154 181
133 154 181
134 154 181
134 154 181
134 154 180
134 154 181
134 154 181
134 154 181
135 155 181
134 154 181
134 154 181
134 154 181
134 154 181
134 154 181
134 154 181
133 154 181
134 154 181
133 154 181
134 154 181
134 154 181
134 154 181
133 154 181
134 154 181
134 154 181
133 154 181
133 154 181
134 154 180
134 154 181
135 155 181
134 154 181
134 154 181
134 154 181
133 154 181
134 154 181
134 154 181
133 154 181
136 155 181
133 154 181
134 154 181
134 154 181
134 154 181
134 154 181
134 154 181
133 154 181
134 154 181
134 154 181
133 154 181
133 154 181
134 154 181
133 154 181
134 154 181
133 154 181
134 154 181
133 154 181
134 154 181
133 154 181
133 154 181
133 153 180
133 154 181
134 154 181
134 154 181
135 155 181
134 154 181
133 154 181
133 154 181
133 154 181
134 154 181
133 154 181
134 154 181
133 154 181
134 154 181
134 154 181
135 155 181
133 154 181
133 154 181
134 154 181
134 154 181
134 154 180
133 154 181
133 154 181
133 154 181
134 154 181
135 155 181
135 155 181
134 154 181
133 154 181
134 154 181
134 154 181
133 154 181
134 154 181
134 154 181
134 155 181
133 154 181
134 154 181
133 154 181
134 154 181
133 154 181
133 154 181
134 154 181
134 154 181
133 154 181
134 154 181
133 154 181
134 154 181
132 153 180
133 154 181
133 154 181
133 154 181
134 154 181
134 154 181
134 154 181
134 154 181
133 154 181
134 154 181
134 154 181
134 154 181
134 154 181
134 154 181
133 154 181
134 154 181
133 154 181
133 154 181
134 154 181
134 154 181
134 154 181
135 155 181
133 154 181
134 154 181
134 154 181
134 154 181
133 154 181
134 154 181
132 153 180
134 154 181
133 153 180
133 154 180
135 155 181
134 154 181
134 154 181
134 154 181
134 154 181
133 154 181
133 154 181
134 154 181
134 155 181
133 154 181
133 154 181
134 154 181
133 154 180
134 154 180
133 154 180
133 154 181
133 153 180
133 154 180
133 154 181
133 153 180
134 154 181
133 153 180
133 154 181
133 154 181
133 154 181
134 154 180
134 154 181
134 154 181
134 154 181
133 154 181
133 154 181
133 154 180
133 154 181
133 153 180
134 154 180
134 154 181
134 154 181
134 154 181
134 154 181
135 155 181
134 154 180
133 154 181
133 154 181
133 154 181
135 155 181
134 154 181
133 154 181
133 154 181
133 154 180
134 154 180
133 153 180
133 153 180
133 154 181
134 154 181
133 153 180
134 154 181
134 154 181
132 153 180
134 154 180
134 154 181
133 154 181
133 154 181
134 154 181
134 154 180
134 154 181
135 155 181
133 154 181
133 154 181
134 154 181
134 154 180
133 153 180
133 154 181
133 154 181
133 153 180
134 154 181
134 154 180
132 153 180
134 154 181
134 154 181
134 154 180
133 154 181
133 154 181
133 154 181
133 153 180
134 154 181
134 154 181
135 155 181
134 154 181
133 154 181
133 154 181
134 154 181
133 154 181
134 154 181
134 154 181
134 154 181
135 155 181
134 154 181
134 154 181
134 154 181
133 153 180
133 153 180
133 154 180
133 154 180
133 154 181
134 154 181
134 154 181
133 153 180
134 154 181
134 154 181
134 154 181
133 154 181
133 153 180
134 154 181
134 154 181
134 154 181
133 154 181
133 154 181
133 154 181
134 154 181
134 154 180
133 154 180
134 154 181
133 154 181
133 153 180
133 153 180
134 154 181
134 154 181
134 154 181
134 154 181
133 154 180
134 154 181
134 154 180
134 154 181
134 154 180
134 154 181
133 154 181
134 154 181
135 155 181
134 154 181
133 154 180
134 154 180
133 154 181
133 154 181
133 154 181
134 154 181
134 154 181
134 154 181
135 155 181
133 154 181
133 154 181
134 154 180
134 154 181
134 154 181
134 154 181
134 154 181
134 154 181
134 154 181
134 154 181
132 153 180
134 154 181
134 154 180
133 154 181
134 154 181
134 154 181
134 154 181
133 154 181
133 154 181
134 154 181
134 154 181
134 154 181
133 154 181
134 155 181
133 154 181
133 154 181
133 154 181
134 154 181
134 154 181
133 154 181
134 154 181
134 154 181
133 154 181
133 153 180
134 154 181
133 154 181
134 154 181
134 154 181
134 154 181
134 154 181
134 154 181
133 154 181
133 154 181
133 153 180
134 154 181
133 154 181
133 154 180
134 154 181
134 154 181
134 154 181
133 154 181
134 154 181
134 154 181
133 154 181
135 155 181
134 154 181
134 154 181
134 154 181
134 154 181
133 153 180
134 154 181
135 155 181
133 154 181
134 154 181
134 154 181
135 155 181
134 154 181
133 154 181
134 154 181
135 155 181
134 154 181
134 154 180
134 154 181
133 154 181
134 154 181
134 154 181
134 154 181
134 154 181
133 154 181
135 155 181
134 154 181
133 154 180
133 154 181
135 155 181
133 154 181
134 154 181
134 154 181
135 155 181
134 154 181
134 154 181
134 154 181
134 154 181
134 154 181
133 154 181
134 154 181
135 155 181
135 155 181
134 154 181
134 154 181
133 154 181
134 154 181
134 155 181
133 154 181
133 154 181
134 154 181
135 155 181
134 154 181
134 154 181
134 154 181
134 154 181
134 154 181
135 154 180
133 154 181
134 154 181
133 154 181
133 154 181
133 154 181
134 154 181
134 154 181
134 154 181
133 154 181
133 154 181
134 154 181
134 154 181
134 154 181
134 154 181
133 154 181
134 154 181
135 155 181
133 154 181
136 155 181
134 154 181
134 154 181
133 154 181
134 154 181
133 154 180
134 154 181
134 154 180
134 154 181
133 154 181
134 154 180
133 154 181
134 154 181
133 154 181
134 154 181
134 154 181
134 154 181
134 155 181
134 154 181
133 154 181
133 153 180
133 154 181
134 154 181
134 154 181
133 154 181
133 154 181
134 154 181
133 154 181
134 154 181
133 154 181
134 154 181
134 154 181
134 155 181
133 154 181
134 154 181
134 154 180
134 154 181
134 154 181
134 154 181
133 154 181
134 155 181
134 154 181
134 154 181
134 154 181
134 154 181
133 154 181
134 154 181
134 154 181
134 154 181
134 154 181
134 154 181
134 154 181
133 154 181
133 154 181
133 154 181
133 154 180
134 154 181
133 154 181
134 154 181
133 154 180
134 154 180
134 154 181
133 154 181
134 154 181
134 154 181
134 154 181
133 154 181
134 154 181
134 155 181
134 154 181
133 154 181
135 155 181
133 154 181
134 154 181
133 154 181
134 154 181
134 154 181
134 155 181
133 154 180
133 154 181
133 154 181
134 154 181
134 155 181
135 155 181
132 153 181
135 155 181
133 154 181
134 154 181
134 154 181
133 154 181
134 154 181
134 155 181
133 154 181
133 154 180
133 154 181
134 154 181
134 154 181
134 154 181
133 154 181
134 154 181
133 154 181
134 154 181
133 154 181
134 154 181
134 154 181
134 154 181
133 154 181
133 154 181
133 154 180
134 155 181
134 154 180
134 154 181
133 154 181
134 154 181
133 154 181
133 154 181
134 154 181
133 154 181
134 154 181
134 154 181
134 154 181
134 154 181
134 154 181
133 154 181
133 154 181
134 154 180
133 154 180
134 154 181
133 153 180
134 154 181
135 155 181
133 154 181
134 154 181
134 154 180
134 154 181
133 154 180
133 154 181
135 155 181
134 155 181
134 154 181
133 154 181
134 154 181
134 154 181
134 154 181
134 154 181
133 154 181
133 154 180
135 155 181
133 154 181
133 154 181
134 154 181
135 155 181
134 154 181
134 154 181
134 154 181
133 154 181
135 154 180
134 154 180
133 153 180
134 154 181
133 154 180
133 154 180
134 154 181
134 154 181
134 154 181
134 154 181
133 154 181
134 154 181
135 155 181
134 154 181
134 154 181
134 154 181
133 154 181
134 154 180
133 154 180
133 154 180
134 154 181
133 154 181
133 154 181
133 154 181
134 154 181
133 154 181
134 154 181
133 154 181
133 154 180
134 154 180
134 154 181
134 154 180
133 154 180
133 154 181
134 154 181
134 154 181
134 154 180
134 154 181
134 154 181
135 155 181
133 154 181
133 154 181
133 154 181
135 155 181
135 155 181
134 154 181
133 154 180
134 154 180
133 154 181
134 154 180
133 154 180
134 154 181
133 154 180
134 154 180
133 154 181
134 154 181
133 154 181
133 154 181
133 154 181
134 154 181
134 154 181
133 154 180
135 155 181
132 153 181
135 155 181
133 154 181
134 154 181
133 154 181
135 155 181
134 154 181
134 154 181
133 154 181
133 153 180
134 154 181
133 154 181
134 154 181
133 154 181
133 154 181
133 153 180
133 154 180
134 154 181
134 154 181
133 154 181
134 154 181
133 154 181
133 154 181
134 154 181
134 154 180
134 154 181
134 154 181
133 154 181
134 154 181
135 155 181
133 154 181
134 154 181
134 154 181
133 154 180
133 154 181
134 154 181
133 154 180
134 154 181
134 154 181
135 155 181
134 154 181
134 154 181
134 154 180
133 154 181
135 155 181
134 154 181
134 154 181
134 154 181
133 154 181
133 153 180
133 154 181
134 154 181
135 155 181
134 154 181
134 154 181
133 154 181
133 154 181
133 154 181
133 154 181
134 154 181
134 154 181
134 154 181
135 155 181
133 154 181
133 154 181
133 154 180
133 154 181
133 153 180
134 154 181
133 154 181
134 154 181
135 155 181
134 154 181
133 154 181
133 154 181
134 154 181
134 154 181
134 154 181
134 154 181
135 155 181
134 154 181
133 154 181
134 154 181
134 154 181
134 154 181
134 154 181
134 154 181
134 154 181
134 154 181
134 154 181
134 154 181
133 154 181
134 154 181
134 154 181
134 154 181
134 154 181
134 154 181
133 154 180
134 154 181
134 154 181
133 154 181
133 154 181
133 154 181
134 154 181
134 154 181
133 154 181
134 154 180
134 154 181
134 154 181
134 154 181
134 154 181
134 154 181
134 154 181
134 154 181
134 154 181
134 154 181
134 154 181
135 155 181
134 154 181
134 154 181
134 154 181
134 154 181
134 154 181
133 154 181
134 154 181
133 154 181
134 154 181
135 155 181
134 154 181
133 154 181
134 154 181
134 154 181
134 154 181
134 154 181
133 154 181
134 154 181
134 154 181
135 155 181
134 154 181
133 154 181
134 154 181
134 154 181
134 154 181
133 154 181
134 154 180
133 154 181
134 154 181
134 154 181
133 154 181
134 154 181
134 154 181
134 154 181
133 154 180
133 154 181
135 155 181
133 154 180
134 154 181
134 154 181
134 154 181
133 154 181
134 154 181
134 154 181
135 155 181
135 155 181
133 154 181
134 154 181
134 154 181
134 154 181
134 154 181
134 154 181
134 155 181
134 154 181
133 154 180
134 154 181
134 154 180
134 154 181
134 155 181
133 154 181
134 154 181
134 154 181
133 154 181
134 154 180
133 153 180
134 154 181
135 155 181
134 154 181
134 154 181
133 154 181
133 154 181
134 154 181
134 154 181
133 154 181
134 154 181
133 154 181
134 154 181
135 155 181
134 154 181
135 155 181
135 155 181
134 154 180
133 154 181
133 154 181
134 154 181
133 154 181
134 154 181
134 154 181
133 154 181
133 154 181
134 154 181
134 154 181
134 154 181
133 154 181
133 154 181
134 155 181
133 154 181
133 153 180
134 154 181
133 154 181
134 154 181
133 154 181
133 154 181
133 154 181
134 154 181
133 154 181
133 154 181
134 154 181
134 154 181
134 154 181
134 154 181
133 154 181
133 154 180
134 154 181
134 154 181
134 154 181
133 154 181
134 154 181
135 155 181
134 154 181
134 154 181
134 154 180
134 155 181
134 154 181
134 154 181
134 154 181
133 154 181
133 154 181
134 154 181
134 154 181
134 154 181
134 154 181
134 154 180
133 154 181
134 154 181
134 155 181
134 154 181
134 154 181
134 155 181
134 154 181
133 154 181
133 154 181
133 154 181
134 154 181
134 154 181
134 154 181
134 154 181
133 154 181
133 154 181
133 154 181
134 154 181
134 154 181
134 154 181
134 154 181
133 154 181
134 154 181
134 154 181
134 154 181
134 154 181
134 154 181
134 154 181
134 154 181
134 154 181
133 154 181
134 154 181
134 154 181
133 154 181
133 154 180
133 154 181
133 154 181
134 154 181
134 154 181
134 154 181
133 154 181
134 154 180
133 154 180
134 154 181
134 154 181
134 154 181
133 154 181
134 155 181
134 154 181
133 154 181
133 153 180
134 154 181
133 154 181
133 154 181
134 154 181
134 154 180
133 153 180
133 154 180
133 154 181
134 154 181
134 154 181
133 154 181
134 154 181
132 153 181
133 154 181
133 154 180
134 154 181
133 153 180
133 153 180
133 153 180
134 154 180
133 154 181
133 154 180
133 154 181
134 154 181
133 154 181
133 154 180
134 154 180
134 155 181
134 154 181
132 153 180
135 155 181
134 154 180
133 154 180
134 154 181
133 154 181
134 154 181
133 154 180
133 154 180
134 154 181
133 154 181
133 154 181
134 154 181
133 153 180
134 154 181
133 154 181
134 154 181
133 154 181
134 154 181
134 154 181
133 154 181
133 154 181
134 154 181
133 154 180
133 154 181
134 154 181
133 154 180
134 154 181
133 153 180
134 154 181
133 154 181
132 153 179
133 153 180
135 155 181
134 154 180
134 154 181
134 154 181
133 154 181
134 154 181
133 154 181
134 154 181
134 154 180
133 154 181
134 155 181
134 154 181
133 154 181
133 154 181
133 154 181
134 154 180
133 153 180
134 154 181
134 154 181
134 154 181
133 154 181
133 154 181
134 154 180
133 154 181
132 153 180
133 154 181
133 154 181
134 154 180
133 154 181
134 154 181
134 154 180
133 153 180
134 154 181
133 154 181
134 154 181
134 154 181
134 154 180
134 154 181
133 154 181
134 154 181
134 154 181
134 154 181
134 154 181
133 154 181
134 154 181
133 154 181
134 154 181
134 154 181
133 153 179
133 154 180
133 154 181
133 154 181
134 154 181
133 154 181
133 154 181
133 154 181
133 154 180
134 154 181
133 154 181
133 154 181
133 154 181
134 154 181
134 154 181
134 154 181
134 154 181
133 154 181
134 154 181
134 154 181
133 154 180
134 154 180
134 154 181
134 154 181
135 155 181
134 154 181
134 155 181
134 154 181
134 154 181
133 154 181
133 154 181
133 154 181
134 154 181
134 154 181
134 154 181
135 155 181
135 155 181
133 154 181
134 154 181
134 154 181
134 154 181
133 154 181
134 154 181
134 154 181
134 154 181
134 154 181
133 153 180
134 154 181
134 154 181
133 154 181
132 153 180
134 154 181
134 154 181
134 154 180
133 154 181
134 154 181
134 154 181
134 154 181
134 154 181
133 154 181
133 154 181
133 154 181
134 154 181
134 154 181
134 154 181
133 154 181
133 154 181
134 154 181
134 154 181
134 154 181
134 154 181
133 154 181
134 154 181
134 154 181
134 154 181
134 154 181
134 155 181
133 154 181
133 154 181
133 154 180
134 154 181
133 154 181
133 154 181
134 154 181
134 154 181
134 154 181
134 154 181
134 154 180
134 154 181
134 154 180
134 154 181
134 154 181
134 155 181
133 154 181
134 154 181
135 155 181
134 154 181
133 154 181
135 155 181
133 154 181
133 154 180
134 154 181
134 154 181
134 154 181
134 154 181
135 155 181
134 154 181
134 155 181
134 154 181
133 154 181
133 154 181
134 154 181
133 154 181
134 154 181
133 154 181
134 155 181
133 153 180
133 154 181
133 154 181
133 154 181
134 154 181
134 154 181
134 154 181
133 154 181
133 154 181
134 154 181
134 154 181
133 154 180
133 154 181
133 154 181
134 154 181
134 154 181
134 154 181
134 154 181
134 154 181
134 154 181
133 154 181
134 154 181
134 154 181
133 154 181
134 154 181
134 154 181
134 154 181
133 154 181
134 154 181
133 154 181
134 154 181
133 154 181
133 154 180
133 154 180
133 154 181
134 154 181
134 154 181
134 154 181
134 154 181
134 154 181
134 154 181
133 154 181
133 154 181
134 154 181
133 154 181
135 155 181
134 154 181
134 154 181
134 154 181
134 154 181
133 154 181
133 154 181
134 154 181
134 154 181
133 154 181
134 154 180
134 154 181
134 154 181
134 154 181
133 154 181
134 154 181
133 154 181
134 154 181
134 154 181
135 155 181
134 154 181
134 154 181
133 154 181
134 154 181
134 154 181
134 154 181
132 153 180
135 155 181
133 154 181
133 154 181
134 154 181
134 154 181
134 154 181
134 154 181
134 154 181
133 154 181
135 155 181
134 154 181
134 154 181
134 154 181
134 154 181
134 154 181
134 154 181
133 154 181
133 154 181
133 154 181
133 154 181
133 154 181
134 154 181
134 154 181
133 154 181
133 154 181
135 155 181
133 154 181
134 154 181
134 155 181
134 154 181
135 155 181
134 154 181
134 154 181
134 154 181
134 154 181
135 155 181
134 154 181
135 155 181
134 154 181
134 154 181
134 154 181
134 154 181
133 154 181
134 154 181
134 154 181
133 154 181
134 154 181
135 155 181
134 154 181
133 154 181
133 154 181
134 154 181
134 154 181
134 154 181
135 155 181
134 154 181
133 154 181
133 154 181
134 154 181
133 154 181
133 154 181
134 154 181
134 154 181
134 154 180
134 154 181
133 154 181
134 154 181
133 154 181
134 154 181
133 154 181
133 154 181
134 154 181
133 154 181
134 154 181
134 154 181
133 154 181
133 154 181
134 154 181
133 154 181
133 154 181
134 154 181
133 154 181
134 154 181
133 154 181
134 154 181
134 154 181
133 154 181
133 154 181
134 154 181
134 154 181
134 154 181
134 154 181
134 154 181
134 154 181
134 154 181
134 154 181
134 154 181
134 154 181
133 154 181
133 154 181
133 153 180
134 154 181
134 154 180
133 154 181
134 154 181
134 154 181
134 154 181
133 154 180
134 154 181
133 154 180
134 154 181
134 154 181
134 154 181
134 154 181
134 154 181
134 154 181
134 155 181
133 154 180
134 154 181
134 154 181
134 154 180
133 154 181
133 154 181
133 154 181
133 154 181
134 154 181
134 154 181
133 154 180
133 154 181
133 154 181
133 154 181
133 154 181
134 154 181
134 154 181
133 154 181
133 154 181
133 154 181
133 154 181
134 154 180
133 154 181
133 154 181
133 153 180
133 154 181
133 154 181
133 154 181
134 154 181
133 154 180
133 153 180
133 154 181
133 154 181
134 154 181
133 154 181
133 154 181
133 154 181
134 154 181
133 154 180
135 155 181
134 154 180
134 154 181
134 154 181
134 154 181
133 154 180
134 154 181
133 154 180
133 154 180
134 154 181
134 154 181
134 154 181
134 154 181
134 154 181
133 154 181
133 154 181
135 155 181
134 154 181
134 154 181
134 154 181
133 153 180
134 154 181
134 154 181
133 154 181
134 154 180
133 154 181
134 154 181
134 155 181
133 154 181
133 154 181
134 154 181
133 154 181
133 154 181
134 154 180
133 153 180
133 153 180
134 154 181
134 154 180
134 155 181
134 154 181
133 154 181
135 155 181
135 155 181
133 154 181
134 154 180
133 153 180
134 155 181
133 154 181
133 154 181
133 153 180
133 154 180
133 154 181
133 153 180
133 154 181
134 154 181
134 154 181
134 154 180
133 154 181
133 154 180
133 154 181
134 154 181
134 154 181
133 154 180
133 154 181
134 154 181
133 154 181
133 153 180
134 154 181
134 154 180
134 154 181
134 154 181
133 154 181
135 155 181
133 154 181
134 154 181
134 154 181
133 154 180
132 153 180
134 154 181
134 154 181
134 154 180
134 154 181
134 154 181
133 154 181
133 154 181
134 154 181
134 154 181
134 154 181
134 154 181
134 154 180
134 154 181
134 154 181
133 154 181
133 153 180
134 154 181
134 154 181
134 154 181
134 154 181
133 153 180
133 154 181
136 155 181
134 154 181
134 155 181
133 154 181
133 154 181
134 154 181
134 154 181
134 154 181
133 154 180
133 154 180
134 154 181
134 154 181
134 154 181
133 154 181
133 154 181
133 154 181
134 154 181
134 154 181
133 154 181
134 154 181
134 154 181
134 154 181
134 154 181
134 154 181
134 154 181
133 154 181
134 154 181
133 154 180
133 154 181
133 154 181
134 154 181
134 154 181
133 154 181
134 154 181
134 154 181
132 153 180
134 154 181
134 154 180
134 155 181
134 154 181
134 154 180
134 154 181
134 154 181
133 154 180
134 154 181
133 154 181
133 154 181
134 154 181
133 154 181
134 154 181
133 154 180
134 154 181
134 154 181
134 154 181
134 154 181
134 154 181
134 154 181
134 154 181
134 154 181
133 154 181
133 154 181
134 154 181
133 153 180
135 155 181
134 154 181
134 154 181
134 154 181
134 154 181
134 154 181
133 154 181
133 154 181
133 154 181
133 154 181
135 155 181
134 154 181
134 154 181
133 154 181
134 154 181
133 154 181
134 154 181
133 154 181
134 154 181
134 154 181
133 154 181
134 154 181
134 154 181
133 154 181
134 154 181
133 154 181
134 154 181
134 154 181
133 154 181
134 154 181
133 154 181
134 154 181
134 154 181
134 154 181
135 155 181
133 154 181
134 155 181
132 153 181
134 154 181
133 154 181
133 154 181
133 154 181
134 154 181
133 154 181
133 154 181
133 154 181
134 154 181
133 154 181
134 154 181
133 154 180
134 154 181
134 154 181
134 154 181
133 154 181
134 154 181
134 154 181
134 154 181
134 154 181
135 155 181
135 155 181
134 154 181
134 155 181
133 154 181
133 154 181
134 154 181
135 155 181
134 154 181
133 154 181
135 155 181
134 154 181
134 155 181
133 154 181
134 154 181
134 154 181
134 154 181
133 154 181
133 154 181
134 154 181
134 154 181
134 154 181
133 154 181
134 154 181
134 155 181
134 154 181
134 154 180
134 155 181
134 154 181
133 154 181
134 154 181
133 153 180
134 155 181
133 153 180
134 154 181
134 154 181
135 155 181
133 154 181
133 154 181
134 154 181
134 154 181
133 154 181
134 154 181
134 154 181
133 154 181
133 154 181
134 154 181
134 154 181
133 154 181
133 154 181
133 154 181
134 154 181
134 154 181
135 155 181
134 154 181
135 155 181
134 154 181
134 154 181
134 154 181
133 154 181
134 154 181
135 155 181
134 154 181
134 154 181
133 154 181
133 154 181
134 154 181
134 154 181
134 154 181
134 154 181
135 154 180
134 154 181
133 154 180
133 154 181
133 154 181
134 154 181
133 154 181
133 153 180
134 154 181
134 154 181
134 154 181
133 154 181
134 154 181
134 154 181
133 154 181
133 154 181
133 154 181
134 155 181
133 154 181
133 154 181
133 154 180
134 154 181
134 155 181
134 154 181
135 155 181
134 154 181
134 154 181
134 154 181
133 154 181
134 154 181
134 154 181
134 154 181
133 154 181
134 154 181
134 154 181
134 154 181
133 154 181
133 154 181
134 154 181
134 154 181
133 154 181
135 155 181
133 154 180
134 154 181
135 155 181
133 154 181
134 154 181
134 154 181
134 154 180
134 154 181
134 154 181
134 154 181
134 154 181
134 154 181
133 154 180
134 154 181
133 154 180
134 154 180
134 154 181
134 154 181
133 154 181
133 154 180
133 154 181
134 154 181
133 154 180
134 154 180
133 154 181
135 155 181
133 153 180
134 154 181
133 154 181
133 154 181
135 155 181
133 154 181
134 154 180
133 154 180
134 154 181
134 155 181
133 153 180
134 154 181
134 154 181
134 154 181
134 154 181
133 153 180
134 154 181
134 154 181
134 154 181
134 154 181
134 154 180
133 154 181
134 154 181
133 154 181
133 154 180
133 154 180
133 154 181
134 154 181
133 153 180
133 154 180
133 154 181
134 154 181
135 155 181
133 154 181
134 154 181
133 154 181
133 154 180
134 154 181
133 154 181
134 154 181
134 154 181
133 154 181
134 154 181
133 154 181
134 154 181
134 154 181
134 154 181
133 154 181
132 153 180
133 153 180
133 154 181
134 154 181
133 154 181
134 154 181
134 154 181
135 155 181
134 154 181
133 154 181
133 154 180
134 154 181
133 154 181
134 154 181
133 154 181
133 154 180
134 154 181
134 154 181
134 154 181
133 154 181
134 154 181
134 154 181
134 154 181
133 154 181
134 154 181
133 154 181
134 154 181
134 154 181
133 154 180
133 154 181
133 154 181
133 154 181
133 154 181
135 155 181
134 154 181
135 155 181
134 154 181
133 153 180
133 154 181
134 154 181
133 154 181
133 154 181
133 154 181
134 154 181
133 154 181
134 154 181
133 154 181
133 153 180
134 154 181
134 154 181
134 154 181
134 154 181
134 154 181
133 154 181
134 154 180
133 154 181
134 154 181
133 154 181
133 154 181
134 155 181
134 154 181
133 153 180
134 154 181
134 154 180
134 154 180
133 154 180
133 154 181
134 154 181
135 155 181
133 154 181
133 154 181
134 154 181
134 154 181
134 154 181
133 153 180
134 154 181
134 154 181
134 154 181
134 154 181
133 154 180
133 153 180
134 154 181
134 154 181
134 154 181
134 154 181
133 154 181
132 153 180
134 154 181
133 154 181
133 154 181
134 154 181
133 154 181
132 153 181
134 154 180
134 154 181
133 154 181
133 154 181
134 154 181
134 154 181
134 154 181
133 154 180
133 154 181
132 153 180
134 154 181
134 154 181
134 154 181
133 154 180
135 155 181
135 155 181
134 154 181
134 154 181
134 154 181
134 154 181
134 154 181
133 154 181
134 154 181
133 154 181
132 153 180
134 154 181
135 155 181
134 154 181
134 154 181
133 154 181
133 153 180
134 154 181
133 154 181
133 154 181
134 154 181
135 155 181
134 154 181
133 154 181
133 154 181
133 154 181
134 154 181
134 154 180
133 154 181
133 154 181
135 155 180
134 154 181
133 154 180
135 155 181
134 154 181
134 154 180
133 153 180
134 154 181
135 155 181
134 154 181
134 154 181
134 154 181
133 154 181
133 154 181
134 154 181
133 154 180
133 154 181
134 154 181
134 154 181
134 154 180
133 154 181
133 153 180
133 154 181
133 154 181
134 154 181
134 154 181
134 154 181
134 154 181
133 154 181
133 154 181
134 154 181
133 154 181
133 154 181
134 154 181
135 155 181
134 154 181
133 154 181
133 154 181
133 154 181
134 154 181
134 154 181
133 154 181
134 154 181
133 154 181
133 154 180
134 154 181
134 154 181
133 154 181
134 154 181
134 154 181
134 154 181
134 154 181
133 154 181
133 154 181
134 154 181
134 154 181
134 154 181
133 154 181
135 155 181
134 154 181
134 154 181
133 154 180
133 154 181
134 154 181
134 154 181
134 154 180
133 154 181
134 154 181
134 154 181
135 155 181
134 154 181
134 154 181
134 154 180
134 154 181
134 154 181
133 154 181
135 155 181
133 154 181
134 154 181
134 154 181
134 154 181
134 154 181
134 154 181
135 155 181
133 154 181
133 154 181
133 154 181
134 154 181
134 154 180
134 154 181
134 154 181
133 154 181
133 154 181
134 154 181
134 154 181
134 154 181
134 154 181
135 155 181
134 154 181
134 154 181
133 154 181
133 154 181
134 154 181
133 154 181
134 154 181
134 154 180
133 154 181
134 154 181
133 154 181
133 154 181
134 154 181
133 154 181
133 154 181
134 154 181
133 154 181
133 154 181
134 154 181
133 154 181
134 154 181
133 154 181
134 154 181
133 154 180
134 154 181
135 155 181
134 154 181
134 154 181
133 154 181
134 154 181
133 154 181
134 154 180
133 154 181
134 154 181
134 154 181
134 154 181
134 154 181
134 154 181
134 154 181
133 154 181
134 154 181
133 154 181
133 154 181
134 154 181
135 155 181
134 154 181
134 154 181
135 155 181
134 154 181
134 154 181
133 154 181
133 154 181
134 154 181
133 154 181
133 154 181
132 153 181
134 154 181
135 155 181
133 154 180
134 154 181
134 154 181
134 154 181
134 154 181
133 154 181
133 154 181
134 154 181
134 154 181
133 154 181
134 154 181
134 154 181
134 154 181
133 154 181
134 154 181
134 154 181
133 154 181
133 154 181
133 154 181
134 154 181
134 154 181
134 154 181
134 154 181
134 154 181
133 154 181
134 154 181
135 155 181
135 155 181
133 154 181
134 154 181
134 154 181
133 154 181
133 154 181
134 154 181
133 154 181
134 154 181
133 154 181
134 154 181
134 155 181
134 154 181
134 154 181
134 154 181
134 154 181
133 154 181
134 154 180
134 154 181
133 154 181
133 153 180
133 153 180
134 154 181
133 154 181
133 153 180
133 154 181
134 154 181
133 153 180
133 154 181
135 155 181
133 154 180
133 154 181
133 153 180
134 154 180
135 155 181
135 155 181
134 154 181
133 154 181
133 154 181
134 154 181
134 154 181
134 154 181
134 154 181
133 154 181
134 154 181
133 154 181
133 154 181
134 154 181
133 154 181
134 154 181
134 154 181
134 154 181
133 154 180
133 154 180
133 153 180
134 154 181
134 154 181
134 154 181
133 154 181
133 154 181
134 154 181
134 154 181
133 154 181
134 154 181
133 154 181
133 154 180
134 154 181
134 154 181
135 155 181
134 154 181
134 154 181
133 154 181
134 154 181
134 155 181
133 153 180
134 154 181
134 154 181
133 154 181
135 155 181
133 154 181
134 154 181
133 154 180
133 154 181
133 154 181
133 154 181
133 153 179
134 154 181
133 154 180
133 153 180
133 154 180
134 154 181
134 154 181
134 154 181
134 154 181
133 153 180
134 154 181
134 154 181
135 155 181
133 154 180
133 154 181
133 154 181
134 154 181
133 154 181
134 154 181
134 154 181
134 154 181
134 154 180
133 154 180
134 154 181
133 153 180
134 154 181
133 153 180
134 154 181
134 154 181
133 154 181
133 154 181
134 154 181
133 153 180
133 154 180
133 154 181
134 154 181
134 154 181
134 154 181
133 154 181
135 155 181
134 154 181
134 154 180
133 154 181
134 154 181
134 154 181
134 154 181
134 154 181
134 154 181
133 154 180
133 154 181
133 154 181
134 154 181
133 154 181
133 153 180
134 154 181
133 154 181
133 154 180
133 154 181
133 154 181
134 154 181
134 154 181
133 154 181
134 154 181
133 154 181
133 153 180
133 154 181
134 154 181
134 154 181
133 154 181
134 154 181
134 154 181
133 154 181
134 154 181
134 154 181
133 153 180
134 155 181
133 154 181
134 154 181
134 154 181
133 154 181
134 154 181
135 155 181
134 154 181
135 155 181
135 155 181
134 154 181
134 154 180
134 154 181
134 154 181
133 154 181
134 154 181
134 154 181
134 154 181
133 154 181
134 155 181
135 155 181
133 154 181
134 155 181
133 154 181
133 154 181
133 153 180
134 154 181
133 154 181
134 154 181
133 154 181
133 154 181
134 154 181
133 154 181
134 154 181
134 154 181
134 154 181
134 154 181
134 154 180
134 154 181
134 154 181
134 154 181
134 154 181
134 154 181
134 154 181
134 154 181
134 155 181
133 154 181
134 154 181
134 154 181
133 154 181
135 155 181
133 154 181
135 155 181
134 154 180
133 154 181
134 154 181
134 154 181
133 154 181
133 154 181
134 154 181
134 154 181
134 154 180
134 154 181
133 154 181
134 154 181
133 154 180
133 154 181
135 155 181
134 154 181
134 154 181
133 154 181
135 155 181
134 154 181
134 154 181
134 154 181
133 154 181
133 153 180
133 153 180
134 154 181
134 154 181
134 154 181
133 154 181
134 154 181
133 154 181
134 154 181
133 154 181
132 153 180
134 154 181
134 154 181
133 154 181
134 154 181
134 154 181
133 153 180
134 154 181
133 154 181
134 154 181
134 154 181
133 154 181
133 154 181
134 154 181
134 154 181
133 154 181
134 154 181
133 153 179
133 154 181
134 154 181
134 154 181
134 154 181
134 154 181
134 154 181
134 154 181
134 154 181
134 155 181
134 154 181
134 154 180
134 154 181
134 154 181
133 154 180
133 154 181
135 155 181
134 154 181
134 154 181
134 154 181
133 154 181
135 155 181
134 154 181
133 154 181
134 154 181
133 154 181
134 154 181
133 154 181
134 154 181
133 154 180
134 154 181
133 154 181
133 154 181
134 154 181
134 154 181
133 154 181
134 154 181
134 154 180
134 154 181
134 154 181
134 154 181
134 154 181
134 154 181
134 154 181
134 154 181
134 154 181
133 154 181
134 154 181
134 154 181
134 154 181
133 154 180
133 154 181
133 154 181
134 155 181
134 154 181
134 154 181
134 154 181
134 155 181
134 154 181
134 154 180
134 154 181
134 155 181
135 155 181
133 154 181
134 154 181
134 154 181
133 154 181
134 154 181
134 155 181
134 154 181
133 154 181
134 154 181
134 154 181
132 153 180
135 155 181
133 154 181
134 154 181
134 154 181
133 154 181
134 154 181
134 154 181
134 154 181
133 154 181
133 154 181
133 154 181
135 155 181
134 154 180
135 155 181
133 154 181
133 154 181
133 154 181
134 154 181
133 154 181
134 154 181
133 154 181
134 154 181
134 154 181
134 154 181
134 154 181
134 154 181
133 154 181
134 154 181
133 154 181
134 154 181
134 154 181
134 154 181
134 154 181
134 154 180
133 154 181
134 154 181
133 154 180
133 154 181
134 154 181
133 153 180
134 154 181
134 154 181
134 154 181
134 154 181
134 154 181
134 154 181
133 154 181
133 154 181
134 154 181
134 154 181
134 154 181
134 154 181
134 154 181
134 154 181
134 154 181
132 153 181
133 154 181
134 154 181
134 154 181
133 154 181
134 154 181
134 154 181
133 154 181
134 154 181
134 154 181
134 154 181
134 154 181
134 154 181
133 154 181
133 154 181
134 154 181
134 154 181
133 154 180
134 154 181
134 154 181
133 154 181
134 154 181
134 154 181
134 154 181
133 154 181
133 154 181
134 154 181
133 154 181
134 154 181
134 154 181
134 154 181
134 154 181
134 154 181
133 154 181
135 155 181
133 154 181
133 154 181
133 154 181
134 154 181
134 154 181
133 154 181
134 154 181
134 154 181
133 154 181
133 154 181
133 154 181
133 154 181
134 154 181
133 154 181
133 154 181
134 154 181
133 154 181
133 154 181
134 154 181
133 154 181
133 154 181
134 154 181
134 154 181
133 154 181
133 154 181
134 154 181
133 154 181
134 154 181
134 154 180
134 154 181
134 154 181
134 154 181
134 154 181
133 154 181
133 154 181
134 154 181
134 154 181
134 154 181
134 154 181
134 154 181
134 154 181
134 154 180
133 154 181
133 154 181
133 154 181
134 154 180
134 154 181
134 154 181
133 154 181
134 154 181
133 154 180
135 155 181
133 154 181
133 154 181
134 154 181
134 154 180
134 154 181
133 154 181
134 154 181
134 154 181
134 154 180
134 154 181
134 154 181
134 154 181
133 153 180
133 154 181
134 154 181
134 154 181
134 154 181
134 154 181
133 154 180
133 154 181
134 155 181
134 154 181
133 154 181
134 154 181
133 154 181
134 154 181
134 154 180
134 154 181
134 154 181
133 154 181
135 155 181
134 154 181
133 154 181
133 153 180
134 154 181
133 153 179
133 154 181
134 154 180
132 154 181
133 154 181
133 154 181
134 154 181
133 154 181
133 153 180
134 154 181
134 154 181
134 154 181
134 154 181
133 154 180
133 154 181
133 154 181
134 154 181
134 154 181
134 154 181
134 154 181
135 155 181
134 154 181
134 154 181
134 154 181
134 154 181
134 154 181
134 154 181
133 154 181
134 154 181
134 154 181
133 154 180
134 154 181
135 155 181
134 154 181
133 154 181
133 154 181
134 154 181
133 154 181
133 154 181
133 154 181
134 154 181
134 154 180
133 154 181
135 155 181
133 154 181
133 154 181
133 154 181
133 153 180
134 154 180
133 153 180
133 154 181
134 154 180
134 154 181
134 154 181
134 154 181
134 154 181
133 153 180
134 154 181
134 154 181
134 154 181
134 154 181
133 154 180
133 154 181
133 154 181
134 154 181
133 154 181
134 154 180
133 154 181
133 154 180
133 154 181
134 154 181
133 154 180
134 154 181
134 154 181
134 154 181
134 154 181
134 154 181
134 154 181
133 154 181
133 154 181
134 154 181
133 154 181
133 154 181
133 154 181
134 154 181
135 155 181
133 153 180
134 154 181
134 154 181
134 154 181
134 154 180
133 154 180
133 154 181
134 154 181
134 154 181
134 154 181
134 154 181
134 154 181
134 154 181
134 154 180
133 153 180
134 154 181
132 153 180
134 154 181
134 154 181
133 154 181
134 154 181
134 154 181
134 154 181
134 154 181
133 153 180
135 155 181
133 154 181
134 154 180
135 155 181
133 154 181
133 154 181
134 154 180
134 154 181
134 154 181
134 154 181
133 154 181
134 154 181
133 154 181
134 154 181
133 153 180
134 154 181
134 154 181
133 154 181
134 154 181
133 154 180
133 154 180
134 154 181
133 154 181
134 154 181
133 154 180
134 154 181
135 155 181
134 154 181
133 154 181
134 154 181
134 154 181
134 154 181
133 154 180
133 154 181
134 154 181
135 155 181
133 154 181
134 154 181
135 155 181
133 154 181
135 155 181
134 154 181
134 154 181
134 154 181
134 154 181
134 154 181
134 154 181
133 154 181
134 154 181
134 154 181
135 155 181
134 154 181
134 154 181
133 154 181
134 154 181
135 155 181
133 154 181
133 154 181
134 154 181
134 154 181
134 154 181
134 154 181
134 154 181
134 154 181
134 154 181
133 153 180
133 154 181
135 155 181
133 153 180
133 154 181
133 154 180
133 154 181
134 154 181
134 154 180
134 154 181
133 154 181
133 154 181
134 155 181
133 154 181
134 154 181
133 154 181
133 154 181
134 154 181
133 154 181
133 154 181
135 155 181
134 154 181
133 154 181
133 154 181
134 154 181
134 154 181
133 154 181
134 154 181
134 154 181
133 154 181
133 154 181
134 155 181
133 154 181
133 154 181
134 154 181
134 154 181
134 154 181
135 155 181
133 154 181
133 154 181
134 154 181
134 154 181
133 154 181
133 154 181
134 154 181
133 154 181
134 154 181
134 154 181
133 154 181
135 155 181
134 154 181
134 154 181
134 154 181
133 154 181
133 154 180
134 154 181
133 154 181
134 154 181
134 154 181
134 155 181
134 154 181
133 154 181
134 154 181
133 153 180
134 154 181
134 154 181
133 154 181
134 154 181
134 154 181
134 154 181
134 154 181
134 154 181
134 154 181
134 154 181
133 154 181
134 155 181
133 154 181
134 154 181
134 154 181
133 154 181
134 154 181
134 154 181
133 154 181
134 154 181
134 154 181
134 154 181
134 154 181
133 154 181
134 154 181
134 154 181
134 154 181
134 154 181
133 154 181
134 154 181
134 154 181
134 154 181
133 154 181
133 154 181
135 155 181
134 154 181
134 154 181
134 154 181
134 154 181
134 154 181
133 154 181
133 154 181
133 154 181
134 154 181
133 154 180
134 154 181
135 155 181
134 154 181
134 154 181
133 154 181
133 154 181
133 154 181
134 154 181
134 154 181
133 154 181
133 154 181
134 154 181
133 154 181
134 154 181
133 153 180
133 154 181
133 154 181
135 155 181
133 154 181
134 154 181
133 154 181
133 154 181
133 154 181
133 154 181
135 155 181
133 154 181
134 154 180
134 154 180
133 153 180
134 154 181
134 154 181
134 154 181
134 154 181
133 153 180
134 154 181
134 154 181
133 154 180
134 154 181
134 154 181
134 154 181
134 154 181
134 154 181
135 155 181
133 154 181
134 154 181
135 155 181
134 154 181
134 154 181
135 155 181
133 154 181
134 154 181
133 154 180
134 154 181
134 154 181
135 155 181
134 154 181
133 154 181
133 154 181
134 154 181
133 154 181
134 154 180
134 154 181
133 154 181
134 155 181
133 153 180
133 154 181
135 155 181
134 154 181
133 154 181
133 154 180
133 154 180
134 154 181
133 154 181
134 154 181
134 154 181
134 154 181
134 154 181
134 154 180
133 154 181
133 154 180
134 154 181
134 154 181
134 154 181
134 154 181
134 154 181
133 154 181
135 155 181
135 155 181
134 154 181
134 154 181
134 154 181
134 154 181
134 154 181
134 154 181
133 154 181
134 154 181
134 154 181
133 154 181
133 154 181
134 154 181
133 154 181
133 154 181
134 154 181
133 154 180
135 155 181
133 154 181
134 154 181
134 154 181
133 153 180
132 153 181
134 154 180
134 154 181
134 154 181
133 154 181
133 154 180
134 154 181
133 154 181
135 155 181
134 154 181
134 154 181
134 154 181
133 154 181
134 154 181
135 155 181
133 154 180
134 154 181
135 155 181
133 154 180
133 154 181
133 154 181
133 154 181
133 154 181
133 154 181
133 154 181
135 155 181
134 154 180
134 154 181
133 154 181
134 154 181
132 153 179
134 154 181
134 154 181
134 154 181
135 155 181
133 154 181
134 154 181
134 154 181
134 154 181
134 154 181
134 154 181
134 154 181
134 154 181
133 154 181
134 154 181
135 155 181
134 154 181
134 154 181
133 154 181
133 154 181
134 154 181
134 154 181
134 154 181
134 154 181
134 154 181
133 154 181
134 154 181
133 154 180
134 154 181
133 154 181
135 154 180
134 154 181
134 154 181
134 154 181
134 154 181
133 154 181
134 154 181
134 154 181
133 154 181
133 154 181
134 154 180
134 154 181
134 154 181
133 154 181
134 154 181
135 155 181
134 154 181
133 154 181
134 154 180
134 154 181
133 154 181
134 154 181
133 154 181
133 154 181
134 154 181
134 154 181
133 154 180
133 154 181
133 154 181
133 154 181
133 154 180
134 154 181
133 154 181
134 154 181
135 155 181
133 154 181
133 154 181
134 154 181
133 154 181
134 154 181
134 154 181
134 154 181
134 154 181
133 154 181
134 154 181
133 154 180
133 153 180
134 154 180
134 154 181
135 155 181
133 154 181
133 154 181
133 154 181
134 154 181
133 154 181
135 155 181
134 154 181
133 154 181
134 154 181
133 154 181
134 154 181
134 154 181
133 154 180
134 154 181
133 154 180
134 154 181
134 154 180
134 154 181
133 154 181
134 154 181
134 154 181
134 154 180
134 154 181
134 154 181
134 155 181
134 154 181
135 155 181
134 154 181
134 154 181
134 154 181
133 153 180
134 154 181
134 154 181
133 154 180
134 154 181
134 154 181
133 154 181
135 155 181
133 154 180
134 154 181
133 154 181
133 153 180
134 154 181
134 155 181
133 154 181
135 155 181
134 154 181
134 154 181
133 154 181
133 154 181
133 153 180
133 154 181
134 154 180
134 154 181
133 154 180
134 154 181
134 154 181
134 154 181
134 154 181
134 154 180
134 154 181
133 154 181
134 154 181
134 154 181
134 154 180
133 154 181
134 154 181
134 154 181
134 154 181
133 154 181
134 154 181
134 154 181
133 154 181
133 154 181
134 154 180
133 154 181
134 154 181
134 154 181
134 154 181
134 154 181
133 154 181
134 154 181
135 155 181
134 154 181
133 154 181
133 154 181
134 154 181
134 154 181
133 154 181
133 154 181
134 154 181
135 155 181
134 154 181
134 154 181
133 154 181
133 154 181
134 154 181
134 154 181
134 154 181
134 154 181
134 154 181
133 154 181
134 154 181
134 154 181
134 154 181
133 154 181
133 154 180
133 154 181
134 154 181
133 154 181
133 154 181
133 154 181
134 154 181
134 154 181
134 154 181
135 155 181
133 154 181
133 154 181
134 154 181
133 153 180
133 154 181
133 154 180
133 154 181
134 154 181
134 154 181
135 155 181
135 155 181
134 154 181
133 154 181
134 154 181
134 154 181
134 154 181
134 154 181
134 154 181
134 154 181
134 154 181
133 154 181
134 154 181
134 154 180
135 155 181
134 154 181
134 154 181
133 153 180
133 154 181
133 154 181
134 154 181
134 154 181
134 154 181
135 155 181
134 154 181
134 154 181
134 154 181
134 154 181
134 154 181
134 154 181
134 154 181
135 155 181
134 154 181
134 154 181
133 154 181
134 154 181
134 154 181
134 154 181
134 154 181
133 154 181
134 154 181
133 154 181
134 154 181
134 154 181
133 154 181
133 154 181
134 154 181
134 154 181
134 154 181
133 154 181
133 154 181
133 154 181
134 154 181
134 154 181
134 154 181
134 154 181
133 154 181
133 154 181
133 154 181
134 154 181
133 153 180
133 154 181
134 154 181
133 154 181
134 154 181
134 154 181
134 154 181
134 154 181
134 154 181
134 154 181
134 154 181
134 154 181
134 154 181
134 154 180
133 154 181
134 154 181
134 154 181
134 154 181
134 154 181
134 154 181
134 154 181
134 154 181
134 154 181
134 154 181
134 154 181
133 153 180
132 153 180
134 155 181
134 154 181
133 154 181
134 154 181
135 155 181
133 154 181
133 154 181
135 155 181
133 153 180
133 154 180
133 154 181
133 154 181
133 154 181
134 154 181
133 153 180
133 154 180
134 154 181
133 154 180
133 154 181
134 154 181
134 154 181
135 155 181
134 154 181
133 154 180
134 155 181
134 155 181
133 154 181
134 154 181
133 154 181
134 154 181
135 155 181
133 154 181
134 154 181
134 154 181
133 154 181
133 154 181
133 154 180
134 154 181
133 154 181
134 154 181
134 154 181
133 154 181
134 154 181
134 154 181
134 154 181
134 155 181
133 154 181
134 154 181
135 155 181
134 154 181
134 154 181
134 154 181
133 154 180
134 154 181
133 154 181
134 154 181
134 154 181
134 154 181
134 154 181
133 153 180
134 154 181
134 154 181
133 154 181
135 155 181
134 154 181
133 154 181
134 155 181
133 154 180
133 154 181
134 154 181
134 154 180
135 155 181
134 154 181
133 154 181
134 154 181
134 154 181
133 154 181
134 154 181
133 154 181
134 155 181
133 154 180
134 154 181
134 154 181
134 154 181
133 154 181
134 154 181
134 154 181
134 154 181
133 154 181
133 154 181
133 153 180
134 154 181
134 154 181
134 154 181
134 154 181
133 154 181
134 154 181
134 154 181
134 154 181
134 154 181
133 154 181
134 154 181
134 154 181
133 154 181
134 155 181
134 154 181
134 154 180
133 154 181
134 154 181
134 154 181
134 154 181
133 154 180
133 154 180
134 154 181
134 154 181
134 154 181
134 154 181
134 154 181
133 154 181
132 153 180
133 154 181
133 153 180
134 154 181
134 154 181
134 154 181
134 154 181
134 154 181
133 154 181
134 154 181
133 153 180
133 154 181
134 154 181
134 154 181
134 154 181
135 155 181
134 154 181
135 155 181
133 153 180
134 154 181
134 154 181
133 154 181
134 154 181
133 154 181
133 154 181
133 154 181
134 154 181
134 154 181
133 154 181
133 154 181
134 154 181
134 154 181
134 154 181
134 154 181
134 154 181
134 154 181
134 154 181
134 154 181
133 154 180
134 154 181
133 154 181
134 154 181
133 154 181
133 154 181
134 154 181
134 154 181
133 154 181
134 154 181
134 154 180
134 154 181
133 154 181
135 155 181
134 154 180
133 154 181
134 154 180
134 154 181
133 154 181
133 154 180
134 154 181
134 154 181
133 154 181
134 154 181
134 154 181
133 154 180
134 154 181
133 154 181
134 154 181
134 154 181
134 154 181
133 154 181
133 154 181
134 154 181
134 154 181
134 154 180
133 154 180
133 154 181
133 154 181
134 154 181
134 154 181
133 154 181
133 154 181
133 154 181
135 155 181
134 154 181
133 153 180
133 153 180
133 154 180
133 154 181
133 154 181
133 154 180
133 154 180
133 154 181
134 154 181
134 154 181
133 154 181
134 154 181
134 154 180
134 155 181
134 154 181
133 154 181
134 154 181
134 154 181
134 155 181
133 154 181
133 154 181
134 154 181
134 155 181
135 155 181
133 154 181
134 154 181
134 154 181
134 154 181
134 154 181
134 154 181
134 154 181
134 154 181
134 155 181
134 154 181
134 154 181
134 154 181
133 154 181
133 154 181
133 154 181
133 154 181
133 153 180
134 154 181
134 154 181
133 154 181
133 154 181
134 154 181
134 154 181
134 154 181
134 154 181
134 154 181
134 154 181
134 154 181
134 154 181
133 154 180
134 154 181
134 154 181
134 154 181
133 154 181
133 154 181
134 154 181
134 154 181
134 154 181
134 154 181
133 154 181
134 154 181
133 154 181
134 154 180
134 154 181
133 154 181
134 154 181
134 154 181
133 154 181
134 154 181
134 154 181
134 154 181
133 154 181
134 154 181
134 154 181
134 155 181
134 154 181
134 154 181
134 154 181
133 154 181
134 154 181
134 154 180
134 154 181
134 154 181
133 154 181
133 154 181
133 154 181
134 154 181
134 154 181
133 154 181
133 154 181
133 154 181
134 154 181
134 154 181
133 154 181
134 154 181
133 154 181
134 154 181
134 154 180
134 154 181
134 154 181
134 154 181
134 154 181
134 154 181
134 154 181
134 154 181
134 154 181
134 154 181
132 153 181
133 154 180
134 154 181
134 154 181
134 154 180
134 154 181
134 154 181
134 155 181
134 154 181
134 154 181
133 154 181
134 154 181
134 154 181
134 154 181
133 154 181
133 154 181
134 154 181
134 154 181
134 154 181
134 154 181
133 154 181
134 154 181
133 154 181
134 154 181
134 154 181
133 154 181
134 154 180
134 154 181
134 154 181
134 154 181
133 154 180
134 154 181
134 154 181
134 154 181
134 154 181
133 154 181
134 154 181
133 154 181
134 154 181
134 154 181
133 154 181
133 154 181
134 154 181
135 155 181
134 154 181
134 154 181
133 154 181
133 154 181
134 154 181
133 154 181
134 154 180
134 154 181
134 154 180
134 154 181
134 154 181
135 155 181
134 154 181
134 154 181
134 154 181
133 154 181
134 154 181
134 154 181
134 155 181
133 154 181
134 154 181
134 154 181
134 154 181
134 154 181
133 154 181
134 154 181
134 154 181
134 154 181
134 154 181
133 154 181
133 154 181
134 154 181
133 154 181
134 154 181
134 155 181
133 153 180
134 154 180
134 154 181
133 154 181
133 153 180
134 154 181
134 154 181
134 154 181
133 154 181
133 154 181
133 153 180
134 154 181
134 154 181
134 154 181
134 154 181
133 153 180
133 154 181
133 154 181
135 155 181
134 154 181
134 154 181
133 154 181
133 154 181
133 154 181
133 154 180
134 154 181
133 154 180
134 154 181
134 154 181
134 154 181
134 154 181
132 153 180
133 154 180
134 154 181
134 154 181
133 154 181
134 154 181
133 154 181
134 154 181
134 154 181
134 154 180
134 154 181
134 154 181
134 154 181
134 154 181
134 154 181
134 154 181
133 154 181
133 154 181
134 154 181
134 154 181
134 154 181
133 154 181
134 154 181
134 154 181
135 155 181
133 154 180
134 154 180
133 154 180
133 154 181
134 154 181
134 154 181
134 154 181
134 154 181
133 154 181
134 154 181
134 154 181
133 154 181
133 154 181
134 154 181
134 154 181
133 153 180
134 154 181
134 154 181
133 154 181
134 154 181
135 155 181
134 154 181
134 154 181
134 154 181
134 154 181
134 154 181
134 154 181
133 154 181
134 154 181
134 154 181
133 154 180
135 155 181
133 154 181
134 154 181
133 154 181
135 155 181
134 154 181
134 154 181
134 154 181
134 154 181
133 154 181
134 154 181
134 154 180
134 154 181
134 154 181
133 154 181
134 155 181
133 154 181
133 154 181
134 154 181
133 154 181
134 154 181
134 154 181
133 154 181
133 154 181
134 154 181
133 154 181
133 154 181
133 154 181
135 155 181
133 154 181
133 154 181
133 154 180
135 155 181
133 153 180
134 154 181
134 154 181
134 154 181
134 154 181
134 154 181
133 153 180
134 154 181
134 154 180
133 154 181
133 153 180
133 154 181
133 154 181
134 155 181
134 154 181
133 154 181
133 154 181
133 154 180
134 154 181
133 154 181
135 155 181
135 155 181
134 154 181
133 154 181
135 155 181
134 154 181
133 154 181
134 154 181
134 154 181
134 154 180
135 155 181
134 154 181
134 154 181
134 154 181
135 155 181
134 154 181
134 155 181
134 154 181
133 154 181
135 155 181
135 155 181
133 154 181
134 154 181
134 154 181
134 154 181
134 154 181
132 153 181
134 154 181
134 154 181
133 154 180
134 154 181
134 154 181
133 154 181
134 154 181
134 154 181
133 154 181
134 154 181
135 155 181
135 155 181
134 154 181
134 154 180
133 154 181
134 154 181
133 154 181
134 154 181
133 154 181
134 154 181
133 154 181
133 154 181
135 154 180
133 154 181
134 154 181
134 154 181
134 154 181
134 154 181
134 154 181
134 154 181
134 154 181
134 154 181
134 154 181
134 154 181
133 154 181
133 154 181
134 154 181
134 154 181
134 154 181
134 154 181
134 154 181
134 154 181
134 154 181
133 154 181
134 154 181
134 154 181
134 154 181
134 154 180
134 154 181
134 154 181
133 154 181
134 154 181
133 154 181
133 153 180
134 154 181
134 154 181
134 154 181
134 154 181
133 154 181
134 154 181
134 154 181
133 154 181
134 154 181
133 154 181
133 153 180
133 154 181
133 154 181
133 154 181
133 154 181
133 154 181
134 154 181
134 154 181
133 154 181
134 154 181
134 154 181
134 154 181
133 154 181
134 154 181
133 154 181
134 154 181
133 154 181
133 154 181
134 154 181
133 154 181
134 154 181
133 154 180
134 154 181
133 154 181
133 154 181
134 154 181
133 154 181
133 154 181
133 154 181
133 154 181
133 154 180
134 154 181
134 154 181
133 154 181
134 154 181
133 154 181
133 154 181
135 155 181
133 154 181
133 154 181
134 154 181
134 154 181
133 154 181
134 154 180
134 155 181
133 154 181
134 154 181
134 154 181
133 154 181
134 154 181
135 155 181
133 154 181
134 154 181
134 154 181
133 154 181
134 154 181
134 154 181
134 154 181
134 154 181
134 154 180
133 154 181
133 154 181
133 154 181
134 154 181
134 154 181
133 154 181
134 154 181
134 154 181
134 154 181
133 154 181
134 154 181
133 154 181
134 154 181
134 154 181
133 154 181
134 155 181
133 154 181
133 154 181
133 154 181
134 154 181
133 154 181
134 154 181
133 154 181
134 154 181
133 154 181
134 154 181
134 154 181
133 154 181
134 154 181
133 154 181
134 154 181
134 154 181
134 154 181
134 154 181
134 154 181
134 154 181
134 154 180
134 154 181
133 154 181
134 154 181
133 154 181
134 154 181
134 154 181
133 154 181
133 154 181
133 154 181
134 154 181
133 154 181
133 154 181
134 154 181
133 154 181
133 154 181
133 154 181
134 154 181
134 154 181
135 155 181
133 154 180
133 154 181
134 154 181
134 154 181
133 154 181
134 154 181
134 154 181
134 154 181
133 154 181
134 155 181
134 154 181
134 154 181
133 154 181
134 154 181
135 155 181
134 154 181
134 154 181
133 154 181
133 154 181
134 155 181
134 154 181
134 154 181
133 154 180
133 154 181
134 154 181
134 154 181
133 154 181
134 154 181
134 154 181
135 155 181
134 154 181
134 154 181
134 154 181
133 154 181
133 154 181
134 154 181
133 154 181
134 154 181
133 154 181
134 154 181
133 154 180
135 155 181
133 154 181
134 154 181
134 154 181
134 154 181
134 155 181
133 154 180
133 154 181
133 154 181
133 154 181
134 154 181
133 154 181
133 154 181
134 154 181
133 154 181
134 154 181
134 154 181
134 154 181
134 154 181
134 154 181
133 154 180
134 154 181
134 154 180
134 154 180
133 154 181
134 154 181
134 154 181
134 154 181
134 154 181
133 154 180
133 154 181
133 154 181
134 154 181
134 154 181
134 154 181
134 154 181
134 155 181
134 154 181
135 155 181
134 154 181
133 154 181
134 154 181
134 154 181
134 154 180
134 154 181
133 153 180
134 154 181
133 154 181
134 154 181
133 154 181
135 155 181
134 154 181
133 154 181
135 155 181
135 155 181
133 154 181
134 154 181
133 154 181
134 154 181
134 154 181
133 154 181
133 154 181
134 154 181
134 154 181
132 153 180
132 153 179
134 154 181
133 154 180
134 154 181
133 154 181
134 154 181
133 153 180
134 154 180
134 154 180
133 153 180
134 154 181
133 153 180
133 154 181
134 154 181
134 154 181
134 154 181
134 154 181
134 154 180
134 154 181
133 153 180
133 154 181
133 154 181
134 154 181
133 154 180
134 154 181
133 154 181
133 154 181
133 154 180
134 154 181
134 155 181
133 154 181
133 154 181
133 154 181
134 154 181
133 153 180
134 154 181
133 154 181
134 154 181
133 154 181
134 154 180
134 154 181
134 154 181
134 154 181
134 154 181
133 154 180
134 154 181
135 155 181
135 155 181
134 154 181
134 154 181
134 154 181
134 154 181
134 154 181
134 154 181
134 154 181
134 154 181
133 154 181
133 154 181
133 154 181
133 154 181
133 154 181
133 154 181
133 154 181
134 154 181
133 154 181
134 154 181
133 153 180
134 154 181
133 154 181
133 154 181
134 154 181
133 154 181
134 154 181
135 155 181
133 154 181
134 154 181
134 154 180
134 154 181
133 154 181
134 154 181
134 154 181
134 154 181
134 154 181
134 154 180
133 154 181
133 154 181
133 154 181
134 154 181
134 154 181
134 154 181
135 155 181
134 154 181
134 154 180
133 154 181
134 154 181
134 154 181
133 154 181
134 154 181
134 154 181
133 154 181
134 154 181
132 153 180
133 154 180
134 154 181
133 154 181
134 154 181
133 154 181
132 153 180
133 154 181
134 154 181
134 154 181
133 154 181
133 154 180
133 154 181
134 154 181
134 154 181
134 154 181
133 154 181
134 154 180
134 154 181
134 154 181
133 154 181
134 155 181
134 154 181
134 154 181
134 154 181
134 154 181
134 154 181
134 154 181
133 154 181
134 154 181
134 154 181
134 154 181
134 154 181
133 154 181
134 154 181
133 154 181
134 154 181
133 154 181
134 154 181
134 155 181
134 154 181
134 154 181
135 155 181
134 154 181
133 154 181
133 154 181
134 154 181
134 154 181
134 154 181
134 154 181
134 154 181
134 154 181
133 154 181
134 154 181
134 154 180
134 155 181
133 154 181
134 154 181
134 154 181
134 154 181
134 154 181
134 154 181
133 154 181
134 154 181
133 154 181
133 154 181
134 154 181
134 154 181
132 153 180
134 154 181
134 154 181
134 154 181
133 154 181
134 154 181
132 153 179
133 154 181
133 154 181
134 154 181
134 154 181
133 154 181
134 154 181
134 154 181
134 154 181
133 154 181
133 154 181
133 154 181
134 154 181
134 154 181
133 154 181
133 154 181
134 154 181
133 154 181
133 154 181
134 154 181
134 154 181
134 154 181
134 154 181
134 154 180
134 154 181
134 154 181
134 154 181
133 154 181
134 154 181
134 154 181
134 154 181
134 154 181
134 154 180
134 154 181
134 155 181
133 154 181
133 154 181
134 154 181
134 154 181
133 154 181
134 154 181
133 154 181
134 154 181
133 154 181
134 154 181
135 155 181
134 154 181
133 154 181
134 154 181
134 154 180
133 154 181
133 154 181
135 155 181
134 154 181
133 154 181
134 154 181
134 154 181
133 154 181
134 154 181
133 154 181
134 154 180
134 154 181
135 155 181
133 154 181
134 154 181
134 154 181
134 154 181
134 155 181
134 154 181
134 154 181
133 154 181
133 154 181
134 154 181
135 155 181
134 154 181
133 154 181
134 154 181
133 154 181
134 154 181
133 154 181
133 154 181
133 154 181
133 154 181
134 154 181
133 154 181
134 154 181
133 154 181
134 154 181
133 154 181
134 154 181
134 154 181
134 154 181
133 154 181
134 154 181
133 154 181
134 154 181
135 155 181
133 154 181
133 154 181
134 154 181
134 154 181
134 154 181
134 154 181
133 154 181
134 154 181
134 154 181
134 154 181
134 154 181
135 155 181
134 154 181
134 154 181
133 154 181
134 154 181
134 154 181
134 154 181
134 154 181
133 154 181
135 155 181
134 154 181
134 154 181
134 154 181
134 154 181
134 154 181
134 154 181
133 154 181
134 154 181
133 154 181
133 154 181
133 154 181
133 154 181
134 154 181
134 154 181
134 154 181
133 154 181
134 154 181
134 154 181
133 154 181
134 154 181
134 154 181
134 154 181
134 154 181
134 154 181
134 154 180
133 154 181
133 154 181
134 154 181
133 154 181
133 154 181
134 154 181
134 154 181
133 154 181
133 154 181
133 154 181
133 154 181
134 154 181
134 154 181
133 154 181
134 154 181
133 154 181
134 154 181
134 154 181
135 154 180
134 154 181
134 154 181
134 154 181
133 154 181
133 154 181
134 154 181
134 154 181
134 154 181
133 154 181
134 154 181
135 155 181
133 154 181
134 154 181
133 154 180
133 154 181
135 155 181
134 154 181
134 154 181
135 155 181
134 154 181
135 155 181
134 154 181
133 154 181
134 154 181
134 154 181
133 153 180
134 154 181
134 154 181
133 153 180
134 154 181
132 153 180
134 154 181
134 154 181
133 154 181
133 154 180
134 154 180
134 154 181
133 154 180
134 154 181
133 154 181
134 154 180
133 154 181
134 154 181
134 154 181
133 154 181
134 154 181
134 154 181
134 154 181
134 154 181
135 155 181
134 154 181
134 154 181
134 154 181
134 154 181
133 154 181
133 154 181
134 154 181
134 154 181
134 154 180
133 154 181
133 154 180
133 154 181
133 154 181
134 154 181
134 154 181
134 154 181
134 154 180
134 154 181
133 154 181
134 155 181
134 154 181
133 154 181
134 155 181
133 154 181
135 155 181
134 154 180
133 154 181
135 155 181
134 154 181
133 154 181
134 154 181
135 155 181
133 154 181
134 154 181
133 154 181
134 154 181
133 154 181
133 154 181
133 154 181
134 154 181
134 154 181
133 154 181
134 154 181
133 154 181
134 154 180
134 155 181
134 154 181
134 154 181
134 155 181
133 154 180
134 154 181
133 154 181
134 154 181
133 154 181
133 154 181
133 153 180
133 154 181
134 154 181
134 155 181
134 154 180
133 154 181
134 154 181
134 154 181
134 154 181
134 154 180
133 154 181
133 154 181
133 154 181
134 155 181
134 154 181
135 155 181
134 154 181
134 154 181
134 155 181
134 154 181
134 154 181
134 154 181
134 154 181
133 154 180
134 154 181
134 154 181
134 154 180
134 154 181
133 154 181
133 154 181
133 154 181
134 154 181
134 154 181
134 154 181
133 154 181
133 154 181
134 154 181
133 154 181
133 154 181
134 154 181
133 154 181
134 154 181
134 154 181
134 154 181
133 154 180
133 154 181
133 154 181
133 154 181
134 154 181
134 154 181
134 154 181
133 154 181
134 154 181
134 154 181
134 154 181
134 154 181
134 154 181
133 154 181
134 154 181
133 154 181
134 154 181
134 154 181
134 154 181
134 154 181
135 155 181
133 154 181
134 154 180
134 154 181
134 154 180
133 154 181
133 154 181
134 154 181
134 154 181
134 154 181
134 154 181
134 154 181
134 154 181
134 154 181
133 154 181
134 154 181
134 154 181
135 155 181
134 154 181
133 154 181
134 154 181
133 154 181
134 154 181
134 154 181
134 154 181
134 154 180
133 154 181
134 154 181
133 154 181
134 155 181
134 154 181
133 154 181
135 155 181
134 154 181
134 154 181
134 154 181
134 154 181
133 154 181
133 154 181
134 154 181
133 154 181
134 154 181
134 154 181
134 154 181
134 154 181
133 154 180
133 154 181
135 155 181
134 154 181
133 154 181
133 154 181
133 154 181
134 154 181
134 154 180
133 154 181
133 154 181
133 154 181
134 154 181
134 154 181
133 154 181
134 154 181
134 154 181
134 154 181
134 154 181
133 154 180
133 154 181
134 154 181
133 154 181
134 154 181
134 154 181
134 154 181
134 154 181
134 154 181
134 154 181
134 154 181
133 154 180
135 155 181
135 155 181
134 154 181
133 154 181
134 154 181
133 154 181
134 154 181
134 154 181
134 154 180
134 154 181
133 154 181
134 154 181
134 154 181
134 154 181
133 154 181
135 155 181
134 154 180
134 154 181
134 154 181
134 154 181
134 154 180
133 154 181
134 154 181
133 154 181
134 154 181
133 153 180
134 154 181
134 154 181
133 154 181
133 154 181
133 154 181
133 154 181
133 154 181
133 154 181
134 154 181
134 154 181
134 154 181
134 154 181
134 154 181
134 154 181
134 154 181
133 154 181
134 154 181
134 154 181
134 154 181
133 154 180
134 154 181
134 154 181
134 154 181
134 154 181
133 154 181
133 154 181
133 154 181
134 154 181
134 154 181
134 154 181
134 154 181
133 154 181
133 153 180
134 154 181
134 154 181
133 154 181
134 154 181
134 154 181
133 154 181
134 154 181
134 154 181
134 154 181
133 154 181
133 154 181
134 154 181
134 154 181
134 154 181
134 154 181
134 154 181
134 154 181
133 154 181
134 154 181
134 154 181
134 154 181
134 154 181
134 154 181
134 154 181
134 154 181
133 154 181
133 154 181
134 154 181
134 154 181
133 154 181
133 154 181
135 155 181
133 154 181
133 154 180
133 154 180
134 154 181
133 154 181
134 154 181
134 154 181
133 154 180
133 154 181
133 154 181
133 154 181
133 154 181
133 154 181
134 154 181
133 154 181
133 154 181
133 154 181
133 154 180
133 154 181
133 154 181
134 154 181
134 154 181
134 154 181
134 154 181
134 154 181
134 154 181
134 154 181
134 154 181
135 155 181
134 154 181
133 154 180
133 154 180
134 154 181
134 154 181
134 154 181
134 154 181
134 154 181
134 154 181
134 154 181
134 154 181
133 154 181
134 154 181
133 154 181
133 154 181
135 155 181
134 154 181
134 154 180
133 154 181
133 154 181
134 154 181
134 154 181
133 154 181
134 154 181
134 154 181
134 154 181
134 154 181
133 154 181
134 154 181
133 154 181
133 154 180
134 154 181
135 155 181
134 154 181
133 154 181
133 154 181
134 154 181
133 154 181
133 154 181
134 154 181
134 154 181
134 154 180
133 154 181
133 154 181
133 154 180
133 154 181
134 154 181
134 154 181
134 154 181
134 154 181
134 154 181
134 154 181
133 154 181
134 154 181
133 154 180
134 154 181
134 154 181
134 154 181
133 153 180
134 154 181
134 154 181
134 154 181
133 153 180
134 154 181
133 154 181
133 154 181
134 154 181
133 154 181
134 154 181
135 155 181
133 154 181
133 154 181
134 154 181
134 154 181
133 154 180
134 154 181
133 154 181
134 154 181
133 154 181
134 154 181
134 154 181
134 154 180
133 154 181
134 154 181
133 154 181
134 154 181
134 154 181
134 154 181
134 154 181
134 154 181
134 154 181
134 154 181
134 154 181
134 154 181
134 154 181
133 154 181
134 154 181
134 154 180
134 154 181
132 153 181
133 154 181
134 154 181
133 154 181
134 154 181
133 154 181
133 154 181
132 153 180
133 154 181
133 154 180
133 154 181
133 154 181
134 154 181
135 155 181
134 154 181
134 154 181
134 154 181
133 153 179
133 154 181
134 154 181
134 154 181
134 154 181
135 155 181
133 154 181
134 154 181
134 154 181
134 154 181
134 154 181
134 154 181
135 155 181
134 154 181
133 154 181
134 154 181
133 154 181
134 154 181
134 154 181
134 154 181
133 154 180
134 154 181
134 154 181
134 154 181
133 154 181
134 154 180
134 154 181
134 155 181
134 155 181
135 155 181
134 154 181
135 155 181
134 154 181
133 154 181
134 154 181
133 154 181
134 154 181
133 154 181
134 155 181
133 154 180
134 154 181
134 154 181
133 154 181
134 154 181
134 154 181
135 155 181
134 154 181
134 154 181
134 154 181
133 154 181
135 155 181
134 154 181
133 154 181
134 154 181
134 154 181
134 154 181
134 154 181
134 154 181
134 154 181
133 154 181
133 154 180
133 154 181
133 154 181
134 154 181
135 154 180
133 154 181
134 154 181
134 154 181
134 154 180
133 154 181
133 154 180
134 154 181
134 154 181
134 154 181
134 154 181
134 154 181
134 154 181
133 154 181
133 153 180
133 154 181
134 154 181
133 154 181
134 154 181
134 154 181
133 154 181
133 154 181
134 154 181
133 154 181
133 154 181
134 154 181
134 154 181
134 154 181
134 154 181
134 155 181
133 154 180
134 154 181
134 154 181
135 155 181
134 154 181
134 154 181
134 154 181
134 154 181
133 154 180
134 154 181
134 154 181
133 154 181
133 154 181
133 154 181
134 154 181
133 154 181
134 154 181
134 154 181
133 154 181
133 154 181
133 154 181
133 153 180
133 154 181
133 154 181
134 154 181
133 154 180
134 154 181
134 154 181
134 154 181
134 154 181
133 154 181
133 154 181
134 154 180
134 154 181
133 154 181
133 154 181
133 154 181
134 154 181
134 154 181
134 154 181
134 154 181
134 154 181
134 154 181
134 154 181
134 154 181
134 154 181
134 154 181
134 154 181
133 153 180
134 154 181
134 154 181
134 154 181
135 155 181
134 154 181
132 153 181
134 154 181
134 154 181
134 154 181
133 154 181
134 154 181
133 154 181
134 154 180
133 154 181
133 154 181
134 154 181
134 155 181
133 153 180
135 154 180
133 154 181
134 154 181
134 155 181
135 155 181
133 154 181
134 154 181
134 154 181
133 154 181
132 153 180
133 154 181
134 154 181
134 154 181
133 154 181
134 154 181
134 154 181
133 154 181
134 154 181
134 154 181
133 154 181
133 154 181
134 154 181
133 154 181
133 154 181
134 154 180
134 154 181
134 154 181
133 154 181
133 154 181
134 154 181
133 154 181
134 154 181
134 154 181
133 154 181
133 154 181
134 154 181
133 154 181
134 155 181
134 154 181
134 154 181
134 154 181
133 154 181
133 154 180
134 154 181
133 154 181
134 154 181
134 154 181
134 154 181
133 154 181
134 154 181
133 154 181
134 155 181
133 154 181
133 154 181
134 154 181
134 154 181
133 154 181
134 154 181
134 154 181
133 154 181
133 154 181
134 154 181
134 154 181
134 154 181
134 154 181
133 154 181
133 154 181
133 154 180
133 154 181
134 154 181
133 154 181
134 154 181
134 154 181
134 154 181
133 154 181
134 154 181
133 153 180
134 154 181
133 154 181
134 154 181
134 154 181
133 154 181
134 154 181
134 154 181
135 155 181
134 154 181
133 154 181
133 154 181
134 154 181
133 154 181
134 154 181
133 154 181
133 154 181
135 155 181
133 154 180
134 154 181
134 154 181
135 155 181
135 155 181
134 154 181
133 153 180
134 154 181
134 154 181
133 154 181
134 154 181
134 155 181
134 154 181
134 154 181
134 154 181
133 154 181
134 154 181
133 153 180
133 154 181
135 155 181
134 154 181
134 154 181
134 154 181
134 154 181
134 154 181
134 154 181
133 154 181
133 154 181
133 154 181
134 154 181
134 154 181
133 154 181
133 154 181
134 154 181
133 154 181
134 154 181
134 154 181
134 154 181
133 154 180
133 154 181
134 154 181
133 154 181
134 154 181
134 154 181
134 154 181
134 154 181
134 154 181
134 154 181
134 154 181
134 154 181
134 154 181
134 154 181
133 154 180
134 154 181
133 154 180
134 154 181
134 155 181
134 154 181
134 154 181
134 154 181
133 154 181
133 154 181
134 154 181
136 155 181
133 154 181
133 154 181
133 153 180
133 154 181
133 154 180
134 154 181
134 154 180
133 154 181
134 154 181
134 154 181
133 154 180
134 154 181
135 155 181
133 154 180
133 154 181
134 154 181
133 154 181
133 154 181
134 154 181
133 154 181
134 154 181
134 154 181
134 154 181
133 154 181
133 154 181
134 154 180
133 154 181
134 154 181
134 154 181
134 154 181
133 154 180
135 155 181
134 154 181
133 154 181
133 154 181
134 154 181
134 154 180
133 154 181
134 154 181
134 154 180
133 154 181
135 155 181
133 154 181
134 154 181
134 154 181
133 154 181
133 154 181
134 154 181
134 154 181
133 154 181
133 154 181
133 154 180
134 154 181
134 154 181
133 154 181
134 154 181
134 154 181
133 154 181
134 154 180
133 154 181
133 154 181
133 154 181
133 154 181
134 154 181
134 154 181
133 153 180
133 154 180
133 154 181
133 154 181
134 154 181
134 154 181
135 155 180
134 154 181
134 154 181
133 154 181
134 154 181
133 154 181
134 154 181
133 154 181
134 154 180
134 154 181
134 154 181
134 154 181
134 154 181
134 154 181
134 154 181
134 154 181
133 154 181
134 154 181
133 154 180
133 154 181
134 154 181
134 154 180
133 153 180
135 155 181
133 154 181
134 154 181
133 154 181
133 153 180
134 154 181
133 154 181
134 154 181
133 154 181
134 154 181
134 154 181
134 154 181
133 154 181
133 154 181
134 154 181
133 154 180
134 154 181
133 154 181
134 154 181
134 154 181
134 154 180
134 154 181
134 154 181
133 154 181
134 155 181
133 154 181
134 154 181
134 154 181
134 154 181
134 154 181
133 154 180
134 154 181
134 154 181
134 154 181
134 154 181
134 154 181
134 154 181
134 154 181
134 154 180
133 153 180
134 154 181
134 154 181
134 154 181
133 154 181
133 154 181
134 154 181
134 154 181
133 154 181
133 153 180
134 154 181
134 154 180
133 154 181
134 154 181
134 154 181
133 154 181
134 154 181
133 154 181
134 154 181
134 154 181
134 154 181
133 154 181
133 154 181
133 154 181
133 154 181
135 155 181
133 154 181
132 153 181
134 154 180
133 154 180
134 154 181
134 154 181
133 154 181
134 154 181
134 154 181
133 154 181
133 154 181
134 154 181
134 154 181
134 154 181
133 154 181
133 153 180
134 154 181
133 154 181
134 154 181
134 154 181
133 154 181
134 154 181
135 155 181
134 154 181
133 154 181
135 155 181
134 154 181
135 155 181
134 154 181
135 155 181
134 154 181
134 154 181
134 154 181
134 154 181
134 154 181
134 154 181
134 154 181
134 154 181
134 154 181
134 154 181
134 154 181
134 154 181
134 154 181
134 154 180
133 154 181
133 154 181
133 154 181
133 154 181
134 154 181
133 154 180
134 154 181
133 154 181
133 154 181
133 154 181
134 154 181
133 154 180
135 155 181
133 153 180
133 154 181
134 154 181
133 154 181
133 154 181
134 154 181
133 154 181
134 154 181
134 154 181
135 155 181
134 154 181
134 154 181
134 154 181
133 154 181
134 154 181
134 154 181
133 154 181
134 154 180
134 154 181
135 155 181
134 154 181
133 154 181
134 154 181
133 154 181
134 154 181
134 154 181
133 154 181
134 154 181
134 154 181
134 154 181
134 155 181
135 155 181
133 154 181
133 154 181
133 154 181
133 154 180
134 154 181
132 153 181
134 154 181
134 154 181
133 154 181
133 154 181
134 154 181
133 154 181
133 154 181
133 154 181
133 154 181
133 154 180
134 154 181
133 154 181
134 155 181
133 154 181
135 155 181
133 154 181
133 154 181
134 154 181
134 154 181
134 154 181
135 155 181
135 155 181
134 154 181
134 154 181
134 154 181
134 154 181
134 154 181
135 155 181
135 155 181
133 154 181
133 154 180
134 154 181
133 153 180
134 154 181
134 154 181
133 154 181
134 154 181
134 154 181
132 154 181
134 154 181
134 154 181
134 154 181
133 154 181
133 154 181
135 155 181
134 154 181
134 154 181
134 154 181
135 155 181
134 154 181
134 154 181
133 154 181
133 154 181
134 154 181
134 154 181
134 154 181
134 154 181
134 155 181
133 154 180
133 154 181
134 154 181
134 154 181
134 154 181
133 154 181
133 154 181
134 154 181
133 154 181
133 154 181
133 153 180
133 154 181
134 154 181
134 154 181
134 154 181
133 154 181
133 154 181
134 154 181
133 154 181
133 154 181
133 154 181
134 154 181
134 154 181
134 154 181
134 154 181
133 154 181
134 154 181
134 155 181
134 154 180
134 154 181
134 154 181
134 154 181
134 154 181
134 154 181
134 154 181
134 154 181
134 154 181
133 154 181
133 154 180
133 154 181
134 154 181
134 154 181
134 154 181
133 154 181
134 154 181
134 154 181
134 154 181
134 154 181
134 154 181
133 154 181
134 154 181
134 154 181
133 154 181
133 154 181
133 154 181
134 154 181
133 154 181
133 154 181
134 154 181
133 154 181
133 154 181
133 154 181
134 154 181
134 154 181
134 154 181
133 154 181
133 154 181
133 154 181
133 154 181
133 154 181
134 154 181
134 154 181
134 154 180
134 154 181
135 155 181
135 155 181
134 154 181
134 154 181
135 155 181
134 154 181
134 154 181
134 154 181
133 154 181
133 154 180
134 154 181
133 154 181
133 154 181
134 154 181
134 154 181
134 154 181
134 154 181
133 154 181
134 154 181
133 154 180
133 154 181
134 154 181
133 154 181
133 154 181
133 154 181
133 154 181
132 153 180
134 154 181
135 155 181
132 153 180
134 154 181
133 154 181
135 155 181
133 154 181
133 154 180
134 154 181
133 154 181
134 154 181
133 154 181
134 154 181
134 154 181
135 155 181
134 154 181
134 155 181
134 154 181
133 154 181
133 154 181
133 154 181
134 154 181
133 154 181
133 154 181
134 154 181
134 155 181
134 155 181
134 154 181
134 154 181
134 154 181
133 154 181
135 155 181
134 154 181
135 155 181
135 155 181
134 154 181
135 155 181
134 154 181
133 154 181
134 154 181
134 154 181
134 154 181
134 154 181
133 153 180
134 154 181
133 154 181
134 154 181
133 154 181
133 154 181
133 153 180
133 153 180
133 154 181
134 154 180
133 154 181
134 154 181
134 154 181
134 154 181
134 154 181
134 154 181
133 154 181
133 154 181
133 154 180
133 154 180
134 154 181
133 154 181
134 154 180
133 154 180
133 154 181
134 154 181
135 155 181
134 154 181
134 154 181
133 154 181
133 154 181
134 154 181
133 154 181
134 154 181
134 154 181
134 154 181
133 154 180
134 154 181
135 155 181
134 155 181
134 155 181
134 154 181
133 154 181
134 154 180
134 154 181
134 154 181
134 154 181
133 154 180
134 154 181
133 154 181
133 154 181
134 154 181
134 154 181
134 154 181
133 154 181
133 154 180
134 154 181
133 154 181
133 154 181
134 154 181
134 154 181
134 154 181
134 154 180
134 154 181
133 154 181
133 154 181
133 154 181
134 154 181
134 154 181
134 154 181
133 154 181
134 154 181
134 154 181
133 154 181
133 154 181
134 154 181
133 154 181
134 154 180
134 154 180
133 154 181
133 154 181
134 154 181
133 154 180
134 154 181
134 154 181
134 154 181
134 154 180
134 154 181
133 154 181
133 154 180
134 154 181
134 154 181
134 154 181
134 154 181
134 154 181
133 154 181
134 154 181
134 154 181
133 154 181
133 154 181
134 154 181
134 154 181
133 154 181
133 154 181
134 154 181
134 154 181
133 154 181
134 154 181
133 154 181
134 154 181
133 154 181
134 154 181
134 154 181
134 154 181
133 154 181
134 154 181
133 154 181
134 154 181
133 154 181
135 155 181
134 154 181
133 154 181
134 154 180
134 154 181
133 154 181
134 154 181
133 154 181
134 154 181
133 154 181
133 154 181
133 154 181
134 154 181
134 154 180
133 154 181
134 154 181
133 154 181
134 154 181
133 154 181
134 154 181
133 154 181
133 154 181
135 155 181
134 154 181
132 154 181
134 154 181
135 155 181
134 154 181
133 154 181
134 154 181
134 154 181
134 154 181
134 154 181
134 154 181
134 154 181
133 154 181
133 154 181
134 154 181
134 154 181
134 155 181
133 154 181
134 154 181
134 154 181
134 154 181
134 154 181
134 154 181
134 154 181
135 155 181
134 155 181
134 154 180
134 154 180
135 155 181
134 154 181
134 154 181
133 154 181
133 154 181
134 154 181
133 154 181
134 154 181
133 154 181
133 154 181
134 154 181
133 154 181
133 154 181
134 154 181
135 155 181
133 154 181
134 154 181
134 154 181
134 154 181
133 154 181
134 154 181
133 154 181
134 154 181
134 154 181
133 154 180
133 154 181
133 154 181
134 154 181
133 154 181
134 154 181
133 153 180
134 154 181
132 153 181
134 154 181
134 154 181
135 155 181
134 154 181
134 154 181
135 155 181
134 154 181
134 154 181
134 154 181
134 154 181
134 154 181
134 154 181
133 154 181
133 154 181
134 154 181
133 154 181
134 154 180
134 154 181
134 154 181
134 154 181
133 154 180
133 153 180
133 154 181
133 154 181
133 154 181
133 154 181
134 154 181
134 154 181
134 154 181
134 154 181
134 154 181
133 154 181
133 154 181
135 155 181
133 154 181
134 154 181
133 154 181
134 154 181
133 154 181
133 154 181
133 154 181
134 155 181
134 154 181
134 154 181
134 154 181
133 154 181
133 154 181
134 154 181
134 154 181
134 154 181
134 154 181
134 154 181
134 154 181
133 154 181
135 155 181
133 154 181
134 155 181
134 154 181
134 154 181
134 154 181
134 154 181
134 154 181
135 155 181
134 154 181
134 154 181
134 154 181
133 154 181
134 154 181
134 154 181
134 154 181
134 154 180
133 154 181
134 154 181
133 154 181
134 154 181
134 154 181
133 154 180
134 154 181
134 154 181
135 155 181
132 153 181
133 154 181
133 154 181
134 154 181
133 154 181
135 155 181
133 154 181
134 154 181
133 154 181
135 155 181
134 154 181
135 155 181
133 154 181
134 154 181
134 154 181
133 154 181
134 154 181
134 154 181
134 154 181
134 154 181
134 154 181
134 154 181
134 154 181
133 154 181
134 154 181
134 154 181
133 154 181
134 154 181
133 154 181
135 155 181
134 154 181
134 154 181
133 154 181
134 154 181
135 155 181
133 154 181
134 154 181
133 154 181
134 154 181
133 154 181
133 154 181
134 154 181
133 154 181
134 154 181
135 155 181
134 154 180
133 154 181
134 154 181
133 154 181
133 154 181
133 154 181
133 154 181
134 154 181
135 155 181
134 154 181
134 154 181
135 155 181
134 154 181
133 154 181
134 154 181
135 155 181
133 154 181
135 154 180
134 154 181
134 154 181
134 154 181
134 154 181
133 154 181
133 154 181
133 153 180
134 154 181
134 154 180
133 154 181
133 154 181
133 154 181
134 154 181
133 154 180
133 154 181
134 154 181
134 154 181
133 154 181
133 154 180
134 154 181
133 154 180
134 154 181
134 154 181
134 154 181
133 153 180
134 154 181
134 154 181
133 154 180
133 153 180
133 154 181
134 154 180
134 154 180
133 154 181
134 154 181
134 154 181
133 154 180
133 154 181
134 154 181
134 154 181
134 154 181
134 154 181
133 154 181
134 154 180
133 153 180
134 154 181
134 154 181
135 155 181
133 154 181
134 154 181
133 154 181
134 154 181
134 154 180
133 154 181
134 154 181
134 154 181
132 153 180
134 154 181
133 154 181
134 154 181
134 154 181
134 154 181
134 154 181
133 154 181
135 155 181
133 154 181
135 155 181
134 154 181
134 155 181
134 154 181
134 154 181
133 154 181
134 154 180
133 154 181
133 154 181
133 154 181
134 154 181
134 154 180
133 154 181
133 154 181
134 154 180
133 154 181
132 153 181
133 154 181
135 154 180
134 154 181
134 154 181
134 154 180
134 154 181
134 154 181
134 154 181
134 154 180
134 154 181
134 154 181
133 154 181
133 154 181
135 155 181
133 154 181
133 154 181
134 154 181
134 154 181
134 154 181
134 154 181
133 154 181
134 154 180
134 154 181
134 154 180
133 154 181
133 154 181
133 154 181
134 154 181
134 155 181
133 154 181
134 154 181
134 154 181
133 153 180
134 154 181
133 154 181
133 154 181
134 154 181
134 154 181
134 154 180
135 155 181
133 154 180
135 155 181
134 154 181
134 154 181
133 154 181
133 154 181
134 154 181
133 154 181
135 155 181
133 154 181
133 154 180
134 154 181
133 154 181
134 154 181
134 154 181
134 154 181
133 154 181
134 154 180
134 154 181
134 154 181
134 154 181
134 154 180
133 154 181
134 154 181
133 154 181
133 154 181
134 154 181
134 154 181
134 154 181
134 154 181
134 154 181
134 154 181
134 154 181
134 154 181
134 154 181
134 154 181
133 154 180
134 154 181
133 154 181
133 154 181
134 154 181
133 154 181
134 154 181
135 155 181
134 154 181
135 155 181
134 154 181
134 154 181
135 155 181
133 153 180
134 154 181
134 154 181
135 155 181
134 154 181
133 154 181
134 154 181
133 154 181
133 154 181
134 154 181
134 154 181
133 154 181
134 154 181
134 154 181
133 154 181
133 154 181
134 154 181
133 154 181
134 154 181
134 154 181
134 154 181
134 154 181
133 154 181
133 154 181
134 154 181
134 154 180
134 154 181
134 154 181
134 154 181
134 154 181
133 154 181
133 154 181
135 155 181
134 154 181
134 154 181
133 154 181
133 154 181
134 154 181
134 154 181
133 154 181
134 154 181
133 154 181
134 154 181
133 154 181
133 154 181
134 154 181
134 154 181
134 154 181
134 154 181
134 154 181
133 154 181
134 154 181
133 154 181
134 154 181
134 154 181
134 154 181
134 154 181
133 154 181
133 154 181
134 155 181
134 154 181
134 154 181
133 154 181
133 154 181
133 154 181
134 154 181
134 154 181
133 154 181
133 154 181
134 154 181
133 154 181
134 154 181
135 155 181
134 154 181
133 154 181
133 154 181
133 154 181
134 154 181
134 154 181
134 154 181
134 154 181
133 154 181
134 154 181
134 154 181
133 154 181
134 154 181
133 154 181
133 154 181
133 154 181
134 154 181
134 154 181
134 154 181
134 154 181
134 154 181
134 154 181
134 154 181
134 155 181
134 154 181
133 154 181
134 154 181
133 154 181
134 154 181
133 154 181
134 154 181
133 154 181
135 155 181
134 154 181
133 154 181
134 154 181
133 154 180
134 154 181
134 154 181
135 155 181
134 154 181
134 154 181
134 154 181
135 155 181
133 154 181
134 154 181
134 154 181
133 154 181
134 154 181
133 154 181
134 154 181
134 154 181
134 154 181
133 154 181
133 154 181
133 154 181
133 154 181
134 154 181
134 154 180
134 154 181
134 154 181
132 153 181
133 154 181
134 154 181
134 154 181
134 154 181
134 155 181
132 153 181
134 154 181
134 154 181
134 154 180
134 154 181
134 154 181
133 154 181
134 154 181
135 155 181
133 154 181
134 154 181
134 154 181
134 155 181
134 154 181
133 154 181
134 154 181
134 154 181
134 154 181
134 154 181
134 154 181
133 154 180
134 154 181
133 154 181
133 154 181
133 154 181
134 154 181
134 154 181
133 154 181
133 154 181
134 154 181
134 154 181
134 154 181
134 154 181
134 154 181
133 154 181
133 154 181
134 154 181
134 154 181
133 154 181
134 154 181
133 154 181
134 154 181
132 153 181
133 154 181
134 154 181
134 154 181
134 154 181
134 154 181
133 154 181
133 154 181
134 154 181
134 154 181
134 154 181
134 154 181
134 154 181
134 154 181
134 154 181
134 154 181
134 154 181
134 154 181
134 154 181
134 154 181
134 154 181
134 154 181
133 154 181
134 154 181
134 154 181
133 154 181
133 154 181
133 153 180
135 155 181
134 154 181
134 154 181
133 154 181
133 154 181
133 154 181
134 154 181
134 154 181
134 154 181
134 154 181
135 155 181
133 154 181
134 154 181
134 154 181
134 154 181
134 154 181
135 155 181
134 154 181
133 154 181
135 155 181
133 154 181
134 154 181
134 154 181
134 154 181
133 154 181
133 154 181
135 155 181
134 154 181
134 154 181
133 153 180
134 154 181
133 154 181
134 154 181
134 154 181
133 154 180
133 154 180
134 154 181
134 154 181
133 154 181
133 154 181
134 154 181
134 154 181
134 154 181
133 154 180
133 154 181
134 154 181
133 154 181
134 154 181
134 154 181
134 154 181
135 155 181
134 154 181
133 154 181
134 154 181
133 154 181
134 155 181
134 154 181
134 154 181
133 154 180
135 155 181
134 154 181
134 154 181
134 154 181
133 154 181
133 154 180
135 155 181
134 154 180
133 153 180
134 155 181
134 154 180
134 154 181
134 154 181
133 154 181
134 154 181
134 154 181
134 154 181
133 154 181
133 154 181
134 154 181
134 154 181
133 154 181
134 154 181
134 154 181
134 154 181
133 154 180
133 154 181
135 155 181
133 154 181
133 154 181
134 154 181
133 153 180
134 154 181
134 154 181
134 154 181
135 155 181
134 154 181
134 154 180
135 155 181
134 154 181
133 154 181
133 154 181
134 154 181
134 154 181
134 154 181
133 154 181
135 155 181
133 154 181
134 154 181
134 154 181
133 154 181
133 154 180
134 154 181
134 154 181
133 154 181
134 154 181
134 154 181
134 154 180
134 154 181
134 154 181
134 154 181
135 155 181
134 154 181
134 155 181
134 154 181
134 154 181
133 154 181
134 154 180
135 155 181
134 154 181
134 154 181
134 154 181
134 154 181
134 154 181
134 154 181
134 154 181
133 154 181
134 154 181
134 154 181
134 154 181
132 153 180
135 155 181
134 154 181
134 154 181
133 154 181
133 154 180
134 154 180
133 154 181
134 154 181
133 153 180
134 154 181
133 154 181
133 153 180
134 154 180
133 154 181
134 154 181
133 154 181
134 154 181
134 154 181
134 154 181
133 154 181
134 155 181
133 154 181
133 154 181
134 154 181
133 154 180
133 153 180
134 154 181
133 154 181
134 154 181
134 154 181
134 154 181
134 154 181
133 154 181
134 154 181
134 154 181
134 154 181
133 154 181
134 154 181
133 154 180
134 154 181
133 154 181
133 154 181
134 154 181
134 154 181
134 154 181
133 154 181
135 155 181
134 154 181
134 154 181
134 154 181
132 153 181
133 153 180
134 154 181
134 154 181
134 154 181
133 154 181
134 154 181
133 154 180
133 154 181
133 154 181
134 154 180
134 154 181
134 154 181
134 154 181
134 154 181
134 154 181
134 154 181
134 154 181
135 155 181
133 154 181
134 154 181
133 154 181
134 154 181
133 154 180
134 154 181
134 154 181
134 154 181
134 154 181
134 154 181
134 154 181
135 155 181
134 154 181
134 154 181
134 154 180
134 154 181
134 154 181
133 154 181
134 154 181
133 154 181
134 154 180
134 154 181
134 154 181
133 154 181
134 154 181
134 154 181
133 154 181
134 154 181
134 154 181
134 154 181
133 154 181
134 154 181
134 154 181
134 154 181
134 154 181
133 154 181
134 154 181
134 154 181
133 154 181
134 154 181
134 154 181
134 154 181
133 153 180
134 154 181
133 154 181
134 154 180
134 154 181
133 153 180
134 154 181
134 154 181
133 154 180
134 155 181
134 154 181
133 154 181
134 154 181
135 155 181
135 155 181
133 154 181
133 154 181
133 153 180
134 154 181
134 155 181
133 154 181
134 154 181
133 154 181
133 154 181
134 154 181
134 154 181
134 154 181
133 154 181
133 154 181
134 154 181
134 154 181
134 154 181
133 154 181
133 154 181
134 154 181
134 154 181
134 154 181
133 154 181
134 154 181
134 154 181
134 154 181
134 154 180
134 154 181
134 154 181
134 154 181
133 154 181
134 154 181
134 154 181
133 154 181
134 154 181
133 154 180
134 154 181
134 154 181
133 154 181
133 154 181
134 154 181
134 154 181
133 154 181
135 155 181
134 154 181
134 154 181
133 154 180
134 154 181
134 154 181
134 154 181
133 154 181
134 154 181
133 154 181
133 154 181
133 154 181
134 154 181
134 154 181
134 154 181
134 154 181
134 154 181
134 154 181
134 154 181
133 153 180
134 154 181
133 154 181
134 154 181
133 154 180
133 154 181
134 154 181
134 154 181
133 154 181
134 154 181
134 154 181
134 154 181
135 155 181
133 154 180
134 154 181
133 154 181
133 154 181
133 154 181
134 154 181
135 155 181
134 155 181
133 154 181
134 154 181
135 155 181
133 154 181
133 154 181
133 154 181
134 154 181
133 154 181
134 154 181
134 154 181
134 154 181
134 154 181
134 154 181
134 154 181
134 154 181
134 154 181
132 153 181
133 154 181
134 154 181
134 154 181
134 155 181
133 154 181
134 154 181
134 154 181
134 154 181
134 154 181
135 155 181
133 154 181
133 154 181
133 154 181
133 154 181
134 154 181
134 154 180
134 154 181
133 154 181
133 154 181
134 154 180
134 154 181
134 154 181
134 154 181
134 154 181
134 154 181
134 154 181
133 154 181
133 154 181
134 154 181
134 154 181
134 154 181
134 154 181
134 154 181
134 154 181
134 154 181
134 154 181
133 154 181
133 154 181
134 154 181
133 154 181
134 154 181
133 154 181
134 154 181
134 154 181
134 154 181
133 154 181
134 154 181
133 153 180
134 154 181
134 155 181
133 154 180
133 154 181
134 154 181
133 154 181
134 154 181
134 154 181
134 154 181
134 154 181
134 154 181
134 154 181
133 154 181
134 154 181
134 154 180
133 154 181
133 153 180
133 154 180
134 154 181
134 154 181
134 154 181
134 154 181
134 154 181
134 154 181
133 154 181
134 154 181
133 154 181
133 154 181
133 154 180
134 154 181
133 153 180
134 154 181
134 154 180
133 154 181
133 154 181
134 154 181
133 154 181
133 154 181
134 154 181
134 155 181
132 153 181
134 154 181
133 154 181
134 154 181
133 154 180
134 154 181
133 153 180
134 154 181
133 154 181
134 154 181
133 154 181
133 154 181
134 154 181
133 154 181
134 154 181
134 154 180
135 155 181
134 154 181
134 154 181
134 154 181
134 154 181
133 154 181
134 154 181
133 154 180
134 154 181
134 154 181
134 154 181
134 154 181
134 154 181
133 154 181
133 154 180
134 154 181
133 154 180
135 155 181
134 154 181
134 154 181
134 154 181
134 154 180
133 154 180
134 154 181
133 154 181
132 154 181
134 154 181
133 154 181
135 155 181
135 155 181
134 154 181
134 154 181
133 154 181
134 154 181
134 154 181
133 154 181
134 154 181
134 154 181
133 154 181
134 154 181
134 154 181
134 154 181
134 154 181
134 154 181
134 154 181
134 154 181
133 154 181
133 154 181
135 155 181
134 154 181
134 154 181
133 154 181
134 154 180
133 154 181
134 154 181
133 154 181
134 154 181
134 154 181
134 154 181
134 154 181
134 154 181
134 154 181
134 154 181
134 154 181
133 154 180
133 154 181
134 155 181
134 154 181
133 154 180
134 154 181
133 154 181
134 154 181
134 154 181
133 154 181
134 154 180
132 153 180
133 154 181
134 154 181
134 154 181
133 154 181
133 154 180
134 154 181
134 154 181
134 154 181
134 154 181
135 155 181
135 155 181
134 154 181
132 154 181
134 154 181
133 154 181
134 154 181
133 154 181
133 154 181
134 154 181
134 155 181
133 154 181
134 154 181
134 154 181
134 154 181
134 154 181
134 154 181
134 154 181
133 154 180
134 154 181
135 155 181
135 155 181
133 154 181
133 154 181
133 154 181
133 154 181
134 154 181
134 154 180
133 154 181
134 154 181
133 153 180
133 154 181
133 154 181
134 154 181
134 154 181
134 154 180
134 154 181
134 154 181
134 154 181
134 154 181
134 154 181
134 154 181
134 154 180
133 154 181
134 154 181
134 154 180
135 155 181
134 154 181
134 154 181
133 154 181
133 154 181
134 154 181
134 154 181
133 154 181
135 155 181
134 154 181
134 154 181
134 154 181
134 154 181
134 154 181
133 154 181
133 154 181
133 154 181
133 154 181
133 154 181
134 154 181
134 154 181
133 154 181
134 154 181
133 154 181
132 153 181
134 155 181
133 154 181
133 154 181
133 154 181
134 154 181
134 154 181
133 154 181
134 154 181
133 154 181
133 154 181
133 154 181
134 154 181
134 154 181
134 154 181
133 154 181
134 154 181
133 154 181
134 154 181
133 154 181
134 154 181
133 154 181
133 154 181
132 153 181
133 154 181
134 154 181
133 153 180
134 154 181
133 154 181
134 154 181
133 154 181
133 154 181
134 154 181
134 154 181
135 155 181
134 154 181
134 154 180
134 154 181
133 154 181
134 154 181
133 154 181
135 155 181
134 154 181
134 154 181
134 154 181
134 154 181
133 154 181
134 154 181
133 154 181
134 154 181
133 154 181
133 154 181
134 154 181
134 154 181
134 154 181
134 154 181
134 154 181
135 155 181
133 154 180
134 154 181
135 155 181
135 155 181
134 154 181
134 154 181
134 154 181
133 154 181
134 154 181
135 155 181
133 154 181
134 154 181
134 154 181
134 155 181
134 154 181
133 154 181
134 154 181
134 154 181
133 154 181
135 155 181
134 154 181
134 154 181
133 153 180
134 154 181
134 154 181
134 154 181
133 154 180
134 154 181
134 154 181
133 154 181
133 154 181
133 154 181
134 154 181
134 154 181
133 154 181
134 154 181
134 154 181
134 154 181
134 154 181
134 154 181
134 154 181
134 154 181
134 154 181
133 154 181
134 154 181
133 154 181
133 153 180
133 154 181
132 153 181
134 154 180
133 154 181
133 154 181
134 154 181
134 154 181
133 154 181
134 154 181
134 154 181
133 153 180
135 155 181
134 154 181
134 154 181
134 154 181
134 154 181
134 154 181
135 155 181
133 154 181
134 154 181
134 154 181
134 154 181
135 155 181
134 154 181
133 154 181
134 154 181
134 154 181
134 154 181
134 154 181
134 154 181
134 154 181
134 154 181
134 154 181
134 154 181
134 154 181
134 154 181
135 155 181
133 153 180
134 154 181
134 154 181
134 154 181
134 154 181
134 154 181
134 154 181
134 154 181
134 154 181
134 154 181
133 154 181
134 154 181
134 154 181
134 154 181
134 154 181
133 154 181
134 154 181
133 154 181
134 154 180
134 154 181
134 154 181
134 154 181
134 155 181
133 154 181
135 155 181
133 154 181
135 155 181
134 154 181
134 154 181
134 154 181
133 154 181
133 154 181
134 154 181
134 154 181
134 154 181
134 154 181
134 154 181
133 154 180
134 154 181
134 154 181
133 154 181
134 154 181
134 154 181
133 154 181
134 154 181
134 154 181
133 154 181
134 155 181
133 154 181
134 154 181
134 154 181
133 154 180
134 154 181
133 154 181
133 154 181
133 154 181
134 154 181
134 154 181
134 154 181
134 154 181
134 154 181
134 154 181
133 154 181
134 154 181
134 154 181
134 154 181
134 154 181
135 155 181
135 155 181
134 154 181
134 154 180
133 153 180
133 154 181
134 154 181
134 154 181
133 154 181
133 153 180
134 154 181
133 154 181
133 154 181
133 154 181
133 154 180
133 154 181
134 154 181
133 153 180
134 154 181
134 154 181
133 154 181
134 154 181
133 154 181
133 154 181
134 154 181
133 154 180
133 154 181
133 154 181
133 154 181
134 155 181
134 154 181
134 154 181
133 154 181
133 154 180
134 154 180
134 154 181
134 154 181
133 154 181
134 154 181
134 154 181
133 154 181
133 154 181
133 153 180
133 153 180
133 154 181
133 154 181
134 154 181
134 154 181
134 154 181
133 154 181
133 154 181
133 154 181
134 154 181
135 155 181
134 154 181
134 154 181
133 154 180
133 154 181
134 154 181
134 154 181
134 154 181
134 154 181
134 154 181
134 154 181
134 154 181
135 155 181
134 154 181
134 154 181
133 154 181
133 154 181
134 154 181
134 155 181
135 155 181
133 153 180
135 155 180
134 154 181
135 155 181
133 154 181
133 154 181
134 154 181
134 154 181
134 154 181
134 154 181
134 154 181
135 155 181
134 154 181
134 154 181
134 154 181
134 154 181
134 154 181
134 154 181
133 154 180
134 154 181
135 155 181
132 153 180
133 154 181
134 154 181
133 154 181
134 154 181
134 154 181
134 154 180
134 154 181
134 154 180
133 154 180
134 154 181
134 154 181
134 154 181
134 154 180
134 154 181
133 154 181
133 154 181
134 154 181
133 154 181
133 154 181
133 154 181
134 154 181
134 154 181
133 154 181
134 154 181
134 154 181
134 154 181
134 154 181
134 154 181
134 154 181
134 154 181
134 154 181
133 154 180
133 154 181
133 154 180
134 154 181
133 154 181
134 154 181
134 154 181
133 154 181
134 154 181
134 154 181
134 154 181
133 154 181
133 154 180
134 154 181
134 154 181
134 154 181
135 155 181
134 154 181
134 154 181
134 154 181
133 154 181
134 154 181
133 153 180
133 154 181
133 154 181
135 155 181
134 154 181
135 155 181
133 154 181
133 154 181
134 154 181
133 154 181
134 154 181
135 155 181
134 154 181
133 154 181
134 154 181
133 154 181
135 155 181
133 154 181
134 154 181
133 154 181
133 154 181
134 154 181
134 154 181
133 154 181
134 154 181
134 154 181
134 154 181
133 154 181
134 154 181
134 154 181
134 154 181
133 154 181
135 155 181
133 154 181
134 154 181
133 154 181
134 154 181
134 154 181
133 154 181
134 154 181
134 154 181
134 154 181
133 154 181
134 154 181
134 154 181
133 154 181
134 154 181
134 154 181
134 154 181
134 154 181
134 154 181
133 154 181
134 154 181
134 154 181
134 154 181
134 154 181
133 154 180
134 154 181
134 154 181
134 154 181
133 154 180
134 154 181
133 154 181
132 153 180
133 154 181
133 154 181
134 154 181
134 154 181
134 154 180
133 154 181
134 154 181
133 154 181
133 154 181
132 153 181
134 154 181
133 154 181
134 154 181
134 154 181
134 154 181
134 154 181
134 154 181
133 154 181
134 154 181
134 154 181
134 154 181
133 154 181
134 154 181
134 154 181
133 154 181
133 154 181
133 154 181
134 154 181
134 154 181
133 154 181
134 154 181
134 154 181
134 154 181
133 153 180
133 154 180
134 154 181
133 154 181
134 154 181
133 154 181
134 154 181
133 154 181
133 154 180
133 154 181
134 154 181
133 154 181
132 153 180
134 154 181
135 155 181
134 154 181
135 155 181
133 154 181
134 154 181
133 154 181
132 153 181
133 154 181
135 155 181
134 154 181
134 154 181
133 154 181
134 154 181
134 154 181
134 154 181
133 153 180
135 155 181
134 154 181
133 154 181
134 154 181
133 154 180
133 153 180
134 154 181
133 154 181
134 154 181
134 154 181
134 154 181
134 154 181
134 154 181
134 154 181
133 154 181
134 154 181
134 154 181
133 153 180
134 154 181
134 154 181
134 154 181
134 154 181
134 154 181
133 154 181
134 154 181
134 154 181
134 154 181
134 154 181
134 154 181
134 154 181
134 154 181
134 154 181
133 154 181
133 154 181
134 154 181
134 154 181
133 154 181
134 154 181
134 154 181
134 154 181
134 154 181
134 154 181
135 155 181
133 154 181
134 154 181
134 154 181
133 154 181
134 154 181
133 154 181
133 154 181
134 154 181
134 154 181
134 154 181
133 154 181
135 155 181
133 154 181
134 154 181
133 154 181
134 154 181
134 154 181
134 154 181
134 154 181
135 155 181
134 154 181
135 155 181
134 154 181
134 154 181
135 155 181
134 155 181
135 155 181
134 154 181
134 155 181
134 154 181
133 154 181
134 154 181
133 154 181
134 154 181
135 155 181
134 154 181
134 154 181
133 154 180
134 154 181
133 154 181
133 153 180
133 154 181
133 154 181
134 154 181
134 154 181
133 154 181
134 154 181
133 154 181
134 154 181
134 154 181
134 154 181
134 154 181
134 154 181
135 155 181
134 154 181
134 154 181
134 154 181
134 154 181
133 154 181
134 154 181
134 154 181
134 155 181
134 154 181
133 154 181
134 154 181
134 154 181
133 154 181
133 154 181
134 154 181
133 154 181
133 154 181
134 154 181
133 153 180
134 154 180
133 154 181
134 154 181
134 154 181
134 154 181
134 155 181
134 154 181
134 154 181
133 153 179
132 153 180
134 154 181
133 154 181
134 154 181
133 154 181
133 154 181
134 154 181
134 154 181
135 155 181
134 155 181
134 154 181
133 154 181
133 154 181
134 154 181
134 154 181
133 154 181
134 154 181
134 154 181
134 154 181
134 154 181
134 154 181
133 154 181
133 154 181
133 153 180
134 154 181
133 154 181
134 154 180
135 155 181
133 154 181
133 154 180
133 154 181
134 154 181
134 154 181
134 154 181
134 154 181
133 154 181
134 155 181
134 154 181
134 154 181
133 154 181
134 154 181
134 154 181
134 154 181
133 154 181
134 154 181
134 154 180
133 154 181
134 154 181
133 154 181
134 154 181
134 154 181
134 154 181
133 154 181
134 154 181
133 154 181
133 154 181
133 153 180
134 154 180
134 154 181
135 155 181
133 154 181
134 154 181
133 154 181
133 154 181
133 154 181
133 154 181
134 154 181
133 154 181
135 155 181
134 154 181
134 154 181
134 154 181
133 154 181
134 154 181
133 154 181
134 154 180
133 154 181
134 154 181
133 154 180
134 154 181
134 154 180
134 154 181
135 155 181
133 154 181
134 154 181
133 154 181
134 154 180
134 154 181
133 154 181
134 154 181
134 154 181
134 154 181
134 155 181
134 154 181
134 154 181
134 154 181
134 155 181
133 154 181
134 154 181
134 154 181
133 154 181
133 154 181
134 154 181
133 154 181
134 154 181
134 154 181
134 154 181
134 154 181
134 154 181
133 154 181
134 154 181
134 154 181
134 154 181
134 154 181
133 153 180
134 155 181
134 154 181
134 154 181
134 154 181
134 154 181
134 154 181
134 154 181
134 154 181
134 154 181
133 154 181
134 154 181
135 155 181
134 154 181
134 154 181
134 154 181
133 154 181
135 155 181
133 154 181
134 154 181
134 154 181
133 154 181
133 154 181
134 154 181
134 154 180
134 154 181
134 154 181
134 154 181
134 154 181
133 153 180
134 154 181
133 154 181
133 154 181
133 154 181
133 154 181
133 154 181
134 154 181
134 154 181
133 154 180
134 154 181
134 154 181
134 154 181
133 154 181
134 154 181
134 154 181
135 155 181
134 154 181
133 154 181
133 154 180
134 154 180
134 154 181
135 155 181
134 154 181
133 154 181
134 154 181
134 154 181
134 154 181
134 154 181
134 154 181
134 154 181
133 154 181
134 154 181
134 154 181
134 154 180
133 154 181
133 154 180
134 154 180
133 154 181
134 154 181
134 154 181
134 154 181
133 154 181
134 154 181
134 155 181
133 154 181
134 154 181
133 154 181
134 154 181
133 154 181
133 154 181
134 154 181
134 154 181
133 154 181
134 154 181
134 154 181
134 154 181
133 154 181
134 154 181
134 154 181
134 154 181
133 154 181
135 155 181
135 155 181
134 154 181
134 155 181
134 155 181
134 154 181
133 154 181
134 154 181
133 154 181
133 154 181
133 154 180
134 154 181
133 154 181
135 155 181
134 154 181
133 154 181
134 154 181
134 154 181
134 154 181
134 154 181
134 154 181
134 154 181
134 154 181
134 154 181
134 154 181
133 154 181
134 154 181
134 154 181
135 155 181
133 154 181
133 154 181
134 154 181
134 154 181
134 154 181
133 154 181
133 154 181
134 154 181
134 154 181
133 154 181
135 155 181
133 154 181
133 154 180
134 154 181
133 154 181
135 155 181
133 154 181
134 154 181
133 154 181
134 154 180
134 154 181
134 154 181
134 154 181
133 154 181
134 154 181
133 154 181
134 154 181
133 154 181
134 154 181
134 154 181
133 154 181
134 154 181
134 154 181
134 154 181
134 154 181
133 154 181
134 154 181
133 154 181
134 154 181
134 154 181
134 154 181
135 155 181
134 154 181
133 154 181
134 154 181
134 154 181
134 154 181
134 154 181
134 154 181
134 155 181
134 154 181
134 154 181
133 154 181
134 154 181
133 154 181
133 154 181
133 154 181
134 155 181
134 154 181
133 154 181
134 154 181
133 153 180
134 154 181
134 154 180
134 154 181
134 154 181
133 154 181
134 154 181
133 154 181
134 154 181
134 154 181
134 154 181
133 154 181
134 154 181
134 154 181
134 154 181
134 154 181
134 154 181
133 154 181
134 154 181
134 154 180
134 154 181
133 154 181
134 154 181
133 154 181
133 154 180
134 154 181
134 154 181
134 154 181
133 154 181
134 154 181
133 154 181
134 154 181
135 155 181
134 154 181
134 154 181
134 154 181
134 155 181
134 154 181
134 154 181
134 154 181
135 155 181
134 154 181
133 154 181
134 154 181
133 154 180
134 154 181
134 154 181
134 154 181
134 154 181
135 155 181
134 154 181
134 154 181
133 154 181
134 154 181
133 154 181
134 154 181
132 153 180
134 154 181
134 154 181
134 154 181
133 154 181
132 153 181
134 154 181
134 154 181
134 154 181
134 154 181
134 154 181
134 154 181
134 155 181
134 154 181
134 154 181
134 154 181
134 154 181
133 154 181
134 154 181
134 154 181
133 154 181
134 154 181
133 154 181
134 154 180
133 154 181
133 154 181
134 154 181
133 154 181
134 154 181
134 154 181
133 154 181
134 154 181
134 154 181
133 154 181
134 154 181
135 155 181
134 154 181
134 154 181
134 154 180
134 154 181
134 154 181
134 154 181
134 154 181
134 154 181
133 154 181
134 154 181
134 154 181
134 154 181
133 154 181
133 154 180
133 154 181
134 154 181
133 154 181
134 154 181
134 154 181
134 154 181
135 155 181
134 154 180
133 154 181
134 154 181
134 154 181
133 154 181
134 154 181
135 155 181
134 154 181
133 154 181
134 154 181
134 154 181
133 154 181
134 154 181
133 154 181
134 154 181
134 154 181
134 154 181
134 154 181
133 154 181
134 154 181
134 154 181
134 154 181
133 154 181
134 154 181
134 154 181
134 154 181
134 154 181
133 154 181
134 154 181
133 154 181
133 154 181
135 155 181
134 154 181
135 155 181
133 154 181
134 154 181
134 154 180
134 154 181
133 154 181
133 154 181
133 154 181
133 154 181
134 154 180
134 154 181
134 154 181
135 155 181
134 154 181
133 154 181
134 154 181
133 154 181
133 154 181
133 154 181
134 154 181
133 154 181
134 154 181
133 154 180
133 154 180
134 155 181
133 154 181
133 154 181
134 154 181
134 154 181
134 154 181
134 154 181
134 154 181
133 154 181
133 153 180
134 154 181
133 153 180
134 154 181
133 154 181
134 154 181
134 154 181
134 154 181
134 154 181
134 154 180
133 154 180
133 154 181
134 154 181
133 154 181
134 154 181
134 154 181
134 154 181
134 154 181
134 154 181
134 154 181
134 154 181
133 154 181
134 154 181
134 154 181
133 153 180
134 154 181
134 154 181
134 154 181
134 154 181
133 154 181
134 154 181
134 154 181
134 154 181
135 155 181
134 154 181
135 155 181
134 154 181
133 154 181
134 154 181
134 154 181
134 154 181
134 154 181
134 154 181
134 154 180
135 155 181
134 154 181
134 154 181
134 154 181
134 154 181
134 154 181
133 154 181
133 154 181
134 155 181
133 154 181
133 154 180
133 154 181
134 154 181
134 154 181
134 154 181
135 155 181
133 154 181
133 154 181
133 154 180
134 154 181
134 154 181
134 154 181
134 154 181
133 154 181
133 154 181
134 154 181
133 154 181
134 155 181
133 154 181
133 154 181
134 154 181
133 154 180
134 154 180
134 155 181
133 153 180
133 154 181
133 154 181
134 154 181
134 154 181
134 154 181
133 154 181
133 154 181
134 154 181
134 154 181
134 154 181
134 155 181
133 154 181
134 154 181
133 154 181
133 154 180
134 154 181
133 154 181
134 154 181
134 154 180
134 154 181
133 154 181
134 154 181
134 154 181
134 154 181
134 154 180
134 154 181
134 154 181
134 154 181
134 154 181
134 154 181
133 154 181
134 154 181
133 154 181
134 154 181
134 154 181
134 154 181
134 154 181
134 154 181
133 154 181
133 154 181
135 155 181
134 154 181
134 154 181
134 154 181
133 154 181
133 154 181
134 154 181
133 154 181
133 154 181
134 154 181
133 154 181
135 155 181
134 154 181
134 154 181
134 154 181
133 153 180
134 154 181
134 154 181
134 154 181
134 154 181
134 154 180
134 154 181
133 154 181
134 154 181
134 154 181
133 154 181
134 154 181
133 154 181
134 154 181
133 154 181
134 154 181
134 154 181
134 154 181
134 154 181
133 154 181
133 154 181
133 153 180
133 154 180
133 154 181
135 155 181
134 154 181
133 154 181
134 154 181
134 154 181
133 154 181
133 154 181
133 154 181
134 154 181
134 154 181
134 154 181
134 154 181
134 154 181
134 154 181
134 154 181
134 154 181
135 155 181
133 154 181
134 154 181
133 154 181
134 154 181
134 154 181
134 154 181
135 155 181
134 154 181
134 154 181
134 154 181
134 154 181
134 154 181
134 154 181
133 154 181
134 154 181
134 154 181
134 154 181
133 154 181
133 154 181
134 154 181
134 154 181
134 154 181
133 154 181
134 154 181
134 154 181
135 155 181
133 154 181
133 154 180
133 154 181
134 154 181
134 154 181
134 154 181
133 154 181
134 154 181
133 154 181
133 154 181
133 154 181
134 154 181
133 154 181
135 155 181
133 154 181
133 153 180
133 154 181
133 154 181
134 154 181
134 154 181
135 155 181
134 154 181
134 154 181
133 154 181
134 154 181
134 154 181
134 154 181
133 154 181
133 153 180
134 154 181
134 154 180
133 154 180
134 154 181
134 154 181
134 155 181
134 154 181
133 154 181
134 154 181
134 154 180
134 154 181
133 154 181
133 154 181
134 154 181
133 154 181
134 154 181
133 154 181
133 154 181
133 154 181
134 154 181
135 155 181
135 155 181
135 155 181
133 154 181
134 154 181
134 154 181
134 154 181
134 154 181
133 154 181
133 154 181
134 154 181
134 154 181
134 154 181
134 154 181
133 154 181
133 154 181
134 154 181
133 154 181
133 154 181
134 154 181
135 155 181
134 154 181
134 154 181
133 154 181
133 154 181
133 154 181
133 154 181
133 154 181
134 154 181
134 154 181
134 154 181
134 154 180
133 154 181
133 154 181
133 154 181
133 154 181
133 154 181
132 153 180
135 155 181
133 154 181
135 155 181
134 154 181
134 154 181
134 155 181
134 154 181
134 154 181
133 154 181
134 154 181
134 154 181
133 154 181
134 154 181
133 154 181
133 154 181
134 154 181
133 154 180
134 154 181
133 154 181
133 154 181
134 154 181
134 154 181
134 154 181
134 154 181
134 154 180
134 154 181
134 154 181
134 154 181
133 154 180
134 154 180
133 154 181
133 153 180
133 154 181
132 153 180
134 154 181
133 154 181
134 154 181
133 154 181
134 154 181
133 154 181
134 154 180
133 154 181
135 155 181
133 154 181
133 154 181
135 155 181
133 154 181
134 154 181
134 154 181
133 154 181
134 154 180
134 154 181
133 154 181
134 154 181
134 154 181
134 155 181
134 154 181
134 154 181
133 154 181
135 155 181
134 154 181
134 154 181
133 154 181
134 154 181
133 154 181
135 155 181
133 154 181
132 153 180
134 154 181
134 154 181
134 154 181
135 155 181
134 154 180
134 154 181
133 154 181
133 154 181
134 154 181
134 154 181
134 154 181
134 154 181
134 155 181
134 154 181
134 154 181
134 154 181
133 153 180
134 154 181
134 154 181
135 155 181
133 153 180
134 154 181
134 154 181
134 154 181
134 154 181
134 154 181
134 154 181
135 155 181
134 154 181
134 154 181
134 154 181
133 153 180
134 154 180
133 154 181
134 154 180
135 155 181
133 154 181
134 154 181
133 154 181
133 154 181
134 154 181
133 153 180
134 154 181
134 154 181
133 154 181
134 154 181
133 154 180
134 154 181
133 154 180
134 154 181
134 154 181
134 154 181
134 154 181
134 154 181
135 155 181
134 154 181
134 155 181
133 154 181
135 155 181
134 154 180
134 154 181
133 154 180
134 154 180
133 154 180
133 154 181
134 154 181
133 154 181
134 154 181
134 154 181
134 154 181
133 154 181
133 154 180
134 154 181
134 154 181
133 154 181
134 154 181
134 154 181
135 155 181
134 154 181
133 154 181
134 154 181
134 154 181
134 154 181
134 154 180
133 153 180
134 154 181
133 154 181
134 154 181
133 154 181
133 154 181
134 154 181
133 153 180
133 154 181
133 154 181
133 154 180
134 154 181
133 154 181
134 154 181
134 154 181
134 154 181
133 154 181
134 154 181
135 154 180
134 154 181
134 154 181
133 154 181
134 154 181
132 153 181
133 154 181
133 154 181
133 154 181
134 154 181
133 154 181
134 154 181
133 153 180
134 154 181
135 155 181
134 154 181
133 154 180
134 154 181
133 154 181
134 154 181
134 155 181
134 154 181
133 154 180
133 154 181
134 154 181
134 154 181
134 154 180
134 154 181
133 154 181
134 154 181
134 154 181
134 154 181
133 154 181
132 153 180
133 154 181
134 154 181
134 154 181
134 154 181
134 155 181
134 154 181
134 154 181
133 154 181
134 154 181
134 154 181
134 154 181
134 154 181
133 154 181
133 154 181
134 154 181
134 154 181
134 154 181
134 154 181
134 154 181
135 155 181
133 154 181
133 154 181
134 154 181
134 154 181
134 154 181
134 154 181
134 154 181
135 155 181
134 154 181
134 154 181
134 154 181
133 153 180
133 153 180
134 154 181
134 154 181
133 154 181
134 154 181
134 154 181
134 154 181
134 154 181
133 154 181
134 154 181
133 154 181
134 154 181
132 153 181
134 154 181
134 154 181
134 154 181
134 154 181
134 154 181
135 155 181
133 154 181
135 155 181
134 154 181
133 154 181
134 154 181
134 154 180
133 154 181
134 154 181
134 154 181
134 154 181
134 154 181
134 154 181
134 154 181
134 154 181
134 154 181
133 154 181
133 154 181
135 155 181
133 154 181
134 154 181
133 154 181
134 155 181
134 154 181
133 154 181
134 154 181
134 154 181
133 154 181
134 154 180
133 154 181
134 154 181
134 154 181
134 154 181
134 154 181
133 154 181
135 155 181
134 154 180
135 155 181
134 154 181
133 154 181
134 154 181
133 154 181
134 155 181
133 154 181
133 154 181
132 153 181
134 154 181
134 154 181
134 154 181
133 154 181
134 154 180
134 154 181
134 154 181
133 154 181
133 153 180
134 154 181
134 154 181
133 154 181
134 154 181
134 154 181
135 155 181
134 154 181
133 154 181
133 154 181
133 154 181
134 154 181
134 154 181
134 154 181
134 154 181
133 154 180
134 154 181
133 154 180
134 154 181
133 154 181
133 154 181
134 154 181
134 154 181
133 154 181
133 154 181
134 154 181
134 154 181
134 154 181
133 154 181
134 154 181
134 154 181
133 154 181
134 154 181
133 154 181
134 154 181
134 154 181
133 154 181
133 154 181
134 154 181
133 154 181
134 154 181
134 154 181
133 154 181
133 154 181
133 154 181
135 155 181
133 154 180
134 155 181
134 154 181
134 154 181
134 154 181
134 154 181
133 154 181
134 154 181
134 154 181
135 155 181
134 154 181
134 155 181
134 154 181
134 154 181
133 154 181
134 155 181
133 154 181
132 153 180
133 154 181
133 154 181
134 154 181
135 155 181
134 154 181
134 154 181
134 154 181
134 154 181
134 154 181
134 154 181
134 154 181
134 154 181
134 154 181
134 154 181
134 154 180
134 154 181
135 155 181
135 155 181
134 154 181
133 154 181
133 154 181
133 154 181
134 154 181
134 154 181
134 154 181
133 154 181
133 154 181
134 154 181
134 154 181
134 154 181
134 154 181
134 154 181
134 154 181
133 154 181
133 154 181
132 153 181
134 154 181
133 154 181
133 154 181
134 154 181
134 154 181
134 154 181
134 154 181
133 154 181
134 154 181
133 154 181
133 154 181
134 154 181
133 154 181
133 154 181
134 154 180
133 154 181
134 154 181
133 154 181
135 155 181
132 153 180
134 154 181
134 154 181
134 154 181
134 154 181
133 154 181
133 154 181
134 154 180
134 154 181
133 154 181
134 154 181
134 154 181
134 154 181
132 153 180
134 154 181
134 154 181
133 154 180
134 154 180
134 154 181
134 154 181
133 154 181
133 154 181
134 154 181
133 154 180
134 154 181
134 154 181
133 154 181
133 154 181
134 154 181
134 154 181
134 154 181
134 154 181
134 154 181
135 155 181
133 154 181
134 154 181
134 154 181
134 154 181
134 154 181
133 154 181
133 154 181
134 154 181
134 154 181
134 154 181
134 154 181
133 154 181
133 154 181
134 154 181
133 154 181
133 154 181
133 154 181
133 154 181
133 154 181
134 154 181
133 154 181
133 154 181
134 154 181
134 154 181
133 154 181
133 153 180
134 154 181
134 154 181
134 154 181
133 154 181
134 154 181
134 154 181
134 154 181
134 154 181
133 154 181
134 154 181
134 154 181
133 154 181
133 154 181
134 154 181
133 154 181
133 154 181
135 155 181
132 153 181
133 154 180
134 154 181
133 154 181
132 153 180
134 154 181
133 154 181
133 154 181
134 154 181
134 154 181
133 154 181
134 154 181
134 154 181
134 154 181
134 154 181
133 154 181
134 154 181
134 154 181
135 155 181
133 154 181
133 154 181
134 154 181
134 154 181
134 154 181
134 155 181
134 154 181
134 154 181
134 154 181
134 154 181
133 154 181
133 154 181
133 154 180
134 154 181
133 154 181
134 154 180
134 154 181
134 154 181
133 154 181
135 155 181
134 154 181
135 155 181
133 154 181
134 154 181
134 154 181
134 154 181
134 154 181
134 155 181
133 154 181
134 154 181
134 154 180
134 154 181
134 154 181
133 153 180
133 154 181
134 154 181
134 154 181
134 154 181
134 154 181
134 154 181
134 154 181
134 154 181
133 154 181
135 155 181
134 154 180
133 154 181
133 154 181
134 154 181
133 154 181
135 155 181
134 154 181
134 154 181
134 154 181
135 155 181
133 154 181
133 154 181
134 154 181
135 155 181
134 154 181
135 155 181
133 153 180
134 154 180
134 154 181
134 154 181
134 154 181
133 154 181
134 154 181
134 154 181
133 154 181
134 154 181
134 154 181
134 154 181
134 154 181
134 154 181
134 154 181
134 154 181
133 154 181
133 154 181
134 154 181
133 154 181
134 154 181
134 154 181
133 154 181
134 154 181
134 154 181
133 154 181
133 154 181
134 154 181
133 154 181
133 154 181
133 154 181
135 155 181
134 154 181
133 154 181
134 154 181
134 154 181
134 154 181
134 154 181
133 154 181
135 155 181
134 154 181
134 154 181
133 154 181
134 155 181
134 154 181
133 154 181
134 154 181
134 154 180
133 154 181
134 154 181
134 154 181
135 155 181
134 154 181
133 154 181
134 154 181
134 154 181
133 154 181
133 154 181
134 154 181
134 154 181
133 154 181
133 154 181
134 154 181
134 154 181
134 154 181
133 154 181
134 154 181
133 154 181
133 154 181
135 155 181
134 154 181
133 154 181
134 154 181
134 154 181
134 154 181
133 154 181
134 154 181
134 154 181
133 154 181
133 154 181
133 154 181
134 154 181
134 154 181
134 154 181
133 154 181
133 154 181
134 154 181
135 155 181
134 154 181
133 154 181
134 154 181
133 154 180
134 154 181
133 154 181
133 154 181
134 154 181
133 154 181
134 154 181
133 154 180
134 154 181
134 154 181
133 154 181
133 154 181
134 154 181
134 154 180
134 154 181
133 154 181
134 154 181
133 154 180
133 154 181
133 154 181
134 154 180
134 154 180
134 154 181
134 154 181
133 154 181
134 154 181
133 154 181
134 154 181
133 154 181
133 154 181
134 154 181
134 154 181
134 154 181
133 154 181
134 154 181
133 154 181
134 154 181
133 154 181
134 154 181
132 153 180
133 154 181
134 154 181
134 154 181
134 154 181
134 154 181
134 154 181
134 154 181
134 154 181
132 154 181
134 154 181
134 154 181
134 154 181
134 154 181
134 154 181
133 154 181
134 154 181
134 154 181
134 154 181
133 154 181
134 154 181
134 154 181
133 154 181
134 154 181
134 154 181
133 154 181
133 154 181
133 154 181
134 154 181
134 154 181
134 154 181
134 154 181
133 154 180
134 154 181
134 154 181
133 154 181
133 154 181
133 154 181
133 154 181
133 154 181
134 154 181
134 154 181
134 154 181
133 154 181
134 154 181
133 154 181
134 154 181
135 155 181
134 154 181
133 154 181
134 154 181
133 154 181
134 154 181
134 154 181
134 154 181
134 154 181
133 154 181
134 154 181
133 154 181
133 154 181
134 154 181
134 154 181
134 154 181
134 154 180
134 154 181
134 154 181
134 154 181
134 154 180
134 154 181
133 154 181
134 154 180
134 154 181
134 154 181
133 154 181
134 154 181
133 154 181
133 154 181
134 154 181
133 154 181
133 154 181
133 154 181
133 154 181
133 154 181
134 154 181
135 155 181
134 154 181
134 154 181
134 154 181
134 154 181
134 154 181
133 154 181
134 154 181
134 154 181
134 154 181
133 154 181
133 154 181
133 154 181
133 154 181
134 154 181
133 154 181
134 154 181
134 154 181
134 154 181
133 154 181
134 154 181
133 154 181
133 154 181
133 154 181
133 154 181
133 154 181
133 154 181
134 154 181
134 154 181
135 155 181
134 154 181
134 154 181
133 154 181
134 155 181
135 155 181
134 154 181
135 155 181
134 154 181
135 155 181
133 154 181
134 154 181
134 154 181
133 154 180
134 154 181
134 154 181
134 154 181
133 154 181
134 154 181
134 154 181
133 154 181
133 154 181
134 155 181
134 154 181
133 154 181
133 154 181
134 154 181
134 155 181
134 154 181
134 154 181
134 154 181
134 154 181
134 154 181
133 154 181
134 154 181
134 155 181
134 154 181
134 154 181
134 154 181
133 154 181
134 154 180
133 154 181
134 154 181
134 154 180
135 155 181
134 154 181
133 154 181
134 154 181
134 154 181
133 154 181
133 154 181
133 154 181
133 154 181
134 154 181
133 154 181
134 154 181
133 154 181
133 154 181
133 154 181
134 154 181
134 154 181
133 154 181
134 154 181
133 154 180
133 154 181
133 153 180
133 154 180
134 154 181
134 154 180
135 155 181
133 154 181
134 154 181
133 153 180
134 154 181
133 154 181
134 154 181
134 155 181
134 154 181
135 155 181
133 154 180
134 154 181
133 154 181
132 153 180
134 155 181
134 154 181
134 154 181
134 154 181
133 154 181
135 155 181
134 154 181
133 154 181
134 154 180
134 155 181
134 154 181
134 154 181
133 154 181
134 154 181
133 154 181
133 154 180
134 154 181
134 154 180
134 154 181
134 154 181
134 154 181
133 154 181
134 154 181
134 154 181
134 154 181
134 154 181
133 154 181
135 155 181
134 154 181
134 154 181
133 154 181
134 154 181
134 154 181
134 154 181
134 154 181
134 154 181
134 154 181
134 154 181
133 154 181
134 154 181
133 154 181
134 154 181
134 154 181
133 154 181
134 154 181
134 154 181
134 154 181
133 153 180
133 154 181
134 154 181
134 154 180
134 154 181
133 154 181
133 154 181
134 154 181
132 153 181
133 154 181
133 154 181
134 154 181
133 154 181
133 154 180
134 154 181
134 154 181
134 154 181
134 154 181
133 154 181
134 154 181
134 154 181
134 154 181
133 154 180
134 154 181
133 154 181
134 154 181
134 154 181
133 154 181
134 154 181
134 154 181
133 154 181
134 154 181
134 154 181
134 154 181
134 154 181
134 154 181
133 154 181
133 154 181
134 154 181
133 154 181
133 154 181
134 155 181
134 155 181
133 154 181
133 154 180
135 155 181
133 154 181
134 154 180
133 154 181
134 154 181
134 154 181
135 155 181
134 154 181
133 154 181
134 154 181
134 154 181
135 155 181
134 154 181
134 154 181
134 154 181
134 154 181
134 154 181
133 154 181
134 154 181
134 154 181
134 154 181
134 154 181
133 154 181
134 154 181
134 154 181
134 154 180
134 154 181
134 154 181
134 154 181
133 154 181
133 154 181
133 154 181
134 154 181
134 154 181
134 154 181
133 154 180
134 154 181
133 154 181
133 154 181
134 154 181
134 154 181
134 154 181
134 154 181
134 154 181
133 153 180
134 154 181
133 154 181
134 154 181
133 154 181
134 154 181
133 154 181
134 154 181
134 154 181
133 154 181
134 154 181
134 154 181
134 154 181
134 154 181
134 154 180
134 154 181
134 154 181
134 154 181
134 154 181
134 154 181
134 154 181
135 155 181
134 154 181
135 155 181
133 154 181
133 154 181
134 154 181
134 154 181
134 154 181
134 154 181
133 154 181
134 154 181
134 154 181
133 154 181
134 154 181
133 154 180
134 154 181
134 154 181
133 154 181
133 154 181
134 154 181
133 154 181
134 155 181
134 154 181
134 154 181
133 154 181
133 154 181
133 154 181
134 154 181
134 154 181
134 154 181
134 154 181
134 154 180
134 154 181
135 155 181
133 154 181
134 154 181
133 154 181
134 154 181
134 154 181
134 154 181
134 154 181
133 154 181
134 154 181
134 154 181
134 154 181
134 154 181
134 154 181
134 154 181
133 154 181
134 154 181
134 154 181
135 155 181
133 154 181
134 154 181
134 154 181
134 154 181
134 154 181
135 155 181
134 154 181
133 154 181
134 154 181
133 154 181
134 154 181
133 154 181
134 154 181
134 154 181
133 154 181
134 154 181
133 154 181
133 154 181
134 154 181
134 154 181
134 154 180
134 154 181
134 154 181
134 154 181
134 155 181
133 154 181
135 155 181
134 155 181
134 154 181
135 155 181
133 154 180
134 154 181
133 154 180
134 154 181
134 154 181
134 154 181
134 154 181
134 154 181
134 154 181
134 154 181
133 154 181
134 154 181
134 154 181
133 154 181
134 154 181
134 154 181
134 154 181
133 154 181
133 154 181
134 154 181
133 154 181
134 154 181
134 154 181
134 154 181
134 154 181
134 154 181
134 154 181
133 154 181
133 154 180
134 154 181
133 154 181
133 154 181
134 154 181
134 154 181
134 154 181
135 155 181
134 154 181
134 154 181
134 154 181
133 154 181
134 154 181
134 154 181
134 154 181
134 154 181
134 154 181
133 154 181
134 154 181
134 154 181
133 154 181
132 153 181
134 154 181
133 154 181
133 154 181
134 154 181
134 154 181
134 154 181
133 154 181
133 154 181
135 155 181
133 154 181
133 154 181
134 154 181
134 154 181
134 154 181
133 154 181
134 154 180
134 154 181
134 154 181
133 154 181
134 154 181
134 154 181
134 154 181
135 155 181
134 154 181
134 154 181
134 154 181
134 154 181
133 154 181
134 154 181
134 154 181
134 154 181
133 154 181
134 154 181
133 153 180
134 154 181
134 154 181
134 154 181
135 155 181
133 154 181
133 154 181
134 155 181
134 154 181
133 154 181
134 154 181
134 154 181
133 154 180
133 154 181
134 154 181
133 154 181
134 154 181
133 154 181
135 155 181
134 154 181
133 154 181
134 155 181
133 154 181
134 154 181
133 154 181
134 154 181
133 154 181
134 154 181
133 154 181
134 155 181
134 154 181
133 154 181
134 154 181
134 154 181
134 154 181
134 154 181
134 154 181
134 154 181
133 154 181
134 154 181
135 155 181
134 154 181
133 154 180
133 154 181
135 155 181
133 154 181
133 154 181
134 155 181
134 154 181
134 154 181
134 155 181
133 154 181
134 154 181
134 154 181
133 154 181
134 154 181
134 154 181
133 154 181
134 154 181
134 154 181
133 154 181
134 154 181
133 154 181
133 154 180
133 154 181
134 154 181
134 154 181
134 154 181
133 154 181
135 155 181
133 154 181
134 154 181
134 154 181
134 154 181
134 154 181
134 154 181
133 154 181
134 155 181
133 154 181
134 154 181
134 154 181
134 154 180
133 154 181
133 154 181
134 154 181
134 154 181
134 154 181
133 154 181
134 154 181
134 154 181
133 154 181
133 154 181
134 154 181
134 154 181
133 154 181
133 154 180
134 154 181
135 155 181
133 154 181
134 154 181
134 154 181
133 153 180
135 155 181
133 154 181
133 154 181
135 155 181
134 154 181
135 155 181
134 154 181
134 154 180
134 154 181
133 154 181
134 155 181
134 154 181
134 154 181
134 154 181
134 154 180
134 154 181
133 154 181
134 154 181
134 154 181
135 155 181
134 154 181
134 154 181
133 154 181
134 154 181
134 154 181
135 155 181
133 154 181
134 154 181
133 154 181
134 154 181
134 154 181
133 154 181
133 154 181
134 154 181
133 154 181
134 154 181
134 154 181
134 155 181
134 154 181
132 153 180
134 154 181
133 154 181
133 154 181
134 154 181
134 154 181
133 154 181
133 154 181
133 154 181
134 154 181
134 154 181
134 154 181
133 154 181
134 154 181
133 154 181
133 154 181
135 155 181
134 154 181
133 154 181
134 154 181
133 154 181
133 154 181
133 154 181
134 155 181
134 154 181
133 154 181
134 154 181
133 154 181
134 154 181
134 154 181
134 154 180
133 154 181
134 154 181
133 154 181
134 154 181
133 154 181
134 155 181
134 154 181
134 154 181
133 154 181
133 154 180
134 154 181
134 154 181
134 154 181
133 154 181
134 154 181
135 155 181
134 154 181
134 154 181
133 154 181
134 154 181
135 155 181
134 154 181
134 154 181
134 154 181
134 154 181
135 155 181
134 154 181
134 154 181
133 154 181
134 154 181
132 153 181
133 154 181
134 154 181
134 154 181
135 155 181
134 154 181
133 154 181
134 154 181
133 154 181
134 154 181
133 154 181
134 154 181
133 154 181
133 154 181
133 154 181
134 154 181
133 154 181
134 154 181
134 154 181
134 154 181
134 154 181
134 154 181
133 154 181
133 154 180
134 155 181
134 154 181
133 154 181
134 154 181
133 154 181
134 154 181
133 154 181
132 153 180
134 154 181
134 155 181
133 154 181
133 154 181
133 154 181
133 154 181
134 154 181
135 155 181
133 154 181
134 154 181
134 154 181
133 154 181
134 154 181
134 154 181
134 154 181
134 154 181
134 154 181
134 154 181
134 154 180
134 154 181
134 154 181
134 154 181
133 154 181
134 154 181
134 154 181
133 154 181
134 154 181
133 154 181
133 154 181
133 154 181
134 154 181
133 154 181
134 154 181
134 154 181
134 154 181
133 154 181
134 155 181
134 154 181
134 154 181
134 154 181
133 154 181
134 155 181
134 154 181
133 154 181
133 154 181
134 154 181
134 154 181
135 155 181
133 154 181
134 154 181
133 153 180
134 154 181
133 154 181
135 155 181
133 154 181
133 154 181
134 154 181
135 155 181
133 154 181
134 154 181
133 154 181
134 154 181
133 154 181
133 154 181
134 154 181
134 154 181
134 154 181
134 154 181
133 154 181
133 154 181
134 154 181
133 154 181
134 154 181
134 154 181
133 154 181
133 154 181
134 154 181
133 154 181
134 154 181
133 154 181
134 154 181
135 155 181
133 154 181
134 154 181
134 154 181
133 154 181
133 154 181
134 155 181
134 154 180
133 154 181
133 154 181
134 154 180
135 155 181
134 154 181
133 154 181
133 154 181
134 154 181
133 154 181
134 155 181
134 154 181
133 154 181
134 154 180
134 154 181
134 154 181
133 154 181
133 154 181
133 154 181
133 154 181
134 154 181
134 154 181
135 155 181
133 154 181
133 154 181
134 154 181
134 154 180
133 154 181
134 154 181
133 154 181
134 154 181
134 154 181
134 154 181
134 155 181
133 154 181
134 154 181
135 155 181
134 155 181
135 155 181
133 154 180
134 154 181
134 154 181
133 154 180
133 154 181
134 154 181
134 154 181
134 154 181
134 154 181
133 154 181
134 154 181
134 154 181
133 154 181
134 154 181
135 155 181
134 154 181
133 154 181
134 154 181
134 154 181
134 154 181
133 154 181
134 154 181
134 154 181
134 154 181
134 154 181
134 154 181
134 154 181
134 154 181
134 154 181
133 154 181
133 154 181
135 155 181
134 154 180
133 154 181
134 154 181
134 154 181
134 154 181
133 154 181
133 154 181
133 154 181
133 154 181
133 154 181
133 154 181
134 154 181
134 154 181
133 154 181
134 154 180
133 154 181
133 154 181
134 154 181
133 154 181
133 154 181
134 154 181
133 154 181
134 154 181
134 154 181
133 154 181
134 154 181
134 154 181
134 154 180
133 154 181
134 154 181
134 154 181
133 154 181
134 154 181
134 154 181
134 154 181
133 154 181
134 154 181
133 154 181
134 154 181
134 155 181
134 155 181
134 154 181
133 154 181
133 154 181
134 154 181
134 154 181
133 154 181
133 154 181
134 155 181
134 154 181
134 154 181
133 154 181
134 154 181
134 155 181
134 154 181
134 154 181
135 155 181
134 154 181
133 153 180
134 154 181
134 154 181
134 154 181
134 154 181
134 154 181
133 154 181
134 154 181
134 154 181
134 154 181
134 154 180
133 154 181
134 154 181
134 154 180
135 155 181
133 154 181
134 154 181
133 154 181
133 153 180
134 154 181
134 154 181
133 154 181
133 154 181
134 154 181
134 154 180
133 154 181
134 154 181
134 154 181
135 155 181
133 154 181
134 154 181
134 154 181
134 154 181
133 154 181
134 154 181
133 154 181
133 154 181
134 154 181
134 154 181
134 154 181
134 154 181
133 154 181
133 154 181
134 154 181
133 154 180
134 154 181
134 154 181
133 154 181
135 155 181
133 154 181
134 154 181
133 154 181
133 154 181
134 154 181
134 154 181
133 154 181
133 154 181
135 155 181
134 154 180
133 154 181
134 154 181
133 154 180
133 154 181
133 154 181
134 154 181
133 154 181
133 154 181
134 154 181
134 154 181
134 155 181
133 154 181
133 154 181
133 154 181
134 154 181
134 154 180
133 154 181
134 154 181
134 154 181
133 154 181
134 154 181
134 154 181
134 154 181
134 154 181
134 154 181
134 154 180
134 155 181
134 154 181
133 154 181
134 154 181
134 154 181
134 154 181
134 154 181
134 154 181
134 154 180
133 154 180
133 154 181
133 154 181
134 154 181
134 154 181
134 154 181
133 154 181
133 154 181
134 154 181
135 155 181
133 154 181
133 154 181
134 154 181
133 154 181
133 154 181
134 154 181
134 155 181
134 154 181
134 154 181
133 154 181
133 154 181
134 154 181
134 154 181
134 154 181
134 154 181
134 154 181
133 154 181
133 154 181
134 154 181
133 154 181
133 154 181
134 154 181
134 155 181
133 154 181
134 154 181
134 154 181
133 154 181
134 154 181
134 154 181
134 154 181
134 154 181
134 154 181
134 154 181
135 155 181
133 154 181
134 154 181
134 154 181
134 154 181
134 154 181
133 154 181
134 154 181
133 154 181
134 154 181
134 154 181
134 154 181
134 154 181
134 154 181
134 155 181
134 154 181
133 154 181
134 154 181
133 154 181
134 154 181
134 154 181
134 154 181
134 154 181
134 154 181
134 154 181
133 154 180
133 154 181
134 154 181
135 155 181
134 154 181
134 154 181
134 154 181
133 154 181
134 154 181
134 154 181
134 154 180
133 154 181
134 154 181
135 155 181
134 154 181
133 154 181
134 154 181
134 154 181
134 155 181
133 154 181
134 154 181
133 154 181
134 154 181
134 154 181
134 154 181
134 154 181
135 155 181
133 154 181
134 154 181
134 154 181
134 154 181
134 154 181
135 155 181
133 154 181
133 154 181
134 154 180
134 154 181
134 154 181
133 154 181
134 154 181
135 155 181
133 154 181
133 154 181
134 154 181
134 154 181
133 154 181
134 154 181
134 154 181
134 154 181
134 154 181
134 154 181
134 154 181
134 155 181
134 154 181
134 154 181
134 154 181
133 154 181
134 154 181
133 154 181
134 155 181
133 154 181
134 154 181
134 154 181
133 154 181
134 154 181
133 154 181
133 154 181
133 154 181
134 154 181
134 154 181
134 154 181
134 154 181
133 154 181
134 154 181
134 154 181
134 154 181
134 154 181
133 154 181
134 154 181
133 154 181
133 154 181
134 154 181
134 154 181
134 154 181
133 154 181
134 154 181
134 154 180
134 154 181
134 154 181
134 154 181
134 154 181
134 154 181
133 154 181
134 154 181
134 154 181
133 154 181
134 154 181
133 154 180
133 153 180
134 154 181
134 155 181
134 154 181
134 154 181
134 154 181
134 154 181
133 154 181
133 154 181
134 154 181
134 154 181
134 154 181
133 154 181
134 154 181
134 154 181
135 155 181
133 154 181
134 155 181
133 154 181
133 154 181
134 154 181
134 154 181
134 154 181
133 154 181
134 154 181
134 154 181
134 155 181
134 154 180
133 154 181
134 154 181
133 154 181
134 154 180
134 154 181
134 154 181
134 154 181
134 154 181
134 154 181
133 154 181
134 154 181
133 154 181
134 154 181
134 154 181
133 154 181
134 154 181
134 154 181
133 154 180
134 154 181
133 154 181
133 154 181
135 155 181
134 154 181
135 155 181
134 155 181
134 154 180
133 154 181
134 154 181
133 154 181
133 154 181
134 154 181
135 155 181
133 154 181
134 154 181
134 155 181
134 154 181
134 154 181
133 154 181
133 154 181
133 154 181
133 154 181
135 155 181
134 154 181
134 154 181
133 154 181
134 154 181
134 154 181
134 154 181
134 154 181
133 154 181
135 155 181
134 154 181
134 154 181
134 154 181
134 154 181
133 154 181
134 154 181
134 154 181
134 154 181
134 154 181
133 154 181
133 154 181
133 154 181
134 154 181
135 155 181
134 154 181
134 154 181
134 154 181
134 154 181
133 154 181
134 154 181
133 154 181
134 154 181
133 153 180
135 155 181
134 154 181
133 154 181
133 154 180
134 154 181
133 154 181
133 154 181
134 154 181
134 154 181
133 154 181
133 154 181
134 154 181
134 154 181
134 154 181
134 154 181
134 154 181
134 154 181
133 154 181
134 154 181
134 154 181
134 154 181
134 154 181
133 154 181
134 154 181
134 154 181
133 154 181
133 154 181
133 154 181
134 154 181
134 154 181
134 154 181
134 154 181
133 153 180
133 154 181
133 154 181
133 154 181
134 154 181
134 154 181
134 154 181
134 154 181
134 154 181
133 154 181
134 154 181
134 154 181
134 155 181
134 154 181
134 154 181
133 154 181
133 153 180
134 154 181
133 154 181
133 154 181
134 154 181
134 154 181
134 155 181
134 154 181
134 154 181
134 154 181
132 153 180
134 154 181
134 154 181
134 154 181
134 154 181
134 154 181
134 154 181
134 154 181
133 154 181
133 154 181
133 154 180
133 154 181
134 154 181
133 154 181
134 154 181
134 154 181
133 154 181
134 154 181
133 154 181
135 155 181
133 154 181
134 154 181
134 154 181
132 153 180
134 154 181
133 154 181
133 154 180
134 154 181
133 154 180
134 154 181
133 154 181
134 154 181
134 154 181
134 154 181
134 154 181
134 155 181
134 154 181
134 154 181
134 154 181
133 154 181
134 154 181
134 154 181
134 154 181
133 154 181
134 154 181
133 154 181
134 154 181
134 154 181
134 154 181
134 154 181
136 155 181
134 154 181
133 154 181
134 155 181
134 154 181
133 154 181
134 154 181
134 154 180
133 154 181
133 154 181
133 154 181
134 154 180
134 154 181
133 154 181
133 154 181
134 154 181
133 154 181
133 154 181
134 154 181
133 154 181
134 154 181
133 154 181
133 154 180
133 154 181
134 154 181
135 155 181
135 155 181
135 155 181
134 154 181
134 154 181
133 154 181
133 154 181
133 154 181
134 154 181
134 154 181
134 154 181
134 154 181
134 154 181
134 154 181
135 155 181
133 154 181
132 153 181
134 154 181
134 154 181
134 154 181
133 154 181
134 154 181
133 154 181
134 154 181
134 154 181
134 154 181
134 154 181
133 154 181
133 154 180
133 154 181
134 154 181
133 154 181
134 154 181
134 154 181
133 154 181
134 154 180
134 154 181
134 154 181
133 154 181
133 154 181
135 155 181
133 154 181
134 154 181
134 154 181
133 154 181
133 154 180
133 154 181
133 154 181
134 154 181
134 154 181
134 154 181
134 154 181
134 154 181
133 154 181
134 154 181
134 155 181
134 154 181
133 154 181
132 153 181
133 154 181
133 154 181
134 154 181
134 154 181
134 155 181
133 154 181
134 154 181
134 154 181
134 154 181
133 154 181
133 154 181
133 154 181
134 154 181
134 154 181
134 154 181
134 154 181
133 154 181
133 154 181
133 154 181
133 154 181
135 155 181
133 154 181
134 154 180
133 154 181
134 154 181
134 154 181
134 154 181
134 154 181
133 154 180
133 154 181
134 155 181
134 154 181
133 154 181
133 153 180
133 154 181
134 154 181
134 154 181
134 154 181
133 154 181
134 154 181
133 154 181
134 154 181
134 154 181
133 154 181
134 154 181
134 154 181
133 154 181
134 154 181
134 154 181
135 155 181
134 154 181
134 154 181
134 154 181
133 154 181
134 154 181
134 154 181
133 154 181
133 154 181
133 154 181
134 154 181
134 154 181
134 154 181
134 154 181
134 154 181
133 154 181
134 154 181
134 154 181
134 154 181
134 154 181
134 154 181
133 154 181
134 154 181
135 155 181
134 154 181
134 154 181
133 153 180
133 154 181
133 154 181
134 154 181
134 154 181
134 154 181
135 155 181
135 155 181
134 154 181
134 154 181
134 154 181
135 155 181
134 154 181
133 154 181
134 154 181
134 154 181
133 154 181
134 154 181
133 154 181
135 155 181
133 154 181
134 154 181
135 155 181
134 154 181
134 154 181
134 154 181
133 154 181
134 154 181
134 154 181
133 154 181
134 154 181
134 154 181
133 154 180
134 154 181
133 154 181
134 154 181
134 154 181
133 154 181
133 154 180
134 154 181
133 154 181
134 154 181
134 154 181
134 155 181
135 155 181
133 154 181
133 154 181
134 154 181
134 155 181
134 154 181
133 154 181
134 155 181
134 154 181
133 154 181
135 155 181
133 154 181
133 154 181
133 154 181
134 154 181
134 154 180
134 154 181
133 154 180
134 154 181
133 154 181
134 154 181
134 154 181
134 154 181
133 154 181
134 154 181
133 154 181
133 154 181
134 154 181
133 154 181
133 154 181
134 154 181
134 154 181
133 154 181
134 154 181
134 154 181
134 154 181
134 154 181
133 154 181
134 154 181
133 154 181
134 154 181
133 154 181
134 154 181
134 154 181
133 154 181
133 154 181
134 154 181
134 154 181
134 154 181
133 154 181
134 154 181
135 155 181
135 155 181
134 154 181
134 155 181
133 154 181
133 154 181
133 154 180
133 154 181
133 154 181
134 155 181
135 155 181
134 154 181
134 154 181
134 154 181
134 154 181
134 154 181
134 154 181
133 154 181
134 154 181
133 154 181
133 154 181
134 154 181
134 154 181
134 155 181
134 154 181
134 154 181
135 155 181
134 154 181
134 154 181
134 154 181
133 154 181
135 155 181
133 154 181
134 154 181
134 154 181
134 154 181
134 154 181
134 154 181
133 154 181
133 154 181
134 154 181
133 154 181
134 154 181
133 154 180
134 154 181
133 154 181
133 154 181
134 154 181
134 154 181
133 154 181
134 154 181
133 154 180
134 154 180
134 154 180
134 154 181
134 154 181
134 154 181
134 154 181
133 154 181
134 154 181
134 154 181
133 154 181
135 155 181
134 154 181
134 154 181
134 154 181
133 154 181
133 154 181
134 154 181
133 154 181
134 154 181
134 154 181
134 154 181
134 154 181
135 155 181
134 154 181
133 154 181
133 154 181
133 154 181
134 154 181
134 154 181
134 154 181
134 154 180
133 154 181
133 153 180
134 154 181
133 154 180
134 154 181
134 154 181
134 154 181
134 154 181
134 154 181
133 154 181
133 154 181
133 154 181
134 154 180
133 154 181
134 154 181
133 154 181
133 154 181
133 154 180
133 154 181
133 154 181
134 154 181
133 154 180
134 154 181
133 154 181
133 154 181
134 154 181
134 154 181
133 154 181
133 153 180
134 154 181
134 154 181
135 155 181
134 154 181
134 154 181
134 154 181
134 154 181
133 154 181
134 154 181
134 154 181
133 154 181
134 154 181
133 154 181
134 154 181
134 154 181
133 154 181
134 154 181
134 154 181
134 154 180
133 154 181
134 154 181
134 154 181
134 154 181
133 154 181
133 154 181
134 154 181
134 154 181
134 154 181
134 154 181
134 154 180
134 154 181
133 153 180
134 154 181
134 154 181
134 154 181
133 153 180
134 154 181
133 154 181
134 155 181
134 154 181
134 154 181
133 154 181
134 154 181
134 154 181
134 155 181
134 155 181
134 154 181
134 155 181
133 154 181
134 154 181
134 154 181
134 154 181
134 154 181
132 153 180
134 154 181
134 154 181
134 154 181
133 154 181
134 154 181
134 154 181
133 154 181
133 154 181
133 154 181
133 154 181
134 154 181
134 154 180
132 153 181
133 154 181
134 154 181
133 154 181
134 154 181
133 154 181
134 154 181
133 154 181
134 154 181
134 154 181
134 154 181
133 154 181
134 155 181
133 154 181
134 154 180
134 154 181
134 154 181
134 154 181
134 154 181
134 154 181
133 154 181
135 155 181
133 154 181
134 154 181
134 154 181
134 154 181
133 154 181
134 154 181
133 154 181
133 154 181
134 154 181
133 154 181
134 154 181
134 154 181
132 153 181
134 154 181
134 154 181
134 155 181
134 154 181
133 154 181
133 154 180
133 154 181
134 154 181
135 155 181
134 154 181
133 154 181
133 154 181
133 154 181
134 154 181
134 154 181
133 154 181
133 154 181
133 154 181
133 154 181
134 154 181
134 154 181
134 154 181
133 154 181
132 153 181
133 154 181
134 154 181
134 154 180
134 154 181
134 154 181
134 154 181
134 154 181
134 154 181
135 155 181
133 154 181
133 154 181
134 154 181
134 154 181
133 154 181
134 154 180
134 154 181
134 154 181
133 154 181
133 154 181
134 155 181
134 154 181
133 154 181
134 154 181
134 155 181
134 154 181
134 154 181
134 154 181
133 154 181
133 154 181
134 154 181
134 154 181
133 154 181
133 154 181
134 154 181
133 154 181
133 154 181
133 154 181
133 154 181
135 155 181
134 154 181
133 154 181
133 154 181
134 154 181
134 154 181
134 154 181
135 155 181
133 154 181
135 155 181
134 155 181
134 155 181
133 154 181
133 154 181
134 154 181
133 154 181
133 154 181
133 154 181
134 154 181
134 154 181
133 154 181
134 154 181
133 154 181
134 154 181
133 154 181
133 154 181
134 154 181
135 155 181
134 154 181
134 154 181
133 154 181
134 154 181
134 154 181
134 154 181
134 154 181
134 154 181
134 154 181
134 154 181
134 154 181
134 154 181
134 154 181
134 154 181
134 154 181
133 154 181
134 154 181
134 154 181
134 154 181
134 154 181
133 154 181
134 154 181
134 154 181
133 154 181
134 154 181
134 154 181
134 154 181
134 154 181
134 154 181
134 154 181
133 154 181
133 154 181
133 154 181
134 154 181
134 155 181
134 154 181
134 154 181
134 154 181
133 154 181
134 154 181
134 154 181
134 154 181
134 154 181
134 154 181
134 154 181
133 154 181
133 154 181
134 154 181
134 154 181
134 154 181
134 155 181
134 154 181
134 154 181
134 154 181
134 154 181
133 154 181
133 154 181
134 154 181
133 154 181
134 154 181
134 154 181
133 154 181
134 154 181
134 154 181
134 154 181
133 154 181
135 155 181
134 154 181
133 154 180
135 155 181
133 154 180
133 154 180
134 154 181
134 154 181
134 154 181
134 154 181
133 154 181
134 154 181
134 154 181
133 154 181
133 154 181
134 154 181
133 154 181
133 154 181
135 155 181
134 154 181
134 154 181
134 154 181
133 154 181
134 154 181
134 154 181
134 155 181
133 154 181
133 154 181
134 154 181
134 154 181
133 154 181
134 154 181
133 154 180
134 154 181
134 154 181
134 154 181
134 154 181
134 154 181
133 154 181
134 154 181
133 154 181
134 155 181
133 154 181
133 154 181
135 155 181
133 154 181
134 154 181
134 154 181
135 155 181
133 154 181
134 154 181
133 154 181
134 154 181
134 154 181
134 154 181
134 154 181
135 155 181
134 154 181
135 155 181
134 154 181
134 154 181
133 154 181
134 154 180
133 154 181
133 154 181
134 154 181
134 154 181
133 154 181
134 154 181
133 154 181
134 154 181
133 154 181
134 154 181
134 154 181
133 154 181
134 154 181
134 154 181
133 154 181
134 154 181
134 154 181
134 155 181
134 154 181
134 154 181
134 154 181
134 154 181
134 154 181
134 154 181
133 153 180
134 154 181
134 154 181
134 154 181
133 154 181
133 154 181
133 154 181
134 154 181
133 154 181
134 154 181
133 154 180
134 154 181
135 155 181
134 154 181
133 154 181
134 154 181
134 154 181
134 154 181
133 154 181
134 154 181
134 154 181
134 154 181
134 154 181
134 154 181
133 154 181
133 154 181
133 154 181
134 154 181
134 154 181
133 154 181
134 154 181
134 154 180
133 154 181
134 154 181
135 155 181
134 154 181
134 154 181
134 154 181
135 155 181
133 154 181
134 154 181
133 154 181
134 154 181
134 154 181
133 154 181
134 155 181
133 154 181
134 154 181
134 154 181
134 154 181
134 154 181
133 154 180
134 154 181
134 154 181
134 154 181
135 155 181
134 154 180
134 154 181
134 154 181
134 154 181
134 154 181
133 154 181
134 154 181
134 154 181
134 154 181
135 155 181
133 154 181
134 154 181
134 155 181
133 154 181
133 154 181
134 154 181
134 154 181
134 154 181
134 154 181
134 154 181
133 154 181
134 154 181
134 154 181
134 154 181
134 154 181
133 154 181
133 154 181
135 155 181
133 154 181
135 155 181
135 155 181
133 154 181
133 154 181
133 154 181
134 154 181
134 155 181
134 154 181
133 154 181
134 154 181
134 154 181
134 154 181
135 155 181
133 154 181
134 154 181
134 154 181
133 153 180
134 154 181
134 154 181
134 154 181
134 154 181
133 154 181
134 154 181
134 154 181
134 154 181
134 154 181
134 154 180
134 154 181
134 154 181
134 154 181
134 154 181
134 154 181
134 154 181
135 155 181
135 155 181
134 154 181
133 154 181
134 154 180
134 154 181
134 155 181
134 154 181
134 154 181
134 154 181
133 154 181
132 153 181
133 154 181
134 154 181
134 154 181
134 154 181
134 154 181
134 154 181
134 154 181
134 154 180
133 154 181
133 154 181
134 154 181
134 154 181
134 154 181
134 154 181
134 154 181
134 154 181
134 154 181
133 154 181
134 154 181
133 154 181
133 154 180
134 154 181
133 154 181
134 154 181
134 154 181
133 154 181
134 154 181
134 154 181
134 154 181
133 154 181
134 154 181
134 154 181
134 154 181
134 154 181
134 154 181
133 154 181
134 154 181
133 154 181
134 154 181
134 154 181
134 154 181
134 154 181
133 154 181
134 154 181
134 154 181
134 154 181
134 154 181
134 154 181
134 154 181
134 154 181
134 154 181
133 154 181
135 155 181
134 154 181
135 155 181
134 154 181
134 154 181
134 154 180
134 154 181
134 154 181
133 154 181
133 154 181
134 154 180
133 154 181
133 154 181
134 154 181
134 154 181
134 154 181
135 155 181
134 154 181
133 154 181
134 154 181
134 154 181
134 154 181
133 154 181
134 154 181
133 153 180
134 154 181
134 154 181
134 154 181
134 154 181
134 154 181
134 154 181
134 154 181
133 154 181
134 154 181
134 154 181
134 154 181
133 154 181
134 154 180
133 154 181
133 154 181
134 154 181
133 154 181
133 154 181
135 155 181
134 154 181
133 154 181
133 154 181
134 154 181
134 154 181
134 154 181
134 154 181
134 154 181
134 154 181
134 154 180
133 154 181
134 154 181
134 154 181
134 154 181
133 154 181
133 154 181
134 154 181
133 154 181
133 154 181
134 154 181
134 155 181
133 154 181
134 154 181
133 154 181
134 155 181
133 154 181
134 154 181
134 154 181
134 154 181
133 154 181
134 154 181
134 154 180
134 154 181
134 154 181
134 154 181
133 154 181
134 154 181
133 154 181
134 154 181
134 154 181
133 154 181
135 155 181
133 154 181
135 155 181
134 154 181
133 154 181
134 154 181
133 154 181
134 154 181
134 154 181
133 154 181
133 154 181
134 154 181
134 155 181
134 154 181
134 154 181
133 154 181
134 154 181
134 154 181
135 155 181
134 154 181
134 154 181
134 155 181
133 154 181
134 154 181
134 154 180
134 154 181
133 153 180
134 154 180
134 154 181
135 155 181
134 154 181
133 154 181
133 154 181
134 154 181
134 154 181
133 154 181
134 154 180
134 154 181
134 154 181
134 154 181
134 154 181
134 154 181
134 154 181
133 154 180
134 154 181
133 154 181
134 154 181
134 154 181
134 154 181
134 154 181
133 154 181
134 154 181
134 154 181
134 154 181
133 154 181
134 154 181
133 154 181
133 154 181
134 154 181
134 154 181
134 154 181
134 154 181
133 154 181
134 154 181
134 154 181
134 154 181
134 154 181
133 154 181
133 154 181
133 154 181
134 154 181
134 154 181
134 154 181
134 154 181
133 154 181
134 154 181
133 154 181
134 154 181
134 154 181
133 154 181
133 154 181
135 155 181
134 154 181
135 155 181
134 154 181
133 154 181
135 155 181
133 154 181
133 154 181
134 154 181
134 154 181
133 154 181
133 154 181
134 154 181
135 155 181
135 155 181
134 154 181
133 154 181
134 154 181
134 154 180
134 154 180
133 154 181
135 155 181
134 154 181
133 154 181
133 154 181
134 154 180
134 155 181
135 155 181
134 154 181
134 154 181
133 154 181
133 154 180
134 154 181
133 154 181
135 155 181
133 154 181
134 155 181
134 154 181
134 154 181
134 154 181
134 154 181
134 154 181
134 154 181
133 154 181
134 154 181
134 154 181
134 154 181
135 155 181
134 154 181
133 154 181
133 154 181
134 154 181
134 154 181
134 154 181
133 154 180
134 154 181
134 154 181
134 154 181
134 155 181
133 154 180
132 153 180
133 154 181
134 154 181
133 154 181
135 155 181
134 154 181
134 154 181
134 154 180
134 154 180
135 155 181
133 154 181
133 154 181
134 154 181
133 154 180
135 155 181
133 154 181
134 154 181
134 154 181
134 154 180
134 154 181
133 153 180
134 154 181
133 154 180
133 154 181
134 154 181
133 154 181
133 154 181
134 154 181
134 154 180
134 154 181
134 154 181
134 154 181
133 154 181
134 154 181
134 154 181
133 154 181
132 153 180
133 154 181
134 154 181
134 154 181
133 154 181
134 154 181
134 154 181
134 154 181
135 155 181
133 154 181
134 154 181
134 154 181
133 154 181
134 154 181
133 154 181
134 154 181
134 154 181
133 154 181
134 154 181
133 154 180
134 154 181
133 154 181
135 155 181
134 154 181
134 154 181
134 154 181
135 155 181
134 154 181
134 154 181
134 154 181
134 154 181
134 154 181
134 154 181
133 154 181
133 154 181
134 154 181
134 154 181
133 154 180
133 154 181
133 154 181
134 154 181
133 154 181
134 154 181
134 154 180
134 154 181
133 154 181
134 154 181
133 154 181
134 154 181
133 154 181
134 154 181
133 154 181
134 154 181
133 154 181
133 154 181
134 154 181
133 154 181
133 154 181
133 154 181
133 154 180
134 154 181
134 154 181
134 154 181
134 154 181
134 154 181
133 154 180
134 154 181
134 154 181
134 154 181
134 154 181
134 154 181
134 154 181
133 154 180
134 154 181
133 154 181
133 154 181
133 154 181
134 155 181
134 155 181
133 154 181
134 154 181
134 154 181
133 154 181
133 154 181
133 154 181
134 154 181
133 154 181
134 154 181
133 154 181
134 154 181
134 154 181
134 154 181
134 154 181
134 154 181
133 154 181
134 154 181
132 153 181
133 154 181
134 154 181
134 154 181
134 154 181
133 154 181
133 154 180
133 153 180
133 154 181
134 154 181
134 154 181
135 155 181
134 154 181
133 154 181
133 154 181
134 154 181
133 154 181
133 154 181
134 154 181
135 155 181
134 154 181
134 154 181
134 154 181
134 154 181
133 154 181
133 154 181
134 154 181
134 154 181
133 154 181
133 154 181
133 154 181
133 154 181
134 154 181
133 154 181
134 154 181
133 154 181
134 154 181
134 154 181
135 155 181
134 154 181
134 154 181
134 154 181
134 154 181
133 154 181
134 154 181
134 154 181
133 154 181
133 154 181
134 154 181
133 154 181
134 154 181
133 154 181
133 153 180
134 154 181
133 154 181
134 154 181
135 155 181
134 154 181
134 154 181
134 154 181
135 155 181
134 154 180
134 154 181
135 155 181
134 154 181
132 153 181
133 154 181
133 154 181
134 154 181
134 154 181
134 154 181
134 154 181
133 154 181
134 154 181
134 154 181
134 154 181
134 154 181
133 154 181
134 154 181
134 154 181
134 154 181
134 154 181
135 155 181
134 154 181
133 154 181
134 154 181
134 154 181
133 154 181
134 155 181
133 154 181
133 154 181
134 154 181
134 154 181
134 154 181
134 154 181
133 154 181
135 155 181
133 154 181
134 154 181
134 154 181
134 154 181
134 154 180
134 154 181
134 155 181
134 154 181
133 154 181
135 155 181
133 154 181
134 154 181
133 154 181
134 154 181
134 154 181
134 154 181
133 154 181
135 155 181
134 154 181
133 154 180
133 154 181
134 154 181
134 154 181
134 154 181
133 154 181
133 154 181
133 154 181
133 154 181
134 154 181
133 154 181
135 155 181
134 154 181
133 154 181
134 154 181
134 154 181
134 154 181
133 153 180
133 154 181
135 155 181
133 154 181
134 154 181
133 154 181
134 154 181
134 154 181
135 155 181
134 154 181
134 154 181
134 154 181
134 154 181
134 154 181
135 155 181
134 154 181
134 154 181
133 154 181
133 154 180
134 154 181
133 154 181
134 154 181
135 155 181
134 154 181
133 154 181
133 154 181
133 154 181
134 154 181
133 154 181
135 155 181
134 154 181
134 154 181
134 154 181
134 154 181
133 154 181
134 154 180
133 154 181
134 155 181
135 155 181
134 154 181
134 154 181
134 154 181
135 155 181
133 153 180
133 153 180
134 154 181
133 154 180
135 155 181
133 154 181
134 154 181
134 154 181
133 154 181
133 154 181
134 154 181
134 154 181
134 154 181
133 154 181
133 154 181
133 154 181
134 154 181
134 154 181
133 154 181
134 154 181
133 154 181
134 154 180
134 154 181
134 154 181
134 154 181
134 154 181
134 154 181
133 154 181
134 154 181
134 154 181
133 154 181
134 154 181
134 154 181
133 154 181
134 155 181
133 154 181
133 154 181
134 154 181
134 154 181
133 154 181
134 154 181
134 154 181
134 154 181
135 155 181
134 154 181
134 154 181
134 154 181
133 154 181
134 154 181
134 154 181
134 154 181
135 154 180
134 154 181
134 154 181
133 154 181
133 153 180
133 154 181
134 154 181
133 154 180
134 154 181
134 154 181
133 154 181
134 154 181
134 154 181
134 154 181
135 155 181
134 154 181
134 154 181
135 155 181
133 154 181
133 154 181
133 154 181
133 154 181
133 154 181
134 154 181
133 154 181
133 154 180
134 155 181
134 154 181
133 154 181
134 154 181
134 154 181
133 154 181
134 154 181
133 154 181
133 154 181
133 154 181
134 154 180
134 154 181
134 154 180
134 154 181
133 154 181
134 154 181
135 155 181
134 154 181
133 154 181
133 154 181
134 154 181
134 154 181
134 154 181
134 154 181
133 154 181
133 154 181
133 154 181
134 154 181
133 154 181
133 154 181
133 154 181
133 154 181
134 154 181
133 154 181
134 154 181
134 154 181
133 154 181
134 154 181
133 153 180
134 154 181
134 154 181
134 154 181
134 154 181
135 155 181
134 154 181
133 154 181
133 154 181
134 154 181
132 153 180
133 154 181
135 155 181
133 154 181
133 153 180
133 154 181
134 154 181
133 154 181
133 154 181
134 154 181
134 154 181
134 154 181
134 154 181
134 154 181
135 155 181
134 154 181
134 154 181
132 153 180
133 154 181
134 154 181
134 154 181
134 154 181
134 154 181
134 154 181
134 154 181
134 154 181
134 154 181
134 154 181
134 154 181
133 154 181
133 154 181
134 154 181
134 154 181
134 155 181
133 154 181
133 154 181
133 154 181
134 154 181
135 155 181
134 154 181
134 154 181
133 154 181
134 154 181
134 154 181
134 154 181
134 154 181
134 154 181
134 154 181
134 154 181
133 154 181
134 154 181
133 154 181
134 154 181
134 154 181
133 154 181
133 154 181
133 154 181
134 154 181
133 153 180
134 154 181
134 154 181
134 154 181
134 154 181
133 154 181
134 154 181
133 154 180
134 154 181
133 153 180
134 154 180
134 154 181
133 154 181
134 154 181
134 154 181
134 154 180
133 154 181
133 154 181
133 154 181
134 155 181
134 154 181
134 154 181
133 154 181
134 154 181
134 154 181
133 154 180
134 154 181
134 155 181
133 154 181
134 154 181
133 154 181
133 154 181
134 154 181
133 154 181
134 154 181
133 154 181
133 154 181
134 154 181
134 154 181
134 154 181
133 154 181
133 154 181
135 155 181
134 154 181
134 154 180
134 154 181
134 154 181
134 154 181
134 154 181
134 154 181
134 154 181
134 154 181
133 154 181
133 154 181
134 154 180
134 154 181
133 154 181
134 154 181
133 154 181
133 154 181
133 154 181
134 154 181
133 154 181
135 155 181
133 154 181
134 154 181
134 154 181
134 154 181
133 154 181
134 154 181
134 154 181
133 154 181
134 154 181
133 154 181
133 154 181
134 154 181
134 155 181
134 154 181
134 154 181
135 155 181
133 154 181
135 155 181
135 155 181
134 154 181
134 155 181
133 154 181
134 154 181
133 154 181
134 154 181
134 154 181
133 154 181
134 154 181
134 154 180
134 154 181
134 154 181
134 154 181
133 154 181
133 154 181
133 154 181
134 154 181
133 154 181
133 154 181
133 154 181
133 154 181
133 154 181
133 154 181
134 155 181
134 154 181
134 154 181
133 154 180
133 154 181
134 154 181
133 154 181
134 154 181
134 155 181
134 154 181
134 154 181
135 155 181
133 154 181
134 154 181
134 154 181
133 154 181
134 154 181
133 153 180
134 154 181
133 154 181
133 154 181
133 154 181
134 154 181
133 154 181
134 154 181
134 154 181
134 154 181
133 154 181
133 154 181
133 154 181
134 154 181
134 154 181
133 154 181
133 154 181
133 153 180
134 154 181
133 154 181
134 154 181
133 154 181
134 154 181
134 154 181
134 154 181
134 154 181
133 154 180
135 155 181
133 154 181
134 154 181
133 154 181
134 154 181
133 154 181
134 154 181
134 154 181
133 154 181
134 154 181
134 154 181
134 154 181
134 154 181
134 154 181
134 154 181
134 154 181
134 154 181
133 154 180
132 153 181
134 154 181
134 154 181
134 154 181
135 155 181
134 154 181
134 154 181
134 154 181
134 154 181
134 154 181
134 154 181
134 154 181
134 154 181
134 154 181
133 154 181
133 154 181
134 154 181
133 154 180
133 154 181
133 154 181
133 154 181
135 155 181
134 154 181
134 154 181
133 154 181
134 154 181
134 154 181
134 154 181
134 154 181
134 154 181
133 154 181
133 154 181
135 155 181
134 154 181
134 154 181
134 154 181
133 154 181
134 154 181
134 154 181
134 155 181
134 154 181
134 154 181
134 154 181
133 154 181
133 154 181
133 154 181
134 154 181
132 153 180
134 154 181
133 154 181
134 154 181
134 154 181
134 154 181
134 154 181
134 154 181
134 154 181
134 154 181
134 154 181
133 154 181
134 154 181
133 154 181
133 154 181
133 154 181
134 154 181
133 154 181
134 154 181
134 154 181
133 154 181
134 154 181
134 154 181
134 154 181
134 154 181
134 154 181
133 154 181
133 154 181
134 154 181
133 154 181
133 154 181
133 154 181
134 154 181
134 154 181
134 154 181
134 154 181
134 154 181
134 154 181
135 155 181
134 154 181
134 154 181
134 154 181
134 154 181
134 154 181
134 154 181
133 154 181
134 154 181
133 154 181
134 154 181
134 154 181
133 154 181
134 154 181
135 155 181
134 154 181
134 154 181
134 154 181
134 154 181
134 154 181
133 154 181
133 154 181
134 154 181
134 154 181
134 154 181
134 154 181
134 154 181
133 154 181
134 154 181
134 154 181
132 153 180
134 154 181
134 154 181
133 154 181
135 155 181
134 154 181
133 154 181
134 154 181
133 154 181
134 155 181
135 155 181
134 154 180
134 154 181
134 154 181
134 154 181
134 154 181
134 154 181
132 153 180
134 154 181
133 154 181
134 154 180
134 154 181
134 154 181
134 154 181
134 154 181
133 154 181
134 154 181
133 154 181
134 154 181
134 154 181
133 154 181
134 155 181
133 154 180
133 154 180
134 154 181
133 154 181
134 154 181
133 154 181
134 154 181
134 154 181
133 154 181
135 155 181
134 154 181
134 154 181
134 154 181
134 154 181
134 154 181
134 154 181
133 154 181
134 154 181
133 154 180
133 154 181
133 154 180
134 154 181
133 154 181
134 154 181
133 154 181
133 154 181
134 154 180
134 154 181
133 154 180
133 154 181
134 154 181
133 154 181
134 154 181
134 154 181
134 154 181
134 154 181
133 154 181
134 154 181
134 154 181
134 154 181
134 154 181
134 154 181
134 154 180
133 154 181
134 154 181
134 154 181
133 154 181
134 154 181
134 154 181
134 154 181
134 154 181
133 154 181
133 154 181
133 153 180
134 154 181
133 154 181
133 154 181
133 154 181
134 154 181
134 154 181
134 154 181
133 154 181
134 154 181
133 154 181
134 154 181
134 154 181
133 154 181
133 153 180
134 154 181
133 154 181
134 154 181
133 154 181
134 154 181
134 154 181
133 154 181
134 154 181
134 154 181
134 154 181
134 154 181
133 154 181
134 154 181
133 154 181
134 154 181
134 154 181
134 154 181
133 154 181
133 154 181
134 154 181
134 154 181
134 154 181
134 154 181
134 154 181
134 154 181
135 155 181
134 154 181
134 154 181
135 155 181
133 154 181
133 154 181
133 154 181
134 154 181
134 154 181
133 154 181
134 154 180
133 154 181
134 154 181
134 154 181
133 154 181
133 154 181
134 155 181
133 154 180
133 154 181
134 154 181
134 155 181
133 154 181
134 154 181
133 154 181
134 154 181
134 154 181
133 154 181
134 154 181
134 154 181
134 154 181
134 154 181
134 154 180
133 154 181
134 154 181
134 154 181
134 154 180
134 154 181
134 154 181
134 154 180
133 154 180
134 154 181
134 154 181
134 154 181
133 154 181
133 154 181
133 154 181
134 154 181
133 154 180
134 154 181
134 154 181
134 154 181
133 154 181
134 155 181
133 153 180
134 154 181
133 154 181
134 154 181
135 155 181
132 153 181
133 154 181
133 154 181
133 154 181
134 154 181
133 154 181
135 155 181
134 154 181
133 154 181
134 154 181
133 154 181
132 153 180
134 154 181
133 154 181
134 154 181
134 154 181
133 154 181
134 154 181
134 154 181
133 154 181
135 155 180
134 154 181
134 154 181
134 154 181
133 154 181
133 154 181
134 154 181
133 154 181
134 154 181
133 154 181
134 154 181
134 154 181
134 154 181
133 154 181
134 154 181
133 154 180
134 154 181
133 154 181
133 154 181
133 154 181
134 154 181
134 154 181
133 154 181
134 154 181
134 155 181
134 154 181
133 154 181
133 154 181
133 154 181
134 154 181
134 155 181
134 154 181
134 154 181
133 154 181
134 154 181
134 154 181
134 154 181
134 154 181
134 154 181
135 155 181
134 154 181
133 154 181
133 154 181
134 154 181
134 155 181
133 153 180
133 154 181
134 154 181
133 154 181
133 154 181
133 154 181
135 155 181
135 155 181
133 154 181
134 154 181
134 154 181
133 154 181
134 154 181
134 154 181
134 154 181
133 154 181
133 154 181
134 154 181
133 154 181
134 154 181
134 154 181
134 154 181
133 154 181
134 154 181
133 153 180
135 155 181
134 154 181
134 154 181
135 155 181
134 154 181
134 154 181
133 154 181
134 154 181
134 154 181
134 154 181
134 154 181
135 155 181
134 154 180
134 154 181
134 154 181
134 154 181
133 154 181
134 154 180
134 154 181
134 154 181
134 154 181
135 155 181
134 154 181
134 154 181
134 154 181
134 154 181
134 154 181
134 154 181
134 154 181
134 154 181
135 155 181
134 154 181
134 154 181
134 154 181
133 154 181
134 154 181
134 154 181
134 154 181
134 154 181
134 154 181
133 154 181
134 154 181
133 154 181
134 154 181
133 154 181
135 155 181
133 154 181
134 154 180
134 154 181
133 154 181
133 154 181
134 154 181
134 154 181
134 154 181
133 154 181
134 154 181
133 154 181
134 154 181
133 154 181
134 154 181
134 154 181
134 154 181
134 154 181
135 155 181
133 154 181
134 154 181
134 154 181
134 154 181
134 154 181
133 154 181
134 154 181
134 154 181
134 154 181
134 154 181
134 154 181
134 155 181
134 154 181
133 154 181
134 154 181
134 154 181
132 153 181
133 154 181
134 154 181
134 154 181
133 154 181
134 154 181
134 154 181
134 154 181
134 154 181
134 154 181
133 154 181
134 154 181
133 154 181
134 154 181
134 154 181
133 154 181
134 154 181
134 154 181
134 154 181
133 154 181
134 154 181
135 155 181
134 154 181
134 154 181
133 154 181
134 154 181
133 154 181
134 154 181
134 154 181
134 154 181
134 154 181
134 154 181
134 155 181
133 154 181
133 154 181
134 154 181
134 154 181
133 154 181
134 154 181
133 154 181
134 154 181
134 154 181
134 154 181
134 154 181
134 154 181
133 154 181
133 154 181
133 154 181
133 154 181
134 154 181
134 154 181
134 154 181
133 154 181
133 154 181
133 154 181
134 154 181
133 154 181
133 154 181
134 154 181
134 154 181
134 154 181
133 154 181
132 153 181
133 154 181
133 154 181
134 154 181
134 154 181
133 154 181
134 154 180
136 155 181
134 154 181
134 154 181
134 154 181
134 154 181
134 154 181
134 154 181
134 154 181
134 155 181
134 154 181
134 154 181
134 154 181
133 154 181
134 154 181
134 154 181
133 154 181
133 154 181
134 154 181
134 154 181
134 154 181
134 154 181
134 154 181
133 154 181
133 154 181
134 154 181
135 155 181
134 154 181
133 154 181
134 154 181
133 154 181
133 154 181
134 154 181
134 154 181
133 154 181
133 154 181
134 154 181
133 154 181
134 154 181
133 154 181
134 154 181
134 154 181
134 154 180
133 154 181
134 154 181
134 154 181
134 154 180
134 154 181
133 154 181
134 154 181
134 154 181
134 154 181
133 154 181
134 154 181
133 154 181
133 154 181
134 154 181
133 154 181
134 154 181
134 154 181
133 154 181
133 154 181
134 154 181
134 154 181
133 154 181
134 154 181
134 154 181
134 154 180
134 154 181
133 154 181
134 154 181
133 154 181
133 154 181
134 154 181
134 154 181
133 154 181
133 153 180
133 154 181
133 154 181
133 154 181
134 154 181
134 154 181
134 154 181
133 154 181
133 154 181
134 154 181
133 154 181
134 154 181
134 154 181
134 154 181
134 154 181
133 154 181
134 154 181
135 155 181
134 154 181
134 154 181
134 154 181
135 155 181
133 154 181
133 154 181
135 155 181
133 154 181
134 154 181
134 154 181
134 154 181
134 154 181
133 154 181
133 154 181
134 154 181
134 154 181
134 154 181
133 154 181
134 154 181
134 154 181
133 154 181
134 154 181
134 154 181
135 155 181
133 154 181
133 154 181
134 154 181
135 154 180
134 154 181
133 154 181
134 154 181
134 154 181
134 154 181
134 155 181
134 154 181
134 154 181
133 154 180
133 154 181
134 154 180
133 154 180
133 154 181
134 154 180
134 154 181
134 154 181
134 154 181
133 154 181
134 154 181
133 154 181
133 154 181
135 155 181
133 154 181
134 154 181
134 154 181
134 154 181
134 154 181
134 154 181
134 154 181
135 155 181
133 154 181
134 154 181
134 154 181
133 154 181
134 154 181
134 154 181
134 154 181
134 154 180
133 154 181
134 154 181
134 154 181
134 154 181
134 154 181
135 155 181
134 154 181
134 154 181
134 154 181
134 154 181
134 154 180
134 154 181
133 154 180
133 154 180
134 155 181
133 154 180
134 154 181
134 154 181
133 154 181
133 154 181
134 155 181
133 154 181
134 154 181
134 154 181
135 155 181
133 154 181
133 154 181
135 155 181
134 154 181
134 154 181
134 154 181
134 154 181
134 154 181
133 154 181
134 154 181
133 154 181
134 154 181
133 154 180
133 154 181
134 154 181
133 154 181
134 154 181
133 154 181
134 154 181
134 154 181
134 154 181
134 154 181
134 154 181
134 154 181
134 154 181
133 154 181
134 154 181
134 154 181
133 154 181
134 154 180
133 154 181
133 154 181
133 154 181
133 154 181
134 154 181
134 154 181
133 154 181
133 154 181
133 154 181
133 154 180
134 154 181
134 154 180
134 154 181
135 155 181
135 155 181
134 154 181
135 155 181
135 155 181
133 154 181
134 155 181
134 154 181
134 154 181
134 154 181
134 154 181
135 155 181
133 154 181
133 154 181
134 154 181
134 154 181
133 154 181
134 154 181
133 154 181
134 154 180
134 154 181
134 154 181
133 154 181
134 154 181
133 154 181
133 154 181
134 155 181
134 154 180
134 154 181
134 154 181
134 154 181
134 154 181
134 154 181
135 155 181
133 154 181
135 155 181
133 154 181
134 154 181
134 154 181
134 154 181
135 155 181
133 154 181
134 154 181
133 154 181
134 154 181
134 154 181
134 154 181
133 154 181
134 154 180
134 154 181
134 154 181
134 154 181
133 154 181
133 154 181
134 154 181
133 154 181
134 154 181
133 154 181
134 154 181
134 154 181
133 154 181
133 154 181
133 154 181
134 154 181
133 154 181
134 154 181
135 155 181
134 154 181
134 154 180
134 154 180
134 154 181
133 154 181
133 154 181
135 155 181
134 154 181
134 154 181
134 155 181
134 154 181
133 154 181
133 154 181
135 155 181
135 155 181
133 154 181
133 154 181
134 154 181
133 154 181
133 154 181
134 154 181
133 154 180
134 154 180
133 154 181
134 154 181
134 154 181
133 154 180
134 154 181
134 154 181
134 154 181
134 154 181
134 154 181
134 154 181
133 154 181
134 154 181
134 154 181
134 154 181
133 154 181
134 154 181
134 154 181
134 154 181
134 154 181
134 154 181
133 154 181
133 154 181
133 154 180
134 154 181
135 155 181
135 155 181
134 154 181
134 154 181
134 154 181
134 154 181
133 154 181
134 154 181
134 154 181
134 154 181
134 154 181
133 154 181
134 155 181
133 154 181
135 155 181
134 155 181
133 154 181
133 154 181
133 154 181
133 154 181
135 155 181
134 154 181
134 154 181
134 154 181
133 154 181
134 154 181
135 155 181
134 154 181
134 154 181
133 154 181
134 154 181
134 154 181
133 154 181
135 155 181
134 154 181
134 154 181
133 154 181
134 154 181
134 155 181
134 155 181
133 154 180
134 154 181
134 154 181
132 153 180
134 154 181
133 154 181
133 154 181
134 154 181
135 155 181
133 154 181
132 153 180
133 154 181
134 154 181
133 154 181
134 154 181
133 154 181
133 154 181
134 154 181
134 154 181
134 154 181
133 154 181
134 154 181
134 154 181
133 154 181
133 154 181
134 154 181
133 154 181
133 154 180
133 154 181
134 154 181
133 154 181
134 154 181
136 155 181
134 154 181
133 153 180
133 154 181
133 154 181
133 154 181
134 154 181
134 154 181
134 154 181
134 154 181
134 154 181
134 154 181
135 155 181
134 154 181
133 154 181
134 154 181
134 154 181
134 154 181
134 154 181
133 154 181
134 154 181
133 154 181
133 154 181
134 155 181
133 154 181
133 154 181
133 154 181
135 155 181
133 154 181
134 154 181
133 154 181
133 154 181
134 154 181
134 154 181
133 154 181
133 154 181
133 154 181
133 154 181
134 154 181
134 154 181
133 153 180
134 154 181
134 154 181
134 154 181
134 154 181
135 155 180
134 154 180
134 154 181
133 154 181
134 154 181
133 154 181
135 155 181
134 154 181
134 154 181
134 154 181
134 155 181
133 154 181
135 155 181
134 154 181
134 154 181
134 154 180
134 154 181
133 154 181
132 153 180
134 154 181
134 154 181
133 154 180
133 154 181
133 154 181
133 154 181
134 154 181
135 155 181
134 154 181
134 154 181
134 154 181
134 154 181
133 154 181
134 154 181
133 154 181
135 155 181
134 154 181
133 154 181
134 154 181
133 154 180
134 155 181
133 154 181
134 154 181
134 154 181
133 154 181
133 154 181
133 154 181
133 154 181
133 154 181
134 154 181
134 154 181
134 155 181
133 154 180
133 153 180
133 154 181
134 154 181
135 155 181
133 154 181
133 154 181
133 154 181
134 154 181
133 154 181
133 153 180
133 154 181
134 154 181
135 155 181
134 154 181
133 154 181
135 155 181
133 154 181
133 154 181
134 154 181
134 154 181
133 154 181
134 154 181
134 154 181
133 154 181
133 154 181
135 155 181
134 154 181
133 154 181
134 154 181
133 154 181
134 154 181
134 154 181
134 154 181
134 154 180
133 154 180
134 154 181
133 154 181
134 154 181
134 154 181
134 154 180
133 154 181
134 154 181
134 154 181
135 155 181
134 154 181
134 154 181
134 154 181
134 154 181
134 154 181
133 154 181
135 155 181
134 154 181
134 154 181
134 154 181
133 154 181
133 154 181
134 154 181
134 154 181
133 153 180
134 154 181
133 154 181
134 154 181
134 154 181
134 154 181
134 154 181
134 154 181
133 154 181
134 154 181
134 154 181
133 154 181
135 155 181
134 154 180
133 154 181
135 155 181
133 154 181
134 154 181
134 154 181
134 154 181
134 154 181
134 154 181
134 154 181
134 154 180
134 154 181
134 154 181
134 155 181
133 154 181
133 154 181
133 154 181
134 154 181
134 154 181
134 154 181
134 154 181
133 154 181
133 154 181
134 154 181
133 154 181
134 154 181
133 153 180
134 154 181
133 154 181
133 154 181
133 154 181
135 155 181
134 154 181
134 154 181
134 154 181
134 154 181
133 154 181
133 154 181
135 155 181
135 155 181
134 154 181
134 154 181
133 154 181
133 154 181
133 154 181
134 154 181
133 154 181
133 154 181
134 154 181
134 154 181
134 154 181
134 154 180
134 154 181
134 154 181
133 154 181
134 154 181
133 154 181
134 155 181
134 154 181
134 154 181
133 154 181
133 154 181
133 154 181
134 154 181
135 155 181
135 155 181
133 154 181
135 155 181
133 154 181
134 154 181
134 154 181
134 154 181
134 154 181
134 154 181
134 154 181
134 154 181
134 154 181
134 154 181
134 155 181
134 154 181
135 155 181
134 154 181
134 154 181
134 154 181
133 154 181
133 154 181
133 154 181
133 154 181
134 154 181
134 155 181
134 154 181
133 154 181
135 155 181
134 154 181
133 154 181
133 154 181
133 154 181
134 154 181
134 154 181
134 154 181
133 154 181
134 154 180
134 154 181
134 155 181
134 154 181
134 154 181
134 154 181
134 154 181
134 154 180
134 154 181
134 155 181
134 154 181
133 154 181
134 154 181
133 154 181
133 154 181
133 154 181
133 154 181
134 154 181
133 154 181
134 154 181
134 154 181
135 155 181
134 154 181
132 153 181
134 154 181
134 155 181
134 154 181
133 154 181
135 155 181
133 154 181
133 154 181
134 154 180
134 154 181
134 154 181
134 154 181
134 154 181
134 154 181
133 154 181
134 154 181
134 154 181
134 154 181
134 154 181
134 154 181
133 154 181
134 155 181
133 154 180
133 154 181
134 154 181
134 154 181
134 154 181
134 154 181
134 154 181
133 154 180
133 154 181
134 155 181
133 154 181
133 154 181
134 154 181
134 154 181
134 154 181
134 154 181
134 155 181
134 154 181
134 154 181
134 154 181
134 154 181
133 154 181
134 154 181
133 154 181
133 154 181
134 154 181
134 154 181
134 154 181
134 154 180
134 155 181
134 154 181
134 154 181
133 154 181
133 154 181
133 154 181
134 154 180
134 154 181
134 154 181
134 154 181
134 154 181
133 154 181
134 154 181
133 154 181
134 154 181
134 154 181
134 154 181
133 154 181
134 154 181
134 154 181
133 154 181
134 154 181
134 154 181
134 154 181
134 155 181
133 154 181
133 154 181
134 154 181
135 155 181
134 154 181
134 154 181
134 154 181
134 154 181
134 154 181
133 154 181
134 154 181
133 154 181
133 154 181
133 154 180
135 155 181
135 155 181
134 154 181
133 154 181
133 154 181
132 153 181
133 154 181
134 154 181
135 155 181
134 154 181
134 154 181
133 154 181
134 155 181
133 154 181
134 154 181
133 154 181
134 154 181
133 154 181
133 154 181
134 154 181
133 154 181
133 154 181
134 154 181
134 154 181
133 153 180
134 154 181
134 154 181
133 154 181
136 155 181
134 154 181
135 155 181
134 154 181
134 154 181
133 154 181
135 155 181
134 154 181
132 153 181
134 154 181
133 154 181
134 154 181
134 154 181
133 154 180
134 154 181
133 154 181
133 154 181
133 154 181
133 154 181
134 154 181
133 154 181
133 154 181
134 154 181
133 154 181
135 155 181
134 154 181
134 154 181
133 154 181
134 154 181
134 154 181
134 155 181
134 154 181
134 154 181
134 154 181
133 154 181
134 154 181
134 154 181
133 154 181
135 155 181
134 154 181
134 154 180
134 154 181
134 154 181
134 154 181
134 154 181
134 154 181
134 154 181
133 154 181
134 154 181
133 154 181
134 154 181
134 154 181
133 154 181
133 154 180
134 154 181
135 155 181
134 154 181
133 154 181
133 154 181
134 154 181
133 154 181
133 154 181
133 154 181
134 155 181
133 154 181
133 154 181
133 154 181
134 154 181
134 154 181
134 154 181
134 154 181
134 154 181
133 154 181
133 154 181
134 154 181
134 154 180
134 154 181
134 154 181
134 154 181
133 154 181
134 154 181
133 153 180
134 154 181
134 154 181
133 154 181
133 154 181
134 154 181
134 154 181
134 155 181
134 154 181
134 154 180
134 154 181
133 154 181
133 154 181
133 154 181
133 154 181
133 154 181
135 155 181
133 154 181
135 155 181
133 154 181
134 154 181
133 154 181
134 155 181
134 154 181
133 154 181
133 154 181
134 154 181
134 154 181
134 154 181
134 154 181
133 154 181
134 154 181
135 155 181
134 154 181
134 154 181
134 154 181
133 154 181
134 154 181
134 154 181
134 154 181
133 154 181
134 154 181
134 154 181
134 154 181
134 154 181
134 154 181
133 154 181
133 154 181
133 154 181
133 154 181
134 154 181
134 154 181
134 154 181
134 154 181
134 154 181
133 154 181
134 154 181
133 154 180
134 154 180
134 154 181
133 154 181
133 154 181
133 154 181
133 154 181
133 154 181
134 154 181
134 154 181
134 154 181
133 154 181
133 154 181
133 154 181
133 154 181
134 154 181
133 154 181
135 155 181
133 154 181
133 154 181
134 154 181
134 154 181
134 154 181
134 154 181
135 155 181
133 154 181
134 154 181
133 154 181
135 155 181
133 154 181
134 154 181
134 154 181
135 155 181
133 154 181
133 154 181
135 155 181
133 154 181
133 154 181
133 154 181
134 154 181
134 154 181
134 154 181
134 154 181
134 154 181
134 154 181
133 154 181
133 154 181
134 154 181
134 154 181
134 154 181
134 154 181
134 154 181
134 154 181
134 154 181
133 154 181
134 154 181
133 154 181
132 154 181
134 154 181
133 154 181
133 154 180
134 154 181
134 154 181
133 154 181
134 154 181
133 154 181
133 153 180
134 154 181
134 154 181
134 154 181
134 154 181
133 154 181
133 154 180
133 154 181
133 154 181
133 154 181
134 154 180
133 154 181
134 154 181
134 154 181
133 154 181
133 154 181
135 155 181
134 154 181
134 154 181
134 154 181
134 154 181
133 154 181
134 154 181
134 154 181
134 154 181
133 154 181
133 154 180
133 154 181
133 154 181
134 154 181
133 154 181
133 154 181
133 153 180
134 154 181
133 154 181
134 154 181
133 154 181
134 154 181
134 154 181
134 154 181
134 154 181
134 154 180
133 154 181
133 154 181
133 154 181
134 154 181
134 154 181
134 154 181
134 154 181
133 154 181
134 154 181
134 154 181
134 154 181
134 154 181
134 154 181
134 154 181
133 154 180
134 154 181
134 154 181
134 154 181
134 154 181
133 154 181
133 154 181
133 154 181
133 154 181
133 154 181
134 155 181
134 155 181
135 155 181
134 154 181
134 154 181
133 154 181
133 154 181
133 154 181
134 154 180
133 154 180
134 154 181
134 154 181
133 154 181
134 154 181
133 154 181
134 154 181
134 154 181
133 154 181
134 154 181
133 154 180
134 154 181
134 155 181
134 154 181
134 154 181
133 154 180
134 154 181
134 155 181
135 155 181
134 154 181
134 154 181
133 154 181
133 154 181
133 154 181
133 154 181
134 154 181
133 154 181
134 154 181
133 154 181
133 154 181
134 154 181
134 154 181
134 154 181
133 154 181
133 154 181
133 154 181
134 154 181
134 154 181
133 154 181
134 154 181
134 154 181
134 154 181
134 154 181
134 154 181
134 154 181
134 154 181
134 154 181
133 154 181
133 154 181
134 154 181
135 155 181
134 154 181
134 154 181
134 154 181
134 154 181
134 154 181
134 154 181
134 155 181
134 154 181
135 155 181
134 154 180
134 154 181
133 153 180
133 154 181
133 154 181
133 154 181
134 154 180
134 154 181
134 154 181
134 154 181
133 154 180
134 154 181
134 154 181
134 154 181
134 155 181
135 155 181
133 154 181
134 154 181
134 154 181
133 154 181
134 154 181
133 154 181
133 154 180
133 154 181
134 154 181
134 154 181
134 154 181
135 155 181
133 154 181
134 154 181
134 154 181
134 155 181
133 154 181
133 154 181
134 154 181
133 154 181
133 154 181
133 154 181
135 155 181
133 154 181
134 154 181
134 154 180
134 154 181
133 154 181
134 154 181
133 154 181
134 154 181
133 154 181
134 154 181
133 154 181
133 154 181
134 154 181
134 154 181
134 154 181
134 154 181
133 154 181
134 154 181
133 154 181
133 154 181
133 154 181
134 154 181
133 154 181
133 153 180
134 154 181
134 154 181
134 154 181
134 154 181
134 154 181
134 154 181
134 154 181
134 154 181
133 154 181
134 154 181
133 154 181
134 154 181
134 154 181
134 154 181
134 154 181
134 154 181
135 155 181
133 154 181
134 154 181
135 155 181
134 154 181
134 154 181
134 154 181
133 154 181
133 154 181
133 154 181
134 154 181
134 154 181
134 154 181
134 154 181
134 154 180
134 154 181
134 154 181
134 154 181
134 154 181
134 154 181
134 154 181
134 154 181
134 154 180
133 154 180
134 154 181
134 154 181
134 154 180
134 154 181
134 154 181
133 154 180
134 154 181
133 154 181
134 154 181
133 154 181
134 154 181
134 154 181
134 154 181
134 154 181
133 154 181
134 154 181
135 155 181
133 154 181
133 154 181
133 154 181
134 154 181
133 154 181
134 154 181
134 154 181
135 155 181
133 154 180
134 154 181
134 154 181
133 154 181
134 154 181
134 154 181
134 154 181
133 154 181
134 154 181
134 154 180
134 154 181
134 154 181
134 154 181
135 155 181
134 154 181
133 154 181
133 154 181
133 154 181
133 154 181
134 154 181
133 154 181
135 155 181
134 154 181
134 155 181
135 155 181
134 155 181
133 154 181
133 154 181
133 154 181
134 154 181
134 154 181
134 154 181
134 154 181
135 155 181
134 154 181
133 154 181
134 154 180
134 154 181
134 154 181
133 154 181
133 154 181
133 154 181
134 154 180
133 154 181
134 154 181
134 155 181
134 154 181
134 155 181
133 154 181
134 154 181
134 154 181
134 154 181
133 154 181
133 154 181
133 154 181
134 154 181
134 154 181
134 154 181
135 155 181
133 154 181
133 153 180
135 155 181
134 154 181
133 154 181
134 154 181
134 154 181
134 154 181
134 154 181
135 155 181
134 154 181
134 154 181
134 154 181
133 154 181
134 154 181
133 154 181
134 154 181
134 154 181
133 154 181
134 154 181
134 154 181
133 154 181
134 154 181
134 154 181
133 154 180
133 154 181
134 154 180
133 154 180
133 154 180
133 154 181
134 154 181
134 154 181
133 154 181
133 154 181
133 154 181
134 154 181
134 154 181
133 154 181
134 154 181
133 154 180
134 154 181
134 155 181
133 154 181
134 154 181
134 154 181
134 154 181
133 154 181
134 154 181
134 154 181
133 154 181
134 154 181
133 154 180
134 154 181
134 154 181
133 154 181
133 154 181
133 154 181
134 154 181
134 154 181
134 155 181
135 155 181
134 154 181
133 154 181
134 154 181
133 154 181
134 154 181
133 154 181
134 154 181
135 155 181
133 154 181
133 154 181
134 154 181
133 154 181
134 154 181
134 154 181
134 154 181
134 154 181
134 154 181
133 154 181
133 154 181
134 154 181
135 155 181
135 155 181
134 154 181
134 154 181
134 154 181
133 154 181
133 154 181
134 154 181
134 154 181
134 154 181
133 154 181
134 154 181
134 154 181
135 155 181
133 154 181
133 154 181
134 154 181
134 154 181
134 154 181
134 154 181
133 154 181
134 155 181
133 153 180
134 154 180
134 154 181
133 154 181
133 154 181
134 154 181
134 154 181
134 154 181
134 154 181
134 154 181
134 154 181
134 154 181
134 154 181
134 154 181
134 154 181
134 154 181
134 154 181
133 154 181
134 154 180
135 155 181
134 154 181
134 154 181
134 154 181
134 155 181
134 154 181
133 154 181
133 153 180
133 154 180
133 154 180
133 154 181
134 154 181
134 154 181
134 154 181
134 154 181
133 154 181
133 154 181
133 154 181
133 154 181
134 154 181
133 154 181
133 154 181
133 154 181
134 154 181
134 154 181
134 154 181
134 154 181
135 155 181
133 154 181
135 155 181
133 154 181
134 154 181
133 154 181
133 154 181
134 154 181
133 153 180
133 154 181
134 154 181
133 154 181
133 154 181
135 155 181
134 154 181
135 155 181
133 154 180
135 155 181
133 154 181
134 154 181
134 154 181
133 154 181
134 154 181
134 154 181
134 154 181
134 154 181
133 154 181
135 155 181
134 154 181
134 154 181
134 154 181
134 154 181
134 154 181
134 154 181
134 154 181
134 154 181
134 155 181
134 154 181
135 155 181
134 154 181
134 154 181
134 154 181
134 154 181
134 154 181
134 154 181
134 154 181
135 155 181
133 154 181
134 154 181
134 154 181
135 155 181
134 154 181
133 154 181
134 154 181
133 154 181
133 154 181
134 154 181
134 154 181
133 154 181
133 154 181
134 154 181
134 154 181
133 154 181
134 154 181
133 154 181
133 154 180
135 155 181
133 154 181
134 154 181
133 154 181
134 155 181
133 154 181
134 154 181
134 155 181
134 154 181
134 154 181
133 154 181
134 154 181
133 154 181
134 154 181
134 154 181
133 154 181
134 154 181
133 154 180
133 154 181
133 154 181
133 154 181
134 154 181
134 154 181
135 155 181
134 154 181
134 154 181
134 154 181
134 154 181
133 154 181
134 154 181
133 154 181
134 154 181
134 154 181
134 154 181
134 154 181
134 154 181
134 155 181
134 155 181
134 154 181
133 154 181
133 154 181
134 154 181
134 154 181
134 154 181
134 154 181
134 154 180
133 154 181
134 154 181
135 155 181
133 154 181
133 154 181
133 154 181
133 154 181
133 154 181
134 154 181
133 154 181
134 154 181
134 154 181
134 154 181
133 154 181
133 154 181
134 154 181
134 154 181
134 154 181
134 154 181
133 154 181
133 154 181
134 154 181
133 154 181
134 154 181
133 154 181
134 154 181
134 154 181
133 154 181
133 154 181
133 154 180
134 154 180
134 154 181
134 154 181
133 153 180
133 154 181
134 154 181
134 154 181
134 154 181
134 154 181
133 154 181
133 154 181
133 154 181
133 154 180
133 154 181
134 154 181
134 154 181
133 154 181
134 154 180
134 154 181
134 154 181
134 154 181
133 153 180
134 154 181
134 154 181
134 155 181
134 154 181
134 155 181
133 154 181
134 154 181
134 154 181
134 154 181
133 154 181
134 154 181
134 154 181
133 154 181
134 154 181
133 154 181
133 154 181
134 155 181
134 154 181
134 154 181
135 155 181
133 154 181
134 154 181
134 154 181
135 155 181
134 154 181
133 154 181
135 155 181
134 154 181
133 154 181
134 154 181
134 154 181
134 154 181
134 154 181
134 154 181
134 154 181
134 154 181
134 154 181
134 154 181
134 154 181
133 154 181
134 154 181
134 154 181
134 154 181
134 154 181
134 154 181
134 155 181
134 154 181
134 154 181
134 154 181
134 154 181
133 154 181
134 154 181
134 154 181
134 154 181
134 154 181
134 155 181
134 154 181
133 154 181
134 154 181
134 155 181
133 154 181
134 154 181
134 154 181
134 154 181
134 154 181
134 154 181
134 154 181
134 154 181
134 154 181
133 154 181
134 154 181
133 154 181
134 154 181
134 154 181
133 154 181
133 154 181
133 154 181
136 155 181
134 154 181
135 155 181
133 153 180
133 154 181
134 154 181
134 155 181
133 154 181
134 154 181
134 154 180
134 154 181
134 154 181
135 155 181
133 153 180
134 154 181
134 154 181
133 154 181
134 154 181
134 154 181
133 154 181
133 154 181
133 154 181
134 154 181
135 155 181
134 154 181
134 154 181
134 154 181
133 154 181
134 154 181
134 154 181
133 154 181
134 154 181
133 154 181
133 154 181
134 154 181
133 154 181
135 155 181
134 154 181
133 154 181
134 154 181
134 155 181
134 154 181
134 154 181
133 154 181
134 154 181
135 155 181
134 154 181
133 154 181
134 154 181
134 154 181
133 154 181
134 154 181
134 154 180
134 154 181
134 155 181
134 154 181
133 154 181
133 154 181
133 154 181
133 154 181
134 154 181
133 154 181
133 154 180
134 154 181
133 154 181
135 155 181
134 154 181
134 154 181
134 154 181
134 154 181
134 154 181
133 154 181
133 154 181
135 155 181
134 154 181
134 154 181
134 154 181
134 154 181
134 154 181
133 154 181
134 154 181
133 154 181
133 154 181
134 154 181
134 154 181
134 154 181
134 154 181
133 154 181
133 154 181
133 154 181
133 154 181
134 154 181
134 154 181
134 154 181
134 154 181
135 155 181
134 154 181
133 154 181
134 154 181
134 154 181
134 154 181
133 154 181
133 154 181
134 154 181
134 154 181
134 154 181
134 154 181
133 154 181
133 154 181
134 154 181
134 154 181
134 155 181
133 154 181
133 154 181
133 154 181
134 154 180
133 153 180
133 154 181
134 154 181
133 154 180
134 154 181
134 154 181
134 154 181
134 154 181
134 154 181
134 154 181
133 154 181
133 153 180
134 154 181
133 154 181
134 154 181
133 154 181
135 155 181
135 155 181
134 154 181
132 153 181
134 154 181
133 154 181
134 154 181
134 154 181
133 154 181
134 154 181
133 154 181
134 154 181
135 155 181
133 154 181
133 154 181
134 154 181
134 155 181
133 154 181
134 154 181
134 154 181
134 154 181
134 154 181
134 154 181
134 154 181
133 154 181
134 154 181
133 154 181
133 154 181
133 154 181
134 154 181
133 154 181
134 154 181
135 155 181
133 154 181
134 154 181
135 155 181
134 154 181
134 154 181
134 154 181
133 154 181
134 154 181
133 154 181
134 154 181
133 154 181
134 154 181
134 154 181
133 153 180
134 154 181
134 154 181
133 154 181
134 154 181
134 154 181
134 155 181
133 154 181
133 154 181
134 154 181
132 153 180
134 154 181
134 154 181
133 154 181
135 155 181
135 155 181
133 154 181
134 154 181
134 154 181
135 155 181
134 154 181
134 154 181
133 154 181
133 154 181
134 154 181
134 154 181
133 154 181
133 154 181
133 154 181
134 154 181
133 154 181
134 154 181
133 154 181
134 154 181
133 154 181
134 154 181
135 155 181
134 154 181
134 154 181
134 154 181
134 154 181
