P3
400 200
255
133 154 181
133 154 181
133 154 181
133 154 181
134 154 181
133 154 181
134 154 180
133 154 181
134 154 181
134 154 181
135 155 181
134 154 181
133 154 181
134 154 181
134 154 181
134 154 181
134 154 181
134 154 181
134 154 181
134 154 181
133 154 181
133 154 181
134 154 181
134 154 181
134 154 181
133 154 181
133 154 181
133 154 181
134 154 181
133 154 181
135 155 181
134 154 181
134 154 181
133 154 181
132 154 181
134 154 181
134 154 181
133 154 181
135 155 181
134 154 181
134 154 181
133 154 181
134 154 181
133 154 181
133 154 181
134 154 181
135 155 181
134 154 181
135 155 181
134 155 181
134 154 181
134 154 181
134 154 181
134 154 181
133 154 181
135 155 181
133 154 181
133 154 181
134 154 181
134 154 181
133 154 181
133 154 181
134 154 181
134 154 181
134 154 181
135 155 181
134 154 181
135 155 181
133 154 181
133 154 181
134 154 181
133 154 181
134 154 181
134 154 181
134 154 181
134 154 181
134 154 181
134 154 181
134 154 181
134 154 181
134 154 181
134 154 181
134 154 181
134 154 181
134 154 181
135 155 181
134 154 181
134 154 181
134 154 181
134 154 181
134 154 181
135 155 181
133 154 181
133 154 181
134 155 181
134 154 181
134 154 180
134 154 181
133 154 181
134 154 181
134 154 181
135 155 181
134 154 181
134 154 181
134 154 181
133 154 180
134 154 181
134 154 181
134 154 181
134 155 181
134 154 181
134 154 181
133 154 181
135 155 181
133 154 181
133 154 181
133 154 181
134 154 181
134 154 181
133 154 181
134 154 181
133 154 181
133 154 181
134 154 181
134 154 181
135 155 181
133 154 181
135 155 181
134 154 181
134 154 181
134 154 181
134 154 181
134 154 181
134 154 181
134 154 181
134 154 181
133 154 181
133 154 181
133 154 180
134 154 181
134 154 181
133 154 181
134 154 181
133 154 181
133 154 181
134 154 181
134 154 181
134 154 181
133 154 181
134 154 181
134 154 181
134 154 181
134 154 181
134 154 181
133 154 181
134 154 181
134 154 181
133 154 180
133 154 181
134 154 181
133 154 181
134 154 181
135 155 181
134 154 181
133 154 181
133 154 181
134 154 181
134 154 181
134 154 181
134 154 181
133 154 181
134 154 181
134 155 181
134 154 181
133 154 181
134 154 181
134 154 181
134 154 181
135 155 181
134 154 181
133 154 181
134 155 181
133 154 181
134 154 181
134 154 181
133 154 181
133 154 181
133 154 181
134 155 181
133 154 181
133 154 181
134 154 181
134 154 181
135 155 181
135 155 181
134 154 181
134 154 181
133 154 181
134 154 181
134 154 181
133 154 181
134 154 181
134 154 181
134 154 181
133 154 181
134 154 181
134 154 181
134 154 181
134 154 181
134 154 181
135 155 181
135 155 181
134 154 181
134 154 181
134 154 181
133 154 181
133 154 181
134 154 181
134 154 181
134 154 181
134 154 181
134 154 181
134 154 181
134 154 181
133 154 181
133 154 181
134 154 181
134 154 181
134 154 181
134 154 181
134 154 181
133 154 181
133 153 180
135 155 181
134 154 181
134 154 181
133 154 181
134 154 181
134 154 181
134 154 181
134 154 181
134 154 181
135 155 181
134 154 181
134 154 181
134 154 181
134 154 181
135 155 181
134 154 181
135 155 181
133 154 181
134 154 181
134 154 181
134 154 181
133 154 181
134 154 181
135 155 181
133 154 181
134 154 181
134 154 181
134 154 181
134 154 181
134 154 180
133 154 181
134 154 181
133 154 181
134 154 181
134 154 181
133 154 181
134 154 181
134 154 181
135 155 181
134 154 181
134 154 181
133 154 181
133 154 181
134 154 181
135 155 181
134 154 181
134 154 181
134 154 181
134 154 181
134 154 181
133 154 181
134 154 181
133 154 181
134 154 181
134 154 181
133 154 181
134 154 181
133 154 181
134 154 181
134 154 181
134 154 181
134 154 181
134 154 181
134 154 181
134 154 181
134 154 181
134 154 181
134 154 181
134 154 181
134 154 181
133 154 181
134 154 181
133 154 181
133 154 181
134 154 180
134 154 181
134 154 181
135 155 181
134 154 181
134 154 181
133 154 180
133 154 181
133 154 181
134 154 181
134 154 181
133 154 181
133 154 181
134 155 181
133 154 181
133 154 181
134 154 181
133 154 181
134 154 181
133 154 181
133 153 180
134 154 181
133 154 181
134 154 181
133 154 181
135 155 181
133 154 181
134 154 181
134 154 181
133 154 181
134 154 181
133 154 181
133 154 181
134 154 181
134 154 181
133 154 181
133 154 181
133 154 181
133 154 181
134 154 181
134 154 181
134 154 181
133 154 181
134 154 181
134 154 181
133 154 181
134 154 180
134 154 181
133 154 181
134 154 181
133 154 181
134 154 181
134 154 181
134 154 181
134 154 180
134 154 181
134 154 181
134 154 181
134 154 181
134 154 181
133 154 181
135 155 181
134 154 181
133 154 181
134 154 181
133 154 181
134 154 181
133 154 181
133 154 181
133 154 181
134 154 181
133 154 181
134 154 181
134 154 181
134 154 181
133 154 181
134 154 181
133 154 181
134 154 181
133 153 180
133 154 181
134 154 181
135 155 181
133 154 181
133 154 181
134 154 181
134 154 181
134 154 181
134 154 181
133 154 181
134 154 181
133 154 180
134 154 181
132 153 181
134 154 181
134 154 181
134 155 181
134 154 181
134 154 181
134 154 180
134 154 181
134 154 181
133 154 181
133 154 181
133 154 181
135 155 181
133 154 181
134 154 181
134 154 181
133 154 181
134 154 181
133 154 180
132 153 181
133 154 181
134 154 181
133 154 180
134 154 181
134 154 181
134 154 181
134 154 181
134 154 181
133 154 181
134 154 181
134 154 180
133 154 181
134 154 181
133 154 181
134 154 181
132 153 181
134 154 181
134 154 181
134 154 181
134 154 181
134 154 181
134 154 181
133 154 181
134 154 180
134 154 181
134 154 181
134 154 181
134 154 181
134 154 181
134 154 181
134 154 181
134 154 181
133 154 181
134 154 181
134 154 181
133 154 181
134 154 181
133 154 181
134 154 181
135 155 181
134 154 181
134 154 181
134 154 181
134 154 181
134 154 181
134 154 181
133 154 181
134 154 181
134 154 181
133 154 181
134 154 181
134 154 181
134 154 181
133 154 181
134 154 181
134 154 181
134 154 181
134 154 181
134 154 181
135 155 181
133 154 181
134 154 181
134 154 181
134 154 181
133 154 181
134 154 181
134 154 181
134 154 181
134 154 181
134 154 181
134 154 181
133 154 181
134 154 181
134 154 181
133 154 181
134 154 181
133 154 181
133 154 181
133 154 180
134 154 181
135 155 181
134 154 181
134 154 181
134 154 181
133 154 181
134 154 181
134 154 181
134 154 181
134 154 181
134 154 181
134 154 180
134 154 181
134 154 181
134 154 181
134 155 181
135 155 181
135 155 181
134 154 181
135 155 181
134 154 181
134 154 181
134 155 181
133 154 181
134 154 181
134 154 181
133 154 181
134 154 181
134 154 181
134 154 181
134 154 181
134 154 181
133 154 181
134 154 181
134 154 181
134 154 181
134 154 181
134 154 181
134 155 181
134 154 181
133 154 181
134 154 181
135 155 181
134 154 181
133 154 181
134 154 181
135 155 181
133 154 181
134 154 181
134 154 181
134 154 181
134 154 181
134 154 181
134 154 181
133 154 181
134 154 181
133 154 181
132 153 181
134 154 181
134 154 181
134 154 181
134 154 181
134 154 181
133 154 181
134 154 181
133 154 180
134 154 181
133 154 181
133 154 181
133 154 180
134 154 181
134 154 181
135 155 181
134 154 181
134 154 181
133 154 180
134 154 181
134 154 181
134 154 181
134 154 181
134 154 181
134 154 181
134 154 181
133 154 181
134 154 181
133 154 181
134 154 181
134 154 181
134 154 181
133 154 181
134 154 181
133 154 181
133 154 181
133 154 181
134 154 181
134 154 181
134 154 181
134 155 181
134 154 181
134 154 181
134 155 181
134 154 181
134 154 181
134 154 181
134 154 181
134 154 181
133 154 181
134 154 181
133 154 181
132 154 181
134 154 181
134 154 181
133 154 181
134 154 181
134 154 181
134 154 181
134 154 181
134 154 181
134 154 181
133 154 181
134 154 181
134 154 181
133 154 181
133 154 181
133 154 181
133 154 181
135 155 181
133 154 181
134 154 181
134 154 181
133 154 181
134 154 181
133 154 181
134 154 181
134 154 181
134 154 181
133 154 181
133 154 181
133 154 181
133 154 181
134 155 181
134 154 181
135 155 181
134 154 181
134 154 181
135 155 181
134 154 181
134 154 181
133 154 181
134 154 181
134 154 181
134 154 181
133 154 181
134 154 181
134 154 181
134 154 181
135 155 181
133 154 181
133 154 181
134 154 181
133 154 181
133 154 181
134 154 181
133 154 181
134 154 181
134 154 181
134 154 181
134 154 181
134 154 181
134 154 181
134 154 181
133 154 181
133 154 180
134 154 181
133 154 181
134 154 181
134 154 181
133 154 181
133 154 181
134 154 181
133 154 181
134 154 181
133 154 181
133 154 181
133 154 181
134 154 181
134 154 181
133 154 181
134 154 181
133 154 181
134 155 181
134 154 181
134 154 181
135 155 181
134 154 181
134 154 181
134 154 181
134 154 181
133 154 181
134 154 181
134 154 181
134 154 181
133 154 181
133 154 181
134 154 181
133 154 181
134 154 181
135 155 181
134 154 181
134 154 181
133 154 181
134 154 181
134 154 181
134 154 181
133 154 181
134 154 181
133 154 181
133 154 181
134 154 181
134 154 181
133 154 181
134 154 181
134 154 181
134 154 181
133 154 181
133 154 181
133 154 181
134 154 181
133 154 181
133 154 180
133 154 181
134 154 181
134 154 181
133 154 181
134 154 181
135 155 181
134 154 181
133 154 181
133 154 181
133 154 181
133 154 181
133 154 181
134 154 181
133 154 181
134 154 181
134 154 181
133 154 181
133 154 181
133 154 181
135 155 181
134 154 181
134 154 181
134 154 181
135 154 180
134 154 181
134 154 181
134 154 181
134 154 181
134 154 181
134 154 181
133 154 181
133 154 181
134 154 181
133 154 181
133 154 181
134 154 181
134 154 181
133 154 181
133 154 181
134 155 181
134 154 181
134 154 181
134 154 181
134 154 181
133 154 181
135 155 181
134 154 181
134 154 181
134 154 181
133 154 181
133 154 181
134 154 181
134 154 181
133 154 181
134 154 181
134 154 181
134 154 181
134 154 181
133 154 181
133 154 181
135 155 181
134 154 181
134 155 181
134 154 181
134 154 181
134 154 181
134 154 181
134 154 181
134 154 181
134 154 181
134 154 181
133 154 181
134 154 181
134 154 181
133 154 181
134 154 181
134 154 181
133 154 181
134 154 181
134 154 181
135 155 181
133 154 181
134 154 181
134 154 181
133 154 181
134 154 180
133 154 180
134 154 181
134 154 181
133 154 181
133 153 180
134 155 181
133 154 181
133 154 180
133 154 181
133 154 181
134 154 181
134 154 181
133 154 181
134 154 181
133 154 181
134 154 181
134 154 181
134 154 181
133 154 181
134 154 181
134 154 181
135 155 181
133 154 181
134 154 181
134 154 180
134 154 181
134 154 181
133 154 181
134 154 181
134 154 181
133 154 181
133 154 181
134 154 181
134 155 181
134 154 181
133 154 181
134 154 181
133 154 180
134 154 181
134 154 181
134 154 181
134 154 181
134 154 181
134 154 181
133 154 181
135 155 181
134 154 181
133 154 181
134 154 181
133 154 181
134 154 181
134 154 181
133 154 181
134 154 181
133 154 181
133 154 181
134 154 181
134 154 181
134 154 181
133 154 181
133 154 181
134 154 181
134 154 181
133 154 181
133 154 181
135 155 181
133 154 181
134 154 181
133 154 181
134 154 181
134 154 181
134 154 181
134 154 181
134 154 181
134 154 181
134 154 181
133 154 181
134 155 181
134 154 181
133 154 181
133 154 181
133 154 181
134 155 181
134 154 181
133 154 181
133 154 181
134 154 181
134 154 180
134 154 181
134 154 181
134 154 181
135 155 181
133 154 181
135 155 181
133 154 181
134 154 181
134 154 181
134 154 181
133 154 181
133 154 180
134 154 181
133 154 181
134 154 181
134 154 181
134 154 181
134 154 181
134 154 181
134 154 181
134 154 181
134 154 181
133 154 181
135 155 181
134 154 181
134 154 181
135 155 181
134 154 181
134 154 181
133 154 181
133 154 180
134 154 181
134 154 181
133 154 181
133 154 181
133 154 181
133 154 181
134 154 181
133 154 181
134 154 181
133 154 180
133 154 181
133 154 181
134 154 181
133 154 181
134 154 181
134 154 181
134 154 181
134 154 181
133 154 181
133 154 180
133 154 181
134 154 181
133 154 181
133 154 181
134 154 181
134 154 181
134 154 181
134 154 181
134 154 181
134 154 181
134 154 181
132 153 181
134 154 181
133 154 181
134 154 181
134 154 181
134 154 181
134 154 181
134 154 181
133 154 181
133 154 180
134 154 181
133 154 181
134 154 181
133 154 181
134 154 181
134 154 181
135 155 181
134 154 181
134 155 181
134 154 181
134 154 181
134 154 181
134 154 181
133 154 180
134 154 181
134 154 181
134 154 181
135 155 181
134 154 181
134 154 181
133 154 181
134 154 181
134 154 181
134 154 181
133 154 181
133 154 181
133 154 181
134 154 181
134 154 181
133 154 181
134 154 181
133 154 181
134 154 181
134 154 180
133 154 181
133 154 181
135 155 181
134 154 181
133 154 181
133 154 181
134 154 181
134 154 181
134 154 181
134 154 181
133 154 181
134 154 181
133 154 181
134 154 181
134 154 181
133 154 181
134 154 181
134 154 181
134 154 181
134 155 181
134 154 181
134 154 181
134 154 181
133 154 181
134 154 181
133 154 181
134 154 180
134 154 181
134 154 181
134 154 181
133 154 181
134 154 181
134 154 181
133 154 181
134 154 181
133 154 181
134 154 181
133 154 181
133 153 180
135 155 181
135 155 181
135 155 181
134 154 181
134 154 181
133 154 181
133 154 180
134 154 181
134 154 181
135 155 181
134 155 181
133 154 181
134 154 181
134 154 181
133 154 181
134 154 181
134 154 181
133 154 181
134 154 181
134 154 181
134 154 181
133 154 181
134 154 181
134 154 181
134 154 181
133 154 181
133 154 181
134 154 181
133 154 181
134 154 181
134 154 181
133 153 180
133 153 180
134 154 181
134 154 181
134 154 181
134 154 181
134 154 181
133 154 181
134 154 181
133 154 181
134 154 181
133 154 181
134 155 181
135 155 181
135 155 181
134 154 181
134 154 181
134 154 181
133 154 181
134 154 181
135 155 181
134 154 181
134 154 181
133 154 181
133 154 181
134 154 181
134 154 181
133 154 181
134 154 181
134 154 181
133 154 181
134 154 181
133 154 181
134 154 181
134 154 181
134 154 181
134 154 181
134 154 181
134 154 181
134 154 181
134 154 181
134 155 181
133 154 181
133 154 181
135 155 181
134 154 181
134 154 181
133 154 181
134 154 181
134 154 181
134 154 181
133 154 181
135 155 181
134 154 181
133 154 181
133 154 181
133 154 181
134 154 181
133 154 181
134 154 181
134 155 181
134 154 181
133 154 180
134 154 181
134 154 181
133 154 181
134 154 181
133 154 181
134 154 181
134 154 181
133 154 181
133 153 180
133 154 181
133 154 181
134 154 181
133 154 181
133 154 181
133 154 181
134 154 181
134 154 181
133 154 181
133 154 181
134 154 181
134 154 181
133 154 181
135 155 181
134 154 181
134 154 181
135 155 181
134 154 181
133 154 181
134 154 181
134 154 181
134 154 181
134 154 181
133 154 181
134 154 181
134 154 181
134 154 181
133 154 181
134 154 181
133 154 181
133 154 181
134 154 181
133 154 181
134 154 181
133 154 181
134 154 181
134 154 181
133 154 181
134 154 181
134 154 181
134 154 180
133 154 181
134 154 181
134 154 180
133 154 181
134 154 181
134 154 181
134 154 180
134 154 181
133 154 181
134 154 181
133 154 181
133 154 181
133 154 181
134 154 181
134 154 181
134 154 181
134 154 181
134 154 181
134 154 181
134 154 181
134 154 181
134 154 181
134 154 181
135 155 181
134 155 181
135 155 181
134 154 181
134 154 181
134 154 181
134 154 181
133 154 181
133 154 181
133 154 181
133 154 181
133 154 181
133 154 181
134 154 181
134 154 181
135 155 181
135 155 181
134 154 181
135 155 181
133 154 181
135 155 181
134 154 181
134 154 181
134 154 181
134 154 181
134 154 181
134 154 181
133 154 181
133 154 181
133 154 181
133 154 181
134 154 181
134 154 181
135 155 181
133 154 181
133 154 181
133 154 181
134 154 181
134 154 181
136 155 181
133 154 181
134 154 181
134 154 181
133 154 181
134 154 181
134 154 181
133 154 181
134 154 181
134 154 181
133 154 181
134 154 181
134 154 181
133 154 181
132 153 181
134 154 181
135 155 181
134 154 181
134 154 181
133 154 181
134 154 181
134 154 181
134 154 181
134 154 181
134 154 181
134 154 181
134 154 181
134 154 181
134 154 181
133 154 181
133 154 181
133 154 181
133 154 181
134 154 181
134 154 181
133 154 181
134 154 181
134 154 181
133 154 181
134 154 181
134 154 181
133 154 181
133 154 181
133 154 181
134 154 181
133 154 181
133 154 181
133 154 181
133 154 181
134 154 181
134 155 181
133 154 181
135 155 181
134 154 181
134 154 181
134 154 181
134 154 181
134 154 181
133 154 181
134 154 181
134 154 181
134 154 181
133 154 181
134 154 181
133 154 181
134 154 181
133 154 180
133 154 181
134 154 181
133 154 181
134 154 181
134 154 181
133 154 181
134 154 181
134 154 181
135 155 181
134 154 181
134 154 181
133 153 180
133 154 181
133 154 181
133 154 181
133 154 181
134 154 181
134 154 181
133 153 180
134 154 181
134 154 181
135 155 181
133 154 181
134 154 181
134 154 181
133 154 181
134 154 181
135 155 181
134 154 181
134 154 180
133 154 181
135 155 181
133 154 181
134 154 181
134 154 181
134 154 181
134 154 181
133 154 181
133 154 181
134 154 181
134 154 181
133 154 181
133 154 181
134 154 181
133 154 181
133 154 181
133 154 181
134 154 181
134 154 181
133 154 181
134 154 181
133 154 181
133 154 181
135 155 181
133 154 181
133 154 181
133 154 181
134 154 181
134 154 181
134 154 181
134 154 181
134 155 181
134 154 181
133 154 180
133 154 181
134 154 181
133 154 181
133 154 181
135 155 181
134 154 181
134 154 181
133 154 181
134 154 181
133 154 181
133 154 181
134 154 181
134 155 181
133 154 181
133 154 181
134 154 181
133 154 181
134 154 181
134 154 181
133 154 181
134 154 181
134 154 181
134 154 181
134 154 181
134 154 181
133 154 181
133 154 181
132 153 181
134 154 181
134 154 181
134 154 181
134 154 181
134 154 181
133 154 181
134 154 180
134 154 181
133 154 181
133 154 181
133 154 181
134 154 181
132 153 180
134 154 181
134 154 181
134 154 181
134 154 181
134 154 181
133 154 181
134 154 181
134 154 181
133 154 181
133 154 181
134 154 181
134 154 181
134 154 181
134 154 181
133 154 180
133 154 181
133 154 181
134 155 181
133 154 181
133 154 181
134 154 181
134 154 181
134 154 181
133 154 181
134 154 181
133 154 181
135 155 181
134 154 181
134 154 181
134 154 181
133 154 181
133 154 181
134 154 181
134 154 181
134 154 181
134 155 181
134 154 181
134 154 181
134 155 181
134 154 181
135 155 181
134 154 181
133 154 181
134 154 181
134 154 181
134 154 181
134 154 181
133 154 181
134 154 181
134 154 181
134 154 181
134 154 181
133 154 181
134 154 181
134 154 181
134 154 181
134 154 181
134 154 181
134 154 181
134 154 181
133 154 180
133 154 181
134 154 181
134 154 181
134 154 181
134 154 181
134 154 181
133 154 181
133 154 181
133 154 181
134 154 181
134 154 181
134 154 181
134 154 181
134 154 181
134 154 181
134 154 180
134 154 181
133 154 181
133 154 181
134 154 181
134 154 181
134 154 181
133 154 181
133 154 181
134 154 181
134 154 181
134 154 181
133 154 181
133 154 181
134 155 181
133 154 181
134 154 181
134 154 181
134 154 181
133 154 181
133 154 181
134 154 181
134 155 181
135 155 181
133 154 180
134 154 181
134 155 181
135 155 181
134 154 181
134 154 181
134 154 181
134 154 181
134 154 181
134 154 181
133 154 181
133 154 181
134 154 181
134 154 181
133 154 181
134 154 181
135 155 181
135 155 181
134 154 181
134 154 181
133 154 181
134 154 181
133 154 181
133 154 181
134 154 181
134 154 181
134 154 181
134 154 181
134 154 181
134 154 181
134 154 181
133 154 181
134 154 181
134 154 181
133 154 181
134 154 181
135 155 181
134 154 181
134 154 181
133 154 181
134 154 181
134 154 181
133 154 181
134 154 181
135 155 181
133 154 181
134 154 181
133 154 180
134 154 181
134 154 181
133 154 181
134 154 181
134 154 181
134 154 181
134 154 181
133 154 180
134 154 181
134 154 181
134 154 181
134 154 181
133 154 181
133 154 181
133 154 181
133 154 181
134 154 181
134 154 181
134 154 181
134 154 181
133 154 181
133 154 181
133 154 181
133 154 181
134 154 181
133 154 181
134 154 181
134 154 181
134 154 181
134 154 181
134 154 181
134 154 181
133 154 181
134 155 181
135 155 181
134 154 181
134 154 181
135 155 181
134 154 181
134 154 181
134 154 181
134 154 181
133 154 181
133 154 181
133 154 181
134 154 181
134 154 181
135 155 181
134 154 181
134 154 181
134 154 181
133 154 181
134 154 180
133 154 181
134 154 181
133 154 181
133 154 181
134 154 181
133 154 181
133 154 181
134 154 181
134 154 181
134 154 181
134 154 181
134 154 181
134 154 181
134 154 181
135 155 181
133 154 181
134 154 181
134 154 180
134 154 181
135 155 181
133 154 181
134 154 181
134 154 181
133 154 181
133 154 181
133 154 181
134 154 181
135 155 181
133 154 181
132 153 181
134 154 181
134 154 181
133 154 181
135 155 181
135 155 181
133 154 181
134 154 181
134 154 181
134 154 181
134 154 181
135 155 181
134 154 181
134 154 181
134 154 181
133 154 181
134 154 181
134 154 181
133 154 181
134 154 181
134 154 181
134 154 181
134 154 181
133 154 181
133 154 181
134 154 181
134 154 181
133 154 181
134 155 181
134 154 181
134 154 181
134 154 181
134 154 181
135 155 181
134 154 181
135 155 181
134 154 181
134 154 180
134 154 181
133 154 181
134 155 181
134 154 181
134 154 181
134 154 181
134 154 181
134 154 181
134 154 181
133 154 181
134 154 181
133 154 181
133 154 181
134 154 181
133 154 181
133 154 181
134 154 181
134 154 181
134 154 181
134 154 181
134 154 181
133 154 181
134 154 181
134 154 181
133 154 180
134 154 180
134 154 181
135 155 181
133 154 181
133 154 181
134 154 181
134 154 181
133 154 181
134 155 181
133 154 181
133 154 181
134 154 181
134 154 181
133 154 181
134 154 181
133 154 181
134 154 181
133 154 181
133 154 181
134 154 181
133 154 181
135 155 181
134 154 181
134 154 181
134 154 181
134 154 181
133 154 181
134 154 181
134 155 181
134 154 181
134 154 181
134 154 181
134 154 181
134 154 181
134 155 181
133 154 181
134 154 181
133 154 181
133 154 181
134 154 181
133 154 181
133 154 181
133 154 181
134 155 181
133 154 181
134 154 181
135 155 181
134 154 181
133 154 181
133 154 181
134 154 181
133 154 181
134 154 181
134 154 181
133 154 181
134 154 181
134 154 181
134 154 181
133 154 181
133 154 181
134 154 181
133 154 181
134 154 181
134 154 181
134 154 181
133 154 180
133 154 181
133 154 181
134 154 181
134 154 181
134 154 181
134 154 181
133 154 180
134 154 181
133 154 181
134 154 181
134 154 181
134 154 181
132 153 181
134 154 181
134 154 181
134 154 181
133 154 181
133 154 181
133 154 181
134 154 181
133 154 181
134 154 181
134 154 181
134 154 181
134 154 181
134 154 181
133 154 181
134 154 181
134 154 181
134 154 181
133 154 181
133 154 181
134 154 181
133 154 181
133 154 181
133 154 181
134 154 181
133 154 181
134 154 181
135 155 181
134 155 181
135 155 181
134 154 181
135 155 181
134 154 181
133 154 181
134 154 181
133 154 181
134 154 181
134 154 181
134 154 181
134 154 181
134 154 181
134 154 181
133 154 181
134 154 181
134 154 181
133 154 180
133 154 181
135 155 181
134 154 181
134 154 181
133 154 181
134 154 181
135 155 181
134 154 181
134 154 181
134 154 181
134 154 181
134 154 181
133 154 181
133 154 181
134 154 181
132 153 181
133 154 181
134 154 181
134 154 181
133 154 181
133 154 181
133 154 181
133 153 180
134 154 181
134 155 181
134 154 181
134 154 181
134 154 181
134 154 181
134 154 181
133 154 181
133 154 181
133 154 181
133 154 181
133 154 181
134 154 181
135 155 181
134 154 181
133 154 181
134 154 180
134 154 181
134 154 181
133 154 181
133 154 181
133 154 181
133 154 181
134 154 181
134 154 181
135 155 181
133 154 181
134 154 181
134 154 181
133 154 181
134 154 181
134 154 181
134 154 181
134 154 181
134 154 181
134 154 181
134 154 180
133 154 181
134 154 181
134 154 181
133 154 181
134 154 181
133 154 181
134 154 181
134 154 181
134 154 181
134 154 180
134 154 181
134 154 181
133 154 181
134 154 181
134 154 181
133 154 180
133 154 181
133 154 181
133 154 181
133 154 181
134 154 181
134 154 181
133 154 181
133 154 181
134 154 181
133 154 181
134 154 181
134 154 181
133 154 181
133 153 180
133 154 181
133 154 181
133 154 181
134 154 181
134 154 181
134 154 181
134 154 181
134 155 181
135 155 181
134 154 181
133 154 181
134 154 181
134 154 181
134 154 181
134 154 181
134 154 181
133 154 181
133 154 180
133 154 181
134 154 181
134 154 181
134 154 181
133 154 181
134 155 181
134 154 181
134 154 181
133 154 181
134 154 181
133 153 180
134 154 181
134 154 181
133 154 181
133 154 181
133 154 181
134 154 181
134 154 181
134 154 181
133 154 181
133 154 181
134 154 181
134 154 181
134 154 181
133 154 181
134 154 181
134 154 180
133 154 181
135 155 181
134 154 181
134 154 181
134 154 181
133 154 181
133 154 181
133 154 181
134 154 181
135 155 181
133 154 181
133 154 181
134 154 181
134 155 181
134 154 181
133 154 181
134 154 181
134 154 181
134 154 181
134 154 181
134 154 181
134 154 181
133 154 181
135 155 181
134 154 181
133 154 181
134 154 181
134 154 181
134 155 181
134 154 181
134 154 181
133 154 181
135 155 181
133 154 181
134 154 181
134 154 180
134 154 181
134 154 181
134 154 181
134 154 181
134 154 181
134 154 181
134 154 181
134 154 181
134 154 181
133 154 180
135 155 181
134 154 181
133 154 181
133 154 181
134 154 181
134 154 181
134 154 181
132 153 181
133 154 181
134 154 181
133 154 181
134 154 181
134 154 181
134 154 181
133 154 181
133 154 181
134 154 180
134 154 181
133 154 181
134 154 181
134 154 181
134 154 181
134 154 181
133 154 181
134 154 181
133 154 181
134 154 181
134 154 181
133 154 181
134 154 181
134 154 181
134 154 181
135 155 181
134 154 181
134 154 181
133 154 181
134 154 181
134 155 181
134 154 181
134 155 181
134 154 181
133 154 181
134 154 181
135 155 181
133 154 181
133 154 181
134 154 181
133 154 181
133 154 181
134 154 181
134 154 181
134 154 181
134 154 181
135 155 181
134 154 181
134 154 181
133 154 181
134 154 180
134 154 181
134 154 181
134 154 181
134 154 181
134 154 181
135 155 181
133 154 181
132 153 181
134 154 181
134 154 181
134 154 181
134 154 181
134 154 181
134 154 181
133 154 181
134 154 181
134 154 181
133 154 181
135 155 181
134 154 181
134 154 181
134 154 181
134 154 181
134 154 181
134 154 181
134 154 181
134 154 181
133 154 181
133 154 181
134 154 181
134 154 181
134 154 181
135 155 181
135 155 181
135 155 181
133 154 181
133 154 181
133 154 181
134 154 181
133 154 181
134 154 181
134 154 181
134 154 181
134 154 181
134 154 181
134 154 181
133 154 181
133 154 180
133 154 181
134 154 181
134 154 181
133 154 181
133 154 181
133 154 180
134 154 181
135 155 181
135 155 181
133 154 181
134 154 181
134 154 181
134 154 181
134 154 181
134 154 181
133 154 181
133 154 181
134 154 181
134 154 181
134 154 181
133 154 181
133 154 181
134 154 181
133 154 181
133 154 181
134 154 181
134 154 180
133 154 181
134 154 181
134 154 181
134 154 181
134 154 181
134 154 181
134 154 181
134 154 181
134 154 181
134 154 181
134 154 181
133 154 181
134 155 181
134 154 181
134 154 181
134 154 181
134 154 181
134 154 181
134 154 181
134 154 181
134 154 181
134 154 181
134 154 181
135 155 181
134 154 181
134 154 181
134 154 181
133 154 181
134 154 181
134 154 181
134 154 181
134 154 181
133 154 181
134 154 181
134 154 181
134 154 181
134 154 181
134 154 181
134 154 181
133 154 181
133 154 181
133 154 181
133 154 181
134 154 181
134 154 181
134 154 181
134 154 181
134 154 181
133 153 180
133 154 181
133 154 181
134 154 181
134 154 181
133 154 181
134 154 181
134 154 181
134 154 181
134 154 181
133 154 181
133 154 181
134 154 181
134 154 181
133 154 181
135 155 181
133 154 181
133 154 181
134 154 181
133 154 181
134 154 181
134 154 181
134 154 181
133 154 181
134 154 181
134 154 181
134 155 181
134 154 181
133 154 181
134 154 181
134 154 181
133 154 181
133 154 181
134 154 181
133 154 181
133 154 181
134 155 181
133 154 181
133 154 181
133 154 181
133 154 180
134 154 181
133 154 181
134 154 181
134 154 181
133 153 180
134 154 181
133 154 181
134 154 181
134 154 181
134 154 181
134 154 181
133 154 181
133 154 181
133 154 181
134 154 181
134 154 181
134 154 181
134 154 181
134 154 181
135 155 181
134 154 181
134 154 181
134 154 181
134 154 181
134 154 181
134 154 181
134 154 181
133 154 181
133 154 181
134 154 180
134 155 181
134 154 181
133 154 180
134 154 181
134 154 181
134 154 181
134 154 181
134 154 181
133 154 181
134 154 181
133 154 181
133 154 181
133 154 181
134 154 181
133 154 180
134 154 181
134 154 181
133 154 181
134 154 181
134 154 181
133 154 181
134 154 181
133 154 181
134 154 181
133 154 181
134 154 181
134 154 181
133 154 180
133 154 181
135 155 181
134 154 181
133 154 181
133 154 181
134 154 181
134 154 181
134 154 181
134 154 181
134 154 181
133 154 181
135 155 181
134 154 181
134 154 181
134 154 181
134 154 181
134 154 181
133 154 181
133 154 181
134 154 181
133 154 181
133 154 181
134 154 181
134 154 181
133 154 181
133 154 181
134 154 181
134 154 181
134 154 181
134 154 181
134 154 181
133 154 181
134 154 181
134 154 181
133 154 181
135 155 181
134 154 181
133 154 180
133 154 181
133 154 181
133 154 181
134 155 181
133 154 181
134 154 181
133 154 181
134 154 181
133 154 181
134 154 181
134 154 181
133 154 181
134 154 181
133 154 181
134 154 181
134 154 181
134 154 181
134 154 181
134 154 181
134 154 181
135 155 181
134 154 181
134 154 181
132 153 180
134 154 181
134 154 181
133 154 180
133 154 181
134 154 181
133 154 181
133 154 181
134 154 181
134 154 181
135 155 181
134 154 181
133 154 181
134 154 181
134 154 181
134 154 181
134 154 181
134 154 181
134 154 181
133 154 181
134 154 181
133 154 181
133 154 181
134 154 181
134 154 181
134 154 181
134 154 181
134 154 181
133 154 181
134 155 181
134 154 181
134 154 181
134 155 181
133 154 181
134 154 181
133 154 181
134 154 181
133 154 181
133 154 181
134 154 181
135 155 181
134 154 181
134 154 181
134 154 181
133 154 181
133 154 181
134 154 181
133 154 181
134 154 181
134 154 181
134 154 181
133 154 181
134 154 181
133 154 181
134 154 181
133 154 181
134 154 181
134 154 181
133 154 181
134 154 181
134 154 181
135 155 181
134 154 181
133 154 181
134 154 181
133 154 181
135 155 181
133 154 181
133 154 180
134 154 181
134 154 181
133 154 181
134 154 181
133 154 181
134 154 181
134 154 181
133 154 181
134 154 181
134 154 181
134 154 181
133 154 181
134 154 181
134 154 180
134 154 181
134 154 181
134 154 181
133 154 181
134 154 181
134 154 180
134 154 181
135 155 181
133 154 181
133 154 181
134 154 181
133 154 181
134 154 181
132 153 181
133 154 181
134 154 181
134 154 181
133 154 181
133 154 181
133 154 181
134 154 181
134 154 181
134 154 181
134 154 181
134 154 181
134 154 181
134 154 181
134 154 181
134 154 181
134 154 181
133 154 181
134 154 181
135 155 181
135 155 181
135 155 181
133 154 181
134 154 181
133 154 181
134 154 181
134 155 181
133 154 181
133 154 181
134 154 181
133 154 181
134 154 181
134 154 181
133 154 181
135 155 181
134 154 181
133 154 181
133 154 181
134 154 181
134 154 181
133 154 181
134 154 181
133 154 181
133 154 181
134 154 181
134 154 181
134 154 181
133 154 181
133 154 181
134 154 181
134 154 181
133 154 181
134 154 181
133 154 181
133 154 181
134 154 181
134 154 181
133 154 181
134 154 181
134 154 181
134 154 181
135 155 181
133 154 181
134 154 181
135 155 181
134 154 181
134 154 181
133 154 181
133 154 181
134 154 181
134 154 180
133 154 181
134 154 181
134 154 181
135 155 181
134 154 181
133 154 181
134 154 181
134 154 181
133 154 181
134 154 181
134 154 181
134 155 181
133 154 180
134 154 181
134 154 181
134 154 181
133 154 181
134 154 181
134 154 181
134 154 181
134 154 181
133 154 181
134 154 181
133 154 181
134 155 181
135 155 181
134 155 181
134 154 181
133 154 181
134 154 181
134 154 181
133 154 181
134 154 180
134 154 181
134 154 181
134 154 181
133 154 181
134 154 181
134 154 181
134 154 181
133 154 181
134 155 181
133 154 181
133 154 181
134 154 181
134 155 181
134 154 181
133 154 181
133 154 181
134 154 181
134 154 181
133 154 181
134 154 181
133 154 181
134 155 181
135 155 181
134 154 181
134 154 181
133 154 181
133 154 181
133 154 181
134 154 181
133 154 181
134 154 181
133 154 181
134 154 181
135 155 181
134 154 181
134 154 181
134 154 181
134 154 181
133 154 181
133 154 181
133 154 181
134 154 181
134 154 181
134 154 181
133 154 181
134 154 181
134 154 181
134 154 181
133 154 181
134 154 181
134 154 181
134 154 181
133 154 181
134 154 181
133 154 181
133 154 181
135 155 181
134 154 181
135 155 181
134 154 181
134 154 181
134 154 181
133 154 181
133 154 181
135 155 181
134 154 181
134 154 181
135 155 181
134 154 181
133 153 180
133 154 181
135 155 181
134 154 181
134 154 181
133 154 181
133 154 181
134 154 181
134 154 181
134 154 181
134 154 181
134 154 181
133 154 181
133 154 181
133 154 181
134 154 181
133 154 181
134 154 181
135 155 181
133 154 181
133 154 181
133 154 181
134 154 181
134 154 181
133 154 181
134 154 181
134 154 181
134 154 181
135 155 181
135 155 181
133 154 181
134 154 181
134 154 181
134 154 181
134 154 181
134 154 181
135 155 181
133 154 181
134 154 181
135 155 181
133 154 180
134 154 181
134 154 181
134 154 181
134 154 181
135 155 181
134 154 181
134 154 181
134 154 181
134 154 180
134 154 181
133 154 181
134 154 180
134 154 181
134 154 181
134 154 181
134 154 181
134 154 181
133 154 181
134 154 181
135 155 181
134 154 181
134 154 181
133 154 181
134 154 181
133 154 181
134 154 181
135 155 181
134 154 181
134 154 181
134 154 181
134 154 181
133 154 181
134 154 181
134 154 181
135 155 181
134 154 181
134 154 181
135 155 181
134 154 181
133 154 181
133 154 181
134 154 181
134 154 181
133 154 181
133 154 181
134 154 181
134 154 181
134 154 181
134 154 181
133 154 181
134 154 181
133 154 181
134 154 181
134 154 181
134 154 181
133 154 181
133 154 181
134 155 181
133 154 181
133 154 181
135 155 181
134 154 181
134 154 181
133 154 181
135 155 181
134 154 181
133 154 181
134 154 181
133 154 181
135 155 181
133 154 181
134 154 181
134 154 181
134 155 181
134 154 181
134 154 181
134 154 181
133 154 181
133 154 181
134 154 181
133 154 181
134 154 181
135 155 181
133 154 180
134 154 181
134 154 181
135 155 181
134 154 181
133 154 181
134 154 181
134 154 181
134 154 181
135 155 181
134 155 181
134 154 181
134 154 181
134 154 181
135 155 181
133 154 181
134 154 181
133 154 181
133 154 181
134 155 181
134 154 181
133 154 181
135 155 181
133 154 181
134 154 181
134 154 181
134 154 181
134 154 181
134 154 181
134 154 181
133 154 181
134 154 181
134 154 181
133 154 180
133 154 180
134 154 181
134 154 181
135 155 181
134 154 181
134 154 181
134 154 181
133 154 181
134 154 181
134 154 181
134 154 181
134 154 181
134 154 181
134 154 181
133 154 181
133 154 181
134 154 181
133 154 181
134 154 180
134 154 181
134 154 181
134 154 181
134 154 181
135 155 181
133 154 181
133 154 181
133 154 181
134 154 181
134 154 181
134 154 181
134 154 181
134 154 181
133 154 181
135 155 181
134 154 181
134 154 181
133 154 181
134 154 181
134 154 181
133 154 180
134 154 181
133 154 181
134 154 181
134 154 181
134 154 181
133 154 181
134 154 181
133 154 181
133 154 180
134 154 181
134 155 181
134 154 181
133 154 181
134 154 181
134 154 181
135 155 181
134 154 181
133 154 181
135 155 181
134 154 181
133 154 181
135 155 181
133 154 181
133 154 181
134 154 181
134 154 181
133 154 181
134 154 181
134 154 181
133 154 180
135 155 181
134 154 181
133 154 181
134 154 181
134 154 181
133 154 181
133 154 181
134 154 181
134 154 181
134 154 181
134 154 181
135 155 181
133 154 181
135 155 181
134 154 181
134 154 181
133 154 181
134 154 181
134 154 181
133 154 181
134 154 181
134 154 181
134 154 181
133 154 181
134 154 181
134 155 181
134 154 181
134 154 181
133 154 181
134 154 181
134 154 181
134 154 181
134 154 181
132 153 181
134 154 181
133 154 181
133 154 181
134 154 181
134 154 181
133 154 181
133 154 181
134 154 181
134 154 180
133 154 181
133 154 181
134 154 181
134 154 181
134 154 181
133 154 181
134 154 181
134 154 181
135 155 181
134 154 181
134 154 181
134 154 181
133 154 181
134 154 181
134 154 181
133 154 181
134 154 181
134 154 181
134 154 181
133 154 181
134 155 181
133 154 181
134 154 181
134 154 181
134 154 181
133 154 181
133 154 181
134 154 181
134 154 181
134 154 181
134 154 181
134 154 181
133 154 181
133 154 180
134 154 181
133 154 181
134 154 181
134 154 181
133 154 181
134 154 181
134 154 181
134 154 181
134 154 180
134 155 181
134 154 181
134 154 181
134 154 181
134 154 181
134 154 181
133 154 181
133 154 181
134 154 181
134 154 181
134 154 181
134 155 181
133 154 181
135 155 181
134 154 181
133 154 181
134 154 181
134 154 181
134 154 181
134 154 181
134 154 181
134 154 181
134 154 181
134 155 181
133 154 181
134 154 181
133 154 181
134 154 181
134 154 181
134 154 181
134 154 181
134 154 181
133 154 181
133 154 181
133 154 181
134 154 181
134 154 181
134 154 181
133 154 181
135 155 181
134 154 181
134 154 181
134 154 181
134 154 181
134 154 181
133 154 181
134 154 181
134 154 181
133 154 181
133 154 181
133 154 181
134 154 181
133 154 181
134 154 180
133 154 181
133 154 180
134 154 181
134 154 181
134 154 181
134 154 181
135 155 181
133 154 181
133 154 181
133 154 181
133 154 181
134 154 181
133 154 181
134 154 181
133 154 180
134 154 181
134 154 181
135 155 181
133 154 181
135 155 181
133 154 181
135 155 181
135 155 181
134 154 181
133 154 181
133 154 181
135 155 181
133 154 181
135 155 181
133 154 181
134 154 181
134 154 181
134 155 181
134 154 181
134 154 181
134 154 181
134 154 181
134 154 181
133 154 181
134 154 181
134 154 181
134 154 180
134 155 181
134 154 181
134 154 181
134 154 181
134 154 181
133 154 181
133 154 181
133 154 181
134 154 181
133 154 181
134 154 181
134 154 181
134 154 181
134 154 180
133 154 181
134 154 181
135 155 181
133 154 181
133 154 181
134 155 181
134 154 181
134 154 181
134 154 181
134 154 181
135 155 181
134 155 181
134 154 181
133 154 181
135 155 181
134 154 181
133 154 181
134 154 181
135 155 181
134 154 181
134 155 181
134 154 181
133 154 181
134 154 181
134 154 181
134 154 181
134 154 181
134 154 181
133 154 181
134 154 181
134 154 181
134 154 181
135 155 181
134 154 181
133 154 181
134 154 181
134 154 181
133 154 181
133 154 181
134 154 181
135 155 181
134 154 181
133 154 181
134 154 181
135 155 181
134 154 181
134 154 181
134 154 181
133 154 181
133 154 181
134 154 181
134 154 181
134 154 181
134 154 181
134 154 181
134 154 181
133 154 181
134 154 181
134 154 181
135 155 181
134 154 181
134 154 181
134 154 181
134 154 181
134 154 181
134 154 181
133 154 181
134 154 181
133 154 181
133 154 181
134 154 181
135 155 181
134 154 181
134 154 181
133 154 180
134 154 181
134 154 181
135 155 181
134 154 181
134 154 181
133 154 181
134 154 181
135 155 181
135 155 181
134 154 181
135 155 181
134 154 181
135 155 181
134 154 181
134 154 181
134 154 181
134 154 181
135 155 181
134 154 181
133 154 181
133 154 181
134 154 181
133 154 181
134 154 181
134 154 181
134 154 181
134 154 181
133 154 181
134 154 181
133 154 181
135 155 181
134 154 181
134 154 181
134 154 181
134 154 181
134 154 181
134 154 181
135 155 181
134 154 181
134 154 181
133 154 181
134 154 181
134 154 181
134 154 181
134 154 181
134 154 181
133 154 181
135 155 181
135 155 181
134 154 181
133 154 181
134 154 181
134 154 181
134 154 181
134 154 181
134 154 181
134 154 181
134 154 181
134 154 181
133 154 181
134 154 181
133 154 181
134 154 181
134 154 181
133 154 181
133 154 181
134 154 181
134 154 181
133 154 181
134 154 181
134 154 181
134 154 181
133 154 181
135 155 181
134 154 181
134 154 181
135 155 181
134 154 181
134 155 181
133 154 181
134 154 181
133 154 181
135 155 181
133 154 181
134 154 181
134 154 181
134 154 181
134 154 181
134 154 181
134 154 181
134 154 180
134 154 181
135 155 181
134 154 181
135 155 181
133 154 181
135 155 181
133 154 181
134 154 181
133 154 181
134 154 181
133 154 181
134 154 181
134 154 181
135 155 181
134 154 181
134 154 181
134 154 181
135 155 181
133 154 180
133 154 181
134 154 181
133 154 181
135 155 181
133 154 181
134 154 181
134 154 181
134 154 181
133 154 181
133 154 181
134 154 181
134 154 181
134 154 181
134 154 180
134 154 181
133 154 181
134 154 180
134 154 181
134 154 181
133 154 181
133 154 181
135 155 181
134 155 181
132 153 181
133 154 181
134 154 181
134 154 181
134 154 181
134 154 181
134 154 181
134 154 181
133 154 181
134 154 181
133 154 181
133 154 181
134 154 181
133 154 181
134 154 181
133 154 181
134 154 181
133 154 181
134 154 181
134 154 181
133 154 181
134 154 181
134 154 181
133 154 181
133 154 181
134 154 181
134 154 181
133 154 181
134 154 181
133 154 181
134 154 181
134 155 181
135 155 181
135 155 181
134 154 181
134 154 181
134 154 181
133 154 181
133 154 181
134 154 181
133 154 181
133 154 181
134 154 181
134 154 181
134 154 181
133 154 181
134 154 181
133 154 181
135 155 181
133 154 181
133 154 181
134 154 181
134 154 181
133 154 181
134 154 181
134 154 181
134 154 181
134 154 181
134 154 181
133 154 181
134 154 181
134 154 181
135 155 181
133 154 181
135 155 181
134 154 181
133 154 181
133 154 181
134 154 181
134 154 181
134 154 181
135 155 181
133 154 181
134 154 181
134 154 181
132 153 181
134 154 181
134 154 181
135 155 181
135 155 181
133 154 181
134 154 181
133 154 181
134 154 181
134 154 181
134 154 181
133 154 181
133 154 181
134 154 181
133 154 181
135 155 181
135 155 181
134 155 181
133 154 181
133 154 181
134 154 181
134 154 181
134 154 181
135 155 181
134 154 181
135 155 181
133 154 181
133 154 181
134 154 181
134 154 181
134 154 181
134 154 181
134 154 181
133 154 181
134 154 181
133 154 181
133 154 181
134 154 181
133 154 181
134 154 181
134 154 181
134 154 180
134 154 181
134 154 181
134 154 181
134 155 181
134 154 181
134 154 181
133 154 181
135 155 181
134 154 181
134 154 181
134 154 181
133 154 181
134 155 181
134 154 181
134 154 181
134 154 181
134 154 181
133 154 181
134 154 181
134 155 181
133 154 181
134 154 181
134 154 181
134 154 181
133 154 181
133 154 181
133 154 181
134 154 181
134 154 181
134 154 181
133 154 181
134 154 181
133 154 181
134 154 181
134 154 181
134 154 181
133 154 181
133 154 181
134 154 181
134 154 181
134 154 181
134 154 181
133 154 181
134 154 181
134 154 181
133 154 181
133 154 181
135 155 181
133 154 181
134 154 181
133 154 181
134 154 181
135 155 181
133 154 181
134 154 181
134 154 181
133 154 181
134 154 181
134 154 181
134 154 181
134 154 181
134 154 181
135 155 181
134 154 181
134 154 181
134 154 181
134 155 181
133 154 181
134 154 181
134 154 181
134 154 181
134 154 181
133 154 181
133 153 180
133 154 181
134 154 181
135 155 181
133 154 181
134 154 181
134 154 181
134 154 181
134 154 181
135 155 181
134 154 181
134 154 181
134 154 181
134 154 181
134 154 181
133 154 181
134 154 181
133 154 180
133 154 181
134 154 181
134 154 181
134 154 181
134 154 181
134 154 181
133 154 181
134 154 181
134 154 181
134 154 181
134 154 181
133 154 181
134 154 181
135 155 181
134 155 181
134 154 181
134 154 181
135 155 181
134 154 181
134 154 180
134 154 181
134 154 181
133 154 181
134 154 181
134 154 181
133 154 181
133 154 181
134 154 181
133 154 181
133 154 181
134 154 181
134 154 181
134 154 181
133 154 181
134 154 181
133 154 181
133 154 181
134 154 181
135 155 181
134 154 181
133 154 181
134 154 181
133 153 180
134 154 181
134 154 181
133 154 181
133 154 181
133 154 181
134 154 181
133 154 180
133 154 181
133 154 181
134 154 181
133 154 181
134 154 181
134 154 181
134 155 181
134 154 181
134 154 181
133 154 181
135 155 181
133 154 181
134 154 181
133 154 181
135 155 181
133 154 181
134 154 181
134 154 181
135 155 181
134 154 181
133 154 181
133 154 181
133 154 181
134 155 181
135 155 181
134 154 181
134 154 181
134 154 181
134 154 181
134 154 181
134 154 181
134 154 181
133 154 181
134 154 181
135 155 181
135 155 181
134 154 181
133 154 181
134 154 181
134 154 181
134 154 181
134 154 181
134 154 181
134 154 181
133 153 180
135 155 181
134 154 181
133 154 181
134 154 181
135 155 181
134 154 181
134 154 181
134 154 181
133 154 180
134 154 181
135 155 181
135 155 181
133 154 181
134 154 181
134 154 181
134 154 181
133 154 181
134 154 181
133 154 181
134 154 181
134 154 181
134 154 181
133 154 181
134 154 181
134 154 181
134 154 181
134 154 181
133 154 181
134 154 181
133 154 181
133 154 181
134 154 181
134 154 181
134 154 181
134 154 181
134 154 180
134 155 181
134 154 181
134 154 181
133 154 181
134 154 181
134 154 181
134 154 181
133 154 181
134 154 181
133 154 181
133 154 181
134 154 181
134 154 181
132 153 181
134 154 181
135 155 181
134 154 181
134 154 181
135 155 181
133 154 181
134 155 181
134 154 181
134 154 181
134 154 181
134 154 181
133 154 181
135 155 181
134 154 181
134 154 181
134 154 181
134 154 181
133 154 181
133 153 180
133 154 181
134 154 181
134 154 181
133 154 181
134 154 181
135 155 181
134 154 181
134 154 181
134 154 181
133 154 181
134 154 181
133 154 181
133 154 181
134 154 181
134 154 181
134 154 181
133 154 181
134 154 181
133 154 181
134 154 181
135 155 181
133 154 181
134 154 181
134 154 181
134 154 181
134 154 181
134 154 181
134 154 181
134 154 181
133 154 181
133 154 181
134 154 181
134 154 181
134 154 181
133 154 181
134 154 181
135 155 181
134 154 181
133 154 181
134 154 181
134 154 181
134 154 181
134 154 181
133 154 181
134 154 181
134 154 180
134 154 181
135 155 181
134 154 181
134 154 181
134 154 181
133 154 181
134 154 181
134 154 181
133 154 181
134 154 181
133 154 181
134 154 181
133 154 181
134 154 181
133 154 181
134 154 181
135 155 181
133 154 181
133 154 181
134 155 181
134 154 181
134 154 181
134 154 181
134 154 181
134 154 181
134 154 181
134 154 181
133 154 181
133 154 181
134 154 181
133 154 181
134 154 181
134 154 181
133 154 181
134 154 181
134 154 181
134 154 181
134 154 181
133 154 181
134 154 181
134 154 181
133 154 181
133 154 181
134 154 181
133 154 181
134 154 181
134 154 181
134 154 181
134 154 181
134 154 181
134 154 181
133 154 181
134 155 181
133 154 181
135 155 181
133 154 181
134 154 181
134 154 181
133 154 180
134 154 181
133 154 181
133 154 181
133 154 180
134 154 181
134 154 181
134 154 180
133 154 181
134 154 181
135 155 181
133 154 181
134 154 181
134 154 181
133 154 181
135 155 181
133 154 181
134 154 181
134 154 181
134 154 181
134 154 181
134 154 181
134 154 181
133 154 181
134 154 181
133 154 181
134 154 181
133 154 181
133 154 180
133 154 181
133 154 181
134 154 181
134 154 181
133 154 181
134 154 181
134 154 181
133 154 181
134 154 181
133 154 181
134 154 181
134 154 181
134 154 181
134 154 181
135 155 181
134 154 181
133 154 181
134 154 181
134 154 181
134 154 181
133 154 181
135 155 181
134 154 181
134 154 181
133 154 181
135 155 181
134 154 181
134 154 181
134 154 181
134 154 181
134 154 181
134 154 181
133 154 181
133 154 181
134 154 181
133 154 181
134 154 181
134 154 181
135 155 181
133 154 181
133 154 181
134 154 181
134 154 181
133 154 181
134 154 181
134 154 181
135 155 181
133 154 181
134 154 181
134 154 181
134 154 180
134 154 181
134 154 181
134 154 181
135 155 181
133 154 181
134 154 181
132 153 181
135 155 181
133 154 181
134 154 181
134 154 181
134 154 181
134 154 181
134 154 181
133 154 181
133 154 181
133 154 181
134 154 181
135 155 181
134 154 181
133 154 181
134 154 181
134 154 181
134 155 181
133 154 181
134 154 181
133 154 181
134 155 181
134 154 181
134 154 181
134 155 181
133 154 181
134 154 181
133 154 181
133 154 180
134 154 181
135 155 181
134 154 181
134 154 181
133 154 181
134 154 181
134 154 181
134 154 181
133 154 181
134 154 181
133 154 181
134 154 181
134 154 181
133 154 181
133 154 181
134 154 181
133 154 181
133 154 181
134 154 181
133 154 181
133 154 181
134 154 181
135 155 181
134 154 181
135 155 181
135 155 181
133 154 181
134 154 181
132 153 181
133 154 181
134 154 181
134 154 181
134 154 181
134 154 181
134 154 181
134 154 180
134 154 181
133 154 181
133 154 181
133 154 181
134 154 181
133 154 180
134 154 181
134 154 181
134 154 181
134 154 181
134 155 181
134 154 181
133 154 181
134 154 180
134 154 181
133 154 181
134 154 181
134 154 181
134 154 181
134 154 181
135 155 181
133 154 181
133 154 181
133 154 181
133 154 181
134 154 181
133 154 181
133 154 181
134 154 181
133 154 181
134 154 181
134 154 181
134 154 181
134 154 181
133 154 181
135 155 181
133 154 181
133 154 181
134 154 181
134 154 181
135 155 181
134 154 181
134 154 181
133 154 181
133 154 181
133 154 181
134 154 181
134 154 181
133 154 181
134 154 181
134 154 181
134 154 181
134 154 181
134 154 181
134 154 181
134 154 181
135 155 181
134 154 181
133 154 181
133 154 181
133 154 181
134 154 181
134 154 181
134 154 181
134 154 181
133 154 180
134 154 181
133 154 181
134 154 181
134 154 181
134 154 181
133 154 181
134 154 181
134 154 181
134 154 181
134 154 181
134 154 181
133 154 181
133 154 181
134 154 181
134 154 181
135 155 181
135 155 181
133 154 180
134 154 181
133 154 181
134 154 181
133 154 181
134 154 181
133 154 181
134 154 181
133 154 181
134 154 181
133 154 181
134 154 181
133 154 181
134 154 181
134 154 181
134 154 181
133 154 181
134 154 181
134 154 181
133 154 181
134 154 181
133 154 181
133 154 181
134 154 181
134 154 181
133 154 181
133 154 181
134 155 181
134 154 181
134 154 181
134 154 181
134 154 181
133 154 181
133 154 181
134 154 181
133 154 181
133 154 181
133 153 180
133 154 181
135 155 181
134 154 181
133 154 181
134 154 181
133 154 181
134 154 181
134 154 181
134 154 181
134 154 181
133 154 181
134 154 181
134 154 181
134 154 180
133 154 181
134 154 181
134 154 181
134 154 181
134 154 181
134 154 181
134 154 181
133 154 181
134 154 181
135 155 181
133 154 181
133 154 181
134 154 181
134 154 181
134 154 181
134 154 181
134 155 181
135 155 181
133 154 181
134 154 181
134 154 181
134 154 181
134 154 181
133 154 181
134 154 181
133 154 181
134 154 181
134 154 181
133 154 181
134 154 181
134 154 181
134 154 181
133 154 181
134 154 181
134 154 181
134 154 181
135 155 181
133 154 181
134 154 181
134 154 181
134 154 181
133 154 181
133 154 181
133 154 181
134 154 181
133 154 181
135 155 181
134 154 181
134 154 181
134 154 181
134 154 181
133 154 181
134 154 181
133 154 181
134 154 181
134 154 181
135 155 181
134 154 181
134 154 181
134 154 181
134 154 181
134 154 181
134 154 181
133 154 181
133 154 181
134 154 181
134 154 181
134 154 181
133 154 181
134 154 181
134 154 181
133 154 181
133 154 180
133 154 181
134 154 181
134 154 181
134 154 181
134 154 181
134 155 181
134 154 181
133 154 181
134 154 181
133 154 181
133 154 181
134 154 181
133 154 181
133 154 181
134 154 181
134 154 181
134 154 181
134 154 180
134 154 181
134 154 181
134 154 181
133 154 181
134 154 181
134 154 181
133 154 181
133 154 181
133 154 181
134 154 181
134 154 181
133 154 181
134 154 181
134 154 180
133 154 181
134 154 181
133 154 181
134 154 181
134 154 181
133 154 181
134 154 181
134 154 181
134 154 181
133 154 181
133 154 181
134 154 181
133 154 181
133 154 181
134 154 181
134 154 181
134 154 181
134 154 181
134 154 181
134 154 181
134 154 181
133 154 181
134 154 181
133 154 180
134 154 181
135 155 181
134 154 181
134 154 181
134 154 181
134 154 181
132 153 181
133 154 181
133 154 181
133 154 181
134 154 181
134 154 181
133 154 181
133 154 181
135 155 181
134 154 181
134 154 181
134 154 181
134 154 181
133 154 181
133 154 181
133 154 181
134 154 181
133 154 181
134 154 181
133 154 181
133 154 181
133 154 181
134 154 181
133 154 181
134 154 181
133 154 181
134 154 181
133 154 181
133 154 181
134 154 181
134 154 181
134 154 181
134 154 181
133 154 181
133 154 181
135 155 181
133 154 181
133 154 181
134 155 181
134 154 181
135 155 181
133 154 181
134 154 181
133 154 181
135 155 181
134 154 181
134 154 181
134 154 181
134 154 181
134 154 181
133 154 181
133 154 181
134 154 181
134 155 181
133 154 181
134 154 181
134 154 181
133 154 181
133 154 181
133 154 181
135 155 181
134 154 181
134 154 181
134 154 181
134 154 181
133 154 181
134 154 181
134 154 181
134 154 181
134 154 181
134 154 181
133 154 181
134 154 181
135 155 181
134 154 181
134 154 181
134 154 181
133 154 181
134 154 181
134 154 181
133 154 181
134 154 181
134 154 181
133 154 181
133 154 181
133 154 181
134 154 181
135 155 181
134 154 181
134 154 181
134 154 181
134 154 180
134 154 181
134 154 181
133 154 181
134 154 181
133 154 181
133 154 181
133 154 181
134 154 181
133 154 181
133 154 181
134 154 181
134 154 181
134 154 181
133 154 181
134 154 181
134 154 181
134 154 181
134 154 181
134 154 181
134 154 181
134 154 181
134 154 181
134 154 181
133 154 181
134 154 181
134 154 181
134 154 181
133 154 181
133 154 180
134 154 181
134 155 181
133 154 181
134 154 181
134 154 181
134 154 181
133 154 181
135 155 181
134 155 181
133 154 181
133 154 181
134 155 181
133 154 181
133 154 181
134 154 181
134 154 181
133 154 181
134 154 181
134 154 181
134 154 181
133 154 181
133 154 181
134 154 181
134 154 181
133 154 181
133 154 181
134 154 181
135 155 181
133 154 181
134 154 181
134 154 181
134 154 181
134 154 181
133 154 181
135 155 181
134 154 181
134 154 181
134 154 181
133 154 181
135 155 181
133 154 181
133 154 181
133 154 181
133 154 181
134 154 181
134 154 181
133 154 181
133 154 181
133 154 181
134 154 181
135 155 181
134 154 181
134 154 181
133 154 181
133 154 181
134 154 181
135 155 181
134 154 181
134 154 181
133 154 181
133 154 181
133 154 180
134 154 181
134 154 181
134 155 181
133 154 181
133 154 181
134 154 181
134 154 181
134 154 181
134 154 181
134 154 181
133 154 181
134 154 181
134 154 181
133 154 181
134 154 181
134 154 181
134 154 181
134 154 181
134 155 181
133 154 181
133 154 181
134 154 181
134 154 181
133 154 181
133 154 181
133 154 181
133 154 180
134 154 181
134 154 181
134 154 181
133 154 181
133 154 181
134 154 181
134 154 181
134 154 181
134 154 181
133 154 181
133 154 181
134 154 181
133 154 181
134 154 181
134 154 181
133 154 181
133 154 181
134 154 181
134 154 181
134 154 181
134 154 181
135 155 181
134 154 181
134 154 181
134 154 181
134 154 181
134 154 181
134 154 181
134 154 181
134 154 181
133 154 181
134 154 181
134 154 181
133 154 181
133 154 181
134 154 181
134 154 181
134 154 181
134 154 181
134 154 181
133 154 181
133 153 180
133 153 180
134 154 181
133 154 181
135 155 181
135 155 181
133 154 181
134 154 181
133 154 181
134 154 181
134 154 181
134 154 181
133 154 181
135 155 181
135 155 181
133 154 181
134 154 181
134 154 181
134 154 181
134 154 181
133 154 181
133 154 181
135 155 181
134 155 181
134 154 181
134 154 181
134 154 181
134 154 181
133 154 181
134 154 181
135 155 181
134 154 181
134 154 180
134 154 181
134 154 181
132 153 181
134 154 181
134 154 181
133 154 181
133 154 181
133 154 181
133 154 180
134 154 181
134 154 181
133 154 181
134 154 181
133 154 181
133 154 181
134 155 181
134 154 181
133 154 181
133 154 181
133 154 180
133 154 181
134 154 181
134 154 181
134 154 181
134 154 181
133 154 181
134 154 181
134 154 181
133 154 181
134 154 181
134 154 181
134 154 181
134 154 181
134 154 181
134 154 181
134 154 181
134 154 181
134 154 181
134 154 181
134 154 181
134 154 181
134 154 181
134 154 181
134 154 181
133 154 181
133 154 181
134 154 181
135 155 181
134 155 181
133 154 181
133 154 181
134 154 181
133 154 181
135 155 181
133 154 181
133 154 181
133 153 180
134 154 181
134 154 181
134 154 181
135 155 181
133 154 180
133 154 181
134 155 181
133 154 181
134 154 181
134 154 181
133 154 181
134 154 181
133 154 181
134 154 181
133 154 181
134 154 181
134 154 181
133 154 181
133 154 181
134 154 181
134 154 181
134 154 181
134 154 181
133 154 181
134 154 181
133 154 181
133 154 180
135 155 181
134 154 181
134 154 181
134 154 181
134 154 181
134 154 181
133 154 181
134 154 181
135 155 181
135 155 181
134 154 181
133 154 181
134 154 181
134 154 181
134 154 181
133 154 180
133 154 181
135 155 181
133 154 181
133 154 181
133 154 181
134 154 181
134 154 181
134 154 181
133 154 181
134 154 180
133 154 181
134 154 181
134 154 181
134 154 181
134 154 181
134 154 181
134 154 181
134 154 181
134 154 181
133 154 181
134 154 181
133 154 181
134 154 181
134 154 181
133 154 181
134 154 181
133 154 181
134 154 181
134 154 181
133 154 181
133 154 181
133 154 181
134 154 181
134 154 181
134 154 180
134 154 181
133 154 181
134 154 181
134 155 181
133 154 181
133 154 181
134 154 180
134 154 181
133 154 181
134 154 181
134 154 181
134 154 181
134 154 181
134 154 181
134 154 181
133 154 181
133 154 181
133 154 181
133 154 181
134 154 181
134 154 181
134 154 181
133 154 181
133 154 181
134 154 181
133 154 181
133 154 181
134 154 181
134 154 181
133 154 181
133 154 181
134 155 181
134 154 180
133 154 181
133 154 181
133 154 181
133 154 181
135 155 181
135 155 181
134 154 181
133 154 181
133 154 181
135 155 181
134 154 181
133 154 181
134 154 181
134 154 181
135 155 181
134 154 181
134 154 181
134 154 181
134 154 181
134 154 181
134 154 181
134 154 181
134 154 181
133 154 181
135 155 181
134 154 181
134 154 181
134 154 181
134 154 181
134 154 181
134 154 181
135 155 181
134 154 181
134 154 181
134 154 181
134 154 181
134 154 181
133 154 181
134 154 181
133 154 181
134 154 181
132 153 181
134 154 181
134 154 181
133 154 181
134 154 181
134 155 181
135 155 181
134 155 181
133 154 181
134 154 181
134 154 181
135 155 181
134 154 181
135 155 181
133 154 181
133 154 181
134 154 181
133 154 180
134 154 181
134 154 181
133 154 181
135 155 181
134 154 181
134 154 181
134 154 181
134 154 181
134 154 181
133 154 181
134 154 181
134 154 181
133 154 181
134 154 181
135 155 181
133 154 181
134 154 181
134 154 181
135 155 181
134 154 181
134 154 181
133 154 181
133 154 181
135 155 181
134 154 181
133 154 181
133 154 181
133 154 181
135 155 181
133 154 181
134 154 181
134 154 181
135 155 181
134 154 181
133 154 181
134 154 181
134 155 181
134 154 180
135 155 181
134 154 181
133 154 181
135 155 181
134 154 181
134 155 181
133 154 181
134 154 181
134 154 181
134 155 181
134 154 181
134 154 181
135 155 181
134 154 181
134 155 181
133 154 181
134 154 181
134 154 181
134 154 181
134 154 181
134 154 181
134 154 181
134 154 181
134 154 181
134 154 181
134 154 181
135 155 181
134 154 181
134 154 181
134 154 181
133 154 181
133 154 181
134 154 181
134 154 181
134 154 181
133 154 181
134 154 181
133 154 180
133 154 181
134 154 181
134 154 181
134 154 181
134 154 181
134 154 181
133 154 181
133 154 181
134 154 181
134 154 181
133 154 181
134 154 181
133 154 181
134 154 181
133 154 181
133 154 181
134 154 181
132 153 181
133 154 181
134 154 181
133 154 181
134 154 181
134 154 181
134 155 181
134 154 181
134 154 181
133 154 181
134 154 181
134 154 181
134 154 181
133 154 181
133 154 181
133 154 181
133 154 181
133 154 181
134 154 180
134 154 181
134 154 181
134 154 181
134 154 181
134 154 181
134 154 181
135 155 181
134 154 181
133 154 181
134 154 181
134 154 181
134 154 181
134 154 181
135 155 181
134 154 181
135 155 181
134 154 181
133 154 181
133 154 181
134 154 181
134 154 181
134 155 181
133 154 181
134 154 181
134 154 181
134 154 181
135 155 181
133 154 181
133 154 180
134 154 181
134 154 181
133 154 180
133 154 181
134 154 181
134 154 181
135 155 181
134 154 181
134 154 181
135 155 181
134 154 181
134 154 181
133 154 181
134 154 181
133 154 181
135 155 181
134 154 181
133 154 181
133 154 181
134 154 181
133 154 181
134 154 181
133 154 181
134 154 181
135 155 181
134 154 181
133 154 181
134 154 181
133 154 181
135 155 181
133 154 181
134 154 181
134 154 181
134 154 181
134 154 181
133 154 181
133 154 181
134 154 181
135 155 181
133 154 181
134 154 181
134 154 181
134 154 181
134 154 181
134 154 181
134 154 181
133 154 181
135 155 181
134 154 181
134 154 181
134 154 181
134 154 181
134 154 181
134 154 181
135 155 181
134 154 181
134 154 180
134 154 181
134 154 181
134 154 181
134 154 181
133 154 181
134 154 181
134 154 180
133 154 181
133 154 181
133 154 181
133 154 181
133 154 181
134 154 181
134 154 181
134 154 181
133 154 181
134 154 181
134 154 181
134 154 181
133 154 181
134 154 181
133 154 181
133 154 181
134 154 181
134 154 181
134 154 181
134 154 181
133 154 181
133 154 181
134 154 181
134 154 181
133 154 181
134 154 181
134 154 181
133 154 181
133 154 181
134 154 181
134 154 181
134 154 181
133 154 181
133 154 181
133 154 181
133 154 181
133 154 181
134 154 181
134 154 180
133 154 181
133 154 181
133 154 181
133 154 181
134 154 181
134 154 181
134 154 181
134 154 181
133 154 181
134 154 181
134 154 181
133 154 181
134 154 181
133 154 181
134 154 181
133 154 181
134 154 180
134 154 181
133 154 181
134 154 181
134 154 181
134 154 181
134 154 181
134 154 181
134 154 181
133 154 181
133 154 181
134 154 181
134 154 181
134 154 181
133 154 181
133 154 181
133 154 181
134 154 181
135 155 181
134 154 181
134 154 181
134 154 181
134 154 181
133 154 180
134 154 181
134 154 181
134 154 181
135 155 181
134 154 181
134 154 181
134 154 181
134 154 181
134 154 181
134 154 181
134 154 181
134 154 181
133 154 181
134 154 181
134 154 181
134 154 181
134 154 180
134 154 181
134 154 181
134 154 181
135 155 181
134 154 181
134 154 181
134 154 181
133 154 181
134 154 181
134 154 180
133 154 180
134 154 181
134 154 181
135 155 181
135 155 181
134 154 181
134 154 181
134 154 181
133 154 181
134 154 181
133 154 181
133 154 181
133 154 181
133 154 181
134 154 181
134 154 181
133 154 181
134 154 181
134 154 181
135 155 181
134 154 181
134 154 181
134 154 181
133 154 181
133 154 181
134 154 181
133 154 181
134 154 181
133 154 181
135 155 181
134 154 181
134 154 181
134 154 181
133 154 181
134 154 180
134 154 181
134 154 181
134 154 181
134 154 181
134 154 181
134 154 181
134 154 181
133 154 181
134 154 181
133 154 181
134 154 181
133 154 181
134 155 181
133 154 181
134 154 181
134 154 181
133 154 181
134 154 181
134 154 181
134 154 181
133 154 181
133 154 181
134 154 181
134 154 181
134 154 181
133 154 181
133 154 181
133 154 181
134 154 181
134 154 181
133 154 181
134 154 181
133 154 181
134 155 181
134 154 181
134 154 181
134 154 181
135 155 181
135 155 181
134 154 181
133 154 181
133 154 181
133 154 181
134 154 181
133 154 181
134 154 181
133 154 180
134 154 181
134 154 181
133 154 181
134 154 181
133 154 181
133 153 180
133 154 181
134 154 181
133 154 181
134 154 180
133 154 181
133 154 181
134 154 181
134 154 181
134 154 181
134 154 181
134 154 181
133 154 181
134 154 181
133 154 181
134 154 181
133 154 181
133 154 181
134 154 181
133 154 180
134 154 181
134 154 181
133 154 181
134 154 181
134 154 181
133 154 181
134 154 181
134 154 181
134 154 181
134 154 181
134 154 181
134 154 181
134 154 181
134 154 181
134 154 181
133 154 181
133 154 181
134 154 181
134 154 181
134 154 181
134 154 181
134 154 181
133 154 181
134 154 181
134 154 181
134 154 181
134 154 181
133 154 181
133 154 181
134 154 181
134 154 181
134 154 181
134 154 181
134 154 181
134 154 181
133 154 181
133 154 181
133 154 181
133 154 181
134 154 181
134 154 181
134 154 181
135 155 181
133 154 181
134 154 181
133 154 181
135 155 181
134 154 181
133 154 180
134 154 181
133 154 181
135 155 181
134 154 181
134 154 181
134 154 181
134 154 181
134 154 181
133 154 181
133 154 180
133 154 181
133 154 181
132 153 181
135 155 181
133 154 181
134 154 181
133 154 181
133 154 181
133 154 181
134 154 181
134 154 181
134 154 181
134 154 181
134 154 181
134 154 181
133 154 181
134 154 181
133 154 181
133 154 181
135 155 181
134 154 181
133 154 181
134 154 181
134 154 181
134 154 181
134 154 181
133 154 181
133 154 180
134 154 181
134 154 181
134 154 181
134 154 181
134 154 181
134 154 181
134 154 181
134 154 181
133 154 181
133 154 181
134 154 181
133 154 181
134 154 181
133 154 181
133 154 181
134 154 181
133 154 181
134 155 181
134 154 181
134 154 181
133 154 181
133 154 181
134 154 181
134 154 181
134 154 181
133 154 181
134 154 181
134 154 181
134 154 181
134 154 181
134 154 181
134 154 181
134 154 181
134 154 181
133 154 181
134 155 181
133 154 181
134 154 181
134 154 181
133 154 181
134 154 181
135 155 181
134 154 181
134 154 181
133 154 181
134 154 181
134 154 181
134 154 181
134 154 180
135 155 181
134 154 181
133 154 181
134 155 181
132 154 181
134 154 181
133 154 181
133 154 181
133 154 181
134 154 181
133 154 181
132 153 181
134 154 181
134 154 181
134 154 181
134 154 181
134 154 181
133 154 181
133 154 181
133 154 181
134 154 181
134 154 181
133 154 181
134 154 181
134 154 181
134 154 181
134 154 181
134 154 181
134 154 181
134 154 181
134 154 181
134 154 181
133 154 181
135 155 181
133 154 181
134 155 181
134 154 181
134 154 181
135 155 181
134 154 181
134 154 181
133 154 181
134 154 181
133 154 181
134 154 180
134 154 181
134 154 181
133 154 181
133 154 180
134 154 181
133 154 181
134 154 181
134 154 181
134 154 181
133 154 181
133 154 181
133 154 181
134 154 181
133 154 181
134 154 181
133 154 181
134 154 181
134 155 181
134 154 181
133 154 181
133 154 181
133 154 181
134 154 181
134 154 181
134 154 181
134 154 181
133 154 181
134 154 181
133 154 181
134 155 181
134 154 181
133 154 181
133 154 181
135 155 181
134 154 181
133 154 181
133 154 181
134 154 181
134 154 181
134 154 181
133 154 181
134 154 181
133 154 181
134 154 181
134 154 181
134 154 181
134 154 181
133 154 181
134 154 181
134 154 181
133 154 181
134 154 181
133 154 181
135 155 181
134 154 181
133 154 181
134 154 181
133 154 181
133 154 181
134 154 181
134 154 181
135 155 181
133 154 181
134 154 181
133 154 181
134 154 181
133 154 181
134 154 181
134 154 181
134 155 181
135 155 181
133 154 181
134 154 181
133 154 181
134 154 181
134 154 180
134 154 181
134 154 181
134 154 181
134 154 181
133 154 181
134 155 181
134 154 181
134 154 181
134 154 181
135 155 181
133 154 181
134 154 181
134 154 181
133 153 180
134 154 181
134 154 181
134 154 181
133 154 181
134 154 181
133 154 181
133 154 181
133 154 181
135 155 181
134 154 181
134 154 181
134 154 181
133 154 180
133 154 181
134 154 180
134 154 181
134 154 181
133 154 181
134 154 181
134 154 181
134 154 181
134 154 181
134 155 181
134 154 181
133 154 181
133 154 181
133 154 181
133 154 181
134 154 181
133 154 181
133 154 181
134 154 181
133 154 181
134 154 181
134 155 181
134 154 181
134 154 181
133 154 181
134 154 181
134 154 181
133 154 181
134 154 181
133 154 181
133 154 181
132 153 181
134 154 181
133 154 181
134 154 181
134 154 181
136 155 181
134 154 181
133 154 181
133 154 181
134 154 181
133 154 181
134 155 181
135 155 181
135 155 181
133 154 181
133 154 181
134 154 181
134 154 181
133 154 181
133 154 181
133 154 181
134 154 181
134 154 181
133 154 181
134 154 181
133 154 181
133 154 181
134 154 181
134 154 181
134 154 181
134 154 181
134 154 181
133 154 181
134 154 181
134 155 181
134 154 181
133 154 181
132 153 180
133 154 181
134 154 181
134 154 181
133 154 181
133 154 181
134 154 181
134 154 181
134 154 181
134 154 181
134 154 181
133 154 181
133 154 181
134 154 181
134 154 181
134 154 181
133 153 180
134 154 181
134 154 181
133 154 181
134 154 181
135 155 181
134 154 181
133 154 181
134 154 181
134 154 181
134 154 181
134 154 181
134 154 181
134 154 181
133 154 181
134 154 181
133 154 181
134 154 181
134 154 181
134 154 181
133 154 181
133 154 181
133 154 181
133 154 181
133 154 181
133 154 181
134 154 181
134 154 181
134 154 181
134 154 181
133 154 181
133 154 181
133 154 181
134 154 181
133 154 180
134 154 181
133 154 181
134 154 181
134 154 181
133 154 181
134 154 181
133 154 181
133 154 181
134 154 181
133 154 181
134 154 181
134 154 181
133 154 181
134 155 181
134 154 181
133 154 181
134 154 181
134 154 181
133 154 181
133 154 181
134 154 181
134 154 181
134 154 181
134 154 181
134 154 181
133 154 181
133 154 181
134 154 180
134 154 181
135 155 181
134 154 181
134 154 181
133 154 181
134 154 180
133 154 181
133 154 181
133 154 181
134 154 181
134 154 181
134 154 181
134 154 181
133 154 181
134 154 181
134 154 181
133 154 181
134 154 181
133 154 181
134 154 181
134 154 181
133 154 181
134 154 181
133 154 181
134 154 181
134 154 181
134 154 181
134 154 181
133 154 181
133 154 181
134 154 181
134 154 181
134 154 181
133 154 181
134 154 181
134 154 181
134 154 181
134 154 181
134 154 181
134 154 181
133 154 181
133 154 181
134 154 181
134 154 181
134 154 181
134 154 181
134 154 181
133 154 181
133 154 181
135 155 181
133 154 181
134 154 181
134 154 181
134 154 181
134 154 181
134 155 181
133 154 181
133 154 181
132 153 181
133 154 181
133 154 181
134 154 181
134 154 181
134 154 181
133 154 181
133 154 181
134 154 181
134 154 181
134 154 181
133 154 181
134 154 181
133 154 181
134 154 181
132 153 181
134 154 181
133 154 181
134 154 181
134 154 181
134 154 181
134 154 181
134 154 181
133 154 181
134 154 181
134 154 181
134 154 181
134 154 181
134 154 181
133 154 181
134 154 181
134 154 181
134 154 181
133 154 181
134 154 181
134 154 181
135 155 181
134 155 181
133 154 181
135 155 181
133 154 181
135 155 181
135 155 181
134 154 181
134 154 180
132 153 180
135 155 181
133 154 181
134 154 181
134 154 181
134 154 181
133 154 181
134 154 181
134 154 181
133 154 181
133 154 181
134 154 181
133 154 181
134 154 181
133 154 181
133 154 181
133 154 181
133 154 181
133 154 181
133 154 181
134 154 181
134 154 181
134 154 181
134 154 181
134 154 181
133 154 181
133 154 180
134 154 181
135 155 181
133 154 181
134 154 181
134 154 181
135 155 181
134 154 181
134 154 181
133 154 181
134 154 181
134 154 181
134 154 181
134 154 181
134 154 181
134 154 181
133 154 181
134 154 181
134 154 181
134 154 181
134 154 181
133 154 181
135 155 181
134 154 181
134 154 181
134 154 181
133 154 181
134 154 181
133 153 180
133 154 181
133 154 181
134 154 181
134 154 181
133 154 180
134 154 181
134 155 181
133 154 181
134 154 181
133 154 181
133 154 181
134 154 181
134 154 181
135 155 181
133 154 180
134 154 181
135 155 181
133 154 181
134 154 181
134 154 181
133 154 181
134 154 181
134 154 181
133 154 181
134 154 181
134 154 181
133 154 181
134 154 181
134 154 181
134 154 181
135 155 181
135 155 181
133 154 181
134 154 181
133 154 181
134 154 181
134 154 181
133 154 181
132 153 180
134 154 181
134 154 181
134 154 180
133 154 181
134 154 181
133 154 181
134 155 181
135 155 181
133 154 181
134 154 180
133 154 180
134 154 181
133 154 181
134 154 181
133 154 180
134 154 181
134 154 181
134 154 180
134 154 181
133 154 181
134 154 181
135 155 181
134 154 181
133 154 181
134 154 181
133 154 181
134 154 181
133 154 181
133 154 181
133 154 181
134 154 181
133 154 181
134 154 181
134 154 181
133 154 181
134 154 181
135 155 181
133 154 181
134 154 181
134 154 181
133 154 181
134 154 181
134 154 181
134 154 181
133 154 180
133 154 181
134 154 181
133 154 181
133 154 181
134 154 181
133 154 181
134 154 181
133 154 181
133 154 181
134 154 181
134 154 181
133 154 181
134 154 181
135 155 181
133 154 181
133 154 181
134 154 181
134 154 181
134 154 181
133 154 181
134 154 181
134 154 181
133 154 181
133 154 181
134 154 181
134 154 181
134 154 181
133 154 181
134 155 181
133 154 181
133 154 181
134 154 181
135 155 181
133 154 181
134 154 181
134 154 181
134 154 181
133 154 181
133 154 181
134 154 181
133 154 181
135 155 181
134 154 181
134 154 181
133 154 181
134 154 181
133 154 181
133 154 181
134 154 181
134 154 181
133 154 181
133 154 181
134 154 181
134 154 180
134 154 181
133 154 181
134 154 181
134 154 181
134 154 181
133 154 181
134 154 181
133 154 181
134 154 181
133 154 181
133 154 181
133 154 181
134 154 181
134 154 181
133 154 181
134 154 180
134 154 181
134 154 181
134 154 181
134 154 181
134 154 181
134 154 181
134 154 181
134 154 181
134 154 181
133 154 181
134 154 181
133 154 181
134 154 181
133 154 181
133 154 181
134 154 181
134 154 181
133 154 181
134 154 181
134 154 181
134 154 181
134 154 181
134 154 181
134 154 181
135 155 181
133 154 181
133 154 181
134 154 181
134 154 180
134 154 180
134 154 181
134 154 181
134 154 181
134 154 181
133 154 181
134 154 181
133 154 181
134 154 181
134 154 181
134 155 181
134 154 181
134 154 181
133 154 181
133 154 181
133 154 181
133 154 181
133 154 180
134 154 181
134 154 181
133 154 181
133 154 181
134 154 181
134 154 181
134 154 181
134 154 181
134 154 181
133 154 181
134 154 181
134 154 181
133 154 181
134 154 181
133 154 181
134 154 181
133 154 181
133 154 181
134 154 181
134 154 181
134 154 181
134 154 181
133 154 180
134 154 181
133 154 181
134 154 181
135 155 181
133 154 181
134 154 181
134 154 181
133 154 181
133 154 181
134 154 181
134 154 181
134 154 181
133 154 181
134 154 181
134 154 181
133 154 181
134 154 181
134 154 181
134 154 181
133 154 181
134 154 181
135 155 181
133 154 180
133 154 181
135 155 181
133 154 180
134 154 181
133 154 181
133 154 181
134 154 181
133 154 181
134 154 181
134 154 181
133 154 181
134 154 180
134 154 181
134 154 181
134 154 181
133 154 181
133 154 180
134 154 181
134 154 181
133 154 181
134 155 181
133 154 181
133 154 181
134 154 181
133 154 181
133 154 180
135 155 181
133 154 181
134 155 181
134 154 181
133 154 181
134 154 181
134 154 181
134 154 181
133 154 181
134 154 181
134 154 181
134 154 181
134 154 181
133 154 181
135 155 181
133 154 180
134 154 181
133 154 181
134 154 181
135 155 181
133 154 181
134 154 181
134 154 181
134 154 181
133 154 181
135 155 181
134 154 181
135 155 181
134 154 181
133 154 181
133 154 181
134 154 181
134 154 181
133 154 181
134 154 181
134 154 181
134 154 181
134 154 181
134 154 181
134 154 180
134 154 181
133 154 181
134 154 181
134 154 181
134 154 181
133 154 181
133 154 181
133 154 181
134 154 181
134 154 181
134 154 181
134 154 181
134 154 181
133 154 181
134 154 181
134 154 181
134 154 181
133 154 181
133 154 181
134 154 181
134 154 181
133 154 181
134 154 181
134 154 181
133 154 181
133 153 180
133 154 181
134 154 181
134 154 181
134 154 181
134 154 181
134 154 181
134 154 181
133 154 180
133 154 181
133 154 181
133 154 181
133 154 181
133 154 181
133 154 181
134 154 181
133 154 181
134 154 181
134 154 181
134 154 181
134 154 181
134 154 181
134 154 181
133 154 181
134 154 181
134 154 181
133 154 181
134 154 181
134 154 181
134 154 181
134 154 181
134 154 181
135 155 181
134 154 181
134 154 181
134 154 181
133 154 181
135 155 181
134 154 181
133 154 181
134 154 181
134 154 181
134 154 181
134 154 180
133 154 181
134 154 181
134 154 181
134 154 181
134 154 181
133 153 180
133 154 181
134 154 181
134 154 181
134 154 181
135 155 181
134 154 181
133 154 181
133 154 181
134 154 181
135 155 181
134 154 181
133 154 181
134 154 181
134 154 181
135 155 181
134 154 181
134 154 181
134 154 181
134 154 181
134 154 181
134 154 181
133 154 181
134 154 181
133 154 181
133 154 181
133 154 181
134 154 181
134 154 181
134 154 181
133 154 181
134 154 181
133 154 181
134 154 181
134 154 181
134 154 181
134 154 181
133 154 181
134 154 181
134 155 181
133 154 181
133 154 181
134 154 181
134 154 181
134 154 180
134 154 181
134 154 181
135 155 181
134 154 181
133 154 181
134 154 181
134 154 181
133 154 181
135 155 181
134 154 181
134 154 181
134 154 181
134 154 181
133 154 181
134 154 181
133 154 181
135 155 181
134 155 181
134 154 181
134 154 181
134 155 181
134 154 181
134 154 181
133 154 181
133 154 181
134 154 181
134 154 181
134 154 181
134 154 181
134 154 181
134 154 181
133 154 181
134 154 181
134 154 181
134 154 181
133 154 181
134 154 181
134 154 181
134 154 181
134 154 181
134 154 181
134 154 181
133 154 181
133 154 181
133 154 181
133 154 181
134 154 181
134 154 181
133 154 181
134 154 181
134 154 181
134 154 181
134 154 181
133 154 181
133 154 181
134 154 181
133 154 181
134 154 181
134 154 181
133 154 181
134 154 181
134 154 181
133 154 181
134 154 181
134 154 181
134 154 181
134 154 181
133 154 181
134 154 181
134 154 181
134 154 181
133 154 181
133 154 181
134 155 181
134 155 181
134 154 181
134 154 181
133 154 181
134 154 181
134 154 181
133 154 181
133 154 180
133 153 180
134 154 181
134 155 181
133 154 181
134 154 181
134 154 181
134 154 181
133 154 181
134 154 181
133 154 181
133 154 181
133 154 181
133 154 181
134 154 181
134 154 181
133 154 181
134 154 181
134 154 181
133 154 181
134 154 181
133 154 181
133 154 181
133 154 181
133 154 181
134 154 181
133 154 181
134 154 181
133 154 181
133 154 181
134 154 181
134 154 181
133 154 181
133 154 181
134 154 181
134 154 181
135 155 181
134 154 181
134 154 181
134 154 181
133 154 181
135 155 181
134 154 181
133 154 181
134 155 181
134 155 181
133 154 181
135 155 181
134 154 181
133 154 181
134 154 181
134 154 181
135 155 181
134 154 181
134 154 181
133 154 181
134 154 181
134 154 181
134 154 181
134 154 181
133 154 181
135 155 181
134 154 181
133 154 181
134 154 181
133 154 181
133 154 181
133 154 181
134 154 181
134 155 181
133 154 181
133 154 181
134 154 181
134 154 181
133 154 181
134 154 181
133 154 181
134 154 181
133 154 181
133 154 181
133 154 180
134 154 181
134 154 181
133 154 181
133 154 181
134 154 181
134 154 181
133 154 181
134 154 181
134 154 181
133 154 181
134 154 181
134 154 181
134 155 181
134 154 181
134 154 181
133 154 181
133 154 181
133 154 181
134 154 181
134 154 181
133 154 181
134 154 181
135 155 181
133 154 180
133 153 180
134 154 181
134 154 181
134 154 181
133 154 180
134 154 181
132 153 180
133 154 181
134 155 181
134 154 181
133 154 181
134 154 181
134 155 181
133 154 181
134 154 181
134 154 181
134 154 181
134 154 181
134 154 181
133 154 181
133 154 181
134 154 181
134 154 181
135 155 181
133 154 181
134 154 181
133 154 181
134 154 181
134 154 181
134 154 181
133 154 181
133 154 180
134 154 180
133 154 181
133 154 181
134 154 181
134 154 181
134 154 181
133 154 181
134 154 181
134 154 181
133 154 181
133 154 180
134 154 181
134 154 181
134 154 181
135 155 181
134 154 181
134 154 181
134 154 181
133 154 181
134 154 181
134 154 181
134 154 181
134 154 181
133 154 181
134 154 180
133 154 181
134 154 181
134 154 181
133 154 181
133 154 181
133 154 181
134 154 181
134 154 181
133 154 181
134 154 181
134 154 181
134 154 181
133 154 181
133 154 181
134 154 181
134 154 181
134 154 181
134 154 181
134 154 181
135 155 181
133 154 181
134 154 181
134 154 181
134 155 181
134 154 181
133 154 181
134 154 181
134 154 181
133 154 181
134 154 181
133 154 181
134 154 181
133 154 181
134 155 181
134 154 181
134 154 181
133 154 181
134 154 181
134 154 181
135 155 181
134 154 181
133 154 181
134 154 181
133 154 181
134 154 181
133 154 181
135 155 181
134 154 181
135 155 181
133 154 181
133 154 181
134 154 181
134 154 181
133 154 181
134 154 181
133 154 181
133 154 181
134 154 181
133 154 181
134 154 181
133 154 181
134 154 181
135 155 181
133 154 181
134 154 181
133 154 181
134 154 180
134 154 181
134 154 181
134 154 181
133 154 181
135 155 181
133 154 181
133 154 181
133 154 181
134 154 181
134 154 180
134 154 181
133 154 181
133 154 181
134 154 181
134 154 181
134 154 181
134 154 181
134 154 181
133 153 180
134 154 181
134 154 181
134 154 181
133 154 181
134 155 181
134 154 181
133 154 181
134 154 181
133 154 181
134 154 181
134 154 181
134 154 181
134 154 181
133 154 181
134 154 181
134 154 181
133 154 181
133 154 181
134 154 181
133 154 181
133 154 181
134 154 181
134 154 181
134 154 181
134 154 181
134 154 181
134 154 181
135 155 181
133 154 181
134 155 181
134 154 181
135 155 181
134 154 181
135 155 181
133 154 181
135 155 181
133 154 181
134 154 181
134 154 180
134 154 181
133 154 181
135 155 181
134 155 181
133 154 181
133 154 181
135 155 181
134 154 181
134 154 181
134 154 181
133 154 181
133 154 181
133 154 181
134 154 181
134 154 181
134 154 181
134 154 181
134 154 181
134 154 181
134 154 181
134 154 181
135 155 181
133 154 180
134 154 181
133 154 181
133 154 181
134 154 181
134 154 181
134 154 181
133 154 181
134 154 181
133 154 181
134 154 180
133 154 181
134 154 181
134 154 181
134 154 181
134 154 181
134 154 181
134 154 181
134 154 181
133 154 181
134 154 181
134 154 181
134 154 181
133 154 181
133 154 181
134 154 181
134 154 181
133 154 181
134 154 181
134 154 181
134 154 181
134 154 181
133 154 181
134 154 181
134 154 181
133 154 181
133 154 181
133 154 181
134 154 181
133 154 181
134 154 181
133 154 181
134 154 181
135 155 181
133 154 181
133 154 181
134 154 181
133 154 181
134 154 181
134 154 181
133 154 181
132 153 181
134 154 181
134 154 181
133 153 180
134 154 181
134 154 181
134 154 180
133 154 181
134 154 181
134 154 181
134 154 181
133 154 181
133 154 181
133 154 181
134 154 181
135 155 181
134 154 181
135 155 181
134 154 181
134 154 181
133 154 181
134 154 181
134 154 181
133 154 181
134 154 181
133 154 181
134 154 181
133 154 181
133 154 181
134 154 181
133 154 181
133 154 181
133 154 181
134 154 181
134 154 181
133 154 180
134 154 181
134 154 181
134 154 181
134 154 181
134 154 181
134 154 181
134 154 181
135 155 181
133 154 181
133 154 181
133 154 181
133 154 181
133 154 181
134 154 181
134 154 181
134 155 181
133 154 181
134 154 181
134 154 181
134 154 181
134 154 181
134 154 181
133 154 180
134 154 181
133 154 181
134 154 181
133 154 181
134 154 181
134 154 181
134 154 181
133 154 181
133 154 181
133 154 181
134 154 181
134 154 181
134 154 181
133 154 181
134 154 181
133 154 181
134 154 181
134 154 181
134 154 181
134 154 181
134 154 181
133 154 181
134 154 181
135 155 181
133 154 181
134 154 181
133 154 181
134 154 181
133 154 181
134 154 181
134 154 181
134 154 181
134 154 180
133 154 181
134 154 181
134 154 181
134 154 181
134 154 181
134 154 181
134 154 181
134 154 181
134 154 181
134 154 181
134 154 181
134 154 181
134 154 180
134 154 181
134 154 181
134 154 180
134 154 181
134 154 181
134 154 180
134 154 181
134 154 180
135 155 181
134 154 181
134 154 181
133 154 181
133 154 181
134 154 180
133 154 181
134 154 181
134 154 181
134 154 181
133 154 181
134 154 181
134 154 181
134 154 181
134 154 181
134 154 181
134 154 181
133 154 181
133 154 181
133 154 181
134 154 181
133 154 181
133 154 181
134 154 181
134 154 181
134 154 181
135 155 181
134 154 181
134 154 181
134 154 181
134 154 181
133 154 180
134 154 181
134 154 181
135 155 181
134 154 181
133 154 181
134 154 181
134 154 181
133 154 181
133 154 181
134 154 181
133 154 181
134 154 181
134 154 181
134 154 181
135 155 181
133 154 181
134 154 181
134 154 181
133 154 181
134 154 181
134 154 181
133 154 181
134 154 181
134 154 181
134 154 181
133 154 181
133 154 181
134 155 181
134 154 181
135 155 181
133 154 181
133 154 181
134 154 181
133 154 181
133 154 181
134 154 181
133 154 181
133 154 181
134 154 181
134 154 181
134 154 181
134 154 181
135 155 181
133 154 181
133 154 181
134 154 181
134 154 181
134 154 181
134 154 180
134 154 181
133 154 181
135 155 181
134 154 181
134 154 181
133 154 181
134 155 181
133 154 181
134 154 181
134 154 181
134 154 181
134 154 181
133 154 181
134 154 181
134 154 181
134 154 181
134 154 181
135 155 181
133 154 181
134 154 181
134 154 181
134 154 181
134 154 181
134 154 181
133 154 181
133 154 181
133 154 181
134 154 181
133 154 181
133 153 180
134 154 181
134 154 181
135 155 181
135 155 181
133 154 181
134 154 181
134 154 181
134 154 181
133 154 181
133 154 181
134 154 181
134 154 180
134 154 181
133 154 181
134 154 181
134 154 181
134 154 181
135 155 181
135 155 181
134 154 181
135 155 181
134 154 181
135 155 181
133 154 180
134 154 181
135 155 181
134 154 180
134 154 181
134 154 181
134 154 181
134 154 181
133 154 181
134 154 181
134 154 181
134 154 181
134 154 181
134 154 181
133 154 181
134 154 181
133 154 181
134 154 181
134 154 181
134 154 181
133 154 181
134 154 181
133 154 181
134 154 181
134 154 181
134 154 181
133 154 181
133 154 181
134 154 180
134 154 181
133 154 181
135 155 181
135 155 181
134 154 181
134 154 181
134 154 181
133 154 181
133 154 181
134 154 181
134 154 181
134 154 181
134 154 181
133 154 181
133 154 181
134 154 181
134 154 181
132 153 181
133 154 181
134 155 181
134 154 181
133 154 181
134 155 181
133 153 180
134 154 181
133 154 181
133 154 181
133 154 181
133 154 181
133 154 181
135 155 181
134 154 181
134 154 181
133 154 181
133 154 181
133 154 181
134 154 181
133 154 180
134 154 181
133 154 181
134 154 181
134 154 181
133 154 181
133 154 181
133 154 181
134 154 181
135 155 181
134 155 181
134 154 181
133 154 181
134 154 181
133 154 181
132 153 181
133 154 181
134 154 181
134 154 181
134 154 181
134 154 181
134 154 181
133 154 181
133 154 180
134 154 181
134 154 181
133 154 181
133 154 181
133 154 181
134 154 181
134 154 181
134 154 181
134 154 181
134 154 181
134 154 181
134 154 181
135 155 181
134 154 181
134 154 181
134 154 181
134 154 181
133 154 181
134 154 181
133 154 181
134 154 181
133 154 180
133 154 181
133 154 181
133 154 181
134 154 181
133 154 181
134 154 181
134 154 181
134 154 181
135 155 181
133 154 181
133 154 181
133 154 181
134 154 181
133 154 181
134 154 181
134 154 181
134 154 181
134 154 181
134 154 181
134 154 181
134 154 181
133 154 181
134 154 181
134 154 181
134 154 181
134 154 181
134 154 180
133 154 181
134 154 181
134 154 181
134 154 181
133 154 181
134 154 181
133 154 181
135 155 181
133 154 181
134 154 181
134 154 181
134 154 181
133 154 181
134 154 181
134 154 181
134 154 181
135 155 181
134 154 181
134 154 181
133 154 181
134 155 181
134 154 181
134 154 181
134 154 181
134 154 181
134 154 181
133 154 180
134 154 181
134 154 181
134 154 181
134 154 181
133 154 181
134 154 181
134 154 181
133 154 180
133 154 181
133 154 181
134 154 181
135 155 181
134 154 181
134 154 181
133 154 181
134 154 181
133 154 180
133 154 181
133 154 181
133 154 181
134 154 181
133 154 181
134 154 181
134 154 181
134 155 181
135 155 181
134 154 181
134 154 181
133 154 181
135 155 181
135 155 181
134 154 181
134 154 181
134 154 181
134 154 181
135 155 181
133 154 181
133 154 181
134 154 180
133 154 181
133 154 181
134 154 181
134 154 181
133 154 181
134 154 181
134 154 181
133 154 181
134 154 181
133 154 181
133 154 181
134 154 181
134 154 181
134 154 181
134 154 180
134 154 181
134 155 181
134 154 181
134 154 181
134 154 181
134 155 181
134 154 181
134 155 181
134 154 181
134 154 181
134 155 181
133 154 181
135 155 181
133 154 181
134 154 181
134 155 181
134 154 181
134 154 181
134 154 181
134 154 181
134 154 181
134 154 181
134 154 181
134 154 181
134 154 181
134 154 181
134 155 181
134 154 181
134 155 181
133 154 181
133 154 181
133 154 180
133 154 181
133 154 181
133 154 181
134 154 181
134 154 181
134 155 181
133 154 180
134 155 181
133 154 181
134 154 181
134 154 181
133 154 181
134 154 181
134 154 181
134 154 181
134 154 181
134 154 181
135 155 181
134 154 181
134 154 181
133 154 181
134 154 181
133 154 181
132 153 181
134 154 181
134 154 181
134 154 181
133 154 181
134 154 181
133 154 181
134 154 181
134 154 181
134 154 181
134 154 181
134 154 181
134 154 181
134 154 181
134 154 181
134 154 181
134 154 181
133 154 181
133 154 181
134 154 181
134 154 181
134 154 181
135 155 181
134 154 181
134 154 181
134 154 181
133 154 181
133 154 181
134 154 181
134 154 181
134 154 181
133 154 180
135 155 181
134 154 181
134 154 181
133 154 181
133 154 181
135 155 181
134 154 181
133 154 181
134 154 181
133 154 181
134 154 181
133 154 181
134 154 181
134 154 181
134 154 181
134 154 181
134 154 181
134 154 181
134 154 181
135 155 181
133 154 181
133 154 181
134 154 181
134 154 181
134 154 181
134 154 181
134 154 181
133 154 181
133 154 181
134 154 181
134 154 181
134 154 181
134 154 181
133 154 180
134 154 181
133 154 181
134 154 181
134 154 181
133 154 181
134 154 181
134 154 181
133 154 180
133 154 181
134 154 181
134 154 181
135 155 181
134 154 181
134 154 181
134 154 181
134 154 181
134 154 181
134 154 181
134 154 181
134 154 181
134 155 181
134 154 181
133 154 181
134 154 181
133 154 180
134 154 181
133 154 180
134 154 181
134 154 181
134 155 181
134 154 181
134 154 181
134 154 180
133 154 181
135 155 181
134 154 181
134 154 181
134 154 181
134 155 181
133 154 180
134 154 181
133 154 181
133 154 181
134 154 181
134 154 181
134 154 181
133 154 181
134 154 181
134 154 181
134 154 181
134 154 181
134 154 181
134 154 181
134 154 181
134 154 181
133 154 181
133 154 180
134 154 181
134 154 181
133 154 181
134 154 181
134 154 181
134 154 181
134 154 181
134 154 181
134 154 181
135 155 181
134 154 181
134 154 181
133 154 181
135 155 181
134 155 181
133 154 181
134 154 181
134 154 181
134 154 181
133 154 181
134 154 181
134 154 181
134 154 181
134 154 181
134 154 180
134 154 181
133 154 180
133 154 181
133 154 181
134 154 181
135 155 181
134 154 181
134 154 181
133 154 181
134 155 181
133 154 181
134 154 181
134 154 181
134 154 181
134 154 181
135 155 181
134 154 181
133 154 181
134 154 181
134 154 180
134 154 181
134 155 181
133 154 181
133 154 181
134 154 181
134 154 181
133 154 181
134 154 181
134 154 181
133 154 180
133 154 181
134 154 181
134 154 181
134 154 181
134 154 181
134 154 181
134 154 181
133 154 181
133 154 181
134 154 181
134 154 181
135 155 181
133 154 181
134 154 181
135 155 181
133 154 181
134 154 181
134 154 181
133 154 181
133 154 181
133 154 181
133 154 181
134 154 181
134 154 181
133 154 181
134 154 181
134 154 181
133 154 181
134 154 181
134 154 181
134 154 181
135 155 181
134 154 181
133 154 181
133 154 181
134 154 181
134 154 181
134 154 181
133 154 181
134 154 181
134 154 181
134 154 181
133 154 181
134 154 181
134 154 181
134 154 181
133 154 181
134 154 181
134 154 181
134 154 181
133 154 181
133 154 181
134 154 181
134 154 181
134 154 181
134 154 181
133 154 180
133 154 180
134 154 180
134 154 181
133 154 181
134 154 181
134 154 181
133 154 181
134 154 181
134 154 181
134 154 181
134 154 181
134 154 181
134 154 181
134 154 181
134 154 181
134 154 181
133 154 181
134 154 181
134 154 181
133 154 181
134 154 181
133 154 181
134 155 181
134 154 181
134 154 181
134 154 181
133 154 181
134 154 181
133 154 181
134 154 181
132 153 181
134 154 181
134 154 181
135 155 181
133 154 181
134 155 181
134 154 181
133 154 181
134 154 181
134 154 181
134 154 181
134 154 181
133 154 181
133 154 181
134 154 181
133 154 181
134 154 181
134 154 181
133 154 181
134 154 181
133 154 181
133 154 181
134 154 181
134 154 181
134 154 181
133 154 180
133 154 181
134 154 181
134 154 181
134 154 181
133 154 181
134 154 180
134 154 181
133 154 181
134 154 181
133 154 181
133 154 181
134 154 181
134 154 181
134 154 181
134 154 181
134 154 181
133 154 181
134 154 181
134 154 181
133 154 181
133 154 181
133 154 181
134 154 181
134 154 181
134 154 181
133 154 181
134 154 181
134 154 181
134 154 181
134 154 181
134 155 181
134 154 181
134 154 181
135 155 181
135 155 181
133 154 181
134 154 181
134 154 181
134 154 181
134 154 181
133 154 181
134 154 181
134 154 181
135 155 181
134 154 181
134 154 181
133 154 181
133 154 181
133 154 181
133 154 181
134 154 181
133 154 181
135 155 181
134 154 181
135 155 181
134 154 181
135 155 181
133 154 181
134 154 181
135 155 181
133 154 181
134 154 181
135 155 181
134 154 181
134 154 181
134 154 181
134 154 181
133 154 181
133 154 181
134 154 181
134 154 181
134 154 181
133 154 181
135 155 181
134 154 181
132 153 181
134 154 181
134 155 181
134 154 181
134 154 181
134 154 181
133 154 181
134 154 181
134 154 181
133 154 181
134 154 181
133 154 181
134 154 181
134 154 181
134 154 181
134 154 181
133 154 181
133 154 181
133 154 181
134 154 181
134 155 181
134 154 180
135 155 181
133 154 181
134 154 181
134 154 181
134 154 181
134 154 181
134 154 181
134 154 181
134 154 181
134 154 181
133 154 181
135 155 181
134 154 181
133 153 180
134 154 181
134 154 181
134 154 181
133 154 181
134 155 181
134 154 181
133 154 181
133 154 181
133 154 181
134 154 181
134 154 181
134 154 181
134 154 181
134 154 181
133 154 181
134 154 181
134 154 181
135 155 181
134 154 181
134 154 181
134 154 181
133 154 181
134 154 181
133 154 181
133 154 181
134 154 181
134 154 181
133 154 180
134 154 181
135 155 181
134 154 181
134 154 181
133 154 181
134 154 181
135 155 181
135 155 181
133 154 181
133 154 181
133 154 181
134 154 181
132 153 181
133 154 181
133 154 181
134 154 181
134 154 181
133 154 181
133 154 181
133 154 181
134 155 181
134 154 181
134 154 181
134 154 181
134 154 181
133 154 181
134 154 181
132 154 181
133 154 181
134 154 181
135 155 181
134 154 181
134 154 181
134 154 181
134 154 181
134 154 181
134 154 181
134 154 181
135 155 181
134 154 181
133 154 181
133 154 181
134 154 181
133 154 181
134 154 181
134 154 181
134 154 181
133 154 181
133 154 181
134 154 181
134 154 181
134 154 181
135 155 181
134 154 181
134 154 181
134 154 181
133 154 181
134 154 181
134 154 181
133 154 181
134 155 181
134 154 181
134 154 181
133 154 181
134 154 181
133 154 181
134 154 181
134 154 181
134 154 181
135 155 181
133 154 181
133 154 181
133 154 181
134 154 181
134 154 181
134 154 181
133 154 181
134 154 181
134 154 181
134 154 181
133 154 181
134 154 181
134 154 181
133 154 181
134 155 181
133 154 181
134 154 181
134 154 181
134 154 181
134 154 181
134 154 181
134 154 181
134 154 181
134 155 181
134 154 181
134 154 181
133 154 181
134 154 181
134 154 181
134 154 181
134 154 181
134 154 181
133 154 181
134 154 181
134 154 181
134 154 180
133 154 181
135 155 181
134 154 181
134 154 181
134 154 181
134 154 181
134 154 181
134 154 181
134 154 181
134 154 181
134 154 181
134 154 181
133 154 181
133 154 181
134 154 181
133 154 181
135 155 181
133 154 181
134 154 181
134 154 181
134 155 181
133 154 181
134 154 180
133 154 181
133 154 181
134 154 181
134 154 181
133 154 181
133 154 181
133 154 181
134 154 181
134 154 181
134 154 181
134 154 181
134 154 181
134 154 181
134 154 181
133 154 181
134 154 181
134 154 181
133 154 181
133 154 181
134 154 181
134 154 181
134 154 181
134 154 181
134 154 181
133 154 181
133 154 181
135 155 181
133 154 181
133 154 180
134 154 181
134 154 180
132 153 181
134 154 181
134 154 181
133 154 181
134 154 181
134 154 181
134 154 181
134 154 181
134 154 180
133 154 181
134 154 181
133 154 181
133 154 181
133 154 181
134 154 181
133 154 181
134 154 181
134 154 181
134 154 181
134 154 181
133 154 181
133 154 181
134 154 181
134 154 181
134 154 181
134 155 181
134 154 181
133 154 181
134 154 181
134 154 181
134 154 181
133 154 181
134 154 181
133 154 181
134 154 181
134 154 181
133 154 181
135 155 181
135 155 181
135 155 181
134 154 180
133 154 181
133 154 181
134 154 181
134 154 181
133 154 180
134 154 181
133 154 181
135 155 181
134 154 181
134 154 181
134 154 181
134 154 181
134 154 181
134 154 181
134 154 181
134 154 181
135 155 181
133 153 180
133 154 181
134 154 181
134 154 181
134 154 181
135 155 181
134 154 181
133 154 181
134 154 181
134 154 181
135 155 181
134 154 181
133 154 180
134 154 181
135 155 181
134 154 181
134 154 181
133 154 180
133 154 181
134 154 181
134 154 181
134 154 181
134 154 181
133 154 181
133 154 181
134 154 181
134 154 181
134 154 181
133 154 180
133 154 181
134 154 181
133 154 180
133 154 181
134 154 180
133 154 181
134 154 181
132 153 181
133 154 181
135 155 181
133 154 181
134 154 181
134 154 181
134 154 181
134 154 181
133 154 181
134 154 181
134 154 181
134 154 181
134 154 180
133 154 181
133 154 181
134 154 181
135 155 181
133 154 181
134 154 181
133 154 181
133 154 181
133 154 181
134 154 180
133 154 181
133 154 181
133 154 181
135 155 181
134 154 181
134 155 181
133 154 181
134 154 181
133 154 181
135 155 181
133 154 181
133 154 181
133 154 181
134 154 181
133 154 181
134 154 181
134 154 181
134 154 181
134 154 181
135 155 181
135 155 181
134 154 180
134 154 181
134 155 181
134 154 181
134 154 181
133 154 181
134 154 181
134 154 181
133 154 181
135 155 181
134 154 181
134 154 181
134 154 181
134 154 181
133 154 181
134 154 181
133 154 181
133 154 181
135 155 181
133 154 181
134 154 181
134 154 181
134 154 181
135 155 181
134 154 181
134 154 181
134 154 181
133 154 181
134 154 180
135 155 181
134 154 181
133 154 181
134 154 180
134 154 181
134 154 181
134 154 181
134 154 181
133 154 181
134 154 181
134 154 181
134 154 181
134 154 181
134 154 181
135 155 181
134 154 181
134 154 181
135 155 181
134 154 181
134 154 181
133 154 181
134 154 181
134 154 181
133 154 181
134 154 181
134 154 181
134 154 181
132 153 180
133 154 181
134 154 181
134 154 181
134 154 181
134 154 181
134 154 181
134 154 181
133 154 181
134 154 181
133 154 181
134 154 181
134 154 181
133 154 181
133 154 181
133 154 181
134 154 181
134 154 180
134 154 181
134 154 181
134 154 181
134 154 181
135 155 181
134 154 181
133 154 181
132 153 181
133 154 181
134 154 181
134 154 181
133 154 181
134 154 181
135 155 181
133 154 181
133 154 181
133 154 181
134 154 181
133 154 181
134 154 181
134 154 181
134 154 181
133 154 181
133 154 181
133 154 181
134 154 181
134 154 181
135 155 181
133 154 181
134 154 181
133 154 181
133 154 181
133 154 181
133 154 181
134 154 181
134 154 181
134 154 181
134 154 181
134 154 181
134 154 181
134 155 181
133 154 181
134 154 181
134 154 181
134 154 181
134 154 181
134 154 181
134 154 181
134 154 181
133 154 181
133 154 181
134 154 181
134 154 181
134 154 180
134 154 181
135 155 181
134 154 181
134 154 181
133 154 181
133 154 181
133 154 181
135 155 181
133 154 181
134 154 181
133 154 181
134 154 181
134 154 181
134 154 181
135 155 181
134 154 181
133 154 181
133 154 181
134 154 181
134 154 181
133 154 181
134 154 181
133 154 181
133 154 181
134 154 181
133 154 181
133 154 181
134 154 181
133 154 181
133 154 180
135 155 181
134 154 181
134 154 181
134 155 181
133 154 181
133 154 181
135 155 181
135 155 181
134 154 181
133 154 181
133 154 181
134 154 181
134 154 181
134 154 181
134 154 181
134 154 181
134 154 181
134 154 181
134 154 181
133 154 181
134 154 181
134 154 181
134 154 181
134 154 181
133 154 181
134 154 181
133 154 181
134 154 181
133 154 181
134 154 181
133 154 181
134 154 181
133 154 181
134 154 181
134 154 181
134 154 181
134 154 181
133 154 181
134 154 181
133 154 181
134 154 181
135 155 181
133 154 181
135 155 181
134 154 181
133 154 181
133 154 181
134 155 181
134 154 181
134 154 181
134 154 181
134 154 181
133 154 180
132 153 181
134 154 181
134 154 181
134 154 181
134 154 181
134 154 181
133 154 181
133 154 181
134 154 181
133 154 180
134 154 181
133 154 181
134 154 181
134 154 181
134 154 181
134 154 181
133 154 181
134 154 181
133 154 181
133 154 181
134 154 181
134 154 180
133 154 181
134 154 181
133 154 181
134 154 181
134 154 181
134 154 181
133 154 181
134 154 181
134 154 181
134 155 181
133 154 181
133 154 180
133 154 181
134 154 181
134 154 181
134 154 181
134 154 180
134 154 181
134 154 181
134 154 181
135 155 181
134 154 181
134 154 181
134 154 181
134 154 181
134 154 181
133 154 181
134 154 181
133 154 181
133 154 181
133 154 181
133 154 181
134 154 181
134 154 181
134 154 181
133 154 181
133 154 181
133 154 180
134 154 181
134 154 181
133 154 181
133 154 181
134 154 181
135 155 181
133 154 181
134 154 181
134 154 181
134 154 181
134 154 181
133 154 181
133 154 181
134 154 181
134 154 181
135 155 181
133 154 181
133 154 181
133 154 181
134 154 181
133 154 181
133 153 180
133 154 181
134 154 181
134 154 181
134 154 181
133 154 181
134 154 181
134 154 181
134 154 181
133 154 181
134 154 181
134 154 181
134 154 181
134 154 181
134 154 181
135 155 181
134 154 181
133 154 181
134 154 181
133 154 181
134 154 181
135 155 181
134 154 181
134 154 181
133 154 181
134 154 181
134 154 181
133 154 181
133 154 181
133 154 181
133 154 181
134 154 181
134 154 181
134 154 181
134 154 181
134 154 181
133 154 181
134 154 181
134 154 181
134 154 180
133 154 181
133 154 181
134 154 181
135 155 181
134 154 181
134 154 181
134 154 181
133 154 181
135 155 181
134 154 181
134 154 181
135 155 181
134 154 181
134 154 181
133 154 181
134 154 181
134 154 181
133 154 181
135 155 181
133 154 181
133 154 181
133 154 181
134 155 181
134 154 181
133 154 181
133 154 181
133 154 181
133 154 181
134 154 181
134 154 181
133 154 181
134 154 181
134 154 181
134 154 181
134 154 181
134 154 181
133 154 181
134 154 181
134 154 181
134 154 181
134 154 181
134 154 181
133 154 181
134 154 181
133 154 181
134 154 181
134 154 181
134 154 181
133 154 181
134 154 180
134 154 181
133 154 181
134 154 181
133 154 181
133 154 181
134 154 181
134 154 181
133 154 181
133 154 181
135 155 181
134 154 181
134 154 181
134 154 181
134 154 181
134 154 181
134 154 181
134 155 181
134 154 181
134 155 181
134 154 181
134 154 181
134 154 181
133 154 181
134 154 181
134 154 181
135 155 181
134 154 181
134 154 181
133 154 181
134 154 181
134 154 181
133 153 180
134 154 181
134 154 181
133 154 181
134 154 181
134 154 181
134 154 181
134 154 181
134 154 181
134 154 181
134 154 181
134 154 181
135 155 181
134 154 180
134 154 181
134 154 181
135 155 181
134 154 181
133 154 180
134 154 181
134 154 181
135 155 181
133 154 181
134 155 181
133 154 181
133 154 181
134 154 181
134 154 181
134 154 181
133 154 181
133 154 181
134 154 181
133 154 181
133 154 180
133 154 181
134 154 181
134 154 181
134 154 181
133 154 181
134 154 181
134 154 181
134 154 181
134 154 181
134 154 181
133 154 181
134 154 181
133 154 181
133 154 181
134 154 181
134 154 181
133 154 181
134 154 181
133 154 181
133 154 181
134 154 181
134 154 181
134 154 181
133 154 181
134 154 181
134 154 181
133 154 181
134 154 181
134 154 180
133 154 181
134 154 181
134 154 180
134 154 181
134 154 181
134 154 181
133 154 181
135 155 181
135 155 181
134 154 181
134 154 181
133 154 181
133 154 181
134 154 181
135 155 181
133 154 181
134 154 181
133 154 181
134 154 181
134 154 181
134 154 181
134 154 181
134 154 181
134 154 181
134 154 180
132 153 181
134 154 181
134 154 181
134 154 181
133 154 181
133 154 181
134 155 181
134 154 181
135 155 181
133 154 181
133 154 181
133 154 181
134 154 181
134 154 181
133 154 181
134 154 181
134 154 181
134 154 181
134 154 181
134 154 181
134 154 181
134 154 181
134 154 181
134 154 181
133 154 181
134 154 181
133 154 181
134 154 181
134 154 180
133 154 180
133 154 181
134 154 181
135 155 181
134 154 181
134 154 181
133 154 181
134 154 181
134 154 181
134 154 181
134 154 181
134 154 181
134 154 181
133 154 181
134 154 181
135 155 181
134 154 181
134 154 181
134 154 181
134 154 181
134 154 181
134 155 181
133 154 181
133 154 181
134 154 181
134 154 181
134 154 181
134 154 180
133 154 181
133 154 181
134 154 181
133 154 181
134 154 181
133 154 181
134 154 181
134 154 181
134 154 181
134 154 181
133 154 181
133 154 181
134 154 181
133 154 181
133 154 181
133 154 181
133 154 181
133 154 181
133 154 181
133 154 181
133 154 181
133 154 181
133 154 181
135 155 181
134 154 181
134 154 181
134 155 181
134 154 181
133 154 181
134 154 181
134 154 180
134 154 181
133 154 181
134 154 181
134 154 181
133 154 181
134 154 181
134 155 181
134 154 181
134 154 181
134 154 181
134 154 181
134 154 181
134 154 181
134 154 181
133 154 181
134 154 181
134 154 181
133 154 181
134 154 181
134 154 181
135 155 181
133 154 181
134 154 181
134 154 181
135 155 181
134 154 181
134 154 181
134 154 181
134 154 181
134 154 181
133 154 181
135 155 181
134 154 181
135 155 181
133 154 181
133 154 181
134 154 181
134 154 181
134 154 181
134 154 181
134 154 181
134 154 181
134 154 181
134 154 181
133 154 181
134 154 181
135 155 180
134 154 181
133 154 181
133 154 181
133 154 181
132 153 181
134 154 181
135 155 181
135 155 181
134 154 181
134 154 181
134 154 181
134 154 181
134 154 181
134 154 181
134 154 181
134 154 181
134 154 180
134 154 181
134 154 181
134 154 181
134 154 181
134 154 181
133 154 181
133 154 181
134 154 181
133 154 181
134 154 181
134 154 181
133 154 181
134 154 181
134 154 181
134 154 181
133 154 181
133 154 181
134 154 181
134 154 181
134 154 181
133 153 180
134 154 180
134 154 181
134 154 181
133 153 180
133 154 181
133 154 181
133 154 181
135 155 181
134 154 181
135 155 181
134 154 181
134 154 181
134 154 181
133 154 181
133 154 181
133 154 181
133 154 181
133 154 181
133 154 181
134 154 181
133 154 181
134 154 181
135 155 181
134 154 181
134 154 181
134 154 181
134 154 181
134 155 181
133 154 181
133 154 181
134 154 181
133 154 181
133 154 181
134 154 181
133 154 181
133 154 181
134 154 181
134 154 181
133 154 181
134 154 181
135 155 181
133 154 181
134 154 181
133 154 181
134 154 181
133 154 181
134 154 181
134 154 181
133 154 181
133 154 181
134 155 181
134 154 181
134 154 181
134 154 181
133 154 181
133 154 181
134 154 181
133 154 180
133 154 181
133 154 181
133 154 181
134 154 181
135 155 181
134 154 181
134 154 181
134 154 181
134 154 181
134 154 181
133 154 181
132 153 181
133 154 181
134 154 181
134 154 181
134 154 181
134 154 181
134 154 181
134 154 181
133 154 181
134 154 181
133 154 181
134 154 181
134 154 181
134 154 181
134 154 181
134 154 181
134 154 181
135 155 181
134 154 181
133 154 181
133 154 181
133 154 181
134 154 181
134 154 181
134 154 181
133 154 181
134 154 181
133 154 181
134 154 181
133 154 181
134 155 181
134 155 181
135 155 181
133 154 181
134 154 181
133 154 181
134 154 181
133 154 181
133 154 181
134 154 181
134 155 181
134 154 181
134 154 181
134 154 181
135 155 181
134 154 181
134 154 181
133 154 181
134 154 181
134 155 181
135 155 181
134 154 181
134 155 181
134 154 181
134 154 181
134 154 181
134 154 181
133 154 181
133 154 181
134 154 181
134 154 181
133 154 181
134 154 181
135 155 181
134 154 181
134 154 181
134 155 181
134 154 181
133 154 181
133 154 181
133 154 181
134 154 180
134 154 181
135 155 181
134 154 181
135 155 181
134 154 181
134 154 181
133 154 181
134 154 181
134 154 180
134 154 181
134 154 181
134 154 181
133 154 181
134 154 181
134 154 181
134 154 181
134 154 181
134 154 181
134 154 181
134 154 181
134 154 181
134 154 181
134 154 181
133 154 181
133 154 181
134 154 181
135 155 181
134 154 181
133 154 181
134 154 181
133 154 181
134 154 181
134 154 181
134 154 181
134 154 181
134 154 181
134 154 181
134 154 181
134 154 181
133 154 181
133 154 180
134 154 181
134 154 181
135 155 181
134 154 181
133 154 181
134 154 181
134 154 181
134 154 181
135 155 181
135 155 181
133 154 181
135 155 181
133 154 181
135 155 181
134 154 181
133 154 181
134 154 181
134 154 181
134 154 181
133 154 181
133 154 181
133 154 181
133 154 181
134 154 181
134 154 181
133 154 181
134 154 181
134 154 181
134 154 181
134 154 181
134 154 181
134 154 181
134 154 181
133 154 180
134 154 181
134 154 181
135 155 181
134 154 181
134 154 181
133 154 181
134 154 181
133 154 181
134 154 181
134 154 181
134 154 181
134 154 181
134 154 181
134 154 181
133 154 181
133 154 181
133 154 181
134 154 181
134 154 181
134 154 181
133 154 181
134 154 181
134 154 181
135 155 181
133 154 181
134 154 181
134 154 181
134 154 181
133 154 181
134 154 181
133 154 181
134 154 181
134 154 181
134 154 181
134 154 180
133 154 181
134 154 181
134 154 181
133 154 181
133 154 181
134 154 181
133 154 181
134 154 181
134 154 181
134 154 181
133 154 181
134 154 181
133 154 181
134 154 181
133 154 181
134 154 181
134 154 181
134 154 181
135 155 181
134 154 181
133 154 181
135 155 181
134 154 181
134 154 181
134 154 181
133 154 181
134 154 181
133 154 181
134 154 181
133 154 181
133 154 181
134 154 181
133 154 181
133 154 181
134 154 181
134 155 181
134 154 181
134 154 181
133 154 181
134 154 181
134 154 181
133 154 181
134 154 181
134 154 181
134 154 181
133 154 180
134 154 181
134 154 181
134 154 181
135 155 181
134 155 181
133 154 181
134 154 181
133 154 181
135 155 181
134 154 181
134 154 181
136 155 181
134 154 181
134 154 181
133 154 181
134 154 181
134 154 181
134 154 181
134 154 181
134 154 181
133 154 181
134 154 181
135 155 181
134 154 181
134 154 181
134 154 181
134 154 181
134 154 181
134 154 181
134 154 181
134 154 181
134 154 181
134 154 181
134 154 181
134 154 181
133 154 181
134 154 181
134 154 181
134 154 181
134 154 181
134 154 181
134 154 181
133 154 181
133 153 180
134 154 181
134 154 181
133 154 181
134 154 181
133 154 181
134 154 181
134 155 181
134 154 181
134 154 181
134 154 181
134 155 181
134 154 181
134 154 181
135 155 181
133 154 181
134 154 181
135 155 181
133 154 181
134 154 181
133 154 181
134 154 181
133 154 181
134 154 181
133 154 181
133 154 181
133 154 181
133 154 181
134 154 181
134 154 181
133 154 181
133 154 181
134 154 181
134 154 181
134 154 181
134 154 181
134 154 181
134 154 181
134 154 181
134 154 181
134 154 181
134 154 181
134 154 181
133 154 181
133 154 181
133 154 181
133 154 181
134 154 181
133 154 181
134 154 181
134 154 181
133 154 181
134 154 181
133 154 181
134 154 181
133 154 181
134 154 181
134 154 181
135 155 181
134 154 181
135 155 181
133 154 181
134 154 181
133 154 181
134 155 181
134 154 181
134 154 181
134 154 181
134 154 181
133 154 181
134 154 181
133 154 181
133 154 181
133 154 181
134 154 181
134 154 181
133 154 181
134 155 181
134 154 181
133 154 181
134 154 181
133 154 181
133 154 181
134 154 181
135 155 181
135 155 181
133 154 180
134 154 181
133 154 181
134 154 181
133 154 181
134 154 181
134 154 181
134 154 181
133 154 181
134 154 181
133 154 181
134 154 181
135 155 181
135 155 181
133 154 181
133 154 181
135 155 181
133 154 181
135 155 181
134 154 181
133 154 181
134 154 181
134 154 181
134 154 181
133 153 180
134 154 181
134 154 181
133 154 181
133 154 181
133 154 181
134 154 181
134 154 181
134 154 181
134 154 181
134 154 181
134 154 181
134 154 181
133 154 181
134 154 181
134 154 181
133 154 181
134 154 181
133 154 181
134 154 181
133 154 181
134 154 181
134 154 181
134 155 181
134 154 181
134 154 181
134 154 181
133 154 181
134 154 181
133 154 181
134 154 181
133 154 181
133 153 180
134 154 181
133 154 181
135 155 181
134 154 181
134 155 181
134 154 181
135 155 181
134 154 181
134 154 181
133 154 181
135 155 181
134 154 181
135 155 181
134 154 181
134 154 181
135 155 181
133 154 181
134 154 181
135 155 181
133 154 181
134 154 181
134 154 181
134 154 181
134 154 181
134 154 181
134 154 181
134 154 181
133 154 181
134 155 181
134 154 181
133 154 181
133 154 181
134 154 181
134 155 181
134 154 181
134 154 181
134 154 181
134 154 181
133 154 181
133 154 181
134 154 181
133 154 181
134 154 181
133 154 181
134 154 181
133 154 181
133 154 181
134 154 181
134 154 181
134 154 181
134 154 181
133 154 181
134 154 181
134 154 181
134 154 181
134 154 181
134 154 181
133 154 181
134 154 181
134 154 181
134 154 181
134 154 181
133 154 181
133 154 181
133 154 181
134 154 181
134 154 181
134 154 181
133 154 181
134 154 181
134 154 181
134 154 181
133 154 181
133 154 181
134 154 181
133 154 181
134 154 181
134 154 181
134 154 181
133 154 181
134 154 181
134 154 181
133 154 181
134 154 181
133 154 181
133 153 180
134 155 181
133 154 181
134 154 181
134 154 181
133 154 180
133 154 181
134 154 181
133 154 181
133 154 180
134 154 181
133 154 181
134 154 181
134 154 181
134 154 181
134 154 181
134 154 180
134 154 181
133 154 181
133 154 181
134 154 181
134 154 181
134 154 181
133 154 180
134 154 181
134 154 181
133 154 181
134 154 181
134 154 181
133 154 181
134 154 181
134 154 181
134 154 181
133 154 181
134 154 181
133 154 181
133 154 181
134 154 181
135 155 181
133 154 181
134 154 181
134 154 181
134 154 181
134 154 181
134 154 181
133 154 181
134 154 181
133 154 181
134 154 181
134 154 181
133 154 181
134 154 181
134 154 181
134 154 181
134 154 181
134 154 181
134 154 181
134 154 181
135 155 181
133 154 180
135 155 181
133 154 181
133 154 181
133 154 181
133 154 181
133 154 181
134 154 181
134 154 181
134 154 181
134 154 181
133 154 181
134 154 181
134 154 181
134 154 181
133 154 180
134 154 181
134 154 181
133 154 181
133 154 181
134 154 181
134 154 181
134 154 181
134 154 181
133 154 181
134 154 181
134 154 181
134 154 181
134 154 181
133 154 181
134 154 181
134 154 181
134 154 181
133 154 181
134 154 181
134 154 181
133 154 181
134 154 181
134 154 181
133 154 181
134 154 181
134 154 181
133 154 181
133 154 181
133 154 181
134 154 181
134 154 181
133 154 181
134 154 181
133 154 181
134 154 181
134 154 181
134 154 181
133 154 181
134 154 181
133 154 181
134 154 181
134 154 181
133 154 181
134 154 181
134 154 181
134 154 181
133 154 181
134 154 181
133 154 181
134 154 181
133 154 180
134 154 180
134 154 181
133 154 181
133 154 181
133 154 181
134 154 181
134 154 181
133 154 181
134 154 181
134 155 181
134 154 181
133 154 181
134 154 181
134 154 181
133 154 181
133 154 181
133 154 181
134 154 181
134 155 181
133 154 181
133 154 181
134 154 181
134 154 181
134 154 181
133 154 181
134 154 181
133 154 180
133 154 181
134 154 181
135 155 181
134 154 181
133 154 181
134 155 181
134 154 181
134 154 181
134 154 181
133 154 180
134 154 181
134 155 181
133 154 181
134 154 181
133 154 181
133 154 181
133 154 181
134 154 181
134 154 181
133 154 181
135 155 181
133 154 181
134 154 181
134 155 181
134 154 181
134 154 181
134 154 181
134 154 181
134 154 181
134 154 181
133 154 181
133 154 181
134 154 181
133 154 181
134 154 181
133 154 181
133 154 181
134 154 181
134 154 181
134 154 181
134 154 181
133 154 180
134 154 181
133 154 181
133 154 181
134 154 181
134 154 181
134 154 181
134 154 181
134 154 181
134 154 181
135 155 181
134 154 181
133 154 181
133 154 180
133 154 181
133 154 181
133 154 181
134 154 181
134 154 181
134 154 181
134 154 181
133 154 181
132 154 181
134 154 181
133 154 181
133 154 181
134 154 181
134 154 181
134 154 181
134 154 181
133 154 181
134 154 181
134 154 181
134 154 181
134 154 181
134 154 181
134 154 181
133 154 181
134 154 181
134 154 181
133 154 181
134 154 181
133 154 181
134 154 181
134 154 181
134 154 181
134 154 181
134 154 181
135 155 181
133 154 181
134 154 181
134 154 181
134 154 181
134 154 181
133 154 181
133 154 181
134 154 181
134 154 181
134 154 181
133 154 181
134 154 181
134 154 181
135 155 181
134 154 181
134 155 181
134 154 181
133 154 181
134 154 181
134 154 181
134 154 181
133 154 181
134 154 181
133 154 181
133 154 181
135 155 181
133 154 181
133 154 181
134 154 181
134 154 181
134 154 181
134 154 181
133 154 181
135 155 181
134 154 181
133 154 181
135 155 181
134 154 181
133 154 181
133 154 181
133 154 181
134 154 180
134 154 181
133 154 181
134 154 181
134 154 181
134 154 181
133 154 181
134 154 181
134 154 181
133 154 181
134 154 181
134 154 181
134 154 181
133 154 181
133 154 181
133 154 181
133 154 181
133 154 181
133 154 181
135 155 181
134 154 181
134 154 181
133 154 181
134 154 181
134 154 181
134 154 181
133 154 180
134 154 181
134 154 181
133 154 181
134 154 181
134 154 181
135 155 181
134 154 181
134 154 181
134 154 181
133 154 181
134 154 181
135 155 181
134 154 181
133 154 181
135 155 181
133 154 181
133 154 181
134 154 181
135 155 181
134 154 180
134 154 181
134 154 181
134 154 181
133 154 181
134 154 181
134 154 181
134 154 181
134 154 181
134 154 181
133 154 181
133 154 181
134 154 180
134 155 181
134 154 181
134 154 181
134 154 181
133 154 181
134 154 181
134 154 181
134 154 181
134 154 181
134 154 181
134 154 181
133 154 181
133 154 181
133 154 181
133 154 181
133 154 181
133 154 181
133 154 181
134 154 181
133 154 181
133 154 181
133 154 181
134 154 181
134 154 181
134 154 181
133 154 181
134 154 181
134 154 181
134 154 181
134 154 181
133 154 181
134 154 181
134 154 181
134 154 181
134 154 181
133 154 181
133 154 181
134 154 181
134 154 181
134 154 181
134 154 180
134 154 181
133 154 181
134 154 181
134 154 181
134 154 181
134 154 181
134 154 181
133 154 181
133 154 181
133 154 181
133 154 181
134 154 181
134 154 181
133 154 181
135 155 181
134 154 181
134 154 181
134 154 181
133 154 181
133 154 181
134 154 181
133 154 181
133 154 181
134 154 181
134 154 181
134 154 181
134 154 181
133 154 181
134 154 181
134 154 181
133 154 181
134 154 181
135 155 181
134 154 181
135 155 181
135 155 181
133 154 181
133 153 180
134 154 181
132 153 181
134 154 181
134 155 181
133 154 181
134 154 181
134 154 181
133 154 181
133 154 181
133 154 181
133 154 181
134 154 181
133 154 181
134 155 181
133 154 180
133 154 181
134 154 181
134 154 181
134 154 181
134 154 181
134 154 181
134 154 181
134 155 181
133 154 181
134 154 181
134 154 181
134 154 181
134 154 181
134 154 181
134 154 181
133 154 181
134 154 181
134 154 181
134 154 181
134 154 181
134 155 181
134 154 181
134 154 181
134 154 181
134 154 181
134 154 181
134 154 181
133 154 181
134 154 181
134 154 181
134 154 181
133 154 181
134 154 181
134 154 181
134 154 181
133 154 181
134 154 181
133 154 181
133 154 181
135 155 181
134 154 181
134 154 181
134 154 181
134 154 181
133 154 181
133 154 181
134 154 181
133 154 181
134 154 181
134 154 181
133 154 181
134 154 181
133 154 181
134 154 181
133 154 181
134 154 181
133 154 181
134 155 181
135 155 181
135 155 181
134 154 181
134 154 181
134 154 181
134 154 181
133 154 181
134 154 181
133 154 181
134 154 181
133 154 180
133 154 181
132 153 181
134 154 181
133 154 181
134 154 181
133 154 181
133 154 181
134 154 181
134 154 181
134 154 181
134 154 181
133 154 180
134 154 181
133 154 181
134 154 181
134 154 181
133 154 181
134 154 181
134 154 181
134 154 181
133 154 181
134 154 181
133 154 181
134 154 181
134 154 181
135 155 181
133 154 181
133 154 180
133 154 181
134 154 181
134 154 181
134 154 181
134 154 181
134 154 181
134 154 181
133 154 181
134 154 180
134 154 181
134 154 181
134 155 181
134 154 181
133 154 181
134 154 181
132 153 181
134 154 181
134 154 181
134 154 181
133 154 181
134 154 180
133 154 181
134 154 181
134 154 181
133 154 181
134 154 181
133 154 180
134 154 181
134 154 181
133 154 181
134 154 181
133 154 181
133 154 180
133 154 181
134 154 181
134 154 181
134 154 181
133 154 181
134 154 181
134 154 181
133 154 181
134 154 181
135 155 181
134 154 181
133 154 181
134 154 181
135 155 181
134 154 181
134 155 181
133 154 181
133 154 181
134 154 181
133 154 181
133 154 181
133 154 181
134 154 181
133 154 180
134 154 181
134 154 181
134 154 181
133 154 180
133 154 181
134 154 181
134 154 181
134 154 181
133 154 181
134 154 181
134 154 181
134 155 181
134 154 181
134 154 181
134 154 181
133 154 181
134 154 181
133 154 181
134 154 181
133 154 181
134 154 181
134 154 181
134 154 181
134 154 181
134 154 181
134 154 181
134 154 181
133 154 181
134 154 181
134 154 181
134 154 181
134 154 181
134 155 181
134 154 181
133 154 180
133 154 181
134 154 181
133 154 181
134 154 181
133 154 181
134 154 181
133 154 181
134 154 181
134 154 181
134 154 181
133 154 181
133 154 181
134 154 181
133 154 181
133 154 181
133 154 181
134 154 181
134 154 181
133 154 181
134 154 181
134 154 181
134 154 181
134 154 181
133 154 181
133 154 181
134 154 181
135 155 181
134 154 181
133 154 181
133 154 181
133 154 181
134 154 181
134 154 181
134 154 181
134 154 181
134 154 181
134 154 181
133 154 181
134 154 181
134 154 181
133 154 181
133 154 181
133 154 181
134 154 181
134 154 181
134 154 181
133 154 181
134 154 181
134 155 181
133 154 181
133 154 181
133 154 181
133 154 181
135 155 181
134 154 181
134 154 181
134 154 181
134 154 181
134 154 181
133 154 181
134 154 181
134 154 181
133 154 181
134 154 181
134 154 181
133 154 181
134 154 181
134 154 181
134 154 181
134 154 181
134 154 181
134 154 181
133 154 181
134 154 181
134 154 181
134 154 181
133 154 181
133 154 181
134 155 181
134 154 181
133 153 180
134 154 181
134 154 181
134 154 181
134 154 181
134 154 181
134 154 181
133 154 181
134 154 181
134 154 181
134 154 181
134 154 181
134 154 181
134 154 181
134 154 181
134 154 181
133 154 181
133 154 181
133 154 181
133 154 181
133 154 181
133 154 181
134 154 181
134 154 181
134 154 181
134 154 181
133 154 181
133 154 181
135 155 181
134 154 181
134 154 181
134 154 181
134 154 181
134 154 181
134 154 181
134 154 181
134 154 181
134 154 181
133 154 181
134 154 181
133 154 181
134 154 181
134 154 181
134 154 181
134 154 181
133 154 181
134 154 181
134 154 181
134 154 181
133 154 181
133 154 181
133 154 181
134 154 181
133 154 181
133 154 181
134 154 181
134 154 181
134 154 181
134 155 181
134 154 181
134 154 181
134 154 181
133 154 181
134 154 180
132 153 181
134 155 181
133 154 181
134 154 181
134 154 181
134 154 181
134 154 181
133 154 181
134 154 181
134 154 181
134 154 181
134 154 181
133 154 181
134 154 181
133 154 181
133 154 181
133 154 181
134 154 181
133 154 181
134 154 181
134 154 181
133 154 181
134 154 181
134 154 181
134 154 181
134 154 181
133 154 181
133 154 181
134 154 181
133 154 181
134 155 181
134 154 181
133 154 181
134 154 181
134 154 181
134 154 181
133 154 181
133 154 181
134 154 181
135 155 181
133 154 181
135 155 181
133 154 181
134 154 181
133 154 181
134 154 181
134 154 181
134 154 181
134 154 181
134 154 181
133 154 181
134 154 181
134 154 181
134 155 181
133 154 181
134 154 181
134 154 181
133 154 181
134 154 181
133 154 181
134 154 181
134 154 181
133 154 181
134 154 181
135 155 181
133 154 181
134 154 181
134 154 181
134 154 181
135 155 181
134 154 181
134 154 181
134 154 181
133 154 181
134 154 181
134 154 181
134 154 181
135 155 181
133 154 180
134 154 181
133 154 181
134 154 181
133 154 180
134 154 181
134 154 181
135 155 181
134 154 181
133 154 181
134 154 181
134 154 181
134 154 181
134 154 181
134 154 181
134 155 181
134 154 181
134 154 181
134 154 181
133 153 180
134 154 181
134 154 181
134 154 181
133 154 181
134 154 181
134 154 181
134 154 181
133 154 181
133 154 181
134 154 181
134 155 181
133 154 181
133 154 181
134 154 181
134 154 181
134 154 181
132 153 181
134 154 181
134 154 181
134 154 181
135 155 181
134 154 181
133 154 181
133 154 181
133 154 181
134 154 181
134 154 181
134 154 181
133 154 181
133 154 181
134 154 181
133 154 180
134 154 181
133 154 181
133 154 181
134 154 181
134 154 181
133 154 181
135 155 181
134 154 181
134 154 181
133 154 180
133 154 181
134 154 181
133 154 181
133 154 181
134 154 181
135 155 181
134 154 181
134 154 181
134 154 181
134 154 181
135 155 181
134 154 181
133 154 181
134 154 181
133 154 181
133 154 181
133 154 181
134 154 181
134 154 181
135 155 181
134 154 181
134 154 181
134 155 181
134 154 181
134 154 181
134 154 181
135 155 181
133 154 181
134 154 181
134 154 181
134 154 181
135 155 181
133 154 181
134 154 181
133 154 181
134 154 181
134 154 181
134 154 181
133 154 181
134 154 181
133 154 181
134 154 181
134 154 181
133 154 181
133 154 181
134 154 181
133 154 181
134 154 181
133 154 181
133 154 181
134 154 181
134 154 181
134 154 181
133 154 181
134 154 181
133 154 181
134 154 181
134 154 181
134 154 181
134 154 181
133 154 181
134 154 181
134 154 181
134 154 181
134 154 181
134 154 181
134 154 181
133 154 181
134 154 181
134 154 181
133 154 181
134 154 181
133 154 181
134 154 181
134 154 181
134 154 181
134 154 181
133 154 181
133 154 181
133 154 181
134 154 181
135 155 181
133 154 181
134 154 180
134 154 181
133 154 181
134 154 181
133 154 181
134 154 181
134 154 181
134 154 181
135 155 181
134 154 181
134 154 181
134 154 181
134 154 181
134 154 181
133 154 181
134 154 181
133 154 181
134 154 181
133 154 181
134 154 181
135 155 181
134 154 181
134 154 181
133 154 181
133 154 181
134 154 181
133 154 180
134 154 181
133 154 181
133 154 180
133 154 181
134 154 181
134 154 181
134 154 181
134 154 181
134 154 181
134 154 181
134 154 181
133 154 181
134 155 181
135 155 181
134 154 181
133 154 181
134 154 181
133 154 181
133 154 181
134 154 181
134 154 181
133 154 181
135 155 181
134 154 181
134 154 181
134 154 181
134 154 181
134 154 181
134 154 181
133 154 181
134 154 181
134 154 181
133 154 181
133 154 180
134 154 181
133 154 181
134 154 181
135 155 181
134 155 181
134 154 181
134 154 180
135 155 181
134 154 181
134 154 181
134 154 181
134 154 181
133 154 181
134 154 180
133 154 181
134 154 181
135 155 181
134 154 181
134 154 181
133 154 181
134 154 181
134 154 181
133 154 181
134 155 181
134 154 181
134 154 181
133 154 181
134 154 181
134 154 181
134 154 181
134 154 181
134 154 181
134 154 181
133 154 181
134 154 181
134 154 181
133 154 181
134 154 181
133 154 181
134 154 181
134 154 181
134 154 181
133 154 180
134 154 181
134 154 181
134 154 181
134 154 181
134 154 181
134 154 181
133 153 180
134 154 181
133 154 181
133 154 181
133 154 181
134 154 181
134 154 181
134 154 181
133 153 180
133 154 181
133 154 181
134 154 181
135 155 181
134 154 181
133 154 181
134 155 181
133 154 180
134 154 181
134 154 181
134 154 181
133 154 181
133 154 181
134 154 181
133 154 181
133 154 181
134 154 181
135 155 181
134 154 181
134 154 181
134 154 181
134 154 181
134 154 181
133 154 181
134 154 181
135 155 181
134 154 181
133 154 181
133 154 181
134 154 181
133 154 181
133 154 181
133 154 181
134 154 181
132 153 181
133 154 181
133 154 181
133 154 181
134 154 181
133 154 181
134 154 181
134 154 181
133 154 181
133 154 181
133 154 181
134 154 181
134 154 181
133 154 181
134 154 181
134 154 181
134 154 181
134 154 181
134 154 181
134 154 181
134 154 181
135 155 181
133 154 181
135 155 181
134 154 181
134 154 181
133 154 181
133 154 181
134 154 181
133 154 181
134 154 181
134 154 181
134 154 181
134 155 181
133 154 181
134 154 181
133 154 181
133 154 181
134 154 181
134 154 181
133 154 181
133 154 181
134 154 180
135 155 181
134 154 181
133 154 181
133 154 181
134 154 181
133 154 181
133 154 181
134 155 181
134 154 181
133 154 181
134 154 181
133 154 181
134 154 181
134 154 181
134 154 181
134 155 181
134 154 181
134 154 181
134 154 181
134 155 181
134 154 181
134 154 181
134 154 181
133 154 181
134 154 181
134 154 181
134 154 181
134 154 181
134 154 181
134 154 181
134 154 181
134 154 181
134 154 181
133 154 181
133 154 181
133 154 181
134 154 181
134 154 181
134 154 181
134 154 181
134 154 181
134 155 181
134 154 181
133 154 181
133 154 181
133 154 181
135 155 181
134 154 181
134 154 181
134 154 181
133 154 181
134 155 181
134 154 181
134 154 181
134 154 181
134 154 181
135 155 181
134 154 181
134 154 181
133 154 181
133 154 181
134 154 181
133 154 181
133 154 181
134 154 181
134 154 181
134 154 181
134 154 181
134 154 181
134 154 181
133 154 181
134 154 181
135 155 181
133 154 181
134 154 181
134 154 181
134 154 181
133 154 181
133 154 181
135 155 181
134 154 181
134 154 181
134 154 181
133 154 181
134 154 181
133 154 181
134 154 181
134 154 181
134 154 181
134 154 181
134 154 181
133 154 181
133 154 181
134 154 181
134 154 181
134 154 181
134 154 181
132 153 181
133 154 181
134 154 181
133 154 181
134 154 181
134 154 181
133 154 181
134 154 181
134 154 181
134 154 181
133 154 181
135 155 181
134 155 181
134 154 181
135 154 180
133 154 181
134 154 181
133 154 181
134 154 181
135 155 181
134 154 181
133 154 181
133 153 180
133 154 181
133 154 181
133 154 181
133 154 181
133 154 181
133 154 181
134 154 181
134 154 181
134 154 181
134 154 181
133 154 181
134 154 181
133 154 181
135 155 181
134 154 180
135 155 181
134 154 181
134 154 181
133 154 181
134 154 181
133 154 181
134 154 181
134 154 181
134 154 181
133 154 181
133 154 181
135 155 181
134 154 181
134 154 181
134 154 181
133 154 181
134 154 181
133 154 181
135 155 181
133 154 181
134 154 181
133 154 181
135 155 181
134 154 181
134 154 181
134 154 181
133 154 181
134 154 181
133 154 181
134 154 181
134 154 181
134 154 181
134 154 181
134 154 181
134 155 181
134 154 181
134 154 181
134 154 181
133 154 181
133 154 181
134 155 181
133 154 181
134 154 181
134 154 181
132 153 181
134 154 181
134 154 180
133 154 181
134 154 181
134 154 181
134 154 181
134 154 181
134 154 181
134 154 181
134 154 181
133 154 181
134 154 181
133 153 180
134 154 181
133 154 181
134 154 181
134 154 181
134 154 181
134 154 181
134 154 181
134 154 181
134 154 181
134 154 181
134 154 181
135 155 181
134 154 181
134 154 181
134 154 181
134 154 181
133 154 181
133 154 181
133 154 181
134 154 181
133 154 181
133 154 181
134 154 181
133 154 181
133 154 181
134 154 181
134 154 181
134 154 181
134 154 181
134 154 181
134 154 181
134 154 181
134 154 181
133 154 181
134 154 181
133 154 181
133 154 181
133 154 181
134 154 181
134 154 181
134 154 181
134 154 181
134 154 181
133 154 181
133 154 181
134 154 181
134 154 181
134 154 181
133 154 181
133 154 181
133 154 181
133 154 181
134 154 181
133 154 181
134 154 181
133 154 181
133 154 181
134 154 181
134 154 181
134 154 181
134 154 181
133 154 181
133 154 181
134 155 181
133 154 181
134 154 181
133 154 181
134 154 181
134 154 181
135 155 181
134 154 181
133 154 181
133 154 181
133 154 181
133 154 181
134 154 181
134 154 181
134 154 181
134 154 181
133 154 181
134 154 181
135 155 181
134 154 181
134 154 181
134 154 181
134 154 180
134 154 181
134 154 181
134 154 181
134 154 181
134 154 181
134 154 181
134 154 181
133 154 181
134 154 180
134 154 181
133 154 181
133 154 181
134 154 181
134 154 181
134 154 181
134 154 181
134 154 180
134 154 181
134 154 181
134 154 181
134 154 181
134 154 181
133 154 181
134 154 181
134 154 181
134 154 181
133 154 181
133 154 181
134 154 181
135 155 181
134 154 181
134 154 181
135 155 181
133 154 181
133 154 181
133 154 181
133 154 181
133 154 181
134 154 181
133 154 181
134 154 181
134 154 181
134 155 181
134 154 180
133 154 181
133 154 181
134 154 181
133 154 181
134 154 181
133 154 180
134 154 181
133 154 181
134 154 181
134 154 181
133 154 181
134 154 181
134 154 181
134 154 181
133 154 181
134 154 181
135 155 181
134 154 181
134 154 181
133 154 181
134 154 181
134 154 181
134 154 181
134 154 181
134 154 181
134 154 181
133 154 181
133 154 181
134 154 181
133 154 181
134 154 181
133 154 181
134 154 181
134 154 181
134 154 181
134 155 181
133 154 181
134 154 180
133 154 181
133 154 181
133 154 181
134 154 181
134 154 181
134 154 181
133 154 181
133 154 181
134 154 181
134 154 181
134 154 181
134 155 181
133 154 181
133 154 181
133 154 181
133 154 181
134 155 181
133 154 181
133 154 181
133 154 181
133 154 181
133 154 181
134 154 181
133 154 181
134 154 180
133 154 181
134 154 181
133 154 181
133 154 181
134 154 181
134 154 181
135 155 181
134 154 181
135 155 181
134 154 181
134 154 181
133 154 181
134 154 181
134 154 181
134 154 181
133 154 181
134 154 181
134 154 181
133 154 181
134 154 181
134 154 181
134 154 181
134 154 181
133 154 181
133 154 181
134 154 181
134 154 181
134 154 181
133 154 181
133 154 181
134 154 181
134 154 181
133 154 181
134 154 181
134 154 181
134 154 181
136 155 181
134 154 181
133 154 180
134 154 181
134 154 181
134 154 181
134 154 181
134 154 181
133 154 181
134 154 181
133 154 181
134 154 181
135 155 181
133 154 181
134 154 181
133 154 181
133 153 180
133 154 181
134 154 181
134 154 181
133 154 181
133 154 181
134 154 181
133 154 181
135 155 181
134 154 181
133 154 181
134 155 181
133 154 181
133 154 181
134 154 181
134 154 181
133 154 181
134 154 181
134 154 181
133 154 181
134 154 181
134 154 181
133 154 181
134 154 181
135 155 181
134 154 181
133 154 180
134 154 181
134 154 181
133 153 180
134 154 181
134 154 181
134 154 181
135 155 181
134 154 181
134 154 181
133 154 181
134 154 181
134 154 181
133 154 181
133 154 181
134 154 181
133 154 181
134 154 181
133 154 181
135 155 181
135 155 181
134 154 181
135 155 181
133 154 181
134 154 181
133 154 181
134 154 181
135 155 181
134 154 181
134 154 181
134 154 181
133 154 181
134 154 181
133 154 181
134 154 181
133 154 181
134 154 181
135 155 181
133 154 181
134 154 181
134 154 181
133 154 181
133 154 181
135 155 181
133 154 181
133 154 181
133 154 181
134 154 181
134 154 181
135 155 181
133 154 181
133 154 181
134 154 181
134 154 181
133 154 181
133 154 181
133 154 181
134 154 181
134 154 181
134 154 181
133 154 181
134 154 181
133 154 181
134 154 180
135 155 181
134 154 181
134 154 181
135 155 181
134 154 181
134 154 181
134 154 181
133 154 181
133 154 181
134 154 181
134 154 181
133 154 181
133 154 181
134 154 181
134 154 181
133 154 181
134 154 181
133 154 181
134 154 181
133 154 181
134 154 180
134 154 181
134 155 181
134 154 181
134 154 181
134 154 181
133 154 181
134 154 181
134 154 181
133 154 181
134 154 181
134 154 181
134 154 181
134 154 181
133 154 181
135 154 180
133 154 181
134 154 181
134 154 181
135 155 181
134 154 181
134 154 181
134 154 181
134 154 181
133 154 181
133 154 180
133 153 180
134 154 181
134 155 181
133 154 180
134 154 181
134 154 181
134 154 181
135 155 181
133 154 181
133 154 181
134 154 181
133 154 181
134 154 181
134 154 181
134 154 181
133 154 181
135 155 181
134 154 181
133 154 181
133 154 181
135 155 181
135 155 181
134 154 181
134 154 181
133 154 181
133 154 181
134 154 181
134 154 181
133 154 181
133 154 181
134 154 181
134 154 181
134 154 181
134 154 181
134 154 181
134 154 181
134 154 181
134 154 181
133 154 181
133 154 181
133 154 181
134 155 181
134 154 181
134 154 181
134 154 181
134 154 181
133 154 181
134 154 181
134 154 181
134 154 181
134 154 181
134 154 181
133 154 181
134 154 181
133 154 180
134 154 181
134 154 181
135 155 181
134 154 181
134 154 181
133 154 181
133 154 181
133 154 181
133 154 180
134 154 181
134 154 181
133 154 181
134 154 180
134 154 181
133 154 181
134 154 181
134 154 181
134 154 181
134 154 181
134 154 181
134 154 181
134 154 181
133 154 181
134 154 181
134 154 181
134 155 181
133 154 181
134 154 181
133 154 181
133 154 181
134 154 181
134 154 181
135 155 181
133 154 181
133 154 181
134 154 181
134 154 181
133 154 181
133 154 181
135 155 181
133 154 181
135 155 181
134 154 181
133 154 181
133 154 181
134 154 181
134 154 181
134 154 181
134 155 181
133 154 181
133 154 181
133 154 181
134 154 181
134 155 181
133 154 180
135 155 181
134 154 181
133 154 181
134 154 181
134 154 181
133 154 181
134 154 181
134 154 181
133 154 181
133 154 181
133 154 180
134 154 181
134 154 181
134 154 181
134 154 181
134 154 181
133 154 181
133 154 181
134 154 181
134 154 181
134 154 181
134 155 181
134 154 181
133 154 181
134 154 181
133 154 181
133 154 181
134 154 181
134 155 181
134 154 181
133 154 181
134 154 181
134 154 181
134 154 181
134 154 181
134 154 181
134 154 181
133 154 181
134 154 181
133 154 181
134 154 181
134 154 181
134 154 181
134 154 181
133 154 181
134 154 181
133 154 181
133 154 181
133 154 181
133 154 181
134 154 181
134 154 181
134 154 181
133 154 181
133 154 181
134 154 181
135 155 181
134 154 181
134 154 181
133 154 181
133 154 181
134 154 181
134 154 181
133 154 181
133 154 181
133 154 181
134 154 181
133 154 181
134 155 181
134 154 181
134 154 181
133 154 181
133 154 180
134 154 181
133 154 181
134 154 181
134 154 181
135 155 181
133 154 181
133 154 181
133 154 180
133 154 180
134 154 181
133 154 181
135 155 181
134 154 181
134 154 181
134 154 181
134 154 181
134 154 181
133 154 181
134 154 181
134 154 181
134 154 181
133 154 181
133 154 181
134 154 181
133 154 181
133 154 181
133 154 181
134 154 181
133 154 181
134 154 181
133 154 181
133 154 181
134 154 181
134 154 180
135 155 181
134 154 181
133 154 181
135 155 181
134 154 181
134 154 181
133 154 181
134 154 181
135 155 181
134 154 181
134 154 181
134 154 181
134 154 181
134 154 181
133 154 181
133 154 181
133 154 181
134 154 181
134 154 181
133 154 181
133 154 181
134 154 181
134 154 181
134 154 181
133 154 181
133 154 181
134 154 181
133 154 181
134 154 181
133 154 181
133 154 181
134 154 181
135 155 181
133 154 181
135 155 181
133 154 181
133 154 181
134 154 181
134 154 181
133 154 181
133 154 181
134 154 181
133 154 180
134 154 181
134 155 181
134 154 181
134 154 181
134 154 181
134 154 181
134 154 181
134 154 181
135 155 181
134 154 181
134 154 181
134 154 181
134 154 181
134 154 181
135 155 181
134 154 180
134 154 181
134 154 181
133 154 181
134 154 181
134 154 181
134 155 181
134 154 181
133 154 181
134 154 181
133 154 181
133 154 181
133 154 181
134 154 181
134 154 181
133 154 181
133 154 181
133 154 180
134 154 181
134 154 181
134 154 181
133 154 181
134 154 181
134 154 181
134 154 181
134 154 181
133 154 181
133 154 181
133 154 181
134 154 181
134 154 181
134 154 181
134 154 181
134 154 181
134 154 181
134 154 180
133 154 181
134 154 181
133 154 181
134 154 181
133 154 181
133 154 181
134 154 181
134 154 181
134 154 181
134 154 181
134 154 181
133 154 181
134 155 181
135 155 181
134 154 181
134 154 181
134 154 181
134 154 181
134 154 181
134 154 181
133 154 181
133 154 180
133 154 181
134 154 181
133 154 181
134 154 181
134 154 181
134 154 181
134 154 181
133 154 181
133 154 181
134 154 180
133 154 181
134 154 181
134 154 181
134 154 181
133 154 181
134 154 181
134 154 181
134 154 181
134 154 181
133 154 181
133 154 181
133 154 181
135 155 181
133 154 180
134 154 181
134 154 181
134 154 181
134 154 181
134 154 181
133 154 180
134 155 181
134 154 181
133 154 181
134 154 181
134 154 181
134 154 181
135 155 181
133 154 181
134 154 181
133 154 181
135 155 181
133 154 181
134 154 181
134 154 181
134 154 181
133 154 181
133 154 181
134 154 181
133 154 181
134 154 181
133 154 180
133 154 181
134 154 181
133 154 181
134 154 181
134 154 181
134 154 181
135 155 181
134 154 181
134 154 181
134 154 181
133 154 181
133 154 181
133 154 181
135 155 181
134 154 181
134 154 181
134 154 181
134 154 181
134 154 181
133 154 181
133 154 181
134 154 181
134 154 181
134 154 181
133 154 181
134 155 181
134 154 181
134 154 181
134 154 181
134 154 181
134 154 181
134 154 181
135 155 181
134 154 181
134 154 181
135 155 181
134 154 181
134 154 181
133 154 181
133 154 181
134 154 181
134 154 181
134 154 181
133 154 181
134 154 181
133 154 181
134 154 181
134 154 181
135 155 181
133 154 181
133 154 181
134 154 181
133 154 181
134 154 181
133 154 181
134 154 181
134 154 181
134 155 181
135 155 181
134 154 181
134 154 181
134 154 181
133 154 181
135 155 181
133 154 181
133 154 181
133 154 181
133 154 181
134 154 181
134 154 181
134 154 181
133 154 181
133 154 181
133 154 181
133 154 181
134 154 181
134 154 181
134 154 181
134 154 181
134 154 181
134 154 181
133 154 181
133 154 181
134 154 181
134 154 181
135 155 181
133 154 181
134 154 181
133 154 181
134 154 181
134 154 181
134 154 181
135 155 181
134 154 181
133 154 181
134 154 181
134 154 181
133 154 181
134 154 181
134 154 181
134 154 181
133 154 181
134 154 181
134 154 181
134 154 181
134 154 181
133 154 181
134 154 181
134 154 181
134 154 181
134 154 181
135 155 181
134 154 181
133 154 181
133 154 181
133 154 181
134 154 181
133 154 181
134 154 181
134 154 181
134 154 181
133 154 181
134 154 181
134 154 181
134 154 181
134 154 181
134 154 181
134 154 181
133 154 181
134 154 181
133 154 181
134 155 181
134 154 181
133 154 181
134 154 181
133 154 181
134 154 181
134 154 181
134 154 181
134 154 181
133 154 180
134 154 181
134 154 181
134 154 181
134 154 181
133 153 180
133 154 181
134 155 181
133 154 180
134 154 181
134 154 181
134 154 181
134 154 181
133 154 181
134 154 181
133 154 181
134 154 181
133 154 181
134 154 181
134 154 181
133 154 180
133 154 181
134 154 181
133 154 181
134 154 181
134 154 181
133 154 181
134 154 181
134 154 181
133 154 181
135 155 181
134 154 181
133 154 181
133 154 181
134 154 181
133 154 181
134 154 181
133 154 181
133 154 181
133 154 181
134 154 181
135 155 181
134 154 181
134 154 181
133 154 181
133 154 181
134 154 181
134 154 181
134 154 181
134 154 181
133 153 180
133 154 180
134 154 181
135 155 181
135 155 181
134 154 181
133 154 181
134 154 181
134 154 181
134 154 181
134 154 181
133 154 181
135 155 181
134 154 181
134 154 181
134 154 181
134 154 181
133 154 181
134 154 181
134 154 181
133 154 181
133 154 181
134 155 181
134 154 181
134 154 181
134 154 181
134 154 181
133 154 181
134 154 181
133 154 181
133 154 181
133 154 181
134 154 181
134 154 181
135 155 181
134 154 181
133 154 181
134 154 181
134 154 181
134 154 181
134 154 181
134 154 181
133 154 181
134 154 181
135 155 181
134 154 181
134 154 181
134 154 181
134 154 181
134 154 181
134 154 181
133 154 181
135 155 181
134 154 181
134 154 181
133 154 181
133 154 181
133 154 181
133 154 181
133 154 181
134 154 181
134 154 181
134 155 181
133 153 180
134 154 181
133 154 181
133 154 181
134 154 181
134 154 181
134 154 181
133 154 181
133 154 181
134 154 181
133 154 181
134 154 181
133 154 181
133 154 181
134 154 181
133 154 181
134 154 181
134 154 181
134 154 181
133 154 181
134 154 181
134 154 181
134 154 181
134 154 181
133 154 181
134 154 181
133 154 181
134 154 181
134 154 181
134 154 181
133 154 181
134 154 181
134 154 181
133 154 181
134 154 181
134 154 181
134 154 181
134 154 181
134 154 181
134 154 181
133 154 181
133 154 181
134 154 181
135 155 181
134 154 181
134 154 181
134 155 181
134 154 181
134 154 181
133 154 181
134 154 181
135 155 181
132 153 180
134 154 181
134 154 181
134 154 181
133 153 180
134 154 181
134 154 181
133 154 181
134 154 181
134 154 181
134 154 181
134 154 181
134 154 181
134 154 181
133 154 181
133 154 181
133 154 181
133 154 181
134 154 181
134 154 181
134 154 181
134 154 181
134 154 181
134 155 181
133 154 181
134 154 181
134 154 181
134 154 181
135 155 181
135 155 181
134 154 181
134 154 181
133 154 181
134 154 181
133 154 181
134 154 181
134 154 181
134 154 181
133 154 181
134 154 181
133 154 181
134 154 181
134 154 181
134 154 181
134 154 181
133 154 181
133 154 181
134 154 181
134 154 181
135 155 181
133 154 181
134 154 181
133 154 180
134 154 181
134 154 181
133 154 181
134 154 181
134 154 181
133 154 181
134 154 181
134 154 181
134 154 181
135 155 181
134 154 181
134 154 181
133 154 181
134 154 181
133 154 181
134 154 181
134 154 181
134 154 181
133 154 181
134 154 181
134 154 181
133 154 181
133 154 181
134 154 181
133 154 181
134 154 181
134 154 181
133 154 181
134 154 181
133 154 181
134 154 181
134 154 181
134 154 181
132 154 181
133 154 181
134 154 181
134 154 181
134 155 181
134 154 181
134 154 181
134 154 181
134 154 181
134 154 181
134 154 181
134 154 181
134 154 181
133 154 181
134 154 181
134 154 181
135 155 181
134 154 181
134 154 181
134 154 181
133 154 181
135 155 181
134 154 181
134 154 181
134 154 180
134 154 181
133 154 181
134 154 181
134 154 181
133 154 181
134 154 181
133 154 181
133 154 181
134 154 181
134 154 180
134 154 180
133 154 181
135 155 181
133 154 181
134 154 181
134 154 180
134 154 181
133 154 180
134 154 181
133 154 181
134 154 181
133 154 180
133 154 181
134 154 181
134 154 181
134 154 181
134 154 181
133 154 181
134 154 181
134 154 181
134 154 181
133 154 181
135 155 181
133 154 180
133 154 181
133 154 181
134 154 181
134 154 181
133 154 181
134 154 181
133 154 181
134 154 181
133 154 181
135 155 181
134 154 181
134 154 181
134 154 181
134 154 181
133 154 181
133 154 181
134 154 181
134 154 181
133 154 181
134 154 181
134 154 181
134 154 181
133 154 180
134 154 181
134 154 181
134 155 181
133 154 181
134 154 181
134 154 181
134 154 181
134 154 181
134 154 181
133 154 181
134 154 181
134 154 181
133 154 181
133 154 181
133 154 181
134 154 181
134 154 181
134 154 181
134 154 181
134 154 181
134 154 181
135 155 181
134 154 181
133 154 181
134 155 181
134 154 181
133 154 181
134 154 181
134 154 181
134 154 181
133 154 181
133 154 181
134 154 181
134 154 181
133 154 181
134 154 181
133 154 181
133 154 181
133 154 181
133 154 181
134 154 181
134 154 181
135 155 181
134 154 181
134 154 181
134 154 181
134 154 181
133 154 181
134 154 181
134 154 180
134 154 181
134 154 181
134 154 181
134 155 181
134 154 181
133 154 181
134 154 181
134 154 181
134 154 181
134 154 181
135 155 181
134 154 181
134 154 181
134 154 181
134 154 181
134 154 181
133 154 181
133 154 181
133 153 180
135 155 181
133 154 181
134 154 181
133 154 181
134 154 181
134 155 181
134 154 181
133 154 181
134 154 181
134 154 181
133 154 181
133 154 181
134 155 181
134 154 181
134 154 181
133 154 181
133 154 181
134 154 181
134 155 181
134 154 181
134 155 181
134 154 181
135 155 181
134 154 181
134 154 181
133 154 181
134 154 181
134 155 181
133 154 181
133 154 181
134 155 181
134 154 181
134 154 181
134 154 181
133 154 181
134 154 181
134 154 181
133 154 181
133 154 181
134 154 181
133 154 181
133 154 180
134 155 181
134 154 181
132 153 180
133 154 180
134 154 181
133 154 181
133 154 181
134 154 181
134 154 181
134 154 181
134 154 181
134 154 181
133 154 181
134 154 181
133 154 181
134 154 181
133 154 181
134 154 181
134 154 181
134 154 181
134 154 181
134 154 181
135 155 181
134 154 181
134 154 181
134 154 181
134 154 181
134 154 181
134 154 181
133 154 181
134 154 181
133 154 181
134 154 181
133 154 181
134 154 181
134 154 181
134 154 181
134 154 181
134 154 181
133 154 181
134 154 181
133 154 180
134 154 181
133 154 181
133 154 181
134 154 181
134 154 181
134 154 181
134 154 181
134 154 181
134 154 181
134 154 181
133 154 180
134 154 180
134 154 181
134 154 181
134 154 181
134 154 181
134 154 181
134 154 180
133 154 181
133 154 180
134 154 181
134 154 181
134 154 181
134 154 181
133 154 181
133 154 181
134 154 181
134 154 181
134 154 181
133 154 181
133 154 181
133 154 181
134 154 181
134 154 181
134 154 181
134 155 181
133 154 181
134 154 181
134 154 181
134 154 181
134 154 181
134 154 181
133 154 181
133 154 180
133 154 181
134 154 181
133 154 181
133 154 181
134 154 181
133 154 181
133 154 181
134 154 180
134 154 181
133 154 181
133 154 181
135 155 181
132 154 181
133 154 181
133 154 181
134 154 181
133 154 181
133 154 181
134 154 181
134 154 181
134 154 181
134 154 181
133 154 181
134 154 181
133 154 181
133 154 181
134 154 181
133 154 181
134 154 181
134 154 181
134 154 181
134 154 180
134 154 181
134 154 181
134 154 181
133 154 181
134 154 181
133 154 181
134 154 181
134 154 181
134 154 181
134 154 181
134 154 181
135 155 181
133 154 180
134 154 181
134 154 181
134 154 181
133 154 181
134 154 181
133 154 181
134 154 181
135 155 181
134 154 181
134 154 181
134 154 180
134 154 181
134 154 181
134 154 181
134 154 181
135 155 181
133 154 181
134 154 181
134 154 181
134 154 181
134 154 181
134 155 181
133 154 181
134 154 181
133 154 181
135 155 181
134 154 181
134 154 181
134 154 181
133 154 181
134 154 181
133 154 181
133 153 180
133 154 181
133 154 181
134 154 181
134 154 181
134 154 181
134 154 181
134 154 181
134 155 181
134 154 181
133 154 181
134 154 181
133 154 181
135 155 181
134 154 181
134 154 181
135 155 181
134 154 181
133 154 181
134 154 181
134 154 181
134 154 181
133 154 181
134 154 181
134 154 181
133 154 181
133 154 181
133 154 181
134 154 181
133 154 181
133 154 181
134 154 181
134 154 181
134 154 181
134 154 181
134 154 181
133 154 181
134 154 181
134 154 181
133 154 181
133 154 181
134 154 181
133 154 181
134 154 181
133 154 181
134 154 181
134 154 181
134 154 181
134 155 181
134 154 181
133 154 181
134 154 181
135 155 181
134 154 181
134 154 181
134 154 181
133 154 181
133 154 181
133 154 181
135 155 181
133 154 181
134 154 181
133 154 181
133 154 180
134 154 181
134 154 181
133 154 181
133 154 181
134 154 181
134 155 181
134 154 181
134 154 181
134 154 181
134 154 181
133 154 181
133 154 181
133 154 181
133 154 181
133 154 181
133 154 181
135 155 181
133 154 181
133 154 181
134 154 181
134 154 181
134 154 181
133 154 180
133 154 181
134 154 181
133 154 181
134 154 181
133 154 181
132 153 181
134 154 181
134 154 181
134 154 181
134 154 181
134 154 181
134 154 181
134 154 181
133 154 181
133 154 181
134 154 181
134 154 181
134 154 181
133 154 181
134 154 181
133 154 181
133 154 181
134 154 181
134 154 181
133 153 180
134 154 181
135 155 181
134 154 181
134 154 181
134 154 181
134 154 181
134 154 181
135 155 181
134 154 181
133 154 181
134 154 181
134 154 181
134 155 181
133 154 181
134 154 181
134 154 181
133 154 181
134 154 181
134 154 181
134 154 181
134 154 181
134 154 181
134 154 181
133 154 181
134 155 181
134 154 181
134 154 181
134 154 181
133 154 181
134 154 181
134 154 181
134 154 181
134 154 181
133 154 181
133 154 181
134 154 181
135 155 181
134 154 181
134 154 181
133 154 181
134 154 181
134 154 181
134 154 181
133 154 181
134 154 181
134 154 181
133 154 181
134 154 181
133 154 181
134 154 181
134 154 181
133 154 181
133 154 181
135 155 181
134 154 181
134 154 181
133 154 181
133 154 181
134 155 181
134 154 181
134 154 181
134 154 181
134 154 181
134 154 181
133 154 181
134 154 181
134 155 181
134 154 181
134 154 181
134 154 181
134 154 181
134 154 181
135 155 181
134 154 181
133 154 181
134 154 181
133 154 181
134 154 181
134 154 181
133 154 181
134 154 181
134 154 181
134 154 181
133 154 181
134 154 181
134 155 181
134 154 181
134 154 181
134 154 181
134 154 181
134 154 181
133 154 181
133 154 181
133 154 181
134 154 181
133 154 181
134 154 181
134 154 181
133 154 181
134 154 181
134 154 181
134 154 181
134 154 181
134 155 181
133 154 181
133 154 181
134 154 181
134 154 181
134 154 181
133 154 181
134 154 181
134 155 181
134 154 181
134 154 181
134 154 181
134 154 181
133 154 181
134 154 181
133 154 181
134 154 181
134 154 180
133 154 181
134 154 181
134 154 181
134 154 181
133 154 180
133 154 181
134 154 181
134 154 181
134 154 181
134 154 181
134 154 181
133 154 181
134 154 181
133 154 181
134 154 181
133 154 181
134 155 181
134 154 181
134 154 181
135 155 181
134 154 181
134 154 181
134 154 181
134 154 181
134 154 181
134 154 181
133 154 181
134 154 181
134 154 181
134 154 181
133 153 180
134 154 181
134 154 181
133 154 181
133 154 181
134 154 181
133 154 181
134 154 181
133 154 181
135 155 181
134 154 181
133 154 181
133 154 181
134 154 181
134 154 181
133 154 181
133 154 181
134 154 180
135 155 181
134 155 181
134 154 181
133 154 181
134 154 181
134 154 181
135 155 181
134 154 181
134 154 181
134 154 181
134 154 181
134 155 181
134 154 181
133 154 181
133 154 181
134 154 181
134 154 181
134 154 181
134 154 181
133 154 181
133 154 181
134 154 181
133 154 181
134 154 181
133 154 181
135 155 181
134 155 181
133 154 181
134 154 181
133 154 181
134 154 181
134 154 181
134 154 181
135 155 181
134 154 180
134 154 181
134 154 181
134 154 181
134 154 181
133 154 181
134 154 181
134 154 181
134 154 181
133 154 181
134 154 181
134 154 181
134 154 181
134 154 181
133 154 181
134 154 181
134 154 181
133 154 181
134 154 181
134 154 181
133 154 181
133 154 181
134 154 181
134 154 181
135 155 181
133 154 181
134 154 181
134 154 181
134 154 180
134 155 181
133 154 181
134 154 181
133 154 181
134 154 181
133 154 181
134 154 181
134 154 181
134 154 181
134 154 181
134 154 181
133 154 181
134 154 181
134 154 181
134 154 181
134 154 181
134 154 181
134 155 181
134 154 181
135 155 181
133 154 181
133 154 181
134 154 181
133 154 181
134 154 181
134 154 181
134 155 181
134 154 181
134 154 181
135 155 181
133 154 181
133 154 181
133 154 181
134 154 181
133 154 181
134 154 181
134 154 181
134 154 181
134 154 181
134 154 181
134 154 181
134 154 181
134 154 181
134 154 181
133 154 181
134 154 181
134 154 181
134 154 181
133 154 181
133 153 180
134 154 181
133 154 181
134 154 181
134 154 181
134 154 181
134 155 181
134 154 181
135 154 180
134 154 181
134 154 181
133 154 181
134 154 181
134 154 181
134 154 181
134 154 181
134 154 181
134 154 181
134 154 181
133 154 181
134 154 181
134 154 181
133 154 181
134 154 181
133 154 181
133 154 180
133 154 181
134 154 181
135 155 181
133 154 181
134 154 181
134 154 181
133 154 181
134 154 181
134 154 181
134 154 181
133 154 181
134 154 181
134 154 181
133 154 181
134 154 181
134 154 181
134 154 181
134 154 181
133 154 181
133 154 181
133 154 181
134 154 181
133 154 181
134 154 181
133 154 181
134 154 181
134 154 181
133 154 181
133 154 181
134 154 181
133 154 181
133 154 181
134 154 181
134 154 181
134 155 181
134 154 181
133 154 181
133 154 181
134 154 181
134 154 181
134 154 181
134 154 181
135 155 181
134 154 181
134 154 181
134 154 181
133 154 181
134 154 181
135 155 181
133 154 181
134 154 181
134 154 181
134 154 181
133 154 181
134 154 181
135 155 181
133 154 181
134 154 181
133 154 181
134 154 181
133 154 181
134 154 181
134 154 181
134 154 181
134 154 181
134 154 181
133 154 181
134 154 181
134 154 180
134 154 180
133 154 181
134 154 181
134 154 181
133 154 181
134 154 181
134 154 181
134 154 181
133 154 181
134 154 181
133 154 181
134 154 181
135 155 181
134 154 181
134 154 181
133 154 181
134 154 181
134 154 181
133 154 181
134 154 181
134 154 181
134 154 181
134 154 181
134 154 181
133 154 181
133 154 180
133 154 181
134 154 181
134 154 181
134 154 181
134 154 181
133 154 181
134 155 181
133 153 180
134 154 181
134 154 181
134 154 180
134 154 181
133 154 181
134 154 181
135 155 181
134 154 181
134 154 181
133 154 181
134 154 181
134 154 181
134 154 181
133 154 181
134 154 181
134 154 181
133 154 180
135 155 181
134 154 181
134 154 181
133 154 181
133 154 181
133 154 181
134 154 181
134 154 181
134 154 181
135 155 181
134 154 181
134 154 181
134 154 181
134 154 181
134 154 181
134 154 181
133 154 181
134 154 181
133 154 181
133 154 181
134 154 181
134 154 181
133 154 181
134 154 181
134 154 181
133 154 181
133 154 181
134 154 181
134 155 181
134 154 181
134 154 181
135 155 181
134 154 181
133 154 181
134 154 181
133 154 181
134 154 181
133 154 181
133 154 181
133 154 181
133 154 181
133 154 181
134 154 181
134 154 181
134 154 181
133 154 181
135 155 181
133 154 181
133 154 181
134 154 181
134 154 181
134 154 181
135 155 181
134 154 180
133 154 181
134 154 181
133 154 181
134 154 180
134 154 181
134 154 180
134 154 181
133 154 180
134 154 181
134 154 181
134 154 181
134 154 181
134 154 181
134 154 181
134 154 181
134 154 181
134 154 181
133 154 181
134 154 181
133 154 181
134 154 181
133 154 181
134 155 181
133 154 181
134 154 181
134 154 181
133 154 181
134 154 181
133 154 181
133 154 181
134 154 180
133 154 181
133 154 181
134 154 181
134 154 181
133 154 181
133 154 181
134 154 181
134 154 181
135 155 181
134 154 181
134 154 181
134 154 181
134 154 181
134 154 181
133 154 181
134 154 181
135 155 181
134 154 181
133 154 181
134 154 181
134 154 181
134 155 181
134 154 181
133 154 181
134 154 181
134 154 181
134 154 181
134 154 181
134 154 181
134 154 181
134 154 181
133 154 180
134 154 181
134 154 181
134 154 181
133 154 181
134 154 181
135 155 181
134 154 181
134 154 181
134 154 181
134 154 181
133 154 181
134 154 181
134 154 181
134 154 181
134 154 181
133 154 180
134 154 181
134 154 181
135 155 181
133 154 181
135 155 181
134 154 181
134 154 181
134 154 181
133 154 181
135 155 181
134 154 181
134 154 181
134 154 181
134 154 181
135 155 181
134 154 181
133 154 181
133 154 181
133 154 181
134 154 181
133 154 181
134 154 181
134 154 181
134 154 181
134 154 181
134 154 181
134 154 181
134 154 181
134 154 181
135 155 181
133 154 181
133 154 180
134 154 181
135 155 181
133 154 181
134 154 181
133 154 181
135 155 181
133 154 181
134 155 181
134 154 181
134 154 181
135 155 181
134 155 181
133 154 181
135 155 181
134 154 181
134 154 181
133 154 181
134 154 181
133 154 180
133 154 181
133 154 181
133 154 181
134 154 181
135 155 181
134 154 181
134 154 181
134 154 181
134 155 181
134 155 181
134 154 180
134 154 181
134 154 181
134 154 181
134 154 181
134 154 181
134 154 181
134 154 181
134 155 181
134 154 181
134 154 181
134 154 181
134 154 181
134 154 181
133 154 181
134 154 181
133 154 181
134 154 181
135 155 181
134 154 181
133 154 181
134 154 181
133 154 181
134 154 181
134 154 181
134 154 181
133 154 181
134 154 181
134 154 181
134 155 181
133 154 181
134 154 181
134 154 181
133 153 180
133 154 181
134 154 181
134 154 181
134 155 181
133 154 181
133 154 181
134 154 181
134 155 181
133 154 181
133 154 181
133 154 181
134 154 181
134 154 181
133 154 181
134 154 181
134 154 181
133 154 181
133 154 181
134 154 181
133 154 181
134 154 181
134 154 181
134 154 181
133 154 181
134 154 181
133 154 181
133 154 181
134 154 181
134 154 181
135 155 181
133 154 180
133 154 181
134 154 181
134 155 181
134 154 181
134 154 181
134 154 181
133 154 181
134 154 181
134 154 181
133 154 181
134 154 181
134 154 181
133 154 181
134 154 181
134 154 181
135 155 181
135 155 181
134 154 181
133 154 181
133 154 181
134 154 181
133 154 181
134 154 181
134 154 181
134 154 181
133 154 181
134 154 181
134 154 181
134 154 181
134 154 181
134 154 181
134 154 181
134 154 181
134 154 181
134 154 181
134 154 181
134 154 181
133 153 180
134 154 181
134 154 181
133 154 181
133 154 181
133 154 181
134 154 181
133 154 181
134 154 181
135 155 181
135 155 181
134 154 181
133 154 181
134 154 181
133 154 181
133 154 181
134 154 181
135 155 181
134 154 181
133 154 181
134 154 181
134 154 181
134 154 181
133 154 181
134 155 181
134 154 181
135 155 181
133 154 181
132 153 181
135 155 181
134 154 181
135 155 181
133 154 181
133 154 181
134 154 181
133 154 181
135 155 181
134 154 181
134 155 181
134 154 181
134 154 181
133 154 181
133 154 181
133 154 181
134 154 181
133 154 181
134 154 181
134 154 181
134 154 181
134 154 181
134 154 181
133 154 181
134 154 181
133 154 181
133 154 181
134 154 181
133 154 181
134 154 181
134 154 181
134 154 181
133 154 181
133 154 181
133 154 181
133 154 181
134 154 181
135 155 181
134 154 181
133 154 181
134 154 180
133 154 181
134 154 181
134 154 181
134 154 181
134 154 181
133 154 181
134 154 181
134 154 181
134 154 181
134 154 181
135 155 181
134 154 181
134 154 181
133 154 181
134 154 181
134 154 181
134 154 181
134 154 181
134 155 181
134 154 181
134 154 181
134 154 181
134 154 181
134 154 181
133 154 181
133 154 181
134 154 181
134 154 181
133 154 181
133 153 180
134 154 181
133 154 180
135 155 181
133 154 181
134 154 181
134 154 181
134 154 181
134 154 181
135 155 181
133 154 181
134 154 181
134 154 181
133 154 181
134 154 181
134 154 181
134 155 181
133 154 181
134 154 181
135 155 181
134 154 181
134 154 181
134 154 181
134 154 181
133 154 181
133 153 180
133 154 181
133 154 180
133 154 181
133 154 181
134 154 181
135 155 181
135 155 181
134 154 181
133 154 181
133 154 181
133 154 181
134 154 181
134 154 181
134 154 181
133 154 181
134 154 181
133 154 181
134 154 181
134 154 181
133 154 181
134 154 181
134 154 181
134 154 181
134 154 181
134 154 181
133 154 181
134 154 181
134 154 181
133 154 181
134 154 181
134 154 181
133 154 181
133 154 181
133 154 180
133 154 181
133 154 181
133 154 181
135 155 181
134 154 181
133 154 181
133 154 180
134 154 181
133 154 181
134 154 181
134 154 181
133 154 181
133 154 181
133 154 181
134 154 181
133 154 181
133 154 181
133 154 181
133 154 181
134 154 181
134 154 181
134 154 181
133 154 181
134 154 180
134 154 181
134 154 181
134 154 181
134 154 181
133 154 181
135 155 181
134 154 181
134 154 181
134 154 181
135 155 181
133 154 181
134 154 181
133 154 181
134 154 181
133 153 180
134 154 181
134 154 181
134 154 181
133 154 181
133 154 181
133 154 181
133 154 181
133 154 181
135 155 181
134 154 181
134 155 181
134 154 181
133 154 181
134 154 181
134 154 181
134 154 181
134 154 181
133 154 181
135 155 181
133 154 181
133 154 181
134 154 181
134 154 181
134 154 181
133 154 181
134 154 181
134 154 181
134 154 180
134 154 181
133 154 180
134 154 181
134 154 181
134 154 181
133 154 181
133 154 181
133 154 181
133 154 181
134 154 181
134 154 181
134 154 181
134 154 181
134 154 181
134 154 181
134 155 181
133 154 181
134 154 181
134 154 181
134 154 181
133 154 181
135 155 181
133 154 181
134 154 181
134 154 181
135 155 181
133 154 181
134 154 181
133 154 180
133 154 181
133 154 181
134 154 181
134 154 181
134 154 181
134 154 181
134 154 181
134 154 181
133 154 181
134 154 181
134 154 181
134 155 181
135 155 181
133 154 181
134 154 181
134 154 181
134 154 181
135 155 181
134 154 181
132 153 181
134 154 181
134 154 181
133 154 181
134 154 181
133 154 181
134 154 181
133 154 181
134 154 181
134 155 181
134 154 181
134 155 181
133 154 181
134 154 181
133 154 181
134 154 181
134 154 180
134 154 181
133 154 181
134 154 181
134 154 181
134 154 181
134 154 181
133 154 181
133 154 181
135 155 181
134 154 181
134 154 181
134 154 181
134 154 181
133 154 181
134 154 180
133 154 181
133 154 181
134 154 181
134 154 181
134 154 181
134 154 181
134 154 181
135 155 181
134 154 181
134 154 181
134 154 181
133 154 181
134 154 181
133 154 181
135 155 181
134 154 181
133 154 181
133 154 181
134 154 181
134 154 181
134 154 181
134 154 181
134 154 181
134 154 181
134 154 181
134 154 181
133 154 181
134 154 181
134 154 181
134 154 181
135 155 181
134 154 181
134 154 181
134 154 181
134 154 181
133 154 181
134 154 181
135 155 181
133 154 181
132 153 181
134 154 181
134 154 181
134 154 181
135 155 181
134 155 181
134 154 181
134 154 181
133 154 181
133 154 181
133 154 181
133 154 181
134 154 181
134 154 181
133 154 181
134 154 181
133 154 181
134 154 181
135 155 181
134 155 181
133 154 181
133 154 181
134 154 181
135 155 181
134 154 180
133 154 181
133 154 181
134 154 181
133 154 180
134 154 181
134 154 181
134 154 181
133 154 180
134 155 181
134 154 181
134 154 181
134 154 181
134 154 181
134 154 181
134 154 181
134 154 180
134 154 181
133 154 181
135 155 181
133 154 181
134 155 181
134 154 180
134 154 181
134 154 181
133 154 181
133 154 181
133 154 181
133 154 181
134 154 181
133 154 181
134 154 181
135 155 181
133 154 181
133 153 180
133 154 181
135 155 181
134 154 181
134 154 181
134 154 181
133 154 181
134 154 181
134 155 181
135 155 181
134 154 180
134 154 181
133 154 181
133 154 181
134 154 181
133 154 181
134 155 181
134 154 181
135 155 181
133 154 181
134 154 181
133 154 181
133 154 181
133 154 181
134 154 181
134 154 181
134 154 181
134 154 181
133 154 181
133 154 181
134 154 181
134 154 181
134 154 181
134 154 181
134 154 181
133 154 181
134 154 181
134 154 181
134 154 181
133 154 181
134 154 181
133 154 181
133 154 180
134 154 181
134 154 180
134 154 181
133 154 181
133 154 181
133 154 181
134 154 181
134 154 181
135 155 181
133 154 181
134 154 181
133 154 181
134 154 181
133 154 181
134 154 181
134 154 181
134 154 181
133 154 181
133 154 181
134 155 181
134 154 181
134 154 181
133 154 181
135 155 181
134 154 181
134 154 181
134 154 181
134 154 181
134 154 181
133 154 181
134 154 181
134 154 181
133 154 181
133 154 181
134 154 181
133 154 181
134 154 181
134 155 181
135 155 181
134 154 181
134 154 181
134 154 181
134 154 181
133 154 181
134 154 181
134 154 181
134 154 181
134 154 181
134 154 181
134 154 181
134 154 181
133 154 181
133 154 181
133 154 181
133 154 181
134 154 181
133 154 181
134 154 181
134 154 181
134 154 181
133 154 181
134 154 181
134 154 180
134 154 181
133 154 181
133 154 181
134 154 181
134 154 181
133 154 181
134 154 181
135 155 181
133 154 181
133 154 181
134 154 181
134 154 181
134 154 181
133 154 181
134 154 181
134 154 181
134 154 181
134 154 181
134 154 181
134 154 181
134 154 181
134 154 181
134 154 181
134 154 181
135 155 181
134 154 181
133 154 181
134 154 180
135 155 181
134 154 181
134 154 181
134 154 181
134 155 181
134 154 181
133 154 181
134 154 181
134 154 181
134 154 181
133 153 180
133 154 181
133 154 180
134 154 180
133 154 181
134 154 181
134 154 181
133 154 181
134 154 181
134 154 181
133 154 181
133 154 181
133 154 181
133 154 181
134 154 181
134 154 181
134 154 181
134 154 181
133 154 181
134 154 181
134 154 181
134 154 181
134 154 181
133 154 181
134 154 181
133 154 181
133 154 181
134 154 181
134 154 181
133 154 181
133 154 181
134 154 181
134 154 181
133 153 180
134 154 181
133 154 181
133 154 181
134 154 181
134 154 181
135 155 181
134 154 181
133 154 181
135 155 181
133 154 181
134 154 181
135 155 181
134 154 181
134 154 181
134 154 181
134 154 181
133 154 181
134 154 180
133 154 181
135 155 181
134 154 181
133 154 180
134 154 181
134 154 181
134 154 181
134 154 181
133 154 181
134 154 181
134 154 181
133 154 181
134 154 181
134 154 181
134 154 181
134 154 181
134 154 181
133 154 181
133 154 181
133 154 181
134 154 181
133 154 181
133 154 181
134 154 181
133 154 180
134 154 181
134 154 181
135 155 181
135 155 181
134 154 181
134 154 181
133 154 181
134 154 181
133 154 181
134 154 181
134 154 181
133 154 181
135 155 181
134 154 181
133 154 181
133 154 181
134 154 181
134 154 181
134 154 181
133 154 181
134 155 181
134 154 181
133 154 180
134 154 181
133 154 181
134 154 181
133 154 181
134 154 181
134 154 181
133 154 181
134 154 181
134 154 181
133 154 181
134 154 180
134 154 181
134 154 180
134 154 181
133 154 181
133 154 181
133 154 181
134 154 181
133 154 181
133 154 181
134 154 181
134 154 181
133 154 180
134 154 181
133 154 181
134 154 181
133 154 181
134 154 181
134 154 181
134 154 181
134 154 181
134 154 181
134 154 181
133 154 181
134 154 181
133 154 181
133 154 181
134 154 181
134 154 181
134 154 181
134 154 181
133 154 181
133 154 181
133 154 181
133 154 181
133 154 181
134 154 181
134 154 181
134 154 181
133 154 181
134 154 181
133 154 181
133 154 181
133 154 181
135 155 181
134 154 181
134 154 181
133 154 181
133 154 181
134 154 181
135 155 181
133 154 180
134 154 181
134 154 181
134 154 181
134 154 181
133 154 181
134 154 181
134 154 181
133 154 181
133 154 181
133 154 181
134 154 181
134 154 181
134 154 181
134 154 181
133 154 181
133 154 181
134 154 181
134 154 181
134 154 181
133 154 181
132 153 181
134 154 181
133 154 181
134 154 181
134 154 181
133 154 181
134 154 181
134 154 181
133 154 181
134 154 181
133 154 181
133 154 181
133 154 181
134 154 181
134 154 181
133 154 181
133 154 181
133 154 181
133 154 181
135 155 181
134 154 181
134 154 181
133 154 180
134 154 181
135 155 181
134 155 181
133 154 181
133 154 181
135 154 180
134 154 181
134 154 181
135 155 181
134 154 181
133 154 181
133 154 181
134 154 181
133 154 181
133 154 181
134 154 181
133 154 181
134 154 181
134 155 181
134 155 181
134 154 181
133 154 181
134 154 181
134 154 181
133 154 181
134 154 181
134 154 181
133 154 181
134 154 181
132 153 181
134 154 181
133 154 181
134 154 181
134 154 181
134 154 181
134 154 181
133 154 181
134 154 181
134 154 181
134 154 181
134 154 180
133 154 181
134 154 181
134 154 181
134 154 180
134 154 181
135 155 181
133 154 181
134 154 181
134 154 181
133 154 181
134 154 181
134 154 181
134 155 181
133 154 181
134 154 181
134 154 181
134 154 181
134 154 181
134 154 181
134 154 181
134 154 181
133 154 181
134 154 181
133 154 181
134 154 181
134 154 181
134 154 181
134 154 181
134 154 181
133 154 181
133 154 181
133 154 181
134 154 181
133 154 181
134 154 181
134 154 181
134 154 181
134 154 181
133 154 181
135 155 181
133 154 181
134 154 181
134 154 181
134 154 181
134 154 181
133 154 181
134 154 181
133 154 181
134 154 181
134 154 181
133 154 181
134 154 181
134 154 181
134 154 181
135 155 181
134 154 181
133 154 181
133 154 181
133 154 181
133 154 181
134 154 181
134 154 181
133 154 181
134 154 181
133 154 180
134 154 180
134 154 181
134 154 181
133 154 181
134 154 181
133 154 181
134 154 180
134 154 181
134 154 181
133 154 181
134 154 181
134 154 181
133 154 181
133 154 181
134 154 181
134 154 181
134 154 181
134 154 181
133 154 181
134 154 181
134 154 181
134 154 181
135 155 181
133 154 181
133 154 181
134 154 181
134 154 181
133 154 181
134 154 181
133 154 181
135 155 181
135 155 181
134 154 181
133 154 181
135 155 181
134 154 181
134 154 181
133 154 181
134 154 181
134 154 181
135 155 181
133 154 181
133 154 181
134 154 181
134 154 181
134 154 181
134 154 181
133 154 181
133 154 181
135 155 181
134 154 181
134 154 181
133 154 181
133 154 181
134 154 180
134 154 181
133 154 181
133 154 181
134 154 181
133 154 181
134 154 181
134 154 181
134 155 181
133 154 181
134 154 181
134 154 181
134 154 181
133 154 181
133 154 181
134 154 180
134 155 181
133 154 181
133 154 181
133 154 181
133 154 181
133 154 181
135 155 181
134 154 181
133 154 181
134 154 181
134 154 181
133 154 181
134 154 181
134 154 181
134 154 181
134 154 181
134 154 181
135 155 181
134 154 181
133 154 181
133 154 181
134 154 181
134 154 181
133 154 181
133 154 181
134 154 181
133 154 181
133 154 181
134 154 181
134 154 181
133 154 182
134 154 183
133 153 184
132 152 186
133 153 185
132 153 186
132 152 187
134 154 183
133 154 181
134 154 181
134 154 181
135 155 181
134 154 181
135 155 181
133 154 181
134 154 181
134 154 181
133 154 181
134 154 181
133 154 181
133 154 181
134 154 181
134 154 181
134 154 181
133 154 181
133 154 181
134 154 181
134 154 181
134 154 181
133 154 181
134 154 181
134 154 181
133 154 181
134 154 181
134 154 181
134 154 181
133 154 180
134 154 181
133 154 180
134 154 181
134 154 181
134 154 181
134 154 181
134 154 181
133 154 181
134 154 181
133 154 181
133 154 181
134 154 181
133 154 180
134 154 181
134 154 181
134 154 181
133 154 181
134 154 181
134 154 181
134 155 181
133 154 181
134 154 181
133 154 181
134 154 181
134 154 181
134 154 181
134 154 181
134 154 181
135 155 181
134 154 181
134 154 181
133 154 181
134 154 181
133 154 180
135 155 181
133 154 181
134 154 181
134 154 181
133 154 181
134 154 181
133 154 181
134 154 181
134 154 181
132 153 181
134 154 181
133 154 181
134 154 181
134 154 181
133 154 181
133 154 181
134 154 181
133 154 181
134 154 181
134 154 181
133 154 181
133 154 181
135 155 181
134 154 181
133 154 181
133 154 181
134 154 181
134 154 181
135 155 181
133 154 181
134 154 181
134 154 181
134 154 181
133 154 181
133 154 181
134 154 181
135 155 181
134 154 181
134 154 181
133 154 181
134 154 181
133 154 181
134 154 181
134 154 181
135 155 181
134 154 181
133 154 181
132 153 180
133 154 181
134 154 181
135 155 181
134 154 181
134 154 181
135 155 181
134 154 181
134 154 181
134 154 181
134 154 181
134 154 181
133 154 181
133 154 181
133 154 181
133 154 181
134 154 181
133 154 181
133 154 181
133 154 181
134 154 181
133 154 181
134 154 181
133 154 181
134 154 181
134 154 181
133 154 181
133 154 181
134 154 181
134 154 181
134 154 181
133 154 181
134 154 181
134 155 181
134 154 181
134 154 181
133 154 181
134 154 181
134 154 181
132 153 181
134 154 181
133 154 181
134 154 181
134 154 181
133 154 181
134 154 181
133 154 181
133 154 181
134 154 181
135 155 181
133 154 181
134 154 181
134 154 180
134 154 181
134 154 181
134 154 181
134 154 181
133 154 181
133 154 181
134 154 181
133 154 181
133 153 180
133 154 181
134 154 181
134 155 181
133 154 181
133 154 181
133 154 181
134 154 180
133 154 181
135 155 181
133 154 181
133 154 181
133 154 181
134 154 181
135 155 181
133 154 181
133 154 181
134 154 181
135 155 181
134 154 181
134 155 181
133 154 181
133 154 181
133 154 181
134 154 181
133 154 181
133 154 181
134 154 181
133 154 181
133 154 181
134 154 181
134 154 181
135 155 181
133 154 181
134 155 181
133 154 181
135 155 181
133 154 181
133 154 181
134 154 181
132 153 181
134 155 181
134 154 180
134 154 181
134 154 181
134 154 181
135 155 181
134 154 181
134 154 181
134 154 181
134 154 181
134 154 181
134 154 181
134 154 181
133 154 180
134 154 181
133 154 181
134 154 181
134 154 181
134 154 181
134 154 181
134 154 181
133 154 181
134 154 181
133 154 181
134 154 181
133 154 181
134 154 181
134 154 181
133 154 181
133 154 181
133 154 181
134 154 181
133 154 181
134 154 181
134 155 181
134 154 181
133 154 181
134 154 181
133 154 181
133 154 181
134 154 181
133 154 181
134 154 181
133 154 181
134 154 181
134 154 181
134 154 180
133 154 181
134 154 181
133 154 181
135 155 181
134 154 181
134 154 181
133 154 181
134 154 181
133 154 181
132 153 181
134 154 181
135 155 181
134 154 181
133 154 181
134 154 181
134 154 181
134 154 180
133 154 181
134 154 181
134 154 181
134 155 181
133 154 181
133 154 181
133 154 181
134 154 181
134 154 181
134 154 181
133 154 181
134 154 181
134 154 181
133 154 181
133 154 181
134 154 181
134 154 181
134 154 181
134 154 181
134 154 181
134 154 181
133 154 181
134 155 181
133 154 181
133 153 180
134 154 181
133 154 181
134 154 181
134 154 181
134 154 181
134 154 181
134 154 181
133 154 181
134 154 181
135 155 181
133 154 181
134 154 180
133 154 181
134 154 181
135 155 181
134 154 180
134 154 181
134 154 180
134 154 181
133 154 181
134 154 181
133 154 181
134 154 181
133 154 181
133 154 181
134 154 181
134 154 181
134 154 181
134 155 181
134 154 181
134 154 181
133 154 181
134 154 181
134 154 181
134 154 181
134 154 181
134 154 181
134 154 181
134 154 181
133 154 181
134 154 181
133 154 181
134 154 181
133 154 181
134 154 181
133 154 181
133 154 181
135 155 181
134 154 181
133 154 181
133 154 181
133 154 181
134 154 181
134 154 181
135 155 181
133 154 181
134 154 181
133 154 181
134 154 181
134 154 181
133 154 181
134 154 181
134 154 181
134 154 181
135 155 181
134 154 181
132 153 180
133 154 181
134 154 181
134 154 181
133 154 181
133 154 181
134 154 181
134 154 181
135 155 181
133 154 181
134 154 181
133 154 181
133 154 181
134 154 181
133 154 181
135 155 181
134 154 181
133 154 182
134 154 181
133 153 183
132 152 186
132 152 187
132 152 188
131 151 190
130 150 195
130 150 195
129 149 199
126 146 206
128 147 203
127 147 204
126 145 208
127 146 207
131 150 195
131 151 193
132 152 188
133 153 184
134 154 182
133 154 181
134 154 181
133 154 181
134 154 181
134 154 181
133 154 181
133 154 181
133 154 181
133 154 181
134 154 181
134 154 181
133 154 181
134 154 181
134 154 181
134 154 181
134 154 181
134 154 181
134 154 181
133 154 181
134 154 181
134 154 181
133 154 181
133 154 181
134 154 181
134 155 181
134 154 181
134 154 181
133 154 181
133 154 181
134 154 181
134 154 181
134 154 181
133 154 181
134 154 181
133 154 181
134 154 181
134 154 181
133 154 181
134 154 181
135 155 181
134 154 181
133 154 181
135 155 180
135 155 181
133 154 181
134 154 181
134 154 181
134 154 181
134 154 181
134 154 181
134 154 181
133 154 181
134 154 180
135 155 181
134 154 181
134 154 181
134 154 181
133 154 181
134 154 181
134 154 181
134 154 181
133 154 181
135 155 181
134 154 181
133 154 181
134 154 181
133 154 181
134 154 181
134 154 181
134 154 181
134 154 181
133 154 181
134 154 181
134 154 181
134 154 181
133 154 181
135 155 181
134 154 181
133 154 181
133 154 181
133 154 181
133 154 181
133 154 181
134 154 181
133 154 181
133 154 181
134 154 181
133 153 180
134 154 181
133 154 181
134 154 181
135 155 181
134 154 181
133 154 181
133 154 181
134 154 181
134 154 181
133 154 181
133 154 181
134 155 181
134 154 181
135 155 181
133 154 181
134 154 181
134 155 181
134 154 181
133 154 181
133 154 181
133 154 181
133 154 181
134 154 181
134 154 181
134 154 181
134 154 181
134 154 181
134 154 181
134 155 181
133 154 181
133 154 181
132 153 181
134 154 181
134 154 181
134 154 181
134 154 181
134 154 181
133 154 181
134 155 181
133 154 181
134 154 181
135 155 181
134 154 181
134 154 181
134 154 181
135 155 181
134 154 181
133 154 181
133 154 181
134 154 181
134 154 181
133 154 181
133 153 180
135 155 181
133 154 181
134 154 181
133 154 181
134 154 181
132 153 181
134 154 181
133 154 181
133 154 180
134 154 181
134 154 181
133 154 181
134 154 181
134 154 181
133 154 181
134 154 181
134 154 181
133 154 181
134 154 181
134 154 181
134 154 181
134 154 181
133 154 180
134 154 181
134 154 181
133 154 181
134 154 181
134 154 181
134 154 181
134 154 181
134 154 181
133 154 181
133 154 181
133 153 180
133 154 181
134 154 181
133 154 181
133 154 181
134 154 181
134 154 181
133 154 181
135 155 181
134 154 181
135 155 181
134 154 181
134 154 181
133 154 181
134 154 181
133 154 181
134 154 181
134 154 181
134 154 181
134 155 181
134 154 181
135 155 181
134 154 181
135 155 181
134 154 181
134 154 181
133 154 181
134 154 181
133 153 180
133 154 181
134 154 181
134 154 181
134 154 181
134 154 181
133 154 181
134 154 181
134 154 181
133 154 181
133 154 181
134 154 181
135 155 181
133 154 181
134 154 181
134 154 181
135 155 181
134 154 181
133 154 181
133 154 181
134 154 181
134 154 181
134 154 181
134 154 181
134 154 181
133 154 181
134 154 181
133 154 181
134 154 181
135 155 181
134 154 181
134 154 181
134 154 181
134 154 181
134 154 181
134 154 181
134 154 181
134 154 181
134 154 181
133 154 181
133 154 181
133 154 181
134 154 181
134 154 181
134 154 181
134 154 181
134 154 181
134 154 181
134 154 181
134 154 181
134 154 181
134 154 181
134 154 181
134 154 181
134 154 181
134 154 181
133 154 181
134 154 181
134 154 181
134 154 181
133 154 181
134 154 181
135 155 181
134 154 181
133 154 181
134 154 181
135 155 181
133 154 181
133 154 181
134 154 181
133 154 181
133 154 181
133 154 181
133 154 181
134 154 181
134 154 181
133 154 181
134 154 181
134 154 181
135 155 181
134 154 181
134 154 181
134 154 181
133 154 181
134 154 181
134 154 181
133 154 181
135 155 181
134 154 181
135 155 181
134 154 181
133 154 181
134 154 181
134 154 181
134 154 181
133 154 181
134 154 181
134 154 181
134 154 181
134 154 181
134 154 181
133 154 181
133 154 181
134 154 181
134 154 181
134 154 181
134 154 181
135 155 181
134 154 181
133 154 181
133 154 181
134 154 181
133 154 181
133 154 181
134 154 181
133 154 181
133 154 181
134 154 181
133 154 181
134 154 181
133 154 181
134 154 181
134 154 181
133 154 181
134 154 181
134 155 181
134 154 181
135 155 181
134 154 181
133 154 181
133 154 181
134 154 181
134 154 181
134 154 181
134 154 181
134 154 181
134 154 181
134 155 181
134 154 181
134 154 181
133 154 181
134 154 181
133 154 181
134 154 181
134 154 181
134 154 181
133 154 181
134 154 181
134 154 181
133 154 181
134 154 181
134 154 181
133 154 180
134 154 181
134 154 181
134 154 181
134 154 181
134 154 181
134 154 181
134 154 181
134 154 181
133 154 181
134 154 181
133 154 181
133 154 181
134 154 181
134 154 181
134 154 181
134 154 181
134 154 181
132 153 182
134 154 181
133 153 183
132 152 186
132 152 186
132 152 188
131 151 188
130 149 198
130 150 196
128 148 201
127 146 204
127 147 203
126 146 208
127 146 209
123 142 218
124 143 217
124 143 216
124 142 218
122 140 223
120 139 225
121 139 225
120 139 226
122 140 224
123 142 219
125 144 210
127 146 207
127 147 202
130 150 196
131 151 192
133 153 185
134 154 183
133 154 182
135 155 181
134 154 181
135 155 181
133 154 181
134 154 181
133 154 181
134 154 181
134 154 181
134 154 181
134 154 181
133 154 180
134 155 181
134 154 181
134 154 181
134 154 181
134 154 181
134 154 181
132 153 181
135 155 181
134 154 181
133 154 181
134 155 181
134 154 181
134 154 181
134 154 181
134 154 181
135 155 181
134 154 181
133 154 180
134 154 180
133 154 181
135 155 181
134 154 181
133 154 181
134 154 181
134 154 181
134 154 181
134 154 181
135 155 181
134 154 181
134 154 181
134 154 181
133 154 181
134 154 181
134 154 181
134 154 180
134 154 181
134 154 181
134 154 181
134 154 181
135 154 180
134 154 181
133 154 181
135 155 181
134 154 181
133 154 181
134 154 181
133 154 181
133 154 181
134 154 181
134 154 181
133 154 181
134 154 181
133 154 181
134 154 181
134 154 181
133 154 181
134 154 181
134 154 181
134 154 181
133 154 181
134 154 181
133 154 181
134 154 181
134 154 181
134 155 181
135 155 181
133 154 181
135 155 181
134 154 181
135 155 181
134 154 181
132 153 181
134 154 181
134 154 181
134 154 181
133 154 181
134 154 181
133 154 180
134 154 181
133 154 180
134 155 181
134 154 181
134 154 181
133 154 181
134 154 181
133 154 181
133 154 181
134 154 181
134 154 181
134 154 181
132 153 181
134 155 181
133 154 181
133 154 181
134 154 181
133 154 181
134 154 181
133 154 181
134 154 181
133 154 181
134 155 181
133 154 181
134 154 181
134 154 181
133 154 181
134 154 181
133 154 181
134 154 181
134 154 181
134 154 181
133 154 181
133 154 181
134 154 181
133 154 181
133 154 181
134 154 181
133 154 181
133 154 181
134 154 181
134 154 181
134 154 181
133 154 181
134 154 181
134 154 181
133 154 181
134 155 181
134 154 181
134 154 181
134 154 181
135 155 181
133 154 181
134 154 181
134 154 181
133 154 181
134 154 181
134 154 181
134 154 181
134 154 181
134 155 181
133 154 181
134 154 181
134 154 181
133 154 181
134 154 181
134 154 181
133 154 181
134 154 181
133 154 181
133 154 180
133 154 181
134 154 181
134 154 181
134 154 181
134 154 181
133 154 181
134 154 181
133 154 181
134 154 181
134 154 181
134 154 181
134 154 181
134 154 181
134 154 181
134 155 181
133 154 181
134 154 181
134 154 181
134 154 181
134 155 181
134 154 181
134 154 181
134 154 181
134 154 181
134 154 181
133 154 180
135 155 181
134 154 181
134 154 181
134 154 181
134 154 181
133 154 181
134 154 181
133 154 181
134 154 180
134 154 181
134 154 181
135 155 181
134 154 181
135 155 181
133 154 181
133 154 181
134 154 181
134 154 181
134 154 181
134 154 181
135 155 181
135 155 181
134 154 181
132 153 181
134 154 181
134 154 181
134 154 181
134 154 181
134 154 181
134 154 181
133 154 180
134 154 181
134 154 181
133 154 181
134 154 181
134 154 181
134 154 181
133 154 180
134 154 181
134 154 181
134 154 181
133 154 181
134 154 181
133 154 181
133 154 181
135 155 181
134 154 181
134 154 181
133 154 181
134 154 181
134 154 181
134 154 181
134 154 181
133 154 180
134 154 181
133 154 180
133 154 181
134 154 181
134 154 181
133 154 181
133 154 181
133 154 181
134 154 181
133 154 181
134 154 181
134 154 181
133 154 181
134 154 181
134 154 181
134 155 181
134 154 181
133 154 181
134 154 181
134 154 181
133 154 181
134 154 181
134 154 181
133 154 181
134 154 181
134 154 181
134 154 181
134 154 181
133 154 181
133 154 180
134 154 181
134 154 181
134 154 181
134 154 181
134 154 181
134 154 181
134 155 181
133 154 181
134 154 181
134 154 181
133 154 181
134 154 181
135 155 181
135 155 181
134 154 181
134 154 181
134 154 181
134 154 181
133 154 181
134 154 181
134 154 181
134 154 181
134 154 181
134 154 181
135 155 181
134 154 181
133 154 181
134 154 181
134 154 181
134 154 181
133 154 181
135 155 181
133 154 181
133 154 180
134 154 181
133 154 181
134 154 181
134 154 181
134 154 181
134 154 181
133 154 181
134 154 181
134 154 181
134 154 181
134 154 181
134 154 181
134 154 181
134 154 181
134 154 181
134 154 181
134 154 181
134 154 181
134 154 181
133 154 181
134 154 181
133 154 181
134 154 181
133 154 181
134 154 181
134 154 181
134 154 181
135 155 181
134 154 181
135 155 181
135 155 181
133 154 181
133 154 181
133 154 181
133 154 181
134 154 181
134 154 181
134 154 181
133 154 181
133 154 181
134 154 181
134 154 181
134 154 181
134 154 181
133 154 181
133 154 181
134 154 181
133 154 181
133 154 181
134 155 181
133 154 181
134 154 181
134 155 181
134 154 181
133 154 181
133 154 181
133 153 181
134 154 182
132 153 185
132 152 185
132 153 185
132 152 189
131 151 192
131 151 194
130 150 194
129 149 198
128 147 202
127 147 204
125 144 211
125 144 212
125 144 211
125 144 213
124 143 214
124 143 215
122 140 222
122 140 223
121 139 226
120 139 226
120 139 226
120 138 228
120 138 228
120 138 228
120 138 228
120 138 228
120 138 228
119 138 228
119 138 228
119 137 228
120 138 228
120 138 227
123 141 220
123 142 217
125 144 212
125 145 211
129 149 198
129 149 198
130 151 192
133 153 185
133 153 183
132 153 181
134 154 180
134 154 181
134 154 181
133 154 181
134 154 181
134 154 181
134 154 181
133 154 181
134 154 181
134 154 181
134 154 181
133 154 181
134 154 181
134 154 181
134 154 181
133 154 181
133 154 181
133 154 180
134 155 181
133 154 180
133 154 181
133 154 181
133 154 181
134 154 181
134 154 181
134 154 181
133 154 181
133 154 181
134 154 181
133 154 181
134 154 181
134 154 181
134 154 181
134 154 181
134 154 181
134 154 181
133 154 181
134 154 181
134 154 181
135 155 181
133 154 181
134 154 181
134 154 181
134 154 181
134 154 181
133 154 181
133 154 181
134 154 181
133 154 181
134 154 181
134 154 181
133 154 181
133 154 181
133 154 181
133 154 181
133 154 181
134 154 181
133 154 181
134 154 181
134 154 181
134 154 181
134 155 181
133 154 181
133 154 181
134 154 181
133 154 181
133 154 181
134 154 181
134 154 181
134 154 181
133 154 181
134 154 181
135 155 181
134 154 181
134 154 181
133 154 181
134 154 181
134 154 181
133 154 181
133 154 181
134 154 181
134 154 181
133 154 181
133 154 181
133 154 181
134 154 181
134 154 181
133 154 181
133 154 181
134 154 181
134 154 181
134 154 181
134 154 181
134 154 181
133 154 181
133 154 181
134 154 181
133 154 181
134 154 181
133 154 181
134 154 181
134 155 181
133 154 181
134 154 181
133 154 181
134 154 181
134 154 181
133 154 181
133 154 181
134 154 181
133 154 181
134 154 181
134 154 181
133 154 181
135 155 181
134 154 181
134 154 181
133 154 180
133 154 181
133 154 181
134 154 181
134 154 181
134 154 180
133 154 181
133 154 181
134 154 181
134 154 181
134 154 181
134 154 181
133 154 181
134 154 181
133 154 181
134 154 181
133 154 181
133 154 181
134 154 181
134 154 181
134 154 181
134 154 181
134 154 181
135 155 181
133 154 181
133 154 181
134 154 181
134 154 181
133 154 181
134 154 181
134 154 181
135 155 181
133 154 181
134 154 181
133 154 181
134 154 181
134 154 181
133 154 181
133 154 181
134 154 181
133 154 181
134 154 181
132 153 181
133 154 181
133 154 181
134 154 181
135 155 181
134 154 181
134 154 181
135 155 181
134 154 181
134 154 181
134 154 181
134 154 181
134 154 181
134 154 181
134 155 181
133 154 181
134 154 181
134 154 181
134 154 181
133 154 181
133 154 180
134 154 181
134 154 181
135 155 181
134 154 181
134 154 181
134 154 181
134 154 181
135 155 181
133 154 181
134 154 181
134 154 181
134 154 181
134 154 181
134 154 181
133 154 181
135 155 181
134 154 181
134 154 181
133 154 181
134 154 181
133 154 181
134 154 181
134 154 181
133 154 181
133 154 181
133 154 181
134 154 181
134 154 181
134 154 181
133 154 181
134 154 181
133 154 181
133 154 181
134 154 181
133 154 181
133 154 181
133 154 181
134 154 181
133 154 181
133 154 181
134 154 181
134 154 181
134 154 181
134 154 181
133 154 181
134 154 181
134 154 181
133 154 181
133 154 181
134 154 181
133 154 181
134 154 181
134 154 181
133 154 181
133 154 181
134 154 181
134 154 181
133 154 181
133 154 181
133 154 181
134 154 181
134 155 181
133 154 181
133 154 181
133 154 180
133 154 181
134 154 181
135 155 181
133 154 181
134 154 181
134 154 181
133 154 181
134 154 181
135 155 181
133 154 181
133 154 181
134 154 181
135 155 181
133 154 181
134 154 181
134 154 181
134 154 181
134 154 181
134 154 181
134 154 181
134 154 181
133 154 181
134 154 181
133 154 181
133 154 181
134 154 181
135 155 181
135 155 181
134 154 181
134 155 181
134 154 181
133 154 180
133 154 181
134 154 181
133 154 180
133 154 181
133 154 181
133 154 181
133 154 181
134 154 181
133 154 181
134 154 181
134 154 181
134 154 181
134 154 181
133 154 181
134 154 181
134 154 181
134 154 181
133 154 181
133 154 181
134 154 181
135 155 181
134 154 181
133 154 181
134 154 181
134 154 181
135 155 181
133 154 181
134 154 181
133 154 181
134 154 181
133 154 181
133 154 181
134 154 181
134 154 181
134 154 181
133 154 181
134 154 181
133 154 181
134 154 181
134 154 181
134 154 181
134 154 181
133 154 180
134 154 181
133 154 181
134 154 181
134 154 181
134 154 181
133 154 181
134 154 181
135 154 180
133 154 181
133 154 181
133 154 181
133 154 181
134 154 181
134 154 181
134 154 181
134 154 181
134 154 181
134 154 181
134 154 181
133 154 181
134 154 181
134 154 180
134 154 181
134 154 181
134 154 181
133 154 181
133 154 181
134 154 181
134 154 181
132 153 182
133 154 181
134 154 183
134 154 185
133 153 186
131 151 191
130 150 193
130 150 195
129 149 198
127 146 206
129 148 201
128 148 202
126 146 207
127 146 207
125 144 212
125 144 213
122 141 221
123 142 218
122 140 222
121 140 225
121 139 225
120 139 226
121 138 228
120 138 228
119 138 228
120 138 228
119 138 228
119 138 228
120 138 228
119 138 228
120 138 228
120 138 228
119 138 228
119 138 228
120 138 228
120 138 228
119 138 228
119 138 228
120 138 228
120 138 228
120 138 228
119 138 228
119 138 228
119 138 228
120 139 224
122 140 222
124 143 215
126 145 211
127 146 207
129 148 200
131 151 192
132 153 185
133 154 183
134 154 182
134 154 181
133 154 181
134 154 181
134 154 181
134 154 181
134 154 181
134 154 181
134 154 181
134 154 181
134 154 181
134 154 181
134 154 181
134 154 181
133 154 181
134 154 181
134 154 181
132 153 181
133 154 181
134 154 181
134 155 181
134 154 181
133 154 181
133 154 181
134 154 181
134 154 181
134 154 181
134 155 181
133 154 181
134 154 181
134 154 181
134 154 181
134 154 181
135 155 181
134 154 181
134 154 181
134 154 181
134 154 181
134 154 181
133 154 181
133 154 181
134 154 181
135 155 181
134 154 181
133 153 180
133 154 180
134 154 181
135 155 181
134 154 181
133 154 180
135 155 181
135 155 181
133 154 181
134 154 181
133 154 181
134 154 181
134 154 181
133 154 181
134 154 181
134 154 181
134 154 181
133 154 181
133 154 181
134 154 181
133 154 181
134 155 181
134 154 181
134 154 181
134 154 181
134 154 181
134 154 181
134 154 181
133 154 181
134 154 181
134 154 181
133 153 180
134 154 181
133 154 181
133 154 181
133 154 181
133 154 181
133 154 181
134 154 181
134 154 181
134 154 181
133 154 181
134 154 181
134 154 181
134 154 180
135 155 181
134 154 181
133 154 181
134 154 181
133 154 181
134 154 181
134 154 181
134 154 181
134 154 181
134 154 181
135 155 181
133 154 181
132 154 181
134 154 180
133 154 181
133 154 181
134 154 181
135 155 181
133 154 181
135 155 181
134 154 181
133 154 181
134 154 181
135 155 181
133 154 181
134 154 181
134 154 181
134 154 181
134 154 181
134 154 181
134 154 181
134 154 181
133 154 181
134 154 181
134 154 181
133 154 180
133 153 180
134 154 181
133 154 180
133 154 181
134 154 181
134 155 181
134 154 181
133 154 181
134 154 181
134 154 181
134 154 181
133 154 181
134 154 181
133 154 181
134 155 181
134 155 181
133 154 181
134 154 181
133 154 181
134 155 181
134 154 181
134 154 181
134 154 181
134 154 181
134 154 181
134 154 181
133 154 181
134 154 181
134 154 181
134 154 181
134 155 181
134 154 181
134 154 181
134 155 181
134 154 181
134 154 181
133 154 180
133 154 181
134 154 181
134 154 181
134 154 181
133 154 181
134 154 181
133 154 181
135 155 181
134 154 180
134 155 181
133 154 181
134 154 181
133 154 181
134 154 181
134 154 181
134 154 181
133 154 181
134 154 181
134 154 181
133 154 181
134 154 181
134 154 181
134 154 181
134 154 181
134 154 181
134 154 181
134 154 181
134 154 181
134 154 181
134 154 181
134 154 181
133 154 181
133 154 181
133 154 181
134 154 181
134 154 181
133 154 181
134 154 181
134 154 181
134 154 181
133 154 181
133 154 181
133 154 181
134 154 181
134 154 181
134 154 181
133 154 181
134 154 181
134 154 181
133 154 181
135 155 181
134 154 181
134 154 181
133 154 181
134 154 181
134 154 181
134 154 181
133 154 181
134 154 181
134 154 181
133 154 181
135 155 181
133 154 181
134 154 181
133 154 181
133 154 181
134 154 181
134 154 180
134 154 181
133 154 181
134 154 181
133 154 181
133 154 181
134 154 181
134 154 181
133 154 181
133 154 181
133 154 181
134 154 181
135 155 181
133 154 181
134 154 181
134 154 181
134 154 181
133 154 181
135 155 181
134 154 181
133 154 181
134 154 181
134 154 181
134 154 181
133 154 181
133 154 181
134 154 181
134 154 181
134 154 180
133 154 181
134 154 181
134 154 181
133 154 181
134 154 181
134 154 181
134 154 181
133 154 181
133 154 181
133 154 181
133 154 181
133 154 181
134 154 181
134 154 181
133 154 181
134 154 181
134 154 181
134 154 181
134 154 181
135 155 181
135 155 181
134 154 181
133 154 181
134 154 181
133 154 181
134 155 181
134 154 181
134 154 181
134 154 181
134 154 181
133 154 181
133 154 181
134 154 181
134 154 181
134 155 181
134 154 181
134 154 181
133 154 181
135 155 181
134 154 181
133 154 181
133 154 181
134 154 181
134 154 181
134 154 181
132 153 181
134 154 181
133 153 180
135 155 181
134 154 180
133 154 181
134 154 181
133 154 181
134 154 181
134 154 181
134 154 181
133 154 181
134 154 181
134 154 181
134 154 181
133 154 180
134 154 181
133 154 181
134 154 181
134 154 181
134 154 181
133 154 181
133 154 180
134 154 181
134 154 181
134 154 181
134 154 181
135 155 181
133 154 181
133 154 181
134 154 181
134 154 180
134 154 181
133 154 181
134 154 181
135 155 181
134 154 181
134 154 184
134 154 181
133 153 183
132 153 185
131 150 194
131 151 193
129 149 196
128 148 201
129 149 199
128 147 203
129 148 200
127 147 205
126 145 210
125 144 213
123 142 217
123 142 218
122 141 220
122 140 222
121 139 224
120 139 226
120 138 227
119 138 228
120 138 228
120 138 228
120 138 228
120 138 228
119 138 228
119 138 228
119 138 228
120 138 228
119 138 228
120 138 228
120 138 228
119 138 228
120 138 228
119 138 228
120 138 228
120 138 228
119 137 228
120 138 228
121 138 228
120 138 228
119 138 228
120 138 228
119 138 228
120 138 228
120 138 228
119 138 228
119 138 228
120 138 228
120 138 228
119 138 228
119 138 228
120 138 228
120 138 228
121 140 223
122 141 219
123 142 216
126 145 208
127 146 205
129 149 197
130 150 192
132 152 188
133 153 182
134 154 181
133 154 181
133 154 181
134 154 181
134 154 181
134 154 181
133 154 181
134 154 181
133 154 181
134 154 181
134 154 181
134 154 181
134 154 181
135 155 181
134 154 181
134 154 181
133 154 181
134 154 181
134 154 181
134 154 181
134 154 181
134 154 181
134 154 181
134 154 181
134 154 181
133 154 181
134 154 181
134 154 181
135 155 181
134 154 181
133 154 181
133 154 181
134 154 181
134 154 181
133 154 181
134 154 181
133 154 181
134 154 181
134 154 181
134 154 181
134 154 181
133 154 180
134 154 181
134 154 181
133 154 181
134 154 181
133 153 179
135 155 181
134 154 181
133 154 181
135 155 181
133 154 180
133 154 181
134 154 181
134 154 181
134 154 181
134 154 181
133 153 180
134 154 181
134 154 180
132 153 181
133 154 181
134 154 180
134 154 181
134 154 181
134 154 181
134 154 181
135 155 181
133 154 181
133 154 181
134 154 181
134 154 181
134 154 181
133 154 181
133 154 181
135 155 181
133 154 181
135 155 181
134 154 181
134 154 181
135 155 181
134 154 181
133 154 181
133 154 181
134 154 181
134 154 181
134 154 181
134 154 181
134 154 181
133 154 181
134 154 181
134 154 181
133 154 180
134 154 181
133 154 181
134 155 181
135 155 181
134 154 181
135 155 181
134 154 181
135 155 181
133 154 181
135 155 181
134 154 181
134 154 181
134 154 181
133 154 181
134 154 181
134 154 181
134 154 181
133 154 181
134 154 181
134 154 181
134 154 181
133 154 180
134 154 181
134 154 181
134 154 181
133 154 181
134 154 181
134 154 181
134 154 181
133 154 181
133 154 181
134 154 181
134 154 181
134 154 181
133 154 181
134 154 181
132 153 181
134 154 181
134 154 181
134 154 181
134 154 181
134 154 181
134 154 181
133 154 181
134 154 181
134 154 181
134 154 181
133 154 181
133 153 180
134 154 181
134 154 181
134 154 181
134 155 181
134 154 181
133 154 181
134 154 181
132 153 181
134 154 181
133 154 181
133 154 181
134 154 181
134 154 181
133 154 181
134 154 181
134 154 181
134 154 181
134 154 181
133 154 181
134 154 181
133 154 181
134 154 181
135 155 181
135 155 181
133 154 181
134 154 181
133 154 181
133 154 181
133 154 181
133 154 181
133 154 181
134 154 181
133 154 181
133 154 181
134 154 181
133 154 181
134 154 181
134 155 181
134 154 181
133 154 181
134 155 181
134 154 180
134 154 181
134 154 181
133 154 181
133 154 181
133 154 181
133 154 181
134 154 181
134 154 181
133 154 180
134 154 181
133 154 181
133 154 181
133 154 180
134 154 181
133 154 181
134 154 181
134 154 181
134 154 181
134 154 181
133 154 181
134 154 181
134 154 181
133 154 181
134 154 181
133 154 181
134 154 181
134 154 181
134 154 181
133 154 181
134 154 181
134 154 181
134 154 181
133 154 181
133 154 181
133 154 181
134 154 181
133 154 181
133 154 181
134 154 181
134 154 181
133 154 181
133 154 181
133 154 181
134 154 181
134 154 180
135 155 181
134 154 181
133 154 181
133 154 181
133 154 181
134 154 181
133 154 181
134 154 181
134 154 181
134 154 180
135 155 181
133 154 181
133 154 181
135 155 181
133 154 181
134 154 181
134 154 181
134 154 181
133 154 181
134 154 181
134 154 181
134 154 181
134 154 181
132 153 181
134 154 181
133 154 181
134 154 181
134 154 180
133 154 181
133 154 181
134 154 181
133 154 181
133 154 181
134 154 181
134 154 181
134 154 181
134 154 181
134 154 181
134 154 181
134 154 181
135 155 181
135 155 181
133 154 181
134 154 181
134 154 181
133 154 181
134 154 181
133 154 181
134 154 181
135 155 181
134 154 181
134 154 181
133 154 181
134 154 181
134 154 181
134 154 181
134 154 181
134 154 181
134 154 181
133 154 181
133 154 181
134 154 181
134 154 181
134 154 181
134 154 181
133 154 181
134 154 181
134 154 181
133 154 181
134 154 181
133 154 181
134 154 181
133 154 181
134 154 181
134 154 181
134 154 181
134 154 181
134 154 181
135 155 181
134 154 181
133 154 181
134 154 181
134 154 181
133 154 181
133 154 181
133 154 180
134 154 181
134 154 181
134 154 181
134 154 181
134 154 181
133 154 181
135 155 181
135 155 181
135 155 181
134 154 181
134 154 181
134 154 180
134 154 181
133 153 183
133 154 182
133 153 184
133 153 186
132 152 190
131 151 191
131 151 191
130 149 195
129 148 199
130 149 197
128 147 204
126 146 207
125 144 212
125 143 215
123 142 219
122 141 221
122 141 221
121 140 223
121 139 224
121 139 225
121 139 225
119 138 228
120 138 228
120 138 228
120 138 228
119 138 228
120 138 228
119 138 228
120 138 228
119 137 228
120 138 228
119 138 228
120 138 228
120 138 228
120 138 228
119 137 228
120 138 228
120 138 228
119 138 228
120 138 228
120 138 228
120 138 228
120 138 228
120 138 228
119 137 228
120 138 228
120 138 228
119 138 228
120 138 228
119 138 228
121 138 228
120 138 228
119 138 228
120 138 228
119 138 228
120 138 228
120 138 228
119 137 228
119 138 228
120 138 228
120 138 228
119 138 228
119 138 228
119 138 228
120 138 228
120 138 228
121 139 226
122 140 221
123 141 218
125 144 211
127 146 205
130 150 195
130 150 196
131 151 191
133 153 186
133 154 182
134 154 181
134 154 181
134 154 181
133 154 181
134 154 181
134 154 181
134 154 181
134 154 181
134 154 181
134 154 181
134 154 181
133 154 181
135 155 181
133 154 181
134 154 181
133 154 180
133 154 181
133 154 181
134 154 181
134 154 181
135 155 181
133 154 181
134 154 181
134 154 181
133 154 181
134 154 181
133 154 181
133 154 181
134 154 181
134 154 181
134 154 180
134 154 181
133 154 181
134 154 181
134 154 181
134 154 181
134 154 181
134 154 181
133 154 181
134 154 180
133 154 181
134 154 181
134 154 181
134 154 181
133 154 181
134 154 181
134 154 181
135 155 181
134 154 181
134 154 180
134 154 181
133 154 181
134 154 181
134 154 181
133 154 180
133 154 181
134 154 181
133 153 180
133 154 181
134 154 181
134 154 181
134 155 181
134 154 181
134 154 181
134 155 181
134 154 181
133 154 181
133 154 181
134 154 181
133 154 181
134 154 181
134 154 181
133 154 181
135 155 181
133 154 181
134 154 181
134 155 181
134 154 181
134 154 181
134 154 181
133 154 181
134 154 181
133 154 181
134 154 181
133 154 181
134 154 181
133 154 181
134 154 181
133 154 181
135 155 181
133 154 181
134 154 181
133 154 181
135 155 181
135 155 181
134 154 181
134 154 181
133 154 181
133 154 181
133 154 181
133 154 181
134 154 181
134 154 181
133 154 181
133 154 181
134 154 181
134 154 181
135 155 181
133 154 181
134 154 181
134 154 181
134 154 181
133 154 180
134 154 181
135 155 181
134 154 181
133 154 181
134 154 181
134 154 181
134 154 181
134 154 181
134 154 181
134 154 181
134 154 181
134 154 181
133 154 181
134 154 181
134 154 181
133 154 181
134 154 181
134 154 181
134 154 181
133 154 181
134 154 181
134 154 181
134 154 181
134 154 181
134 154 181
134 154 181
134 154 181
133 154 181
134 154 181
133 154 181
135 155 181
134 154 181
134 155 181
133 154 181
134 154 181
134 154 181
134 154 181
133 154 181
134 154 181
134 154 181
134 154 181
134 154 181
134 154 181
133 154 181
134 154 181
134 154 181
133 154 180
134 154 181
133 154 181
134 154 181
134 154 181
134 154 181
133 153 180
133 154 181
133 154 181
133 154 181
133 154 181
134 154 181
133 154 181
133 154 181
134 154 181
134 154 181
134 154 181
134 154 181
134 154 181
134 154 181
133 154 181
133 154 181
133 154 181
134 154 181
134 154 181
133 154 181
134 154 181
133 154 181
134 154 181
134 154 181
135 155 181
134 154 181
134 154 181
134 154 181
134 154 181
134 154 180
134 154 181
134 154 181
134 154 181
134 154 181
133 154 181
134 154 181
134 154 181
134 154 181
134 154 181
134 154 181
134 154 181
133 154 181
134 154 181
134 154 181
134 154 181
134 154 180
133 154 181
133 154 181
134 154 181
134 154 181
134 154 181
133 154 181
134 154 181
134 154 181
134 154 181
133 154 181
134 154 181
133 154 181
134 155 181
133 154 181
134 154 181
133 154 181
134 154 181
134 154 181
134 154 181
133 154 181
134 154 181
133 154 181
134 154 181
133 154 181
134 154 180
133 154 181
133 154 181
134 154 181
134 154 181
134 154 181
133 154 181
134 154 181
133 153 180
133 154 180
134 154 181
134 154 181
134 154 181
133 154 180
134 154 181
134 154 181
133 154 181
133 154 181
133 154 181
134 154 181
134 154 181
134 154 181
133 154 181
134 154 181
133 154 181
134 154 181
134 154 181
133 154 181
134 155 181
133 154 181
134 154 181
133 154 181
134 154 181
133 154 181
133 154 181
133 154 181
134 154 181
134 154 181
133 154 181
133 154 181
134 154 181
135 155 181
134 154 181
134 154 181
134 154 180
133 154 181
133 154 181
133 154 181
134 154 181
134 154 181
134 154 181
134 154 181
133 154 181
133 154 181
134 155 181
133 154 181
134 154 181
134 154 181
133 154 181
135 155 181
133 154 181
134 154 180
133 154 181
135 155 181
135 155 181
133 154 181
134 154 181
133 154 181
133 154 181
134 154 181
133 154 181
133 154 181
133 154 181
134 154 181
134 154 181
134 154 181
134 154 181
133 154 181
133 154 181
135 155 181
133 154 182
134 154 182
133 154 182
132 152 186
131 152 184
132 153 186
131 151 192
130 150 194
129 149 198
128 148 200
128 148 199
127 147 204
128 147 204
126 146 207
127 145 210
122 142 218
124 143 216
123 142 218
123 141 221
122 140 222
120 139 225
121 139 226
120 138 228
120 138 227
119 137 228
120 138 228
119 138 228
119 137 228
120 138 228
120 138 228
120 138 228
120 138 228
119 138 228
120 138 228
120 138 228
120 138 228
120 138 228
119 137 228
120 138 228
120 138 228
120 138 228
119 138 228
120 138 228
119 138 228
120 138 228
119 138 228
119 138 228
120 138 228
120 138 228
120 138 228
119 137 228
119 138 228
120 138 228
120 138 228
119 137 228
120 138 228
120 138 228
120 138 228
119 138 228
119 138 228
120 138 228
119 138 228
120 138 228
120 138 228
119 138 228
120 138 228
120 138 228
120 138 228
120 138 228
119 138 228
119 138 228
120 138 228
120 138 228
120 138 228
120 138 228
120 138 228
120 138 228
120 138 228
121 139 227
120 138 227
122 141 218
124 142 217
125 144 212
127 147 204
129 148 200
130 150 194
133 154 183
133 153 184
134 154 181
134 154 181
134 154 181
133 154 181
134 154 181
133 154 181
134 154 181
135 155 181
134 154 181
134 154 181
134 154 181
133 154 181
134 154 181
134 154 181
133 154 181
133 154 181
134 154 181
134 154 181
134 154 181
133 154 181
134 155 181
134 154 181
135 155 181
133 154 181
133 154 181
134 154 181
135 155 181
133 154 181
134 154 181
133 154 181
134 154 181
134 154 181
134 154 181
134 154 181
133 154 181
134 154 181
133 154 181
134 154 181
135 155 181
133 154 181
134 154 181
134 154 181
133 154 181
133 154 181
133 154 181
134 154 181
133 154 181
134 154 181
135 155 181
133 154 181
134 154 181
135 155 181
135 155 181
134 154 181
133 154 181
133 154 181
134 154 181
134 154 180
133 154 181
133 154 181
134 154 181
133 154 181
134 154 181
134 154 181
133 154 181
134 154 181
134 154 181
134 154 181
133 154 181
135 155 181
133 154 181
134 154 181
134 154 181
134 154 181
133 154 180
134 154 181
134 154 181
134 154 181
134 154 181
134 154 181
133 154 181
133 154 181
134 154 181
133 154 181
133 154 181
135 155 181
135 155 181
134 154 181
135 155 181
133 154 181
134 154 181
133 154 181
134 154 181
133 154 181
134 154 181
134 154 181
134 154 181
133 153 180
134 154 181
134 154 181
134 154 181
134 154 181
134 154 181
134 154 181
133 154 180
136 155 181
134 154 181
134 154 181
134 154 181
133 154 181
133 154 181
134 154 181
134 154 181
133 154 181
134 154 181
134 154 181
133 154 181
134 154 181
134 154 180
133 154 181
135 155 181
134 154 181
133 154 181
134 154 181
133 154 181
133 154 181
134 154 181
134 154 181
134 154 181
134 154 181
134 154 181
134 154 181
134 154 181
133 154 181
133 154 181
133 154 181
135 155 181
134 154 181
133 154 181
134 154 181
134 154 181
134 154 181
133 154 181
134 154 181
134 154 181
134 154 181
134 154 181
134 154 181
133 153 180
134 154 181
133 154 181
133 154 181
134 154 181
133 154 181
134 155 181
134 154 181
133 154 181
133 154 181
133 154 181
134 154 181
135 155 181
135 155 181
134 154 181
133 154 181
135 155 181
134 154 181
134 154 181
134 154 181
134 154 181
134 154 181
134 154 181
134 154 181
134 154 181
134 154 181
134 154 181
134 154 181
134 154 181
134 154 181
134 154 181
133 154 181
133 154 181
135 155 181
134 154 181
134 154 181
133 154 181
133 154 181
133 154 181
133 154 181
135 155 181
134 154 181
133 154 181
134 154 181
135 155 181
134 154 181
134 154 181
134 154 181
133 154 181
135 155 181
134 154 181
133 154 181
134 154 181
133 154 181
134 154 181
133 154 180
134 154 181
134 154 181
134 154 181
133 154 181
133 154 181
134 154 181
134 154 181
134 154 181
133 154 181
133 154 181
134 154 181
134 154 181
133 154 181
133 154 181
134 154 181
134 154 181
134 154 181
135 155 181
133 154 181
133 154 181
133 154 181
133 154 181
134 154 181
133 154 181
134 154 181
134 154 181
134 154 181
135 155 181
134 154 181
134 154 181
134 154 181
133 154 181
135 155 181
134 154 181
134 154 181
134 154 181
134 154 181
133 153 180
134 154 181
133 154 181
133 154 181
133 154 181
134 154 181
134 154 181
134 154 181
134 155 181
134 154 181
133 154 181
134 154 181
133 154 181
134 154 181
133 154 181
134 154 181
135 155 181
134 154 181
133 154 181
133 154 181
134 154 181
134 154 181
134 154 181
133 154 181
133 154 181
133 154 180
134 154 181
134 154 181
133 154 181
133 154 181
134 154 181
134 154 181
134 154 181
133 154 181
133 154 180
133 154 181
133 154 181
133 154 181
133 154 180
135 155 181
134 154 181
134 154 181
134 154 181
134 154 180
134 154 181
133 154 181
134 154 181
135 155 181
133 154 181
133 153 180
135 155 181
134 154 181
134 154 181
134 154 181
134 154 181
133 154 181
134 154 181
133 154 181
134 154 181
133 154 181
133 154 181
134 154 181
133 154 181
133 154 181
134 154 181
133 154 182
133 154 182
133 153 184
131 152 184
132 152 189
131 151 191
132 151 191
128 148 201
128 147 203
127 147 204
128 147 203
126 145 211
126 145 211
124 143 213
124 143 214
122 141 221
122 141 221
122 141 222
120 138 226
121 139 227
121 139 227
119 138 228
120 138 228
119 138 228
120 138 228
120 138 228
120 138 228
119 137 228
119 137 228
120 138 228
119 138 228
120 138 228
119 138 228
120 138 228
120 138 228
120 138 228
119 138 228
120 138 228
119 138 228
119 138 228
119 137 228
119 138 228
120 138 228
120 138 228
119 138 228
120 138 228
121 138 228
119 138 228
120 138 228
119 137 228
121 138 228
119 137 228
120 138 228
119 138 228
120 138 228
120 138 228
120 138 228
120 138 228
120 138 228
119 138 228
120 138 228
120 138 228
120 138 228
120 138 228
119 138 228
120 138 228
119 138 228
120 138 228
120 138 228
120 138 228
119 138 228
119 138 228
120 138 228
119 138 228
120 138 228
120 138 228
120 138 228
120 138 228
119 138 228
119 138 228
119 138 228
120 138 228
120 138 228
121 138 228
120 138 228
120 138 228
119 138 228
121 138 228
119 138 228
121 139 224
122 141 220
124 142 217
126 146 207
126 146 205
129 148 198
131 152 189
133 153 185
133 153 183
133 154 181
133 154 181
134 154 181
134 154 181
134 154 181
134 154 181
134 154 181
135 155 181
133 154 181
134 154 181
133 154 181
134 154 181
134 154 181
133 154 181
133 154 181
133 154 181
134 154 180
133 153 180
134 154 181
134 154 181
133 154 181
134 154 181
134 154 181
135 155 181
134 154 181
134 154 181
134 154 181
134 154 181
133 154 181
134 154 181
134 154 181
134 154 181
133 154 181
134 154 181
134 154 181
133 154 181
134 154 181
134 154 181
134 154 181
134 154 181
134 154 181
135 155 181
134 154 181
134 154 181
135 155 181
133 154 181
134 154 181
133 154 181
134 154 181
133 154 181
133 154 181
133 154 181
133 154 181
133 154 181
133 154 181
134 154 181
134 154 181
134 154 181
133 154 181
134 154 181
134 154 181
134 154 181
134 154 181
133 154 181
134 154 181
133 154 181
133 154 181
134 154 181
133 154 181
134 154 181
134 154 181
133 154 181
133 154 181
133 154 181
134 154 181
133 154 181
134 154 181
134 154 181
134 154 181
134 154 181
134 154 181
134 154 181
134 154 181
134 154 181
134 154 181
134 154 181
134 154 181
134 154 181
134 154 181
133 154 181
134 154 181
134 154 181
134 154 181
135 155 181
134 154 181
134 154 181
134 154 181
134 154 180
134 154 181
133 154 181
133 154 181
133 154 181
134 155 181
135 155 181
134 155 181
134 154 181
134 154 181
133 154 181
133 154 181
135 155 181
134 154 181
134 154 181
134 154 181
134 154 181
134 154 181
134 154 181
133 154 181
135 155 181
133 154 181
133 154 180
134 154 181
134 154 181
133 154 181
134 154 181
134 154 181
134 154 181
134 154 181
134 154 181
134 154 181
134 154 181
133 154 181
134 154 181
134 154 180
134 154 181
133 154 181
134 154 181
133 154 181
134 154 181
132 153 181
134 154 181
133 154 181
134 154 181
134 154 181
133 154 181
134 154 181
133 154 181
134 154 181
132 153 180
133 154 181
134 154 181
134 154 181
134 154 181
134 154 181
134 154 181
134 154 181
134 154 181
134 154 181
134 154 181
134 154 181
134 155 181
135 155 181
134 154 180
134 154 181
135 155 181
134 154 181
134 154 181
135 155 181
133 154 181
135 155 181
134 154 181
133 154 181
133 154 181
134 154 181
134 154 181
134 154 181
133 154 181
134 154 181
134 154 181
134 154 181
133 154 181
133 154 181
134 154 181
133 154 181
134 154 181
133 154 181
134 154 181
134 154 181
133 154 181
133 154 181
133 154 181
134 154 181
134 154 181
133 154 181
134 154 181
134 154 181
134 154 181
134 154 181
134 154 181
134 154 181
134 154 181
133 154 180
135 155 181
133 154 181
134 154 181
133 154 181
133 154 181
133 154 180
133 154 181
134 154 181
134 154 181
134 154 181
134 154 181
133 154 181
134 154 181
133 154 181
134 154 181
134 154 181
134 154 181
134 154 181
134 154 181
134 154 181
134 154 181
134 154 181
133 154 181
133 154 181
133 154 181
134 154 181
135 155 181
133 154 181
133 154 181
133 154 181
134 154 181
134 154 181
134 154 181
134 154 181
134 154 181
134 154 181
134 154 181
133 154 181
134 154 181
134 154 181
133 154 181
134 154 181
134 154 181
133 154 180
134 154 181
133 154 181
133 154 180
133 154 181
134 154 181
135 155 181
134 154 181
134 154 181
134 154 181
135 155 181
135 155 181
133 154 181
134 154 181
134 154 181
134 154 181
134 154 181
134 154 181
134 154 181
134 154 181
134 154 181
134 154 181
134 154 181
133 154 181
133 154 181
134 154 181
134 154 181
134 154 181
134 154 181
134 154 181
135 155 181
135 155 181
134 154 181
134 154 181
134 154 181
134 154 181
134 154 181
133 154 181
133 154 181
134 154 181
133 154 181
134 154 181
133 154 181
134 154 181
134 154 181
133 154 181
134 154 181
134 154 181
134 154 181
133 154 182
133 154 181
133 153 182
134 154 182
132 152 186
131 151 188
130 150 193
130 150 194
129 149 198
128 147 203
128 148 202
126 145 205
126 145 210
125 144 212
124 143 213
122 141 221
123 141 219
122 140 224
121 140 224
121 140 224
120 139 226
120 138 227
119 138 228
119 138 228
119 138 228
119 138 228
120 138 228
119 137 228
120 138 228
119 138 228
119 138 228
121 138 228
120 138 228
120 138 228
120 138 228
120 138 228
119 138 228
120 138 228
119 138 228
120 138 228
120 138 228
119 138 228
120 138 228
120 138 228
120 138 228
120 138 228
119 138 228
119 137 228
121 138 228
119 138 228
119 138 228
120 138 228
119 138 228
119 137 228
119 137 228
120 138 228
119 138 228
120 138 228
119 138 228
119 138 228
120 138 228
120 138 228
120 138 228
120 138 228
120 138 228
120 138 228
119 138 228
120 138 228
119 138 228
119 138 228
119 137 228
119 138 228
120 138 228
120 138 228
119 138 228
119 138 228
119 138 228
120 138 228
119 138 228
119 138 228
120 138 228
120 138 228
119 138 228
119 138 228
120 138 228
119 137 228
120 138 228
120 138 228
120 138 228
120 138 228
119 138 228
120 138 228
120 138 228
120 138 228
120 138 228
120 138 228
120 138 228
120 138 228
119 137 228
119 138 228
119 138 228
120 139 225
121 140 224
123 141 221
125 145 211
128 147 204
129 149 198
130 150 194
132 152 190
133 153 186
134 154 182
132 153 181
133 154 181
134 154 181
132 153 181
134 154 181
134 154 181
134 154 181
134 154 181
134 154 181
134 154 181
133 154 181
134 154 181
134 154 181
134 154 181
133 153 180
133 154 181
134 154 181
134 154 181
132 153 181
133 154 181
134 154 181
133 154 181
135 155 181
134 154 181
133 154 181
133 154 181
133 154 181
134 154 181
133 154 180
134 154 181
133 154 181
133 154 181
134 154 181
133 154 181
134 154 181
134 154 181
134 154 181
133 154 181
134 154 181
133 154 181
133 154 181
134 154 181
134 154 181
134 154 181
133 154 180
134 154 181
134 154 181
134 154 181
133 154 180
133 154 181
133 154 181
134 154 181
133 154 180
133 154 181
135 155 181
135 155 181
135 155 181
133 154 181
134 154 181
134 154 181
133 154 180
133 153 180
134 154 181
133 154 181
134 154 181
133 154 181
133 154 181
134 154 181
134 154 181
133 154 181
134 154 181
133 154 181
133 154 181
133 154 181
133 154 181
133 154 181
134 154 181
134 154 181
134 154 181
134 154 181
135 155 181
133 154 181
134 154 181
133 154 181
134 154 181
134 154 181
134 154 181
134 154 181
134 154 181
133 154 181
134 154 181
134 154 181
133 154 181
133 154 181
133 154 180
134 154 180
134 154 181
133 154 181
134 154 181
134 154 181
133 154 181
133 154 181
133 154 181
133 154 181
134 154 181
133 154 181
134 154 181
134 154 181
134 154 181
133 154 181
134 154 181
134 154 181
133 154 181
134 154 181
134 154 181
134 154 181
134 154 181
134 154 181
134 154 181
134 154 181
134 154 181
134 154 180
134 155 181
134 154 181
134 154 181
134 154 180
134 154 181
134 154 181
135 155 181
133 154 181
134 154 181
134 154 181
133 154 181
133 154 181
134 154 181
134 155 181
135 155 181
134 154 181
134 154 181
133 154 181
133 154 180
133 154 181
134 154 181
133 154 181
134 154 181
135 155 181
134 154 181
134 154 181
134 154 180
133 154 181
134 154 181
134 154 181
134 154 181
134 154 181
134 154 181
134 154 181
134 154 181
133 154 181
133 154 181
133 154 181
133 154 181
134 154 181
134 154 181
133 154 181
134 154 181
133 154 181
134 154 181
134 154 181
133 154 181
135 155 181
133 154 181
134 155 181
133 154 181
133 154 180
134 154 181
134 154 181
133 154 181
134 154 181
134 154 181
134 154 181
133 154 181
133 154 181
133 154 181
134 154 181
133 154 181
134 154 181
133 154 181
134 154 181
133 154 181
134 154 181
133 154 181
133 154 181
134 154 181
133 154 181
134 154 181
133 154 181
134 154 181
134 154 181
134 155 181
133 154 181
134 154 181
134 154 181
133 154 180
133 154 181
134 154 181
135 155 181
133 154 181
134 154 181
134 154 181
134 154 181
134 154 181
133 154 181
133 154 181
133 154 181
134 154 181
134 154 181
133 154 181
134 154 181
133 154 181
134 154 181
134 154 181
134 154 181
134 154 181
134 154 180
133 154 181
134 154 181
133 154 180
134 155 181
133 154 181
133 154 181
134 154 181
133 154 181
134 154 181
134 154 181
134 154 181
133 154 181
134 155 181
133 154 181
134 154 181
133 154 181
135 155 181
134 154 181
134 154 181
134 154 181
133 154 181
134 154 181
134 154 181
134 154 181
134 154 181
134 154 181
134 154 181
134 154 181
133 154 181
133 154 181
133 154 181
133 154 181
134 154 181
134 154 181
134 154 181
134 154 181
133 154 181
134 155 181
134 154 181
134 154 181
133 154 181
133 154 181
134 154 181
133 154 181
133 154 181
134 154 181
133 154 181
134 154 181
133 154 181
134 154 181
133 154 181
133 154 181
133 154 181
134 154 180
134 154 181
134 154 181
133 154 181
134 154 181
134 154 181
133 153 182
134 154 183
132 152 187
131 151 191
131 151 190
129 149 198
131 150 194
128 147 203
129 148 200
126 145 208
126 145 209
125 144 213
123 142 218
124 143 215
123 142 218
122 140 223
121 140 223
120 139 224
120 139 226
120 139 227
120 138 228
119 138 228
119 137 228
120 138 228
120 138 228
120 138 228
119 137 228
119 138 228
119 138 228
120 138 228
119 138 228
120 138 228
120 138 228
120 138 228
120 138 228
121 138 228
118 137 228
120 138 228
119 138 228
120 138 228
121 138 228
119 138 228
120 138 228
120 138 228
119 138 228
120 138 228
119 138 228
120 138 228
120 138 228
120 138 228
119 138 228
120 138 228
120 138 228
120 138 228
119 138 228
119 138 228
120 138 228
119 138 228
119 138 228
119 137 228
119 138 228
119 137 228
119 138 228
120 138 228
119 138 228
120 138 228
120 138 228
119 137 228
120 138 228
120 138 228
120 138 228
120 138 228
119 138 228
120 138 228
119 138 228
120 138 228
119 138 228
120 138 228
120 138 228
120 138 228
120 138 228
119 138 228
119 138 228
120 138 228
120 138 228
119 138 228
120 138 228
120 138 228
119 137 228
119 138 228
119 138 228
119 138 228
119 138 228
119 138 228
120 138 228
120 138 228
120 138 228
120 138 228
119 138 228
120 138 228
120 138 228
120 138 228
119 137 228
119 137 228
119 138 228
120 138 228
120 138 228
120 138 228
120 138 228
119 138 228
120 138 227
121 139 227
122 141 221
123 142 216
124 144 212
127 146 206
129 149 198
131 151 190
133 153 185
133 153 184
134 154 181
134 154 181
133 154 181
134 154 181
134 154 181
135 155 181
134 154 181
134 154 181
134 154 181
134 154 181
134 154 181
134 154 181
134 154 181
134 155 181
133 154 181
134 154 181
134 154 181
133 154 181
134 154 181
133 154 181
134 154 181
134 154 181
134 155 181
134 154 181
135 155 181
133 154 181
133 154 181
134 154 181
134 154 181
134 154 181
134 154 181
133 153 180
133 154 181
134 154 181
133 154 181
134 154 181
134 154 181
133 154 181
134 154 181
134 154 181
134 154 181
134 154 181
134 154 181
133 154 181
134 154 181
134 154 181
133 154 181
134 154 181
134 154 181
134 154 181
134 154 181
133 154 181
135 155 181
134 154 181
134 154 181
134 154 181
134 155 181
134 154 181
134 154 181
134 154 181
133 154 181
134 154 181
133 154 181
133 154 181
133 154 181
134 154 181
134 154 181
133 154 181
133 154 181
134 154 181
133 154 181
133 154 181
134 154 181
133 154 181
133 154 181
133 154 181
134 154 181
133 154 181
133 154 181
134 154 181
134 154 181
133 154 181
134 154 181
133 154 181
133 154 181
134 154 181
134 154 181
133 154 181
134 154 181
134 155 181
133 154 181
133 154 181
135 155 181
134 154 181
134 154 181
134 154 181
134 154 181
133 154 181
134 155 181
133 154 181
134 154 181
134 154 181
134 154 180
133 154 181
133 154 181
134 154 181
134 154 181
134 154 181
133 154 181
133 154 181
134 154 181
134 154 181
134 154 181
133 154 181
133 154 181
133 154 181
134 154 181
134 154 181
134 154 181
134 154 181
132 153 180
135 155 181
134 154 181
133 154 181
133 154 181
133 154 181
135 155 181
133 154 181
134 154 181
133 154 181
134 154 181
134 155 181
134 154 181
133 154 181
133 154 181
134 154 181
133 154 181
133 154 181
133 154 181
134 154 181
134 154 181
134 154 181
134 154 181
134 154 181
134 154 181
134 154 181
134 154 181
134 154 181
134 154 181
134 154 181
134 154 181
133 154 181
134 154 181
134 154 181
134 154 181
134 154 181
133 154 180
134 154 181
134 154 181
134 154 181
134 155 181
133 154 181
134 154 181
134 154 181
134 154 181
134 154 181
134 154 181
134 154 181
134 154 181
133 154 181
134 154 181
134 154 181
133 154 181
133 154 181
134 155 181
133 154 181
134 154 181
135 155 181
134 154 181
135 155 181
133 153 180
132 154 181
133 154 181
135 155 181
133 154 181
134 154 181
134 154 181
133 154 181
133 154 181
133 154 180
133 154 181
134 154 181
135 155 181
133 154 181
134 154 181
134 154 181
134 154 181
134 154 181
133 154 181
134 154 181
134 154 181
134 154 181
134 154 181
134 154 181
134 154 180
134 154 181
134 154 181
134 154 181
134 154 181
134 154 181
134 154 181
134 154 181
134 154 181
135 155 181
134 154 181
133 154 181
133 154 181
134 154 181
134 154 181
133 154 181
133 153 180
133 154 181
134 154 181
134 154 181
135 155 181
134 154 181
133 154 181
134 154 181
135 155 181
133 154 181
135 155 181
134 154 181
134 154 181
134 155 181
133 154 181
134 154 181
134 154 181
133 154 181
134 154 181
134 154 181
133 154 181
133 154 181
134 154 181
134 154 181
134 154 181
134 154 181
133 154 181
133 154 181
133 154 181
134 154 181
135 155 181
133 154 181
135 155 181
135 155 181
134 155 181
134 154 181
134 154 181
134 154 181
134 154 181
134 154 181
133 154 181
134 155 181
134 154 181
134 154 181
134 154 181
133 154 181
132 153 180
134 155 181
133 154 181
134 154 181
135 155 181
134 154 181
133 153 183
133 153 184
132 153 184
133 153 187
132 151 191
131 150 194
131 151 193
129 149 198
128 148 200
127 147 201
126 145 209
125 144 212
125 144 213
125 143 215
123 141 220
121 140 221
122 140 222
121 140 225
120 139 227
119 138 227
120 138 228
120 138 228
120 138 228
120 138 228
120 138 228
119 138 228
120 138 228
119 138 228
119 138 228
120 138 228
120 138 228
119 138 228
119 138 228
119 138 228
120 138 228
119 138 228
120 138 228
120 138 228
120 138 228
119 138 228
120 138 228
120 138 228
120 138 228
120 138 228
120 138 228
120 138 228
119 138 228
119 138 228
120 138 228
119 138 228
119 138 228
120 138 228
120 138 228
119 138 228
119 138 228
120 138 228
119 138 228
119 138 228
120 138 228
119 137 228
120 138 228
120 138 228
119 138 228
120 138 228
120 138 228
120 138 228
120 138 228
120 138 228
119 138 228
120 138 228
120 138 228
120 138 228
119 138 228
120 138 228
119 138 228
119 138 228
120 138 228
120 138 228
119 138 228
120 138 228
120 138 228
119 138 228
120 138 228
120 138 228
119 138 228
121 138 228
120 138 228
121 138 228
121 138 228
119 138 228
119 138 228
120 138 228
120 138 228
120 138 228
120 138 228
119 138 228
120 138 228
120 138 228
119 137 228
119 137 228
120 138 228
119 138 228
119 138 228
120 138 228
121 138 228
119 138 228
120 138 228
119 138 228
119 138 228
118 137 228
119 138 228
119 138 228
119 138 228
119 137 228
120 138 228
119 138 228
120 138 228
119 138 228
120 138 228
119 138 228
119 138 228
120 138 228
119 138 228
120 139 226
122 141 221
125 144 213
125 144 212
128 148 201
129 148 199
131 151 192
132 152 187
133 153 183
134 154 182
134 154 181
135 155 181
135 155 181
134 154 180
134 154 181
134 154 181
134 154 181
134 154 181
134 154 181
134 154 181
134 154 180
134 154 181
133 154 181
134 154 181
133 154 181
134 154 181
135 155 181
134 154 181
134 154 181
133 154 181
135 155 181
133 154 181
133 154 181
133 154 181
133 154 181
133 154 181
134 154 181
134 154 181
133 154 181
133 154 181
133 154 181
134 154 181
134 154 181
135 155 181
133 154 181
134 154 181
133 154 181
134 154 181
134 154 181
133 154 181
133 154 181
134 154 181
134 154 181
134 154 181
133 154 181
135 155 181
134 154 181
133 154 180
133 154 181
134 154 181
133 154 181
134 154 181
133 154 180
134 154 181
134 154 181
133 154 181
134 154 181
134 154 181
133 154 180
134 154 181
133 154 180
135 155 181
134 154 181
134 154 181
133 154 181
134 154 181
135 155 181
134 154 181
134 154 181
133 154 181
134 154 181
133 154 181
134 154 181
134 154 181
133 154 181
134 154 181
134 154 181
135 155 181
133 154 181
134 154 181
133 154 181
133 154 181
133 154 181
133 154 181
133 154 180
134 154 181
133 154 181
134 154 181
134 154 181
134 154 181
133 154 181
134 154 181
133 154 181
134 154 181
134 154 181
134 154 181
134 154 181
134 154 181
134 154 181
134 154 181
134 154 181
135 155 181
134 154 181
133 154 181
133 154 181
133 154 181
134 154 181
134 155 181
133 154 181
134 154 181
134 154 181
135 155 181
135 155 181
134 154 181
134 154 181
133 154 181
134 154 181
134 154 181
134 154 181
135 155 181
134 154 181
132 154 181
134 154 181
134 154 181
134 154 180
134 154 181
133 154 181
133 154 181
133 153 180
134 154 181
134 155 181
133 154 181
134 154 181
133 154 181
134 154 181
133 154 181
134 154 181
134 154 181
133 154 181
134 154 181
134 154 181
133 154 181
134 154 181
133 154 181
134 154 181
133 154 181
134 154 181
134 154 181
133 154 180
134 154 181
134 154 181
135 155 181
134 154 181
133 154 181
133 154 181
134 154 181
133 154 181
134 154 181
133 154 181
134 154 181
134 154 181
133 154 181
133 154 181
134 154 181
134 154 181
133 154 181
133 154 181
134 154 181
134 154 181
134 154 181
134 154 181
134 154 181
133 154 181
134 154 181
134 154 180
134 154 181
134 154 181
134 154 181
133 154 181
133 154 181
134 154 181
134 154 181
134 154 181
134 154 181
134 154 180
133 154 181
133 154 181
133 154 181
133 154 181
133 154 181
134 154 181
134 154 181
134 154 181
134 154 181
134 155 181
134 154 181
134 154 181
133 154 181
133 154 180
134 155 181
133 154 181
134 154 181
134 154 181
134 154 181
134 154 181
134 154 181
133 154 181
133 154 181
134 154 181
134 154 180
134 154 181
134 154 181
134 154 181
134 154 181
134 154 181
134 154 181
133 154 181
135 155 181
134 154 181
134 154 181
134 154 181
133 154 181
133 154 181
134 154 181
133 154 181
133 154 181
133 154 181
133 154 181
134 154 181
133 154 181
134 154 181
134 155 181
133 154 181
133 153 180
133 154 181
134 154 181
134 154 181
134 154 181
134 154 181
133 154 181
134 154 181
134 154 181
134 154 181
134 154 181
134 154 181
133 154 181
134 154 181
134 154 181
135 155 181
135 155 181
135 155 181
134 154 181
134 154 181
134 154 181
133 154 181
134 154 181
134 154 181
134 154 181
133 154 181
133 154 182
133 153 183
133 153 186
132 152 188
132 152 189
131 151 194
130 150 192
130 149 197
127 147 203
127 147 204
126 145 208
125 145 210
125 144 212
126 145 209
122 141 220
122 141 219
122 141 221
121 139 225
120 139 226
120 139 227
120 139 226
119 138 228
120 138 228
120 138 228
119 138 228
120 138 228
120 138 228
120 138 228
119 138 228
120 138 228
120 138 228
119 138 228
120 138 228
120 138 228
119 138 228
119 138 228
120 138 228
120 138 228
120 138 228
119 138 228
120 138 228
119 138 228
119 138 228
119 138 228
120 138 228
119 137 228
119 138 228
120 138 228
120 138 228
120 138 228
120 138 228
120 138 228
119 138 228
119 137 228
119 138 228
120 138 228
119 138 228
120 138 228
119 137 228
120 138 228
119 138 228
119 138 228
120 138 228
119 138 228
120 138 228
120 138 228
120 138 228
120 138 228
119 138 228
120 138 228
120 138 228
119 138 228
120 138 228
120 138 228
119 138 228
119 138 228
119 138 228
120 138 228
119 138 228
120 138 228
120 138 228
120 138 228
119 138 228
120 138 228
120 138 228
120 138 228
120 138 228
119 138 228
120 138 228
119 138 228
120 138 228
119 138 228
119 138 228
119 138 228
119 137 228
120 138 228
120 138 228
119 138 228
120 138 228
120 138 228
120 138 228
120 138 228
119 138 228
120 138 228
120 138 228
119 138 228
120 138 228
120 138 228
119 138 228
120 138 228
120 138 228
120 138 228
120 138 228
120 138 228
119 138 228
120 138 228
120 138 228
119 138 228
120 138 228
119 138 228
119 138 228
119 138 228
119 138 228
120 138 228
120 138 228
119 137 228
120 138 228
119 137 228
120 138 228
120 138 228
120 138 228
119 138 228
120 138 228
119 138 228
120 138 227
121 140 223
123 142 218
125 144 211
127 147 204
128 147 203
132 152 188
131 152 188
132 152 186
134 154 183
133 154 181
134 154 181
134 154 181
133 154 181
133 154 181
134 154 181
134 154 181
135 155 181
134 154 181
134 155 181
134 154 180
133 154 181
134 154 181
133 154 180
133 154 181
134 154 181
133 154 181
134 154 181
134 154 181
134 154 181
133 154 181
133 154 181
134 154 181
134 154 181
134 154 181
134 154 180
135 155 181
133 154 181
134 154 181
134 155 181
134 154 181
134 154 181
134 154 181
133 154 181
133 154 181
133 154 181
134 154 181
134 154 181
134 154 181
134 154 181
133 154 180
134 154 181
133 154 181
133 154 181
134 154 181
134 154 181
134 154 181
134 155 181
134 154 181
134 154 181
134 154 181
134 154 181
134 154 181
134 154 181
133 154 181
134 154 181
133 154 181
132 153 181
133 154 181
134 154 181
134 154 181
134 154 181
134 154 181
134 154 181
133 154 181
134 154 181
135 155 181
133 154 181
133 154 181
133 154 181
134 154 181
134 154 181
135 155 181
134 154 181
133 154 181
134 154 181
134 154 181
133 154 181
134 154 181
134 155 181
133 154 181
134 154 181
133 154 181
135 155 181
133 154 180
134 154 181
134 154 181
134 155 181
133 154 181
134 154 181
133 154 181
133 154 181
134 154 181
135 155 181
134 154 181
133 154 180
134 154 181
133 154 181
134 154 181
134 154 181
134 154 181
134 154 181
134 154 181
134 154 181
135 155 181
134 154 181
134 154 181
134 154 181
133 154 181
134 154 181
133 154 181
133 154 181
133 154 181
135 155 181
134 154 181
133 154 181
134 154 181
133 154 181
133 154 181
134 154 181
134 155 181
134 154 181
134 154 181
134 154 181
134 154 181
134 154 181
134 154 181
134 154 181
135 155 181
134 154 181
133 154 181
134 154 181
134 154 181
134 154 181
133 154 181
133 154 181
133 154 181
133 154 181
134 154 181
133 154 181
133 154 181
134 154 181
134 154 181
135 154 180
133 154 181
135 155 181
134 154 181
133 154 181
134 154 181
134 154 181
133 154 181
134 154 181
134 154 181
134 154 181
134 154 181
134 154 181
133 154 181
133 154 181
134 154 181
134 154 181
133 154 181
134 154 181
134 154 181
134 154 181
134 154 181
134 154 181
134 154 181
134 154 181
135 155 181
133 154 181
133 154 181
135 155 181
134 155 181
133 154 181
134 154 181
134 154 181
134 154 181
133 154 181
134 154 181
133 154 181
133 154 181
134 154 181
134 154 181
134 154 181
133 154 181
133 154 181
134 154 181
134 154 181
133 154 181
134 154 180
134 154 180
134 154 181
133 154 181
134 154 181
134 154 181
134 154 181
133 154 181
134 154 181
134 154 181
134 154 181
132 154 181
133 154 181
134 154 181
135 155 181
134 154 181
134 154 181
133 154 181
133 154 181
134 154 181
133 154 181
133 154 181
134 154 181
133 154 181
134 154 181
134 154 181
135 155 181
133 154 181
133 154 181
134 154 181
133 154 181
134 154 181
134 154 181
133 154 181
134 154 181
135 155 181
134 154 181
134 154 181
132 153 180
134 154 181
134 154 181
133 154 181
134 154 181
135 155 181
134 154 181
133 154 181
135 155 181
133 154 181
134 154 181
133 154 181
135 155 181
134 154 181
134 154 181
134 154 181
134 154 181
134 154 181
134 154 181
134 154 180
134 154 181
133 154 181
133 154 181
133 154 181
133 154 181
133 154 181
134 154 181
133 153 181
131 151 187
127 147 193
127 146 206
127 146 205
126 145 210
126 145 207
124 143 215
122 141 221
122 141 220
121 140 223
122 140 224
121 139 225
121 139 227
121 139 226
120 138 228
120 138 228
120 138 228
120 138 228
120 138 228
120 138 228
119 138 228
119 138 228
119 138 228
120 138 228
120 138 228
120 138 228
120 138 228
120 138 228
120 138 228
119 138 228
119 138 228
119 138 228
120 138 228
119 137 228
120 138 228
119 138 228
119 137 228
119 138 228
120 138 228
119 138 228
120 138 228
120 138 228
120 138 228
120 138 228
119 137 228
121 138 228
120 138 228
119 138 228
120 138 228
118 137 228
120 138 228
120 138 228
119 138 228
119 138 228
120 138 228
119 138 228
119 138 228
120 138 228
119 138 228
119 138 228
121 139 228
119 138 228
119 138 228
120 138 228
119 138 228
119 138 228
119 138 228
119 138 228
120 138 228
120 138 228
120 138 228
121 138 228
119 138 228
119 137 228
119 138 228
119 138 228
119 138 228
120 138 228
120 138 228
119 137 228
119 138 228
119 138 228
119 138 228
120 138 228
119 138 228
120 138 228
119 137 228
120 138 228
120 138 228
119 137 228
119 138 228
119 138 228
119 137 228
120 138 228
120 138 228
119 137 228
120 138 228
120 138 228
119 138 228
119 138 228
120 138 228
120 138 228
119 138 228
121 138 228
119 137 228
119 138 228
119 138 228
119 138 228
119 138 228
119 138 228
120 138 228
120 138 228
121 138 228
120 138 228
120 138 228
120 138 228
120 138 228
119 138 228
120 138 228
120 138 228
119 138 228
119 137 228
120 138 228
119 138 228
120 138 228
119 138 228
119 138 228
120 138 228
119 138 228
119 138 228
119 138 228
119 137 228
119 138 228
119 137 228
119 137 228
119 138 228
119 138 228
120 138 228
120 138 228
120 138 227
122 141 218
125 143 215
125 145 210
125 144 210
131 151 191
131 151 193
131 151 188
134 154 182
134 154 181
133 154 181
133 154 181
135 155 181
133 154 181
134 154 181
133 154 181
133 154 181
133 154 181
133 154 181
134 154 181
133 154 181
134 154 181
134 154 181
133 154 181
134 154 181
134 154 181
134 154 181
133 154 181
134 154 181
134 154 181
133 154 181
133 154 181
133 154 181
133 154 181
133 154 181
134 154 181
133 154 181
134 154 181
135 155 181
134 154 181
134 154 181
133 154 181
133 154 181
134 154 181
134 154 181
133 154 181
134 154 181
133 154 181
133 154 181
133 154 181
134 154 181
134 154 181
134 154 181
134 155 181
134 154 181
133 154 181
133 154 181
133 154 180
134 154 181
133 154 181
133 154 181
134 154 181
133 154 181
134 154 180
135 155 181
133 154 181
134 154 181
134 154 181
134 154 181
133 154 181
134 154 181
134 154 181
134 154 181
134 154 181
135 155 181
135 155 181
135 155 181
133 154 181
134 154 181
134 154 181
134 154 181
134 154 181
134 154 181
133 154 181
133 154 181
134 154 181
134 154 181
134 154 181
133 154 181
133 154 181
135 155 181
133 154 181
134 154 181
134 154 181
134 154 181
134 154 181
134 154 181
134 154 181
134 154 181
134 154 180
133 154 181
133 154 181
133 154 181
133 154 181
133 154 181
134 154 181
134 154 181
134 154 181
133 154 181
134 154 181
134 154 181
134 154 181
133 154 181
134 154 181
133 154 181
134 154 181
134 154 181
133 154 180
134 154 181
134 154 181
134 154 181
134 154 181
134 154 181
134 154 181
133 154 181
134 154 181
134 154 181
134 154 181
134 155 181
133 154 180
134 154 181
134 154 181
134 154 180
134 154 180
134 154 181
134 154 181
134 154 181
133 154 181
134 154 181
134 154 181
135 155 181
135 155 181
135 155 181
134 154 181
134 154 181
134 154 181
133 154 181
133 154 181
134 155 181
134 154 181
133 154 181
133 154 181
134 154 181
134 154 181
133 154 181
133 154 181
135 155 181
134 154 181
134 154 181
133 154 181
133 154 181
134 154 181
133 154 181
134 154 181
134 154 181
133 154 181
134 154 180
132 153 180
134 154 181
133 154 181
135 155 181
133 154 181
133 154 180
134 154 181
133 154 181
134 154 181
134 155 181
134 154 181
134 154 181
134 154 181
134 154 181
134 154 181
134 154 181
134 154 181
134 154 181
134 154 181
133 154 181
134 154 181
133 154 181
133 154 181
134 154 181
133 154 181
133 154 181
133 154 181
134 154 181
134 154 181
133 154 181
134 154 181
133 154 181
134 154 181
135 155 181
133 154 181
134 154 181
134 154 181
134 154 181
133 154 181
134 154 181
134 154 181
133 154 181
134 154 181
134 154 181
134 154 181
133 154 181
134 154 181
134 154 181
134 154 181
133 154 181
133 154 181
134 154 181
133 154 181
134 154 181
134 154 181
133 154 181
134 154 181
134 154 181
133 154 181
134 154 181
134 154 181
134 154 181
134 154 181
134 154 181
133 154 181
134 154 181
133 154 181
134 154 181
133 154 180
134 154 181
134 154 181
134 154 181
134 154 181
133 154 181
134 154 181
134 154 181
135 155 181
133 154 180
134 154 181
135 155 181
134 154 181
134 154 181
134 154 181
134 154 181
134 154 181
133 154 180
134 155 181
134 154 181
135 155 181
135 155 181
133 154 181
134 154 181
134 154 181
134 153 182
124 141 188
120 136 210
116 132 212
119 136 220
120 138 226
119 138 226
119 138 228
119 138 228
120 138 228
119 138 228
120 138 228
120 138 228
119 138 228
119 138 228
120 138 228
119 138 228
120 138 228
120 138 228
119 138 228
119 138 228
120 138 228
119 137 228
119 138 228
119 138 228
120 138 228
119 137 228
120 138 228
119 138 228
120 138 228
120 138 228
120 138 228
120 138 228
119 138 228
120 138 228
119 137 228
119 138 228
120 138 228
120 138 228
120 138 228
119 138 228
119 138 228
120 138 228
119 138 228
119 138 228
120 138 228
119 137 228
120 138 228
119 138 228
120 138 228
120 138 228
119 138 228
120 138 228
119 138 228
119 138 228
120 138 228
120 138 228
119 138 228
119 137 228
119 138 228
120 138 228
119 137 228
120 138 228
119 138 228
119 137 228
119 138 228
120 138 228
120 138 228
119 137 228
120 138 228
119 137 228
121 138 228
119 138 228
120 138 228
120 138 228
119 138 228
119 138 228
119 137 228
120 138 228
119 138 228
120 138 228
120 138 228
119 137 228
120 138 228
119 138 228
119 138 228
120 138 228
119 138 228
120 138 228
119 138 228
120 138 228
119 138 228
119 138 228
119 137 228
120 138 228
120 138 228
120 138 228
120 138 228
120 138 228
120 138 228
119 138 228
119 137 228
120 138 228
120 138 228
119 138 228
120 138 228
120 138 228
119 138 228
120 138 228
119 138 228
120 138 228
120 138 228
119 138 228
119 138 228
119 137 228
119 138 228
120 138 228
119 138 228
120 138 228
119 138 228
120 138 228
119 138 228
120 138 228
120 138 228
120 138 228
120 138 228
119 138 228
119 138 228
119 138 228
119 138 228
120 138 228
120 138 228
121 138 228
120 138 228
119 138 228
120 138 228
119 138 228
120 138 228
120 138 228
120 138 228
120 138 228
120 138 228
119 138 228
122 140 225
120 139 224
122 141 220
124 143 216
124 144 213
129 148 201
129 149 197
132 151 189
132 153 184
133 154 181
134 154 181
133 154 180
134 154 181
134 154 181
134 154 181
133 154 181
133 154 181
134 154 181
134 154 181
133 154 181
134 154 181
135 155 181
134 155 181
133 154 181
134 154 181
134 154 181
134 154 181
133 154 181
134 154 181
133 154 181
134 154 181
134 154 181
133 154 181
134 154 181
133 154 181
135 155 181
133 154 181
133 154 181
134 154 181
134 154 181
134 154 181
134 154 181
133 154 181
134 154 181
134 154 181
133 154 181
133 154 181
134 154 181
133 154 181
133 154 181
134 154 181
134 154 181
133 154 181
133 154 181
133 154 181
135 155 181
134 154 181
133 154 181
134 154 181
134 154 181
134 154 181
133 153 180
134 154 181
134 155 181
134 154 181
134 154 181
133 154 181
134 155 181
133 154 181
133 154 181
134 154 181
134 154 181
133 154 181
134 154 181
134 154 181
134 154 181
134 154 181
134 154 181
135 155 181
134 154 181
134 154 181
135 155 181
134 154 181
134 154 181
134 154 181
134 154 181
134 154 181
133 154 181
134 154 181
132 153 181
133 154 181
133 154 181
134 154 181
134 154 181
133 154 180
133 154 181
133 154 181
134 154 181
134 154 181
134 154 181
134 154 180
133 154 181
133 154 180
134 154 181
133 154 181
135 155 181
134 154 181
134 154 181
134 154 181
134 154 181
134 154 181
135 155 181
136 155 181
134 154 181
135 155 181
134 154 181
134 154 181
134 154 181
133 154 181
134 154 181
133 154 181
135 155 181
135 155 181
134 154 181
133 154 181
134 154 181
134 154 181
134 154 181
134 154 180
134 154 181
133 154 180
133 154 181
133 154 181
135 155 181
134 154 181
135 155 181
134 154 181
134 154 181
133 154 181
134 154 181
133 154 181
133 154 181
134 154 181
134 154 181
133 154 181
134 155 181
134 154 181
133 154 181
134 155 181
133 154 181
133 154 181
134 154 181
134 154 181
135 155 181
134 154 181
134 154 181
133 154 181
134 154 181
134 154 181
134 154 181
134 154 181
134 154 181
134 154 181
134 154 181
133 154 181
133 154 181
133 154 181
134 154 181
133 154 181
133 154 181
133 154 181
134 154 181
134 154 181
133 154 181
133 154 180
134 154 181
134 154 181
134 154 181
133 154 181
134 154 181
133 154 181
134 154 181
133 154 181
134 154 181
133 154 181
134 154 181
134 154 181
133 154 181
134 154 181
135 155 181
134 154 180
133 154 180
133 154 181
134 154 181
134 154 181
133 154 181
133 154 181
134 154 181
134 154 181
135 155 181
133 154 181
134 154 181
134 154 181
134 154 181
133 154 181
134 154 181
134 154 181
134 154 181
133 154 181
134 154 181
134 154 181
135 155 181
133 154 181
134 154 181
133 154 181
135 155 181
133 154 181
133 154 181
134 154 181
133 154 181
133 154 181
134 154 181
134 154 181
133 154 181
132 153 181
134 154 181
133 154 181
133 154 181
134 154 181
133 154 180
135 155 181
134 154 181
133 154 181
134 154 181
134 154 181
133 154 181
134 154 181
135 155 181
134 154 181
133 154 181
134 154 181
133 154 181
134 154 181
134 154 181
134 154 181
133 154 181
132 153 181
135 155 181
134 154 181
133 154 181
133 154 181
134 154 181
133 154 180
133 154 181
134 154 181
134 154 181
133 154 181
133 153 182
125 141 194
111 125 198
111 124 201
115 129 209
116 132 217
120 137 224
119 137 228
119 137 227
119 138 228
120 138 228
119 138 228
120 138 228
119 138 228
119 138 228
120 138 228
120 138 228
119 137 228
119 138 228
120 138 228
120 138 228
119 137 228
120 138 228
119 138 228
119 138 228
120 138 228
120 138 228
120 138 228
119 138 228
120 138 228
119 138 228
120 138 228
119 138 228
120 138 228
119 138 228
120 138 228
120 138 228
120 138 228
120 138 228
119 138 228
119 138 228
119 138 228
119 138 228
120 138 228
119 138 228
120 138 228
120 138 228
119 138 228
120 138 228
120 138 228
119 138 228
119 138 228
120 138 228
119 138 228
119 138 228
119 138 228
119 137 228
120 138 228
120 138 228
120 138 228
119 138 228
119 138 228
120 138 228
120 138 228
120 138 228
120 138 228
120 138 228
119 138 228
119 138 228
120 138 228
119 137 228
119 137 228
120 138 228
119 138 228
120 138 228
119 138 228
120 138 228
120 138 228
120 138 228
119 138 228
119 138 228
120 138 228
120 138 228
119 138 228
119 137 228
120 138 228
119 138 228
119 138 228
120 138 228
120 138 228
120 138 228
120 138 228
119 137 228
120 138 228
119 138 228
119 138 228
120 138 228
119 137 228
120 138 228
120 138 228
120 138 228
120 138 228
120 138 228
120 138 228
120 138 228
119 138 228
120 138 228
119 138 228
120 138 228
119 138 228
120 138 228
118 137 228
120 138 228
119 138 228
120 138 228
119 138 228
120 138 228
120 138 228
120 138 228
120 138 228
120 138 228
120 138 228
120 138 228
119 138 228
119 138 228
120 138 228
119 138 228
120 138 228
120 138 228
120 138 228
120 138 228
119 138 228
120 138 228
119 138 228
120 138 228
120 138 228
120 138 228
119 138 228
120 138 228
119 137 228
119 138 228
119 138 228
120 138 228
120 138 228
119 137 227
120 138 228
120 138 226
119 137 223
120 137 218
119 136 212
121 138 200
125 143 191
133 153 184
133 154 181
134 154 181
133 154 181
134 154 181
133 154 181
134 154 181
135 155 181
132 153 181
134 154 181
133 154 181
134 154 181
134 154 181
134 154 181
134 154 181
133 154 181
134 154 181
133 154 181
134 154 181
133 154 181
132 153 181
133 154 181
134 154 181
134 154 181
134 154 181
134 154 181
133 154 181
134 154 181
134 154 181
134 154 181
135 155 181
133 154 181
133 154 181
134 154 181
133 154 181
134 154 181
133 154 181
134 154 181
133 154 181
133 154 181
134 154 181
135 155 181
133 154 181
134 154 181
133 154 181
134 154 181
134 154 181
134 154 181
134 154 181
134 154 181
134 154 181
134 154 181
134 154 181
134 154 181
134 154 181
134 154 181
133 154 180
133 154 181
134 154 181
134 154 181
134 154 181
134 154 181
133 154 181
134 154 181
134 155 181
134 154 181
134 154 181
134 154 181
133 154 181
134 154 181
134 154 181
133 154 181
133 154 181
134 154 181
134 154 181
134 154 181
133 154 181
133 154 181
134 155 181
135 155 181
133 154 181
134 155 181
133 154 181
134 154 181
134 154 180
133 154 181
133 154 181
134 154 181
134 154 181
133 154 181
134 154 181
134 154 181
134 154 181
134 154 181
135 155 181
134 154 181
133 154 181
134 154 181
133 154 181
134 154 181
133 154 181
133 154 181
134 154 181
134 154 181
133 154 181
134 154 180
134 154 181
134 154 181
134 154 181
134 154 181
133 154 181
134 154 181
133 154 181
133 154 181
134 154 181
133 154 181
134 154 181
135 155 181
134 154 181
133 154 181
134 154 181
133 154 181
134 154 181
134 154 181
134 154 181
134 154 181
134 154 181
134 154 181
133 154 181
133 154 181
133 154 181
133 154 181
133 154 181
134 154 181
134 154 181
134 154 181
133 154 181
134 154 181
135 155 181
134 154 181
133 154 181
132 154 181
135 155 181
134 154 181
133 154 181
134 154 181
133 154 181
133 154 181
135 155 181
133 154 181
134 154 181
133 154 181
134 154 181
134 154 181
134 154 181
134 154 181
134 155 181
133 154 181
133 154 181
134 154 181
133 154 181
133 154 181
134 154 180
133 154 181
134 154 181
134 154 181
133 154 181
133 154 181
133 154 181
135 155 181
134 154 181
134 154 181
133 154 181
134 155 181
134 154 181
134 154 181
135 155 181
135 155 181
133 154 181
133 154 181
134 154 181
133 154 180
134 154 181
133 154 181
134 154 181
133 154 181
133 154 181
134 154 181
133 154 181
133 154 181
134 154 181
134 154 181
134 154 181
134 154 181
134 154 181
133 154 181
133 154 181
133 154 181
134 154 181
134 154 181
134 154 181
134 154 181
134 154 181
134 154 180
135 155 181
135 155 181
135 155 181
132 153 181
134 154 181
133 154 181
134 154 181
133 154 181
133 154 181
134 154 181
134 154 181
134 154 181
134 154 181
133 154 181
134 154 181
134 154 181
133 154 181
133 154 181
133 154 181
134 154 181
134 154 181
134 154 181
133 154 181
134 154 181
133 154 181
134 154 181
134 154 181
133 154 181
134 154 181
133 154 181
134 154 181
134 154 181
133 154 181
134 154 181
134 154 181
134 154 181
133 154 181
134 154 181
133 154 181
134 154 181
134 154 181
133 154 181
133 154 181
133 154 181
133 153 181
120 137 187
114 127 197
111 124 199
116 128 206
112 124 201
112 127 206
113 128 209
117 133 218
118 136 224
119 137 227
119 138 228
120 138 228
120 138 228
119 138 228
119 138 228
121 139 228
119 138 228
119 137 228
120 138 228
120 138 228
120 138 228
120 138 228
120 138 228
119 138 228
120 138 228
120 138 228
119 138 228
119 137 228
120 138 228
120 138 228
119 137 228
120 138 228
119 138 228
120 138 228
120 138 228
119 138 228
120 138 228
120 138 228
119 138 228
119 138 228
120 138 228
120 138 228
120 138 228
120 138 228
120 138 228
120 138 228
119 138 228
119 138 228
119 138 228
119 137 228
119 138 228
118 137 228
120 138 228
120 138 228
119 138 228
120 138 228
119 138 228
121 138 228
119 138 228
120 138 228
120 138 228
121 138 228
120 138 228
120 138 228
120 138 228
120 138 228
120 138 228
120 138 228
119 138 228
120 138 228
119 137 228
119 138 228
119 138 228
120 138 228
119 138 228
119 138 228
119 138 228
120 138 228
119 138 228
119 138 228
120 138 228
119 138 228
119 138 228
120 138 228
119 137 228
119 138 228
120 138 228
120 138 228
120 138 228
119 138 228
120 138 228
120 138 228
120 138 228
120 138 228
121 138 228
120 138 228
119 138 228
120 138 228
119 138 228
119 138 228
119 138 228
120 138 228
119 138 228
120 138 228
119 138 228
120 138 228
120 138 228
120 138 228
120 138 228
119 138 228
119 138 228
120 138 228
120 138 228
121 138 228
118 137 228
120 138 228
119 138 228
121 138 228
120 138 228
120 138 228
119 137 228
120 138 228
120 138 228
119 138 228
120 138 228
119 138 228
119 138 228
119 137 228
119 138 228
119 138 228
119 138 228
120 138 228
120 138 228
120 138 228
120 138 228
120 138 228
120 138 228
119 138 228
119 137 227
117 134 223
118 136 226
119 136 223
118 134 220
117 133 218
116 131 215
117 132 215
113 128 208
114 127 206
115 128 206
114 128 207
124 140 201
129 148 181
134 154 181
133 154 181
134 154 181
134 154 181
134 154 181
133 154 181
134 154 181
133 154 181
133 154 181
133 154 181
134 154 181
134 154 181
134 154 181
134 154 181
133 154 181
134 154 181
134 154 181
134 154 181
133 154 181
133 154 181
133 154 181
134 154 181
134 154 181
134 154 181
134 154 181
134 154 181
134 154 181
134 154 181
134 154 181
135 155 181
133 154 181
135 155 181
134 154 181
134 154 181
133 154 181
133 154 181
134 154 181
134 154 181
133 154 181
134 154 181
133 154 180
134 154 181
133 154 181
134 154 181
134 154 181
134 154 181
134 154 181
134 154 181
133 154 181
134 154 181
133 154 181
134 154 181
134 154 181
134 154 181
133 154 181
133 154 181
134 154 181
134 154 181
134 154 181
134 155 181
134 154 181
133 154 181
134 154 181
133 154 181
133 154 181
134 154 181
134 154 181
134 154 181
135 155 181
134 154 181
133 154 181
134 155 181
134 154 181
134 154 181
134 154 181
133 154 181
133 154 181
134 154 181
134 154 181
133 154 181
134 154 181
134 154 181
133 154 181
134 155 181
134 154 181
133 154 181
134 154 181
133 154 181
134 154 181
133 154 181
134 154 181
134 154 181
134 154 181
134 154 181
133 154 181
134 154 181
134 154 181
133 154 181
133 154 181
133 154 181
134 154 181
134 154 181
134 154 181
133 154 181
134 154 181
135 155 181
133 154 180
133 154 181
133 154 181
133 154 181
133 154 180
133 154 181
134 154 180
134 154 181
134 154 181
134 154 181
134 154 181
133 154 180
133 154 181
134 155 181
133 154 181
134 154 181
134 155 181
133 154 181
134 154 181
134 154 181
134 154 181
134 154 181
133 154 181
134 154 180
133 154 181
133 154 181
134 154 181
134 154 181
133 154 181
134 154 181
134 154 181
134 154 181
133 154 181
134 154 181
134 154 181
134 154 181
134 155 181
134 154 181
134 154 181
133 154 181
133 154 181
133 154 181
134 154 181
134 154 181
133 153 180
134 154 181
134 154 181
134 154 181
135 155 181
133 153 180
134 154 181
135 155 181
133 154 181
134 154 181
133 154 181
135 155 181
133 154 181
134 154 181
134 154 181
133 154 181
134 154 181
135 155 181
133 154 181
134 154 181
135 155 181
134 154 181
134 154 181
133 154 181
134 154 181
134 154 181
134 154 181
134 154 181
134 154 181
134 154 181
133 154 181
134 154 181
134 154 181
133 154 181
134 154 181
133 154 181
133 154 181
133 154 181
134 154 181
134 154 181
134 154 181
134 154 181
134 154 181
134 154 181
134 154 181
133 154 181
133 154 181
134 154 181
135 155 181
135 155 181
134 154 181
133 154 181
135 155 181
133 154 181
133 154 181
133 154 181
134 154 181
134 154 181
134 154 181
134 154 181
133 154 181
133 154 181
133 154 181
133 154 181
133 154 181
133 154 181
135 155 181
134 154 181
134 154 181
133 154 181
134 154 181
133 154 181
135 155 181
133 154 181
135 155 181
133 154 181
133 154 181
132 153 181
134 154 181
134 154 181
134 154 181
134 154 181
135 155 181
134 154 181
134 154 181
133 154 181
133 154 181
134 154 181
134 154 181
134 154 181
135 155 181
133 154 181
134 154 181
134 154 181
134 154 181
134 154 181
133 154 180
132 153 181
127 144 191
113 125 195
117 130 207
111 123 198
112 124 198
113 125 200
112 125 201
115 128 206
118 132 214
118 134 220
120 137 225
119 136 225
120 138 228
120 138 228
120 138 228
119 138 228
120 138 228
119 138 228
120 138 228
120 138 228
119 138 228
120 138 228
119 138 228
120 138 228
120 138 228
119 138 228
119 137 228
120 138 228
119 138 228
119 138 228
120 138 228
120 138 228
119 137 228
120 138 228
120 138 228
120 138 228
119 138 228
120 138 228
120 138 228
119 138 228
120 138 228
119 138 228
120 138 228
119 138 228
119 138 228
120 138 228
120 138 228
119 138 228
119 138 228
120 138 228
119 138 228
120 138 228
120 138 228
120 138 228
120 138 228
120 138 228
119 138 228
119 138 228
119 138 228
120 138 228
120 138 228
120 138 228
119 138 228
120 138 228
120 138 228
119 138 228
119 138 228
119 138 228
120 138 228
119 138 228
119 138 228
120 138 228
120 138 228
120 138 228
120 138 228
120 138 228
120 138 228
120 138 228
119 138 228
119 138 228
120 138 228
119 138 228
119 138 228
120 138 228
119 138 228
120 138 228
120 138 228
120 138 228
119 138 228
120 138 228
120 138 228
120 138 228
120 138 228
120 138 228
120 138 228
119 138 228
119 138 228
121 139 228
119 138 228
119 137 228
120 138 228
120 138 228
120 138 228
120 138 228
119 137 228
119 138 228
120 138 228
120 138 228
121 138 228
119 138 228
120 138 228
120 138 228
119 138 228
119 138 228
120 138 228
119 138 228
119 138 228
119 138 228
120 138 228
120 138 228
120 138 228
120 138 228
120 138 228
119 138 228
120 138 228
118 137 228
120 138 228
119 138 228
119 138 228
120 138 228
119 137 228
119 137 227
119 137 226
118 136 224
118 135 222
117 135 223
117 133 220
115 130 213
118 132 215
118 134 217
115 129 211
114 128 207
110 123 198
115 129 209
114 126 202
113 125 200
115 127 203
112 125 200
116 129 206
113 125 200
120 134 197
129 149 183
132 153 181
135 155 181
133 154 181
133 154 181
133 154 180
133 154 181
133 154 181
134 154 181
134 154 181
134 154 181
134 154 181
134 155 181
134 154 181
133 154 181
134 154 181
134 154 181
133 154 181
134 154 181
134 154 181
133 154 181
134 154 181
134 154 181
133 154 181
134 154 181
134 154 181
134 154 181
133 154 181
134 154 181
134 154 181
134 154 181
134 154 181
133 154 181
134 154 181
134 154 181
134 154 181
134 155 181
133 154 181
134 154 181
134 154 181
133 154 181
133 154 181
133 154 181
134 154 181
134 155 181
133 153 180
133 154 181
133 154 181
134 154 181
134 155 181
134 154 181
134 154 181
135 155 181
133 154 181
134 154 181
134 154 181
133 154 181
134 154 181
134 154 181
134 154 181
134 154 181
133 154 181
134 154 181
134 154 181
133 154 181
134 154 181
133 154 181
135 155 181
134 154 181
134 154 181
134 154 181
134 154 181
134 154 181
134 154 181
133 154 181
133 154 181
134 154 181
134 154 181
134 154 181
134 155 181
133 154 181
134 154 181
134 154 181
134 155 181
134 154 181
134 154 181
134 154 181
133 154 181
134 154 181
134 154 181
133 154 181
134 154 181
134 154 181
133 154 181
135 155 181
134 154 181
134 154 181
133 154 181
134 154 181
134 154 181
134 154 181
134 154 181
134 154 181
134 154 181
134 154 181
134 154 181
133 154 181
134 155 181
134 154 181
133 154 181
134 154 181
133 154 181
133 154 181
134 154 181
134 154 181
132 153 181
133 154 181
134 154 181
134 154 181
134 154 181
134 154 181
133 154 181
133 154 181
133 154 181
133 154 181
134 154 181
133 154 181
135 155 181
134 154 181
132 153 181
134 154 181
133 154 181
133 154 181
134 154 181
134 154 181
134 154 180
133 154 181
133 154 181
133 154 181
134 154 181
133 154 181
134 154 181
133 154 181
133 154 181
134 154 181
133 154 180
133 154 181
134 154 181
133 154 181
135 155 181
135 155 181
133 154 181
133 154 181
133 154 181
134 154 181
134 154 181
133 154 181
134 154 181
134 154 181
134 154 181
134 154 181
133 154 181
133 154 181
133 154 181
134 154 181
133 154 181
134 154 181
134 154 181
134 154 181
133 154 181
134 154 181
134 154 181
134 154 181
134 154 181
134 154 181
134 154 181
134 154 181
134 154 181
134 154 181
134 154 181
134 154 181
134 154 181
133 154 181
133 154 181
133 154 181
133 154 181
134 154 181
133 154 181
134 154 181
133 154 181
133 154 181
133 154 181
133 154 181
134 154 181
133 154 180
134 154 181
134 154 181
134 154 181
133 154 181
134 154 181
134 154 181
134 154 181
133 154 181
134 154 181
133 154 181
133 154 181
133 154 181
133 154 181
134 154 181
134 154 181
134 154 181
133 154 181
133 154 181
134 154 181
134 154 181
134 154 181
133 154 181
133 154 181
133 154 181
134 154 181
134 154 181
134 155 181
133 154 181
134 154 181
134 154 181
134 154 181
134 154 181
133 154 181
134 154 181
133 154 181
133 154 181
133 154 181
133 154 181
134 154 181
133 154 181
134 154 181
134 154 181
133 154 180
134 154 181
134 154 181
133 154 181
134 154 181
134 154 181
134 154 181
134 154 181
133 154 181
133 154 181
134 154 181
134 154 181
128 146 193
112 126 194
109 121 196
113 126 201
110 122 196
113 125 200
108 120 193
114 127 202
113 125 201
114 127 205
110 124 202
112 128 211
118 134 220
119 137 226
120 138 228
120 138 228
119 138 228
120 138 228
120 138 228
120 138 228
120 138 228
120 138 228
120 138 228
120 138 228
121 139 228
120 138 228
120 138 228
119 137 228
119 137 228
119 138 228
119 137 228
119 138 228
119 138 228
120 138 228
120 138 228
119 138 228
119 138 228
119 138 228
120 138 228
119 138 228
119 138 228
120 138 228
120 138 228
119 138 228
119 138 228
119 138 228
119 138 228
120 138 228
120 138 228
120 138 228
119 138 228
120 138 228
120 138 228
120 138 228
119 138 228
120 138 228
120 138 228
120 138 228
119 138 228
119 138 228
119 138 228
119 138 228
119 138 228
120 138 228
120 138 228
119 138 228
119 138 228
119 138 228
119 138 228
120 138 228
119 138 228
119 137 228
119 138 228
120 138 228
119 137 228
119 137 228
119 138 228
120 138 228
119 138 228
120 138 228
119 138 228
120 138 228
119 138 228
120 138 228
120 138 228
120 138 228
120 138 228
120 138 228
119 138 228
120 138 228
119 138 228
119 138 228
119 138 228
119 137 228
120 138 228
119 138 228
120 138 228
120 138 228
120 138 228
120 138 228
121 138 228
119 138 228
120 138 228
120 138 228
119 138 228
120 138 228
119 138 228
119 138 228
120 138 228
119 137 228
119 137 228
120 138 228
119 138 228
119 138 228
120 138 228
119 138 228
120 138 228
119 138 228
119 138 228
120 138 228
119 137 228
119 138 228
119 137 228
119 138 228
120 138 228
120 137 225
119 137 225
117 134 221
119 137 225
121 137 223
118 134 220
113 128 211
115 131 214
116 130 211
119 133 214
112 126 204
116 129 208
114 127 204
113 126 203
116 128 205
114 126 203
112 124 199
111 123 198
114 126 203
108 120 194
114 126 200
112 125 200
115 127 204
113 126 202
111 124 198
114 129 190
129 148 187
134 155 181
133 154 181
134 154 181
134 154 181
134 154 181
134 154 181
133 154 181
133 154 181
134 154 181
132 153 181
133 154 181
134 154 181
133 154 180
133 154 181
133 154 181
134 154 181
133 154 181
133 154 181
135 155 181
134 154 181
133 154 181
133 154 181
134 154 181
134 154 181
133 154 181
134 154 181
134 154 181
134 154 181
135 155 181
134 154 181
134 154 181
134 154 181
134 154 181
133 154 181
133 154 181
134 154 181
134 154 181
134 154 181
134 154 181
134 154 181
134 154 181
133 154 181
134 154 180
134 154 181
134 154 181
134 155 181
134 154 181
133 154 181
134 155 181
134 154 181
134 154 181
134 154 181
135 155 181
133 154 181
134 154 181
134 154 181
134 154 181
134 154 181
134 154 181
134 154 181
133 154 180
134 154 181
134 154 181
133 154 180
134 154 181
134 154 181
134 155 181
134 154 181
133 154 181
133 154 181
135 155 181
134 154 181
133 154 181
134 155 181
134 154 181
134 154 181
134 154 181
134 154 181
132 153 180
132 153 181
133 154 180
133 154 181
134 154 181
134 154 181
135 155 181
134 154 181
134 154 181
134 154 181
134 154 181
133 154 181
134 155 181
134 154 181
133 154 181
134 154 181
134 154 181
134 154 180
134 154 181
133 154 181
134 154 181
134 154 181
133 154 181
133 154 181
133 154 181
134 154 181
133 154 180
134 154 181
134 154 181
133 154 181
135 155 181
134 154 181
133 154 181
134 154 181
133 154 181
134 154 181
134 154 181
134 154 181
134 154 181
134 154 181
133 154 181
135 155 181
133 154 181
134 154 181
135 155 181
133 154 181
134 154 181
134 154 181
133 154 181
134 154 181
134 154 181
134 154 181
134 154 181
134 154 181
135 155 181
133 154 181
134 154 181
133 154 181
134 154 181
134 154 181
134 154 181
134 154 181
133 154 181
134 154 181
134 154 181
135 155 181
134 154 181
134 154 180
134 154 181
134 154 181
134 154 180
134 154 181
134 154 181
133 154 181
134 154 181
134 154 181
134 154 180
133 154 181
134 154 181
134 154 181
133 154 181
134 154 181
133 154 181
134 154 181
133 154 181
134 154 181
133 154 181
134 154 181
133 154 181
134 154 181
134 154 181
133 154 181
133 154 181
133 154 181
133 154 181
134 154 181
133 154 180
134 154 181
134 154 181
133 154 181
134 154 181
134 154 181
133 154 181
134 154 181
134 154 180
134 154 181
134 154 181
134 154 181
133 154 181
134 154 181
134 154 181
134 154 181
134 154 181
134 154 181
133 154 181
134 154 180
133 154 181
134 154 181
135 155 181
133 154 181
134 154 181
134 154 181
134 154 181
133 154 181
134 154 181
133 154 181
133 154 181
133 154 181
134 154 181
134 154 181
134 154 181
134 154 181
133 154 181
133 154 181
134 154 181
133 154 181
134 154 181
134 154 181
134 154 181
134 154 181
134 154 181
133 154 181
134 154 181
133 154 180
133 154 181
133 154 181
134 154 181
133 154 181
133 154 180
133 154 181
133 154 181
134 155 181
134 154 181
133 154 181
133 154 181
134 154 181
134 155 181
134 154 181
134 154 181
134 155 181
134 154 181
134 154 181
134 154 181
133 154 181
133 154 181
132 153 181
133 154 181
134 154 181
134 154 181
133 153 181
129 146 187
117 132 195
112 125 200
111 123 198
108 120 192
115 127 203
112 124 200
117 129 207
116 128 205
113 125 200
112 124 200
115 128 206
114 128 206
115 130 211
114 130 214
121 138 227
119 137 226
120 138 228
119 138 228
119 138 228
119 138 228
119 137 228
120 138 228
119 138 228
120 138 228
119 137 228
119 138 228
119 138 228
119 138 228
119 138 228
119 138 228
120 138 228
119 138 228
119 138 228
120 138 228
119 138 228
119 138 228
119 138 228
120 138 228
119 138 228
119 138 228
119 138 228
120 138 228
120 138 228
120 138 228
119 138 228
119 138 228
120 138 228
119 138 228
120 138 228
120 138 228
119 137 228
119 138 228
119 138 228
119 137 228
119 137 228
120 138 228
120 138 228
119 137 228
120 138 228
119 138 228
120 138 228
119 137 228
120 138 228
120 138 228
120 138 228
119 138 228
119 138 228
120 138 228
120 138 228
120 138 228
120 138 228
120 138 228
120 138 228
120 138 228
120 138 228
119 138 228
119 137 228
120 138 228
120 138 228
119 138 228
120 138 228
119 138 228
120 138 228
120 138 228
120 138 228
119 138 228
120 138 228
120 138 228
119 138 228
120 138 228
120 138 228
119 138 228
119 138 228
120 138 228
119 137 228
120 138 228
120 138 228
120 138 228
120 138 228
119 137 228
119 138 228
120 138 228
120 138 228
120 138 228
120 138 228
120 138 228
119 137 228
120 138 228
121 138 228
119 138 228
119 138 228
118 137 228
120 138 228
119 138 228
121 139 228
120 138 228
119 138 228
119 137 227
120 138 227
119 137 227
118 135 223
117 133 219
117 133 219
118 134 218
120 135 219
115 130 211
112 127 206
115 129 210
114 127 206
111 124 201
114 127 204
114 127 204
115 127 202
115 127 203
111 124 199
112 124 199
110 123 197
116 129 206
117 129 206
111 123 198
113 125 201
113 126 202
115 128 205
112 124 199
112 124 199
115 128 206
114 126 202
110 123 197
117 129 206
117 131 193
129 149 187
134 154 181
134 154 181
133 154 181
133 154 181
133 154 180
134 154 181
134 154 181
133 154 181
134 154 181
134 154 181
133 154 180
133 154 181
134 154 181
133 154 181
134 154 181
133 154 180
133 153 180
134 154 181
134 154 181
134 154 181
134 154 181
134 154 181
133 154 181
133 154 181
133 154 181
134 154 181
134 154 181
135 155 181
134 154 181
134 154 181
134 154 181
134 154 181
134 154 180
135 155 181
133 154 181
133 154 181
133 154 181
134 154 181
133 154 181
133 154 181
134 154 181
134 154 181
134 154 181
134 154 181
133 154 181
133 154 181
134 154 181
134 154 181
134 154 181
134 154 181
133 154 181
133 153 180
133 154 181
134 154 181
134 154 181
134 154 181
133 154 181
134 154 181
133 154 181
134 154 181
134 154 181
133 154 181
134 154 181
133 154 181
134 154 181
133 154 181
133 154 181
134 155 181
134 154 181
134 154 181
135 155 181
134 154 181
134 154 181
134 154 181
135 155 181
134 154 181
134 154 180
134 154 181
133 154 181
134 154 181
134 154 181
133 154 180
134 154 181
134 154 181
134 154 181
134 154 181
134 154 181
133 154 180
134 154 181
134 154 181
134 154 181
134 154 181
133 154 181
133 154 181
134 154 181
134 154 181
134 154 181
134 154 180
133 154 180
134 154 181
134 154 181
135 155 181
134 154 180
134 154 181
134 154 181
134 154 181
135 155 181
133 154 181
133 154 181
133 154 181
133 154 181
133 154 181
134 154 181
133 154 181
133 154 181
133 154 181
134 154 181
133 154 180
135 155 181
134 154 181
133 154 181
133 154 181
134 154 181
134 154 181
133 154 181
134 154 181
133 154 181
133 154 181
133 154 181
134 154 181
133 154 180
134 154 181
134 154 181
134 154 181
134 154 181
134 154 181
133 154 181
134 154 181
134 154 181
133 154 181
133 154 181
133 154 181
134 154 181
135 155 181
133 154 181
134 154 181
134 154 181
134 154 181
134 154 181
134 154 181
134 154 181
134 154 181
133 154 180
134 154 181
134 155 181
134 154 181
133 154 181
133 154 181
133 154 181
133 154 181
133 154 181
133 154 181
134 154 181
134 154 181
134 154 181
133 154 181
134 154 181
133 154 181
134 154 181
134 154 181
134 154 181
134 154 181
133 154 181
134 154 181
134 154 181
134 154 181
134 154 181
133 154 181
133 154 181
133 154 181
134 154 181
135 155 181
134 154 181
134 154 181
133 154 181
135 155 181
134 155 181
133 154 181
133 154 181
134 154 181
134 154 181
134 154 181
133 154 181
134 154 181
135 155 181
134 154 181
133 154 181
134 154 181
134 154 181
133 154 181
134 154 180
135 155 181
134 154 181
133 154 181
134 154 181
133 154 181
133 154 181
134 154 181
134 154 181
134 154 181
133 154 181
133 154 181
133 154 181
133 154 180
133 154 181
134 154 181
135 155 181
134 154 181
134 155 181
134 154 181
134 154 181
134 154 181
134 154 180
134 154 181
134 154 181
134 154 181
134 154 181
134 154 181
134 154 181
133 154 181
134 154 181
134 154 181
134 154 181
134 154 181
133 154 181
134 154 181
133 154 181
135 155 181
133 154 181
134 154 181
133 154 181
134 154 181
133 154 181
134 154 181
133 154 180
134 154 181
134 154 181
134 154 181
127 144 189
117 131 197
110 122 196
115 127 203
110 123 198
112 124 198
108 121 195
113 126 201
114 127 202
114 126 201
114 126 201
115 127 204
114 126 202
110 122 197
114 128 206
118 132 214
116 132 216
117 134 219
120 137 226
119 137 227
119 137 228
120 138 228
120 138 228
120 138 228
119 137 228
120 138 228
119 138 228
120 138 228
120 138 228
119 138 228
120 138 228
120 138 228
119 138 228
119 138 228
120 138 228
120 138 228
119 138 228
120 138 228
120 138 228
120 138 228
119 138 228
120 138 228
120 138 228
119 137 228
120 138 228
119 138 228
119 138 228
119 138 228
120 138 228
120 138 228
119 137 228
120 138 228
120 138 228
120 138 228
120 138 228
119 137 228
120 138 228
120 138 228
119 138 228
119 138 228
121 138 228
119 138 228
119 138 228
120 138 228
120 138 228
119 138 228
120 138 228
119 138 228
119 138 228
119 137 228
120 138 228
120 138 228
120 138 228
119 138 228
120 138 228
119 138 228
120 138 228
120 138 228
119 137 228
120 138 228
120 138 228
119 138 228
120 138 228
120 138 228
120 138 228
120 138 228
120 138 228
120 138 228
119 138 228
120 138 228
119 138 228
119 138 228
119 138 228
119 138 228
120 138 228
119 138 228
119 138 228
120 138 228
119 138 228
120 138 228
120 138 228
120 138 228
120 138 228
120 138 228
120 138 228
119 138 228
120 138 228
119 137 228
120 138 228
121 138 228
119 137 228
120 138 228
120 138 228
118 136 225
119 137 226
119 136 224
114 132 218
118 134 219
117 132 215
116 131 214
114 129 209
115 129 211
115 129 208
109 122 198
115 127 204
115 128 205
114 126 202
114 127 203
115 127 203
107 119 191
112 124 198
110 122 197
112 125 200
104 116 188
116 129 206
115 127 202
112 125 201
113 126 202
114 127 204
113 125 200
112 125 200
116 128 204
109 121 195
111 123 198
111 123 198
110 123 197
111 123 197
112 124 199
113 125 200
112 125 200
117 131 193
129 148 183
135 154 180
134 154 180
134 154 181
133 154 181
133 154 181
133 154 181
134 154 181
134 154 181
134 154 181
132 154 181
133 153 180
134 155 181
133 154 181
134 154 181
133 154 181
134 154 181
134 154 181
135 155 181
134 154 181
134 154 181
134 154 181
135 155 181
134 154 181
132 154 181
134 154 181
134 154 181
134 154 181
134 154 181
133 154 181
133 154 181
134 154 180
135 155 181
134 154 181
134 154 181
134 154 180
135 155 181
133 154 181
134 154 181
134 154 181
134 154 181
133 154 181
134 154 180
134 154 181
134 154 181
133 154 181
133 154 181
134 154 180
133 154 181
134 154 180
133 154 181
132 153 180
134 154 180
134 154 181
133 154 181
134 154 181
134 154 181
134 154 181
134 154 181
134 154 181
134 154 181
134 154 181
134 154 181
134 154 181
134 154 181
134 154 181
134 154 181
133 154 181
134 154 181
134 154 181
134 154 181
133 154 181
134 154 181
133 154 181
133 153 180
134 154 181
134 154 181
133 154 181
134 154 181
133 154 181
134 154 181
134 154 181
134 154 181
134 154 181
133 154 181
133 154 181
134 154 181
133 154 181
133 154 181
134 154 181
134 154 181
135 154 180
134 154 181
134 154 181
134 154 181
134 154 181
133 154 181
133 154 181
133 154 181
135 155 181
134 154 181
134 154 181
134 154 181
134 154 181
133 154 181
134 154 181
134 154 181
134 154 181
133 154 181
134 154 181
134 154 181
133 154 181
134 154 181
134 154 181
134 154 181
135 155 181
134 154 181
134 154 181
134 154 181
133 154 181
134 154 181
133 154 181
134 154 181
134 154 181
134 154 180
132 153 181
133 154 181
134 154 181
133 154 181
135 155 181
135 155 181
134 154 181
133 154 181
133 154 181
133 154 181
134 154 181
134 154 181
133 154 181
134 154 181
134 154 181
133 154 181
134 154 181
133 153 180
134 154 181
134 154 181
134 154 181
134 154 181
134 154 181
134 154 181
133 154 180
133 154 181
133 154 181
133 154 181
133 154 181
134 154 180
134 154 181
134 154 181
134 154 181
133 154 181
134 154 180
134 154 181
134 154 181
134 154 181
134 154 181
133 154 181
133 154 181
134 154 181
133 154 181
133 154 181
134 154 181
133 154 181
134 154 181
133 154 181
133 154 181
133 154 181
134 154 181
133 154 181
133 154 181
134 154 181
133 154 181
134 154 181
133 154 181
133 154 181
134 154 181
134 154 181
134 154 181
134 154 181
133 154 181
134 154 181
134 154 181
133 154 181
134 154 181
134 154 181
133 154 181
133 154 181
132 153 181
133 154 181
134 154 181
134 154 181
134 154 181
134 154 181
133 154 181
134 154 181
134 154 181
133 154 181
134 154 181
134 154 181
134 154 181
133 154 181
134 154 181
134 154 181
134 154 181
134 154 181
134 154 181
134 154 181
134 154 181
135 155 181
134 154 181
134 154 181
134 154 181
133 153 180
134 154 181
134 154 181
134 154 181
133 154 181
134 154 181
133 154 180
134 154 181
134 154 181
134 154 181
134 154 181
134 154 181
134 154 180
134 154 181
134 154 181
133 154 181
134 154 181
133 154 181
134 154 181
134 154 181
134 154 181
134 155 181
134 154 181
134 154 181
134 154 181
134 154 181
135 155 181
134 154 181
133 153 181
130 148 186
115 129 192
115 127 203
114 127 204
114 126 202
115 127 203
115 127 203
110 122 197
110 122 195
116 128 205
112 124 199
114 127 203
112 125 200
113 125 201
110 122 197
112 125 200
116 128 206
113 127 206
113 128 209
116 132 217
119 136 226
119 137 226
119 137 228
119 138 228
120 138 228
119 138 228
120 138 228
120 138 228
119 138 228
120 138 228
119 137 228
119 138 228
119 138 228
121 138 228
120 138 228
119 138 228
120 138 228
120 138 228
119 138 228
120 138 228
120 138 228
119 138 228
118 137 228
119 138 228
119 138 228
119 137 228
120 138 228
119 137 228
119 138 228
120 138 228
120 138 228
119 138 228
120 138 228
120 138 228
120 138 228
120 138 228
120 138 228
119 138 228
120 138 228
120 138 228
120 138 228
120 138 228
119 138 228
120 138 228
119 138 228
119 137 228
119 137 228
120 138 228
119 138 228
119 138 228
120 138 228
120 138 228
119 138 228
120 138 228
119 138 228
120 138 228
120 138 228
119 138 228
119 138 228
120 138 228
120 138 228
119 138 228
120 138 228
120 138 228
119 138 228
120 138 228
119 138 228
120 138 228
120 138 228
119 138 228
119 138 228
120 138 228
120 138 228
119 137 228
120 138 228
119 138 228
119 138 228
120 138 228
119 138 228
120 138 228
119 138 228
120 138 228
120 138 228
120 138 228
119 138 228
120 138 228
119 137 227
119 137 226
120 137 226
117 134 222
114 131 216
113 129 213
116 132 215
116 131 214
114 129 209
116 129 209
117 131 211
108 122 197
112 125 201
110 123 199
114 126 200
110 123 198
111 123 198
115 127 203
114 126 201
114 126 202
115 127 203
107 119 192
112 124 198
112 124 198
114 126 202
114 126 203
110 123 198
113 126 201
110 122 197
111 124 198
110 123 197
108 120 193
114 126 202
115 127 202
109 121 196
113 125 199
113 126 202
109 121 196
115 127 204
109 122 196
115 127 204
110 123 198
110 122 195
114 127 202
119 134 194
131 150 185
134 154 181
134 154 181
134 154 181
134 154 181
133 154 181
134 154 181
134 154 181
133 154 181
134 154 180
134 154 181
134 154 181
133 154 181
133 154 180
133 154 180
134 154 181
134 154 181
134 155 181
134 154 181
133 154 181
133 154 181
133 154 181
134 154 181
134 154 181
134 154 181
134 154 180
134 154 181
134 154 181
133 154 181
134 154 181
134 154 181
134 154 181
134 155 181
134 155 181
133 154 181
134 154 181
133 154 181
133 154 181
133 154 181
134 154 180
133 154 180
133 154 181
133 154 181
134 154 181
134 154 181
134 154 181
134 154 181
133 154 181
134 154 181
134 154 181
134 154 181
133 154 181
133 154 181
134 154 181
134 155 181
134 154 181
134 154 181
133 154 181
134 154 181
134 154 181
133 154 181
134 154 181
134 154 181
133 154 181
134 154 180
134 154 181
134 154 181
134 154 181
134 154 181
134 154 181
133 154 180
135 155 181
133 154 181
134 154 181
134 155 181
133 154 181
134 154 181
134 154 181
134 154 181
134 154 181
134 154 181
133 154 181
134 154 181
134 154 181
134 154 181
134 154 181
133 154 181
133 153 180
134 154 181
134 154 180
134 154 181
134 154 181
134 154 181
134 154 181
134 154 181
135 155 181
133 154 180
133 154 181
133 154 181
134 154 181
134 154 181
134 154 181
134 154 181
134 154 181
134 154 181
134 154 181
134 154 181
133 154 181
133 154 181
134 154 181
133 154 181
134 154 181
134 154 181
134 155 181
134 154 181
134 154 181
134 154 181
134 155 181
133 154 181
134 154 181
134 154 181
134 154 181
134 154 181
134 154 181
133 154 180
134 154 181
134 154 181
133 154 180
133 154 181
133 154 181
133 154 181
134 154 181
135 155 181
134 154 181
133 154 181
133 154 181
133 153 180
134 154 181
134 154 181
134 154 181
133 154 181
135 155 181
134 154 181
134 154 181
134 154 181
135 155 181
134 154 181
134 154 181
134 154 181
133 154 181
133 154 181
134 154 181
133 154 181
133 154 181
133 154 181
134 154 181
133 154 181
134 154 181
134 154 181
135 155 181
134 154 181
134 154 181
133 154 181
134 154 181
134 154 181
134 154 181
134 154 181
134 154 181
134 154 181
134 154 181
134 154 181
134 154 181
135 155 181
135 155 181
134 154 181
133 154 181
134 154 181
134 155 181
134 154 181
133 154 181
134 154 181
134 154 181
134 154 181
133 154 181
134 154 181
135 155 181
134 154 181
134 154 181
134 154 181
134 154 181
133 154 181
133 154 180
134 154 181
135 155 181
134 154 181
134 154 180
134 154 181
133 154 181
134 154 181
134 155 181
135 155 181
134 154 181
135 155 181
134 154 181
134 154 181
134 154 181
133 153 180
134 154 181
134 154 181
134 154 181
133 154 181
134 154 181
133 154 181
134 155 181
134 154 181
133 154 181
134 154 181
134 154 181
134 154 181
134 154 181
133 154 181
134 154 181
133 154 181
133 154 181
134 154 181
133 154 181
133 154 181
134 154 181
135 155 181
134 154 181
134 154 181
134 154 181
133 154 181
133 154 181
134 154 181
133 153 180
134 154 181
134 154 181
134 155 181
134 154 181
133 154 181
134 154 181
134 154 181
135 155 181
133 154 180
134 154 181
134 154 181
133 154 181
134 154 181
125 143 184
120 135 193
111 123 197
116 128 204
111 123 198
114 126 202
113 125 201
115 127 204
114 126 202
110 122 196
113 126 201
114 126 202
110 122 196
113 125 201
113 126 202
115 127 203
109 121 195
115 127 203
114 126 203
114 127 204
113 127 206
115 130 213
120 136 223
119 136 226
120 138 228
121 138 228
120 138 228
120 138 228
119 138 228
119 138 228
119 138 228
120 138 228
119 138 228
120 138 228
119 138 228
120 138 228
120 138 228
120 138 228
119 138 228
119 138 228
119 138 228
120 138 228
120 138 228
120 138 228
119 138 228
121 138 228
119 138 228
119 138 228
119 138 228
120 138 228
119 137 228
120 138 228
119 138 228
119 138 228
120 138 228
119 138 228
119 138 228
120 138 228
120 138 228
119 138 228
119 138 228
120 138 228
120 138 228
119 138 228
120 138 228
119 138 228
119 138 228
120 138 228
119 138 228
120 138 228
120 138 228
120 138 228
120 138 228
120 138 228
120 138 228
119 138 228
119 138 228
119 137 228
120 138 228
119 138 228
119 137 228
120 138 228
120 138 228
119 138 228
119 138 228
119 138 228
119 138 228
120 138 228
119 138 228
120 138 228
120 138 228
120 138 228
119 138 228
119 138 228
120 138 228
119 137 228
119 138 228
120 138 228
119 137 228
118 137 227
119 136 226
117 135 224
117 135 223
114 130 215
116 132 217
116 132 216
113 128 210
116 131 214
116 130 211
115 129 207
111 124 201
110 124 200
115 128 204
116 128 206
111 124 198
111 123 197
112 125 200
114 126 202
113 125 200
113 125 200
109 121 196
113 125 201
110 122 196
115 128 204
113 126 201
115 127 202
109 121 196
108 121 195
109 121 195
115 127 203
113 125 202
116 129 206
113 125 200
108 120 193
112 124 199
112 125 200
114 127 203
111 123 197
109 121 195
114 126 200
111 124 198
108 120 194
114 127 203
117 130 207
107 119 192
112 124 200
110 122 196
113 126 202
112 124 198
114 126 202
120 135 192
132 151 187
135 155 181
134 154 181
134 154 180
133 154 180
134 154 181
133 154 181
134 154 181
134 154 181
134 154 181
133 154 181
134 154 181
134 154 181
134 154 181
133 154 180
135 155 181
134 154 181
134 154 181
134 154 181
133 154 181
134 154 181
134 154 181
134 154 181
135 155 181
133 154 180
134 154 181
134 154 181
133 154 181
134 154 181
134 154 181
134 154 181
134 154 181
134 154 181
134 154 181
133 154 181
133 154 181
133 154 181
134 154 181
134 154 181
133 154 181
133 154 180
134 155 181
134 154 181
136 155 181
134 154 181
134 154 181
134 154 181
134 154 181
132 153 181
134 154 181
134 155 181
134 154 181
134 154 181
134 154 181
134 154 181
133 154 181
134 154 181
134 154 181
134 154 181
134 154 181
134 154 181
134 154 181
134 154 181
134 154 181
134 154 181
134 154 181
133 154 181
134 154 181
134 154 181
135 155 181
134 154 181
133 154 181
134 154 180
134 154 181
133 154 181
134 154 181
134 154 181
133 154 181
134 155 181
134 154 181
134 154 181
134 154 181
133 154 180
134 154 180
133 154 181
134 154 181
134 154 181
134 154 181
134 154 181
134 154 181
133 154 181
134 154 181
134 154 181
133 154 181
134 154 181
135 155 181
134 154 181
134 154 181
134 154 181
134 154 181
134 154 181
133 154 181
133 154 181
134 154 181
134 154 181
134 154 181
134 154 181
133 154 180
135 155 181
134 155 181
134 154 180
134 154 181
133 154 181
135 155 181
134 154 181
134 154 181
133 154 181
134 154 181
134 154 181
134 154 181
134 154 181
135 155 181
133 154 181
134 154 181
134 154 181
133 154 181
134 154 180
134 154 180
134 154 181
134 155 181
135 155 181
134 154 181
133 154 181
134 154 181
134 154 181
133 154 181
133 154 181
133 154 181
134 154 181
134 154 181
134 154 181
134 154 181
134 154 181
134 154 181
133 154 181
134 154 181
134 154 181
133 154 181
134 154 181
133 154 181
134 154 181
135 155 181
134 154 181
134 154 181
133 154 181
133 154 181
134 154 181
134 154 181
134 154 181
133 154 181
135 155 181
134 154 180
134 154 181
134 154 181
134 154 181
134 154 181
134 154 181
134 154 181
134 154 181
134 154 181
135 155 181
134 154 181
133 154 181
134 154 181
134 154 181
133 154 181
134 154 181
134 154 181
134 155 181
134 154 181
134 154 181
134 154 181
134 154 181
134 154 181
134 154 181
134 154 181
133 154 181
135 155 181
134 154 181
135 155 181
133 154 181
134 154 181
134 154 181
134 154 181
134 154 181
133 154 181
134 154 181
134 154 181
134 154 181
134 154 181
134 155 181
133 154 181
135 155 181
134 154 181
133 154 181
133 154 181
134 154 181
133 154 181
134 154 181
133 154 181
133 154 181
134 154 181
134 154 181
134 154 180
133 154 181
133 154 181
134 154 181
134 154 181
133 154 181
133 154 181
134 154 181
133 154 181
133 154 181
134 154 181
133 154 181
134 154 181
134 154 181
133 154 181
134 154 181
134 154 181
133 154 181
134 154 181
134 154 181
134 154 181
134 154 181
134 154 181
133 154 181
135 155 181
134 154 181
135 155 181
134 154 181
134 154 181
134 154 181
134 154 181
134 154 181
133 154 181
134 154 181
134 154 181
134 154 181
128 146 186
117 132 189
110 123 196
111 124 199
111 124 199
114 126 201
112 124 200
111 123 198
108 120 194
112 125 201
117 129 205
115 127 203
111 123 198
113 125 201
117 129 207
113 126 202
111 123 198
116 128 205
115 127 204
112 125 200
110 122 196
120 132 211
114 128 207
118 132 215
118 134 219
118 136 224
120 138 227
119 138 228
119 138 228
120 138 228
119 138 228
120 138 228
119 137 228
120 138 228
120 138 228
120 138 228
119 138 228
120 138 228
120 138 228
119 138 228
119 138 228
119 138 228
119 138 228
120 138 228
120 138 228
119 137 228
119 138 228
120 138 228
119 138 228
119 138 228
119 138 228
120 138 228
120 138 228
120 138 228
120 138 228
119 138 228
119 138 228
120 138 228
120 138 228
120 138 228
120 138 228
120 138 228
120 138 228
119 137 228
120 138 228
120 138 228
119 138 228
120 138 228
119 137 228
119 138 228
119 138 228
121 138 228
120 138 228
120 138 228
120 138 228
119 138 228
119 138 228
120 138 228
120 138 228
120 138 228
119 137 228
119 138 228
119 137 228
120 138 228
120 138 228
119 138 228
119 138 228
119 138 228
119 138 228
120 138 228
120 138 228
120 138 228
119 138 228
118 136 226
118 136 225
120 137 226
116 134 220
118 135 221
117 133 219
115 130 213
119 134 218
117 131 212
114 128 207
114 128 206
112 126 204
113 126 202
112 125 200
117 129 205
113 125 202
114 127 203
113 125 201
118 130 208
113 126 202
116 128 205
111 123 198
114 126 201
112 125 200
112 125 201
110 123 198
110 123 198
114 126 202
115 127 202
110 122 196
116 128 204
112 124 200
111 123 198
112 124 199
116 128 204
116 128 205
115 127 204
113 125 200
112 124 198
110 122 198
113 126 202
113 126 202
115 128 204
113 125 200
109 121 194
110 122 197
111 124 200
111 123 198
114 126 202
111 123 198
111 123 197
112 124 199
114 126 200
115 128 205
109 121 195
112 124 199
119 131 208
120 134 195
129 148 185
135 155 181
134 154 181
133 154 181
134 154 181
133 154 181
133 154 181
133 154 181
133 154 181
134 154 181
133 153 180
134 154 181
133 154 181
134 154 181
134 154 181
134 154 181
134 154 181
133 154 180
132 153 180
133 154 181
135 155 181
133 154 181
134 154 181
134 154 181
133 154 181
133 154 181
133 154 181
133 154 181
134 154 181
134 154 181
133 154 180
134 154 181
135 155 181
134 154 181
135 155 181
134 154 181
134 154 181
134 154 181
133 154 181
133 154 181
134 154 181
133 154 181
133 154 181
134 154 180
133 154 181
134 155 181
134 154 181
134 154 181
134 154 181
134 154 181
134 154 181
134 154 181
134 154 181
133 154 180
133 154 181
135 155 181
134 154 181
134 154 181
134 154 181
134 154 181
133 153 180
134 154 181
134 154 181
134 154 181
133 154 181
134 154 181
135 155 181
134 154 181
134 154 181
134 155 181
133 154 181
134 154 181
134 154 181
134 154 181
133 153 180
133 154 181
134 154 181
134 154 181
134 154 181
133 154 181
134 154 181
133 154 181
134 154 181
133 154 181
133 154 181
133 154 181
134 154 181
134 154 181
133 154 181
134 154 181
134 155 181
134 154 181
134 154 181
134 154 181
133 154 180
133 154 181
133 154 181
133 154 181
133 154 181
134 154 181
134 154 181
133 154 181
134 154 181
135 155 181
133 154 181
134 154 181
134 154 181
133 154 181
134 154 181
134 154 181
133 154 181
134 154 181
133 154 181
134 154 181
134 154 181
134 154 181
134 154 181
134 154 181
134 154 181
133 154 181
135 155 181
133 154 181
133 154 181
133 154 181
135 155 181
134 155 181
134 154 181
133 154 181
134 154 180
133 154 181
132 153 181
132 154 181
133 154 181
134 154 181
133 154 181
134 154 181
133 154 181
134 155 181
134 154 181
134 154 181
134 154 181
133 154 181
134 154 181
135 155 181
134 154 181
134 154 181
134 154 181
134 154 181
135 155 181
133 154 181
134 154 181
135 155 181
134 154 181
134 154 181
134 154 181
133 154 181
134 154 181
134 154 181
133 154 181
134 154 180
134 154 181
133 154 181
133 154 181
133 154 181
134 154 181
134 154 181
134 154 181
135 155 181
134 154 181
133 154 181
133 154 181
133 154 181
134 155 181
134 154 180
133 154 181
133 154 181
133 154 180
133 154 181
134 154 181
134 154 181
134 154 181
133 154 181
133 154 181
134 154 181
134 154 181
134 154 181
134 154 181
134 154 180
134 155 181
134 154 181
134 154 181
134 154 181
134 154 181
134 154 181
134 154 181
134 155 181
134 154 181
134 154 181
135 155 181
132 154 181
133 154 181
134 154 180
134 154 181
135 155 181
134 154 181
134 154 181
133 154 181
134 154 181
134 154 181
134 154 181
134 154 181
134 154 180
134 154 181
133 154 181
134 154 180
134 154 181
135 155 181
133 154 181
134 154 180
134 155 181
134 154 181
133 154 181
133 154 181
134 154 181
134 154 181
133 154 180
134 154 181
133 154 181
133 154 181
134 154 181
134 154 181
133 154 181
133 153 180
134 154 181
134 154 181
134 154 181
134 154 181
134 154 181
133 154 181
134 154 181
134 154 181
133 154 181
134 154 181
134 154 181
134 155 181
134 154 180
133 154 181
134 154 181
133 154 181
130 149 183
122 137 200
115 127 201
111 123 198
111 123 198
116 128 205
115 127 203
112 124 199
117 130 207
112 124 199
114 126 202
113 125 200
113 126 202
113 126 201
113 125 201
113 126 202
116 128 205
113 126 201
113 125 200
112 124 200
111 123 198
113 126 202
112 125 200
114 126 201
113 127 204
116 130 211
117 133 218
115 132 219
119 137 226
119 137 228
119 138 228
119 138 228
120 138 228
120 138 228
119 138 228
119 137 228
119 138 228
120 138 228
119 138 228
119 138 228
120 138 228
120 138 228
120 138 228
120 138 228
120 138 228
119 138 228
120 138 228
120 138 228
119 138 228
120 138 228
120 138 228
120 138 228
120 138 228
119 138 228
120 138 228
119 137 228
119 137 228
120 138 228
119 138 228
119 138 228
120 138 228
119 138 228
119 138 228
119 137 228
119 137 228
119 138 228
120 138 228
120 138 228
119 138 228
120 138 228
119 138 228
120 138 228
119 138 228
120 138 228
119 138 228
119 138 228
119 138 228
119 138 228
119 138 228
119 138 228
120 138 228
119 138 228
119 137 228
120 138 228
120 138 228
119 138 228
119 138 228
120 138 227
119 136 224
118 135 224
119 136 224
118 134 220
117 133 218
116 132 216
116 132 214
115 129 209
114 127 206
112 125 202
114 127 204
113 126 202
117 129 207
113 125 201
112 124 199
116 128 204
114 126 202
112 124 200
111 122 196
106 119 192
110 123 197
115 127 203
116 128 205
112 124 199
112 124 200
111 124 199
108 120 193
111 124 199
112 125 200
109 122 197
115 127 202
116 128 205
112 124 200
114 126 202
114 127 203
116 128 205
110 122 196
114 127 203
109 122 196
112 125 202
113 125 199
108 121 194
109 122 196
112 124 199
116 129 206
111 124 198
115 127 202
114 126 202
118 130 207
110 122 197
113 125 201
111 123 198
113 125 201
109 122 197
110 123 198
115 127 204
113 125 201
111 124 200
113 125 200
113 125 200
115 128 205
115 128 204
118 133 194
130 148 188
134 154 180
134 154 181
133 154 181
133 154 181
133 154 181
133 154 181
134 154 180
133 153 180
134 154 181
134 155 181
135 155 181
135 155 181
134 154 181
134 155 181
134 154 181
133 154 181
134 154 181
134 154 181
133 154 181
134 154 181
134 154 181
133 154 180
134 154 181
133 154 180
134 154 181
134 154 181
134 154 181
133 154 181
133 154 180
133 154 181
133 154 181
134 154 181
134 154 181
134 154 181
134 154 181
134 154 181
133 154 181
134 154 181
133 154 181
134 154 181
134 154 181
134 154 181
135 155 181
135 155 181
134 154 181
134 154 181
134 154 181
134 154 181
134 154 181
133 154 181
134 154 180
133 154 181
134 154 181
134 154 181
133 154 181
133 154 181
134 154 181
134 154 181
134 154 181
134 154 181
134 154 181
134 154 181
134 154 181
133 154 181
133 154 181
134 154 181
134 154 181
134 154 181
134 154 181
134 154 181
134 154 181
134 154 181
135 155 181
134 154 181
133 154 180
133 154 181
134 154 181
134 154 181
133 154 181
134 154 181
134 154 181
134 154 181
133 154 180
133 154 181
133 154 181
134 154 181
134 154 181
135 155 181
133 154 181
135 155 181
133 154 181
133 154 181
134 154 181
134 154 181
134 154 181
134 154 181
133 154 181
133 154 181
134 154 181
133 154 181
134 154 181
134 154 181
133 154 181
134 154 181
133 154 181
134 154 181
134 154 180
134 154 181
135 155 181
134 154 181
134 154 181
133 154 181
134 154 181
134 154 181
133 154 181
134 154 181
134 154 181
134 154 181
134 154 181
133 154 181
134 154 181
134 154 181
134 154 181
133 153 180
134 154 181
134 154 181
134 154 181
134 154 181
134 154 181
133 154 181
133 154 181
133 154 181
134 154 181
133 154 181
134 154 181
133 154 181
134 154 181
134 154 181
134 154 181
135 155 181
133 154 181
133 154 181
133 154 181
133 154 180
133 154 181
135 155 181
133 154 181
134 154 181
133 154 181
133 154 181
134 154 181
134 154 181
135 155 181
133 154 181
134 154 181
132 153 181
133 154 181
133 154 181
134 154 181
134 154 181
134 154 181
134 154 181
133 154 181
134 154 181
134 154 181
133 154 181
134 154 181
134 154 181
134 154 181
134 154 181
134 154 181
134 154 181
134 154 181
134 154 181
133 154 181
135 155 181
134 154 180
134 154 181
134 154 181
134 154 181
134 154 181
134 154 181
134 154 181
134 154 181
133 154 181
134 154 181
134 154 181
133 154 181
133 154 181
134 154 181
133 154 181
134 154 181
133 154 181
134 154 181
133 154 181
134 154 181
133 154 181
134 154 181
133 154 181
134 154 181
134 154 180
134 154 181
134 154 181
134 154 181
135 155 181
134 154 181
134 154 181
134 154 181
134 154 181
135 155 181
133 154 180
134 154 181
133 154 181
134 154 181
135 155 181
135 155 181
134 154 181
133 153 180
133 154 181
133 154 181
133 154 181
135 155 181
134 154 181
134 154 181
133 154 181
135 155 181
133 154 181
133 154 180
134 154 181
134 154 181
134 154 181
133 154 181
134 154 181
135 155 181
135 155 181
134 154 180
133 154 181
134 154 181
133 154 181
133 154 181
133 154 181
134 154 181
133 154 180
134 154 181
133 154 181
134 154 181
134 154 181
134 154 181
130 149 183
117 132 191
112 125 200
111 123 198
112 124 199
110 123 198
110 123 198
114 126 203
117 129 206
115 128 204
114 126 202
111 124 199
113 125 201
115 127 204
114 126 203
111 124 199
112 125 200
112 124 198
112 125 201
112 125 201
114 126 201
113 125 201
112 124 198
111 123 197
118 130 207
111 123 197
116 129 206
114 127 205
117 132 216
117 133 219
119 136 224
119 137 228
119 138 228
119 137 228
120 138 228
120 138 228
119 138 228
121 139 228
120 138 228
119 138 228
120 138 228
119 138 228
120 138 228
119 138 228
120 138 228
120 138 228
120 138 228
120 138 228
119 138 228
119 138 228
119 137 228
120 138 228
120 138 228
120 138 228
121 138 228
120 138 228
120 138 228
119 138 228
119 138 228
119 138 228
120 138 228
119 137 228
119 138 228
120 138 228
120 138 228
120 138 228
120 138 228
120 138 228
120 138 228
119 137 228
120 138 228
119 138 228
120 138 228
120 138 228
120 138 228
120 138 228
120 138 228
120 138 228
119 137 228
120 138 228
119 138 228
118 136 226
118 136 225
120 137 226
117 134 219
116 132 215
117 133 217
117 131 212
117 131 214
114 128 207
109 122 199
111 125 202
109 122 197
114 126 202
113 125 201
112 124 200
111 124 199
112 124 198
112 124 199
116 129 206
114 126 202
110 122 196
114 126 203
113 126 202
115 127 202
115 127 204
111 123 197
110 122 196
116 129 206
113 125 200
113 125 200
111 124 199
113 126 202
115 127 203
113 125 202
116 129 206
110 123 198
110 122 195
112 125 201
114 126 201
113 125 200
114 127 204
113 125 201
109 122 196
115 127 202
115 128 204
110 123 197
110 123 198
112 124 200
113 125 200
113 125 201
114 126 202
114 126 202
113 125 201
111 123 198
111 123 197
113 126 201
110 122 196
114 126 203
111 124 199
111 123 198
115 127 204
115 128 204
115 127 203
110 122 196
113 125 200
116 128 204
119 131 209
114 126 202
114 126 202
116 132 192
131 150 183
134 154 181
133 154 181
133 154 181
134 154 181
134 154 181
133 154 181
134 154 181
134 155 181
133 154 181
133 154 180
134 154 181
133 154 181
134 154 181
133 154 181
134 154 181
134 154 181
134 154 181
134 154 181
134 154 181
134 154 181
134 154 181
134 154 181
133 154 181
134 154 181
135 155 181
135 155 181
135 155 181
134 154 181
133 154 181
135 155 181
133 154 181
133 154 181
132 153 180
134 154 181
133 154 181
134 154 181
134 154 181
133 154 181
134 155 181
133 154 181
134 154 181
134 154 181
134 154 181
133 154 180
134 154 181
134 154 181
135 155 181
135 155 181
134 154 181
133 154 181
134 154 181
133 154 181
134 154 181
133 154 181
133 154 181
134 154 181
133 154 181
133 154 181
134 154 181
133 154 181
133 154 181
133 154 180
134 154 180
134 154 181
135 155 181
133 154 181
133 154 181
133 154 181
134 154 180
134 154 181
134 155 181
134 154 181
134 154 181
133 154 181
134 154 181
134 154 181
134 154 181
134 154 181
134 154 181
134 154 181
133 154 181
133 153 180
134 154 181
134 154 181
133 154 181
134 154 181
133 154 181
134 154 181
133 154 181
133 154 181
134 154 181
133 154 181
133 154 181
134 154 181
133 154 181
134 154 181
134 154 181
133 154 181
134 154 181
133 154 181
133 154 181
133 154 181
134 154 181
134 154 181
134 154 181
133 154 181
134 154 181
135 155 181
133 154 181
133 154 181
134 154 181
134 154 181
134 154 180
134 154 181
134 154 181
135 155 181
134 154 181
132 153 181
134 154 181
134 154 181
133 154 180
134 154 181
134 154 181
134 154 181
133 154 181
133 154 181
134 154 181
134 154 181
134 154 181
134 154 181
134 154 181
133 154 181
133 154 181
134 154 181
134 154 181
133 154 181
134 154 181
134 154 181
134 154 181
133 154 181
133 154 181
134 154 181
133 154 181
134 154 181
133 154 181
134 154 181
134 154 181
134 154 181
133 154 181
134 154 181
134 154 181
134 154 181
134 154 181
134 154 181
134 154 181
133 154 181
133 154 181
134 154 181
135 154 180
134 154 181
134 154 181
134 154 181
134 154 180
133 154 181
134 154 181
135 155 181
135 155 181
134 154 181
133 154 181
134 154 181
134 154 181
134 154 181
134 154 181
134 154 181
134 154 181
135 155 181
134 154 181
133 153 180
134 154 181
134 154 181
134 155 181
134 154 181
134 154 181
134 154 181
133 154 181
134 154 181
133 154 181
133 154 181
134 154 181
134 154 181
134 155 181
133 154 181
134 154 181
134 154 181
133 154 181
134 154 181
133 154 180
134 154 181
134 154 181
133 154 181
134 154 181
134 154 181
134 154 181
133 154 181
134 154 181
133 154 181
134 154 181
135 155 181
133 154 181
133 154 181
135 155 181
134 154 181
134 154 181
134 154 181
134 154 181
134 154 181
134 154 181
133 154 181
133 154 181
133 154 181
133 154 181
133 154 180
134 154 181
132 153 181
134 154 181
134 154 181
134 154 181
133 154 181
134 154 181
134 154 181
135 155 181
132 153 180
133 154 181
133 153 180
134 154 180
133 154 181
134 154 181
133 154 181
134 154 181
133 154 181
134 154 181
134 154 181
134 154 181
133 154 181
134 154 181
133 154 181
134 154 181
134 154 181
131 150 184
120 137 186
115 127 202
113 125 200
109 121 195
117 129 205
111 123 198
115 127 203
113 125 200
108 121 195
112 124 198
109 121 195
112 124 199
113 126 202
111 123 198
115 127 203
116 128 203
114 127 202
112 125 201
115 126 202
115 128 205
113 126 201
113 125 201
111 123 197
114 126 202
111 123 197
112 125 200
111 123 198
115 128 204
115 128 207
117 131 212
116 131 215
118 134 220
119 137 226
119 138 228
120 138 228
120 138 228
119 138 228
120 138 228
120 138 228
119 138 228
120 138 228
119 138 228
120 138 228
119 138 228
119 137 228
120 138 228
120 138 228
120 138 228
120 138 228
119 138 228
120 138 228
120 138 228
119 138 228
120 138 228
120 138 228
119 138 228
119 137 228
120 138 228
120 138 228
119 138 228
119 137 228
120 138 228
120 138 228
120 138 228
119 138 228
119 138 228
119 138 228
120 138 228
119 138 228
119 138 228
120 138 228
119 138 228
118 137 227
119 137 227
119 136 225
121 138 226
117 133 218
119 135 221
117 132 216
116 131 214
115 130 211
116 129 207
117 131 211
114 127 205
117 129 206
109 121 195
113 125 200
110 123 197
115 127 204
112 124 200
113 125 199
113 125 200
111 123 198
112 124 199
116 128 204
115 127 202
111 123 198
117 129 206
109 122 195
111 124 200
115 127 204
114 126 201
113 125 201
118 130 207
111 123 198
112 125 201
114 126 202
116 128 204
111 123 198
112 124 200
113 125 201
112 125 200
109 121 195
106 118 190
119 131 209
113 125 200
111 123 198
112 124 200
117 129 205
115 127 204
116 128 206
116 128 205
109 121 194
107 119 192
109 122 196
116 129 206
111 123 198
112 124 198
114 126 202
117 129 207
109 122 196
113 126 202
117 129 205
109 122 196
113 125 201
112 124 200
111 123 197
111 123 198
109 122 196
115 127 204
111 123 198
112 124 200
114 127 203
115 127 204
112 124 200
118 130 207
114 126 202
111 123 198
115 128 204
119 134 196
131 150 189
133 154 181
134 155 181
134 154 181
134 154 181
133 154 181
134 154 181
134 154 181
134 154 181
134 154 181
133 154 181
134 154 181
134 154 181
134 154 181
133 154 181
134 154 181
134 154 181
133 154 180
134 154 181
134 154 181
134 154 181
133 154 181
133 154 181
134 154 181
134 154 180
133 154 181
133 154 180
134 154 181
134 154 181
134 154 181
133 153 180
134 154 181
134 154 181
134 154 181
134 154 181
134 154 181
133 154 180
134 154 181
134 154 181
134 154 181
134 154 181
134 154 181
133 154 180
134 154 181
134 154 181
134 155 181
134 154 181
133 154 181
134 154 181
132 153 180
132 153 181
134 154 181
133 154 181
133 154 181
133 154 181
134 154 181
133 154 181
133 154 181
134 154 181
134 154 181
134 154 181
135 155 181
132 153 180
134 154 181
134 154 181
134 154 181
134 154 181
134 154 181
134 154 181
133 154 181
133 154 181
133 154 180
134 154 181
134 154 181
134 154 181
134 154 181
133 154 181
134 154 181
134 154 181
134 154 181
134 154 181
134 154 181
133 154 181
134 154 181
133 154 181
133 154 181
133 154 181
133 154 181
133 154 181
134 154 180
134 154 181
133 154 181
133 154 181
134 154 181
134 154 181
133 154 181
134 154 181
134 154 181
134 154 181
134 154 181
135 155 181
134 154 181
134 154 181
134 154 181
133 154 181
133 154 181
134 154 181
134 154 181
134 154 181
134 154 181
134 155 181
133 154 181
133 154 180
134 154 181
134 154 181
133 154 181
135 155 181
133 154 181
133 154 181
134 154 181
134 154 181
134 154 181
134 154 181
133 154 180
133 154 181
134 154 181
134 154 181
133 154 181
134 154 181
134 154 181
134 154 180
134 154 181
134 155 181
134 154 181
134 154 181
133 154 181
133 154 180
134 154 181
133 154 181
133 154 181
134 155 181
134 154 181
134 155 181
134 154 181
132 153 181
134 154 181
134 154 181
134 154 181
134 154 181
134 154 181
134 154 181
134 154 181
134 154 181
134 154 181
134 154 181
134 154 181
134 154 181
133 154 181
133 154 181
134 154 181
133 154 181
134 154 180
133 154 181
133 154 181
134 154 181
134 154 181
133 154 181
134 154 181
134 154 181
133 154 181
133 154 181
133 154 181
134 154 181
134 154 181
134 154 181
134 154 181
134 154 181
133 154 181
134 154 181
134 154 181
133 154 181
134 154 181
134 154 181
134 154 181
134 154 181
133 154 181
134 154 181
133 154 181
133 154 181
133 154 181
134 154 181
134 154 181
133 154 181
134 154 181
134 154 181
133 154 181
135 155 181
134 154 181
133 154 180
133 154 181
133 154 181
133 154 181
134 154 181
134 154 181
134 154 181
134 154 181
134 154 181
134 154 181
134 154 181
133 154 181
134 154 181
133 154 181
134 154 181
134 154 181
133 154 181
133 154 181
134 154 181
134 154 181
134 154 181
134 154 181
133 154 181
134 154 181
134 154 181
134 154 181
133 154 181
134 154 181
134 154 181
135 155 181
133 154 181
133 154 181
134 154 181
134 154 181
133 154 181
133 154 181
133 154 181
134 154 181
134 154 181
134 154 181
133 153 180
133 154 181
133 154 181
134 154 181
133 154 181
134 154 181
134 154 181
134 154 181
134 154 181
134 154 181
133 153 180
133 152 183
128 144 190
114 127 201
114 127 203
110 122 197
118 130 207
109 121 195
114 126 201
112 125 200
118 130 207
114 126 201
111 123 198
115 127 202
114 126 202
118 131 210
115 127 204
109 122 196
111 123 198
111 124 198
111 123 198
114 127 203
114 127 203
114 126 203
111 124 199
113 125 199
110 122 196
115 127 204
112 124 198
114 126 201
110 123 197
113 126 202
113 126 202
115 129 209
118 133 216
117 133 219
119 137 226
119 138 228
119 138 228
120 138 228
119 138 228
119 138 228
119 138 228
120 138 228
120 138 228
120 138 228
120 138 228
120 138 228
120 138 228
120 138 228
120 138 228
119 138 228
120 138 228
119 138 228
119 138 228
120 138 228
119 138 228
120 138 228
118 137 228
120 138 228
119 138 228
119 138 228
119 138 228
119 137 228
119 138 228
120 138 228
119 138 228
120 138 228
120 138 228
118 136 225
119 136 224
117 135 223
117 134 221
119 135 220
119 134 220
119 134 218
113 128 208
113 127 205
118 131 211
114 127 205
111 125 201
114 126 203
113 126 203
112 124 199
116 128 205
111 123 198
110 122 197
115 127 203
116 128 204
116 128 205
116 128 204
112 125 200
115 127 203
113 125 200
113 125 201
116 128 205
114 126 201
113 125 201
118 130 207
109 122 196
115 127 204
113 125 201
113 125 200
115 127 204
114 126 202
115 128 204
111 123 198
108 121 195
114 126 203
114 126 201
108 121 195
116 128 205
114 126 202
116 128 203
112 124 199
112 124 200
117 129 206
108 121 195
115 128 204
112 125 201
113 126 202
115 127 204
111 124 199
114 126 202
110 122 197
108 121 195
112 124 199
112 124 199
111 123 197
109 121 195
109 121 195
115 127 204
110 122 197
113 126 202
112 124 200
114 126 202
112 125 200
113 125 199
108 120 194
116 128 205
113 126 202
110 122 197
105 117 189
114 126 201
112 124 199
114 126 202
108 120 194
113 125 199
113 125 201
113 125 201
112 124 199
121 136 195
128 147 185
135 155 181
134 154 181
133 154 180
134 154 181
134 155 181
134 154 181
132 153 180
135 155 181
133 154 180
134 154 181
134 154 181
134 154 181
134 154 181
134 154 181
134 154 181
133 154 181
133 154 181
134 155 181
134 154 181
134 154 181
134 154 181
133 154 181
134 154 181
134 154 180
134 154 181
134 154 181
134 154 181
133 154 181
133 154 181
134 154 181
133 154 180
135 155 181
133 154 181
134 154 181
134 154 181
133 154 181
135 155 181
134 154 181
133 153 180
134 154 181
134 154 181
135 155 181
134 154 181
133 154 181
133 154 181
133 154 181
134 154 181
134 154 180
134 154 181
133 154 181
134 154 181
134 154 181
134 154 181
134 154 181
133 154 181
134 154 181
134 154 180
133 154 180
134 154 181
134 154 181
134 154 181
134 154 181
134 155 181
135 155 181
132 153 181
133 154 181
134 154 181
134 154 181
134 154 181
135 154 180
133 154 181
134 154 181
133 154 181
133 154 181
134 154 181
134 154 181
134 154 181
134 154 181
134 154 181
134 154 181
134 154 181
134 155 181
134 154 181
134 154 181
133 154 181
134 154 181
134 154 181
134 154 181
134 154 181
133 154 181
134 154 180
133 154 181
134 154 181
134 154 181
133 154 181
133 154 181
134 154 181
134 154 181
134 154 180
134 154 181
133 154 181
134 154 181
135 155 181
134 154 181
134 154 181
134 154 181
134 154 181
134 155 181
133 154 181
133 154 181
134 154 181
134 154 181
134 154 181
134 154 181
133 154 181
135 155 181
134 154 181
133 154 181
132 153 180
134 154 181
135 155 181
134 154 181
134 154 181
133 154 181
133 154 181
133 154 181
134 154 181
134 154 181
134 154 181
134 154 181
134 154 181
134 154 181
134 154 181
134 154 181
134 154 181
134 155 181
133 154 181
134 154 181
133 154 181
133 154 181
133 154 181
134 154 181
134 155 181
134 154 180
134 154 181
134 154 181
135 155 181
133 154 181
133 154 181
133 154 181
133 154 181
135 155 181
133 153 180
135 155 181
134 154 181
135 155 181
133 154 181
134 154 181
134 154 180
135 154 180
134 155 181
134 154 181
135 155 181
134 155 181
134 154 181
134 154 181
133 154 181
134 154 181
133 154 181
133 154 181
134 154 181
133 154 181
134 154 181
133 154 181
133 154 181
134 154 181
134 155 181
133 154 181
134 154 181
134 154 181
134 154 181
133 154 181
134 154 181
135 155 181
133 154 180
134 154 181
134 154 181
133 154 181
133 154 181
135 155 181
134 154 181
134 154 181
133 154 181
133 154 181
134 155 181
134 154 181
133 154 181
134 154 181
134 154 181
133 154 181
134 154 181
134 154 181
134 154 181
134 154 181
134 154 181
134 154 181
134 154 181
134 154 181
133 154 181
133 154 181
133 154 181
133 154 181
134 154 181
135 155 181
135 155 181
133 154 181
133 154 181
133 154 181
133 154 181
134 154 181
134 154 181
134 154 181
134 155 181
134 154 181
133 154 181
134 154 181
133 154 181
134 154 181
133 154 181
133 154 181
133 154 180
134 154 181
134 154 181
134 154 181
133 154 181
133 154 181
134 154 181
134 154 181
133 154 180
133 154 181
134 154 181
133 154 181
134 154 181
133 154 181
133 154 181
134 155 181
134 154 181
134 154 181
133 153 182
121 137 189
114 128 197
111 124 198
113 125 200
112 125 200
112 125 201
110 122 197
115 127 203
113 125 200
117 129 205
105 117 189
114 127 204
114 127 202
112 125 200
112 124 200
109 122 197
110 122 197
114 126 201
114 126 202
110 123 199
113 125 200
114 126 202
117 129 206
112 124 200
112 125 200
108 121 195
114 127 204
117 129 206
111 123 198
111 123 198
110 122 196
113 125 200
115 127 204
113 126 204
116 130 211
117 133 217
120 137 226
119 137 227
119 138 228
119 137 228
120 138 228
120 138 228
120 138 228
120 138 228
119 138 228
119 138 228
119 138 228
119 138 228
120 138 228
119 138 228
119 138 228
120 138 228
119 138 228
120 138 228
119 138 228
120 138 228
120 138 228
120 138 228
120 138 228
120 138 228
119 137 227
120 137 227
119 136 225
118 135 223
118 135 223
115 131 214
117 133 216
115 129 209
115 130 212
115 129 209
115 128 207
111 124 201
114 126 202
113 126 202
113 125 201
113 125 201
113 126 201
114 126 202
115 127 204
113 125 200
114 126 201
107 120 193
112 124 199
111 123 198
114 126 201
112 124 199
116 128 205
111 123 197
115 127 203
111 124 198
113 125 200
112 124 200
110 122 196
115 128 205
112 124 199
111 124 199
117 129 207
115 128 205
112 124 200
117 129 205
111 123 199
115 128 205
116 128 204
109 122 198
107 120 193
113 125 201
113 125 200
116 129 206
113 125 200
109 121 196
116 129 205
112 125 201
114 126 201
115 127 204
116 129 206
109 121 194
114 126 200
113 125 201
113 126 202
113 126 201
116 128 204
111 123 198
114 126 201
111 123 198
115 127 204
115 127 202
108 121 194
110 122 196
110 123 198
111 124 198
114 126 203
112 125 200
112 124 200
109 121 195
111 124 199
117 129 206
119 130 207
114 127 204
117 129 207
112 124 200
111 123 199
110 123 197
109 122 197
114 126 202
114 126 201
113 126 202
114 126 202
114 127 203
114 127 203
120 134 195
131 151 184
133 154 181
133 154 181
132 153 180
133 154 181
133 153 180
132 153 180
133 154 181
134 154 181
134 154 181
133 154 180
134 155 181
133 154 181
134 154 181
133 154 180
132 153 180
134 154 181
134 154 181
134 154 181
133 154 181
134 154 181
133 154 181
134 154 181
134 154 181
133 154 181
135 155 181
134 154 181
134 154 181
134 154 181
134 154 180
133 153 180
132 153 181
133 154 181
134 154 181
133 154 181
133 153 180
134 154 181
133 154 181
134 154 181
134 154 181
134 154 181
134 154 181
134 154 181
133 154 181
134 154 181
133 154 181
134 154 180
135 155 181
134 154 181
134 154 181
134 154 181
133 154 181
133 154 181
133 154 181
133 153 180
134 154 181
133 154 181
134 154 181
134 154 181
135 155 181
134 154 181
135 155 181
133 154 181
133 154 181
134 154 181
133 153 180
134 154 181
133 154 181
134 154 181
133 154 181
133 154 181
135 155 181
135 155 181
134 154 181
133 154 181
133 154 181
133 154 181
133 154 181
134 154 181
133 154 181
134 154 181
133 154 181
133 154 181
134 154 181
134 154 181
133 154 181
134 154 181
134 154 181
133 154 181
133 154 181
134 154 181
134 154 181
134 154 181
133 154 181
134 154 181
135 155 181
134 154 181
133 154 181
134 155 181
134 154 181
134 154 181
134 154 181
134 154 181
134 154 181
135 155 181
133 154 181
134 154 181
133 154 181
134 154 181
133 154 181
133 153 180
133 154 181
133 154 181
133 154 181
134 154 181
134 154 181
133 154 181
133 154 181
134 154 181
134 154 181
134 154 181
133 154 180
134 154 181
135 155 181
134 154 181
133 154 181
134 154 181
133 154 181
134 154 181
135 155 181
133 154 181
134 154 181
134 154 181
133 153 180
134 154 181
133 154 181
133 154 181
133 154 180
133 154 181
133 154 181
133 154 181
134 154 181
134 154 181
134 154 181
134 154 181
134 154 181
134 154 181
134 154 181
134 154 181
134 154 181
134 154 181
133 154 181
133 154 181
134 154 181
133 154 181
134 154 181
134 154 181
133 154 181
134 154 181
133 154 181
134 154 181
135 155 181
133 154 181
134 154 181
133 154 181
134 154 181
133 154 181
133 154 181
134 154 181
134 154 180
133 154 181
134 154 181
134 154 180
134 154 181
134 154 181
134 154 181
134 154 181
134 154 181
133 154 181
133 154 181
134 154 181
133 154 181
134 154 181
133 154 181
133 154 181
133 154 181
134 154 181
133 154 181
133 154 181
133 154 181
134 154 181
135 155 181
134 154 181
134 154 181
134 154 181
133 154 180
135 155 181
133 154 181
133 154 181
134 155 181
134 154 181
134 154 181
133 154 180
134 154 181
135 155 181
134 155 181
134 154 181
133 154 181
135 155 181
134 154 181
134 154 181
133 154 181
133 154 181
133 154 181
134 154 181
133 154 181
134 154 181
133 154 181
134 154 181
133 154 181
133 154 181
134 154 181
134 154 180
133 154 181
133 154 181
134 154 181
133 154 181
135 155 181
133 154 180
134 154 181
133 154 181
133 153 180
134 154 181
133 154 181
133 154 181
134 154 181
133 154 181
134 154 181
135 155 181
134 154 181
134 154 181
134 154 181
133 154 180
133 154 181
134 154 181
133 154 181
134 154 181
134 154 180
133 154 181
132 151 181
125 143 185
113 126 198
115 128 205
115 127 204
114 126 203
112 125 201
115 127 204
110 122 196
111 123 198
117 129 206
114 126 202
110 123 198
112 124 199
112 124 199
111 123 198
111 123 198
107 120 194
114 126 202
113 125 201
113 125 201
115 127 203
112 124 200
113 125 200
115 127 203
115 126 201
113 125 201
111 124 199
114 127 203
112 125 200
111 123 199
114 126 201
112 125 200
115 127 204
115 128 204
112 124 199
113 126 202
112 126 204
119 134 218
119 136 223
120 137 226
120 137 227
120 138 228
120 138 228
120 138 228
119 138 228
120 138 228
120 138 228
119 138 228
119 138 228
120 138 228
120 138 228
119 137 228
119 138 228
119 137 227
120 138 228
119 136 225
120 137 226
121 137 224
118 134 219
119 134 219
117 132 215
116 130 210
116 130 211
113 126 203
116 129 209
113 126 204
111 123 198
112 125 201
115 127 204
114 126 201
115 127 203
115 127 204
112 124 199
111 123 198
111 123 198
115 127 204
114 126 201
118 130 207
114 126 202
111 123 199
115 128 204
114 127 204
109 122 196
115 127 203
111 123 198
111 124 199
112 124 199
112 124 200
114 126 202
115 127 204
113 125 200
110 123 198
113 125 200
113 125 201
116 128 205
114 126 202
113 125 200
116 129 206
114 126 202
110 122 196
112 125 200
115 127 204
115 127 203
110 123 197
114 126 203
114 126 203
111 123 198
113 125 201
114 127 203
115 127 203
111 123 197
113 125 200
110 122 197
115 127 205
115 127 204
111 123 198
113 125 201
113 125 200
113 125 200
112 124 200
109 121 195
109 122 198
112 124 198
114 126 203
113 125 201
113 126 201
110 122 196
113 125 201
113 124 199
119 130 207
112 125 200
112 125 201
113 126 202
117 129 205
115 127 202
115 127 202
114 126 202
109 122 195
111 123 198
109 121 196
113 126 202
112 124 198
115 127 204
113 125 200
112 124 199
116 129 206
114 126 202
113 125 201
109 121 196
116 130 193
128 146 185
133 154 181
134 154 181
135 155 181
134 154 181
134 154 180
134 154 181
133 153 180
133 154 181
134 154 181
133 153 180
134 154 181
134 154 181
134 154 181
134 154 181
133 153 179
133 154 180
133 154 180
134 154 181
133 154 181
133 154 181
132 152 180
134 154 181
135 155 181
133 154 180
134 154 181
133 154 181
134 154 181
134 154 181
133 154 181
133 154 181
133 154 180
133 154 181
133 154 181
133 154 181
133 154 181
133 154 181
134 154 181
133 154 181
133 154 181
133 154 181
133 154 181
133 154 181
132 153 180
134 154 181
133 154 181
134 154 181
133 154 181
134 154 181
134 154 181
133 154 181
135 155 181
133 154 181
133 154 181
134 155 181
134 154 181
133 154 181
134 154 181
134 154 181
134 154 181
134 154 181
134 154 181
134 154 181
134 154 181
134 154 181
133 154 181
134 154 181
134 155 181
133 154 181
134 154 181
134 154 181
134 154 181
134 154 181
134 154 181
134 154 181
134 154 181
134 154 181
134 154 181
134 155 181
133 154 180
133 154 181
135 155 181
134 154 181
133 154 181
133 154 181
134 154 181
134 154 181
133 154 181
133 154 181
133 154 181
133 154 181
135 155 181
134 154 181
135 155 181
133 154 181
134 154 181
134 154 181
133 154 181
133 154 181
135 155 181
135 155 181
133 154 181
134 154 181
133 153 180
133 154 181
134 154 181
135 155 181
133 154 181
134 154 181
134 154 181
134 154 181
134 154 181
134 154 181
134 154 181
135 155 181
133 153 180
133 154 181
135 155 181
133 154 181
134 154 181
134 154 181
134 154 181
133 154 181
133 154 181
133 154 181
134 154 181
133 154 181
133 154 181
134 154 181
134 154 181
134 154 181
133 154 181
133 154 181
134 154 181
133 154 181
134 154 181
133 154 180
134 154 181
134 154 181
132 153 181
134 154 181
133 154 181
133 153 180
134 154 181
133 154 181
134 154 181
134 154 181
135 155 181
133 154 181
134 154 181
133 154 181
134 154 181
134 154 181
134 155 181
134 154 181
134 154 181
134 154 181
133 154 181
134 154 181
133 154 181
134 154 181
133 154 181
135 155 181
134 154 181
133 154 181
133 154 181
134 155 181
135 155 181
134 154 181
134 154 181
134 154 181
133 154 181
134 154 181
135 155 181
133 154 181
134 154 181
134 154 181
134 154 181
134 154 181
134 154 181
134 154 181
135 154 180
134 154 181
133 154 181
133 154 181
133 154 181
134 154 181
134 154 181
134 154 181
133 154 181
133 154 181
134 154 181
134 154 181
134 154 181
134 154 181
134 154 181
134 154 181
134 154 181
133 154 181
133 154 181
133 154 181
133 154 180
134 154 181
134 154 181
135 155 181
133 154 180
134 154 181
134 154 181
134 154 181
134 154 180
134 154 181
133 154 181
133 154 181
134 154 181
132 153 180
134 154 181
134 154 181
134 154 181
134 154 181
135 155 181
134 154 181
134 154 181
133 154 181
134 154 180
134 154 181
134 154 181
133 154 181
134 154 181
134 154 181
134 154 181
133 154 181
133 153 180
134 154 181
133 154 181
134 154 181
132 153 181
134 154 181
133 154 181
134 154 181
133 154 181
133 154 181
134 154 181
133 154 181
133 153 180
133 154 180
134 154 181
133 154 181
133 154 181
133 154 181
134 154 183
128 146 190
116 130 198
115 127 203
110 123 197
114 126 202
112 124 200
113 125 202
113 125 200
110 123 197
113 126 202
112 124 198
109 122 196
111 123 199
109 121 195
112 124 199
113 125 200
117 129 206
109 121 196
110 122 196
118 130 207
113 126 202
115 127 203
110 123 197
111 123 196
112 125 200
114 127 205
119 131 207
116 127 203
113 124 199
112 124 200
114 126 201
115 127 203
112 124 200
111 124 199
111 123 199
111 123 197
111 123 197
114 127 203
113 127 204
116 130 211
119 134 219
118 135 222
119 136 224
120 138 228
120 138 228
120 138 228
120 138 227
120 138 228
119 137 226
118 136 224
117 134 220
118 135 221
118 134 220
114 130 213
114 129 210
115 129 209
114 128 206
114 127 206
112 125 200
117 129 207
113 125 199
110 122 197
113 125 199
113 126 201
109 121 194
115 127 203
114 126 202
107 120 193
111 123 198
111 123 198
105 117 189
114 126 202
112 124 200
111 123 198
112 125 201
114 126 202
116 128 205
112 124 200
111 124 199
114 126 202
113 125 201
115 127 204
114 127 203
115 127 204
111 123 196
113 125 201
112 125 200
116 128 204
115 127 202
112 125 200
114 126 202
109 121 195
112 124 200
113 125 200
113 125 200
113 125 200
110 122 196
111 123 198
111 123 197
114 126 201
112 124 198
109 122 195
110 122 196
111 123 198
110 122 196
114 127 202
110 122 196
116 128 204
113 126 202
109 122 197
111 123 198
110 123 197
112 125 202
112 124 199
112 124 199
112 124 198
113 126 202
114 126 201
114 126 202
110 123 198
108 120 193
116 128 204
110 123 199
112 124 199
111 123 197
116 129 206
110 122 197
114 126 200
109 122 196
113 125 200
112 124 199
116 128 204
108 121 195
113 125 199
114 126 202
110 123 198
115 127 204
115 127 205
112 125 200
109 122 197
111 123 199
110 122 196
114 126 202
113 125 200
113 125 201
111 123 199
111 123 198
109 122 197
113 125 200
115 130 192
132 151 187
133 154 181
134 154 180
134 154 181
134 154 180
133 153 180
134 154 181
133 154 181
134 154 181
134 154 181
133 153 180
134 154 180
134 154 181
134 154 181
133 154 181
134 154 181
135 155 181
134 154 181
134 154 181
133 154 180
133 154 181
133 154 181
134 154 181
133 154 181
134 154 181
133 153 180
133 154 180
134 154 181
134 154 181
134 154 181
134 154 181
133 154 181
133 154 180
133 154 180
134 154 181
133 154 181
134 154 181
133 154 181
134 154 181
134 154 181
134 154 181
134 154 181
134 154 180
134 154 181
133 154 181
135 155 181
134 154 181
134 154 181
134 154 181
134 154 181
134 154 181
134 155 181
134 154 181
134 155 181
134 154 181
134 154 181
133 154 180
133 154 181
134 154 181
134 154 181
134 154 181
135 155 181
133 154 181
134 154 181
134 154 181
134 154 181
133 154 181
133 154 181
133 154 181
134 154 181
134 154 181
134 154 181
134 154 181
134 154 181
133 154 181
134 154 181
133 154 181
134 154 181
134 154 181
134 154 181
135 155 181
134 154 181
134 154 181
133 154 181
134 154 181
133 154 181
133 154 181
133 154 181
134 154 181
133 154 181
133 154 181
133 154 181
134 154 181
134 154 181
134 154 181
134 154 181
134 154 181
134 154 181
133 154 181
134 154 181
134 154 181
133 154 181
133 154 181
134 155 181
133 154 181
134 154 181
134 154 181
134 154 181
134 154 181
134 154 181
133 154 181
134 154 181
135 155 181
134 154 180
133 154 181
133 154 181
134 154 181
133 154 181
134 154 181
135 155 181
133 154 181
133 154 181
134 154 181
133 154 181
134 155 181
133 154 181
133 154 181
134 154 181
134 154 181
134 155 181
133 154 181
134 154 181
134 154 181
133 154 181
134 154 181
134 154 181
134 154 181
134 154 181
133 154 181
134 154 181
133 154 181
133 154 181
134 154 181
134 154 181
133 154 181
134 154 181
134 154 181
134 154 181
133 154 181
134 154 181
134 154 181
134 154 181
133 154 181
134 154 181
134 154 181
133 154 181
134 154 181
134 154 181
134 154 181
133 154 181
133 154 181
133 154 180
134 154 181
133 154 181
133 154 181
134 154 181
134 154 181
134 154 181
133 154 181
134 154 181
133 154 181
134 154 181
134 154 181
133 154 181
134 154 181
134 154 181
134 154 181
134 154 181
134 154 181
134 154 181
133 154 181
134 154 181
133 154 181
134 154 181
134 154 181
135 155 181
134 154 181
134 155 181
135 155 181
135 155 181
134 155 181
133 154 181
133 154 181
134 154 181
133 154 180
134 154 181
133 154 181
134 154 181
134 154 181
134 154 181
134 154 180
133 154 181
134 154 181
134 154 181
134 154 181
134 154 181
134 154 181
135 155 181
134 154 181
135 155 181
133 154 181
134 154 181
134 154 181
135 155 181
133 154 180
134 154 181
134 154 181
134 154 181
133 154 181
134 154 181
133 154 181
134 154 181
133 154 181
134 154 181
134 154 181
133 154 180
134 154 181
133 154 181
134 154 181
133 154 181
134 154 181
134 154 181
134 154 181
135 155 181
134 154 181
134 154 181
134 154 181
133 154 181
135 155 181
134 154 181
133 154 181
133 154 181
134 154 181
133 153 180
134 154 181
134 154 181
134 154 181
134 155 181
134 154 181
132 153 181
126 144 184
111 126 190
111 123 198
114 127 203
112 124 199
110 123 198
107 120 193
111 123 198
112 124 200
110 122 196
115 127 203
115 127 203
110 123 198
114 126 202
111 123 198
117 129 207
111 124 199
112 124 199
114 127 203
113 125 200
116 129 206
113 125 200
113 125 201
112 124 199
113 125 201
113 125 200
114 126 202
116 129 206
114 126 202
111 124 198
112 124 199
111 123 198
114 126 201
112 124 200
112 124 200
113 125 201
112 125 200
115 127 203
112 124 199
112 125 200
112 125 202
117 131 212
118 133 217
117 132 216
117 134 221
116 132 217
117 133 217
117 132 217
114 128 209
111 126 206
118 131 211
111 124 201
118 131 210
111 124 199
113 125 200
110 123 197
114 126 202
112 124 200
113 125 200
112 125 200
116 128 205
119 131 209
116 128 206
117 129 206
114 126 202
113 125 200
112 125 200
111 123 198
113 126 201
112 124 198
112 124 200
112 125 201
110 122 196
112 124 200
114 127 202
111 124 198
111 124 200
110 123 198
111 123 198
113 125 201
116 128 204
116 128 205
106 118 191
113 125 201
115 127 202
109 121 195
116 128 205
112 123 198
109 122 197
110 122 196
115 127 203
112 125 200
109 121 194
111 124 199
115 127 204
111 123 197
109 122 196
112 125 200
116 128 204
115 128 204
112 124 199
113 125 201
113 125 201
109 122 196
109 121 195
112 124 200
112 125 201
117 129 206
115 127 204
112 125 200
117 129 206
116 128 205
110 123 198
109 121 195
114 126 202
116 128 205
115 127 202
112 124 199
109 121 194
108 120 193
112 124 199
113 125 201
112 125 200
111 123 198
110 122 196
112 124 200
111 124 200
115 127 203
113 125 201
116 128 205
113 125 200
110 123 197
107 119 192
111 123 197
112 124 199
108 120 194
116 129 206
113 126 202
117 129 206
115 127 204
109 121 195
116 128 204
113 125 199
115 127 204
112 124 199
112 124 199
111 123 198
111 124 198
112 124 199
120 134 194
129 148 182
132 153 180
133 153 180
133 154 180
134 154 181
133 153 180
134 154 180
132 153 180
132 152 179
133 154 180
133 153 180
133 153 179
133 153 180
134 154 181
133 154 181
133 154 180
134 154 181
134 154 181
133 154 181
132 153 180
133 153 180
134 154 181
134 154 181
134 154 181
134 154 181
134 154 181
133 154 181
133 154 181
134 154 181
133 154 180
132 153 179
134 154 181
133 154 181
133 153 180
135 155 181
134 154 181
133 154 181
134 154 181
133 154 181
134 154 181
133 154 181
134 154 181
133 154 181
134 154 181
134 154 181
133 154 181
133 154 180
133 153 180
134 154 181
134 154 181
134 154 181
134 154 181
133 154 181
133 154 180
134 154 181
133 154 180
135 155 181
133 153 180
134 154 180
134 154 181
134 154 181
134 154 181
134 154 181
133 154 181
134 154 181
134 154 181
134 154 181
133 154 181
134 154 181
133 154 181
133 154 181
135 155 181
133 154 181
134 155 181
134 154 181
134 154 181
133 153 180
134 154 181
134 154 181
134 154 181
133 154 181
134 155 181
134 154 181
134 154 181
134 154 181
133 154 181
134 154 181
134 154 181
134 154 181
134 154 181
133 154 181
134 154 181
134 154 181
133 154 181
133 154 181
134 154 181
132 153 180
134 154 181
134 154 181
134 154 181
134 154 181
134 154 181
134 154 181
133 154 181
134 154 181
134 154 181
134 154 181
133 154 181
134 154 181
134 154 181
134 154 181
134 154 181
133 154 181
134 154 180
135 155 181
133 154 181
133 154 181
134 154 181
133 154 180
133 154 181
134 154 181
134 154 181
134 154 181
134 154 181
133 154 181
133 154 181
134 154 181
134 154 181
133 154 181
134 154 181
134 154 181
134 154 181
133 154 181
133 154 180
134 154 181
133 154 181
133 154 181
134 154 181
135 155 181
133 154 180
133 154 181
133 154 181
134 154 181
133 154 181
135 155 181
134 154 181
133 154 181
134 155 181
134 154 181
134 154 181
134 154 181
134 154 180
133 154 181
133 154 181
134 154 181
134 154 181
135 155 181
134 154 181
135 155 181
134 154 181
133 154 181
133 154 181
134 155 181
134 154 181
134 154 181
134 154 181
134 154 181
134 154 181
134 154 181
133 154 180
134 154 180
135 155 181
134 154 181
133 154 181
134 154 181
134 154 181
134 154 181
133 154 181
134 154 181
134 154 181
134 154 181
134 154 181
134 154 181
134 155 181
133 154 181
134 154 181
133 154 181
134 154 181
133 154 181
133 154 181
134 154 181
135 155 181
134 154 181
134 154 181
134 154 181
133 154 181
134 154 181
134 154 181
133 154 181
134 155 181
134 154 181
133 154 181
134 154 181
134 155 181
133 154 181
133 154 181
134 154 181
133 154 180
134 154 181
134 154 181
134 154 181
133 154 180
133 154 181
134 154 181
134 154 181
134 154 181
134 154 181
134 155 181
133 154 181
133 154 181
134 154 181
134 154 181
133 154 181
135 155 181
135 155 181
133 154 181
133 154 181
134 154 180
134 154 181
134 154 181
133 154 181
134 154 181
134 154 181
134 154 181
134 154 181
134 154 181
133 154 181
134 154 181
134 154 180
134 154 181
134 154 181
133 153 180
133 154 181
134 154 181
133 154 181
134 154 181
133 154 181
133 154 181
133 154 181
134 154 181
126 144 184
114 128 192
114 126 201
113 125 200
114 126 201
113 125 201
115 127 204
111 124 199
118 131 209
112 124 199
109 121 194
116 128 205
112 125 201
107 119 193
110 122 196
113 125 201
113 126 202
112 125 200
111 123 199
115 127 204
113 126 201
109 121 194
111 124 198
116 128 205
116 128 205
112 125 200
110 122 196
109 121 195
113 125 201
111 124 199
114 126 203
110 122 196
112 125 200
113 126 202
115 127 202
114 127 203
111 124 198
111 124 200
115 127 203
115 127 203
116 128 204
110 122 197
111 124 199
109 122 198
112 125 202
116 129 207
112 124 200
113 126 202
116 128 205
113 125 200
108 121 194
114 126 202
112 125 200
112 125 200
117 129 206
108 121 194
114 126 202
113 125 201
108 121 195
116 128 204
116 129 206
112 124 200
111 123 197
113 125 201
112 125 200
112 124 200
114 126 201
112 125 200
113 125 200
117 129 206
111 124 200
107 120 193
112 125 202
113 125 200
112 124 198
115 128 205
113 125 202
113 125 201
114 126 202
115 127 202
110 123 198
112 124 199
111 123 198
115 127 204
110 122 196
112 125 200
114 126 201
115 127 202
114 126 201
111 123 198
113 126 202
111 124 198
114 127 204
111 123 198
113 125 200
110 122 196
115 128 205
113 125 200
111 123 198
113 125 201
115 127 203
113 125 201
115 127 204
113 125 200
111 124 199
113 125 201
112 124 199
118 130 207
114 126 202
113 125 201
114 127 203
118 130 207
114 126 200
113 125 200
115 127 202
113 125 200
113 125 201
113 125 200
110 123 197
108 121 194
113 126 202
110 123 198
118 130 206
114 126 201
111 123 198
113 126 202
112 125 200
116 128 205
114 126 201
112 124 199
110 122 197
111 124 199
109 122 196
115 127 204
111 123 197
108 120 194
113 125 200
112 125 200
113 125 200
109 122 196
110 122 196
112 124 198
114 126 203
114 126 202
113 126 202
111 123 198
112 124 199
110 122 196
114 126 201
122 137 198
128 146 188
133 154 181
133 153 180
133 153 179
134 154 181
133 154 181
133 153 180
133 153 180
134 154 181
134 154 181
133 154 181
133 153 179
134 154 181
133 154 180
133 154 181
134 154 181
134 154 181
133 154 181
133 154 181
134 154 180
134 154 181
134 154 181
133 154 181
134 154 181
134 154 181
134 154 181
133 154 181
133 154 181
134 154 181
134 154 181
133 154 181
133 154 181
133 154 181
134 154 181
133 154 181
134 154 181
133 154 181
133 154 181
134 154 181
134 154 181
134 154 181
134 154 181
134 154 181
134 154 181
133 154 181
134 154 181
134 154 181
134 154 181
133 153 180
133 154 181
134 154 181
133 154 181
134 154 181
134 155 181
134 154 181
133 154 181
134 154 181
134 154 181
133 154 181
134 154 181
134 154 181
134 155 181
135 155 181
134 154 181
133 154 181
134 154 181
133 154 181
134 154 181
133 154 181
134 154 181
135 155 181
134 154 181
134 154 181
134 154 181
134 154 181
134 154 181
134 154 181
134 154 181
134 154 181
134 154 181
134 154 181
134 154 181
134 154 181
134 154 181
134 154 181
134 154 181
135 155 181
134 154 181
134 154 181
133 154 181
134 154 181
134 154 181
134 154 181
134 154 180
133 154 181
133 154 181
133 154 181
133 154 181
133 154 181
134 154 181
134 154 180
134 154 181
133 154 181
134 154 180
133 154 181
133 154 181
134 154 181
134 154 181
134 154 180
134 154 181
134 154 181
134 155 181
133 154 181
134 154 181
134 154 181
134 154 181
134 154 181
135 155 181
133 154 181
133 154 181
134 154 181
133 154 181
134 154 181
134 154 181
134 154 181
134 154 180
134 155 181
134 154 181
134 154 181
134 154 181
133 154 181
134 154 181
133 154 181
134 154 181
134 154 181
133 154 181
132 153 181
134 154 181
134 154 181
134 154 180
133 154 181
134 154 181
133 154 181
134 154 181
133 154 181
133 154 180
133 154 181
133 154 181
133 154 181
134 154 181
134 154 181
134 154 181
133 154 181
133 154 181
134 154 181
135 155 181
134 154 181
134 154 181
133 154 181
133 154 181
134 154 181
133 154 181
133 153 180
134 154 181
134 154 181
134 154 181
134 154 181
133 154 181
133 154 181
134 154 181
134 154 181
135 155 181
134 154 181
134 154 181
133 154 181
134 154 181
134 154 181
133 154 181
133 154 181
133 154 181
135 155 181
134 154 181
133 154 181
133 154 181
134 154 181
135 155 181
134 154 181
134 154 181
134 154 181
134 154 181
134 155 181
134 154 181
133 154 181
133 154 181
133 154 181
133 154 181
134 154 181
134 154 181
133 154 181
133 154 181
134 154 181
134 154 181
134 154 181
134 154 181
134 154 181
134 154 181
134 154 181
134 154 181
133 154 181
133 154 181
133 154 181
133 154 181
134 154 181
134 154 181
134 154 181
134 154 181
134 154 181
135 155 181
134 154 181
134 154 181
134 154 181
134 154 181
134 154 181
133 154 181
134 154 181
134 154 181
134 153 179
134 154 181
134 154 181
134 154 181
134 154 181
133 154 181
134 154 181
134 154 180
135 155 181
134 154 180
133 154 181
134 154 181
134 154 181
133 154 181
134 154 181
133 154 181
135 155 181
132 153 181
133 154 180
132 153 180
134 154 181
133 154 181
133 153 180
133 154 181
122 140 185
121 135 201
113 126 202
111 123 199
112 124 199
109 122 196
114 126 202
118 130 207
111 123 198
111 123 197
112 124 200
114 126 202
118 130 207
114 126 202
115 128 204
111 123 198
116 128 205
115 127 203
111 124 198
116 128 204
113 126 202
114 126 203
114 126 202
110 123 197
113 125 201
117 129 205
113 125 201
111 124 199
105 118 192
118 130 208
110 122 196
109 122 197
109 121 195
115 127 203
112 124 199
109 122 196
112 124 200
112 124 198
118 130 208
116 128 205
111 124 199
113 125 200
117 130 207
114 126 202
114 126 202
112 124 199
112 124 199
110 122 196
115 127 203
114 126 202
113 125 199
110 122 196
116 129 206
114 126 201
115 127 204
114 127 203
112 124 200
111 123 198
110 123 198
113 124 199
112 124 199
113 125 201
113 126 202
115 127 204
112 124 199
112 124 199
112 124 199
112 124 199
112 123 197
114 126 202
115 127 204
113 125 201
113 126 202
110 122 197
109 121 195
112 125 200
109 122 197
111 123 197
113 125 200
113 125 201
114 126 201
109 121 195
111 123 198
115 127 202
113 126 202
112 124 199
110 123 199
107 119 192
110 122 196
113 125 199
113 125 201
111 123 198
115 127 202
113 126 201
112 125 200
114 126 201
115 127 203
109 122 195
111 124 199
112 125 201
112 124 200
111 124 199
113 125 201
115 127 203
112 125 200
109 122 195
114 127 203
117 129 206
107 119 193
116 129 205
113 126 202
111 123 198
111 123 197
112 124 200
113 126 201
113 124 199
112 124 199
115 127 203
113 125 200
110 122 197
115 127 204
111 123 199
111 123 199
113 125 201
114 126 202
114 126 202
114 126 202
112 124 199
109 121 196
109 122 196
112 124 200
113 125 200
112 124 200
111 124 200
110 123 198
113 126 201
111 123 198
113 125 201
111 124 199
114 126 203
113 125 201
112 124 200
112 124 200
106 119 192
112 124 198
112 125 200
109 121 195
111 123 198
109 122 196
119 133 196
127 146 183
133 153 180
133 153 180
134 154 181
134 154 181
133 153 180
133 153 180
133 154 180
134 154 181
133 153 180
134 154 181
132 153 180
133 154 180
134 155 181
133 154 181
133 154 181
133 154 181
133 154 181
134 154 181
135 155 181
134 154 180
133 153 180
134 154 181
134 154 181
133 154 181
134 154 180
132 153 180
134 154 181
133 153 180
134 154 181
133 154 180
133 154 181
134 155 181
134 155 181
134 154 181
133 154 180
134 154 181
134 155 181
134 154 180
134 154 181
134 154 181
134 154 181
134 154 181
134 154 181
133 154 180
135 155 181
134 154 181
134 154 181
134 154 180
134 154 181
133 154 181
134 154 181
134 154 181
133 154 181
133 154 181
134 154 181
134 154 181
134 154 181
133 154 181
134 154 180
133 154 181
134 154 181
133 154 181
134 154 181
133 154 181
134 154 181
133 153 180
134 154 181
133 154 181
134 154 181
134 154 181
134 154 180
133 154 181
133 154 181
134 154 181
134 154 181
134 154 181
135 155 181
134 154 181
134 154 181
135 155 181
134 155 181
133 154 181
135 155 181
133 154 180
133 154 181
133 154 181
134 154 181
133 154 181
134 155 181
134 154 181
133 154 181
134 154 181
132 153 180
134 154 181
133 154 181
134 154 181
135 155 181
134 154 181
134 154 181
134 154 181
134 154 181
134 154 181
134 154 181
133 154 181
134 154 181
133 154 181
133 154 181
134 154 181
133 154 181
134 154 181
133 154 181
134 154 181
133 154 180
135 155 181
133 154 181
133 154 181
134 154 181
134 154 181
134 154 181
134 154 181
133 154 181
134 155 181
134 154 181
134 154 181
133 154 181
134 154 181
133 154 181
134 154 181
133 154 181
134 154 181
134 154 181
134 154 181
134 154 181
133 154 181
133 154 181
133 154 181
134 154 181
134 154 181
133 154 181
134 154 181
133 154 181
133 154 181
133 154 181
134 154 181
134 154 181
133 154 181
134 154 181
134 154 181
134 154 181
133 154 181
134 154 181
135 155 181
133 154 180
134 154 181
134 154 181
134 154 181
134 154 181
133 154 181
134 154 181
133 154 181
134 154 181
133 154 181
133 154 181
134 154 181
135 155 181
134 154 181
134 154 181
134 154 181
133 154 181
134 154 181
134 154 181
133 154 181
133 154 181
134 154 181
134 154 181
134 154 181
133 154 181
133 154 181
134 154 181
133 154 181
133 154 181
134 155 181
133 154 181
135 155 181
133 154 181
134 154 181
134 154 181
134 154 181
133 154 181
134 154 180
133 154 181
134 154 181
135 155 181
134 154 181
134 154 181
134 154 181
134 154 181
133 154 181
134 154 181
134 154 181
134 154 181
134 154 181
133 154 181
134 154 181
134 154 181
134 154 181
133 154 181
134 154 181
134 154 181
133 154 181
135 155 181
134 154 181
134 154 181
134 154 181
134 154 180
133 153 180
134 154 181
134 154 181
134 154 181
133 154 181
134 154 181
134 154 181
132 153 181
133 154 181
133 154 181
133 153 180
134 154 181
133 154 181
133 153 180
134 154 181
134 154 181
133 154 181
134 155 181
134 154 180
134 154 181
133 153 180
133 154 180
134 154 181
134 154 181
133 154 181
133 154 181
133 154 180
135 155 181
133 154 181
133 154 181
134 154 181
134 154 181
133 154 180
133 153 180
127 145 184
116 131 194
116 129 205
114 126 202
117 129 207
111 123 199
111 124 199
113 124 200
115 128 205
112 124 199
108 121 195
117 129 206
113 125 201
112 124 199
112 125 201
115 127 204
111 123 197
115 128 204
113 125 200
116 129 206
109 121 194
109 122 196
111 123 198
113 126 202
110 122 196
110 122 198
117 129 206
108 120 193
113 125 200
113 125 200
108 121 195
115 127 202
113 125 201
114 126 202
112 124 199
116 128 205
114 126 202
115 128 205
119 132 211
111 123 197
115 127 205
114 126 203
112 125 200
110 122 197
114 127 203
118 130 207
110 122 197
116 127 204
112 124 199
113 125 201
110 123 198
107 120 194
112 124 198
113 125 202
113 125 200
111 123 197
112 124 199
113 125 201
114 126 202
115 128 204
116 127 202
111 123 196
114 127 204
112 124 199
110 123 199
113 125 201
111 123 198
114 126 201
113 126 201
111 124 199
113 125 201
113 125 202
108 120 192
116 127 203
108 120 194
114 126 202
109 122 196
114 126 202
110 122 196
112 125 201
113 125 200
112 125 200
115 127 203
107 120 194
116 128 205
112 124 199
113 126 201
114 125 200
113 125 199
111 123 198
112 125 201
110 122 197
114 127 204
110 123 197
110 123 197
113 125 200
117 129 207
110 122 196
108 120 194
111 124 200
109 121 196
116 128 204
112 124 200
111 123 198
118 130 208
110 122 197
111 123 199
109 122 196
109 121 195
111 123 199
111 123 198
113 125 200
116 128 204
112 125 200
114 126 202
108 121 195
109 121 195
114 126 202
116 128 205
114 126 202
114 127 204
114 127 204
115 127 204
109 121 195
112 124 199
113 125 200
110 123 198
112 124 200
110 121 195
107 120 193
111 124 199
110 122 197
112 124 199
112 125 200
111 123 198
114 126 202
111 124 199
114 126 201
112 125 201
114 126 202
112 124 198
116 128 205
111 124 199
113 125 201
112 124 199
111 123 198
112 125 200
107 119 193
109 122 196
121 136 197
129 148 184
133 153 180
133 154 181
134 154 181
133 154 181
133 154 181
133 154 180
132 153 179
133 154 180
133 154 180
134 154 181
134 154 181
133 153 180
134 154 181
133 154 180
134 154 181
133 153 180
134 154 180
133 154 180
133 154 180
134 154 181
134 154 181
133 154 181
133 153 180
133 154 180
134 154 181
134 154 181
134 154 181
134 154 181
133 154 180
134 154 181
133 153 180
133 153 179
133 153 180
133 153 180
134 154 181
134 154 181
133 154 181
134 154 181
133 154 181
133 154 181
133 154 181
134 154 180
133 154 181
134 154 181
134 154 181
134 154 181
133 154 181
133 154 181
133 153 180
134 154 181
133 154 181
133 154 180
134 154 181
133 153 180
134 154 181
133 153 180
133 153 179
134 154 181
134 154 181
134 154 180
133 154 181
134 154 181
133 154 181
134 154 181
134 154 181
134 154 181
134 154 181
133 154 181
132 153 180
133 154 181
134 154 181
134 154 181
133 154 181
134 154 181
134 154 181
134 154 181
133 154 181
133 154 181
133 154 181
134 154 181
134 154 181
135 155 181
133 154 180
134 154 181
134 154 181
134 154 181
133 154 181
134 154 181
134 154 181
133 154 181
135 155 181
134 154 181
133 154 181
133 154 181
134 154 181
134 154 181
134 154 181
134 154 181
133 154 181
134 154 181
135 155 181
134 154 181
133 154 181
133 154 181
133 154 181
135 155 181
134 154 181
134 154 180
133 154 181
133 153 180
133 154 181
134 154 181
133 154 181
134 154 181
133 154 181
133 154 181
133 154 181
134 154 181
134 154 181
134 154 181
134 154 181
135 155 181
134 154 181
134 154 181
134 154 181
134 154 181
133 154 181
134 154 181
134 154 181
133 154 181
133 154 181
134 154 181
133 154 181
133 154 181
134 154 181
134 154 181
133 154 181
134 154 181
134 154 181
133 154 181
134 154 181
133 154 181
133 154 181
133 154 181
134 154 180
134 154 181
133 154 181
134 154 181
133 154 181
134 154 181
134 154 181
133 154 181
133 154 181
133 154 181
134 154 181
134 155 181
134 154 181
134 154 181
134 154 181
134 155 181
134 154 181
134 154 181
134 154 181
134 154 181
132 153 180
134 154 181
134 154 181
133 154 181
134 154 181
134 155 181
133 154 181
133 154 181
134 154 181
134 154 181
133 154 181
133 154 181
133 154 181
133 154 181
133 154 181
134 154 181
133 154 181
134 154 181
134 154 181
134 154 181
133 154 181
133 154 181
133 154 181
133 154 180
134 154 181
134 154 181
134 154 181
135 155 181
134 154 181
134 154 181
134 154 181
134 154 181
133 154 181
134 154 181
134 154 181
133 154 181
133 154 181
134 155 181
134 154 181
133 154 181
133 154 181
133 154 181
134 154 181
134 154 181
133 154 181
134 154 181
134 154 181
133 154 180
134 154 181
133 154 181
133 154 181
134 154 181
133 154 181
134 154 181
133 154 181
133 154 181
134 154 181
133 154 181
134 154 181
133 154 181
133 154 181
134 154 180
134 154 181
134 154 181
133 154 181
134 154 181
133 154 180
134 154 181
134 154 181
134 154 181
134 154 181
133 154 181
133 154 181
133 154 180
133 154 181
133 154 180
134 154 181
134 154 181
134 154 180
134 154 181
134 154 180
133 154 180
132 153 180
134 154 181
133 154 181
127 146 181
121 136 196
111 124 199
113 125 201
113 126 203
109 121 195
110 123 199
109 122 196
114 126 202
110 123 197
111 123 197
111 124 198
112 124 200
110 122 196
111 124 199
114 126 202
111 123 198
116 128 205
115 127 203
110 123 197
113 125 201
113 125 200
111 123 199
111 123 198
109 122 196
115 127 202
110 122 196
108 120 194
112 125 200
112 124 199
116 128 205
112 124 199
111 123 197
111 124 199
113 125 201
113 125 200
113 126 203
110 123 197
115 127 204
117 129 206
111 124 198
114 127 203
113 126 201
115 127 203
110 122 196
116 128 205
108 120 193
117 129 206
111 123 198
112 124 198
112 125 199
113 125 201
115 127 202
115 127 204
115 127 204
109 122 196
114 126 201
107 119 191
110 123 198
112 123 197
114 126 202
114 126 202
113 125 200
111 124 199
111 123 197
111 123 198
114 126 201
111 124 199
110 122 196
113 125 200
109 121 195
112 124 199
121 133 212
110 122 197
113 125 200
114 126 203
112 125 200
113 126 202
113 125 201
111 123 198
111 124 199
110 123 198
110 123 197
113 126 202
114 126 202
115 128 205
115 127 204
112 125 201
112 124 199
105 117 190
112 124 198
111 123 197
119 131 209
116 128 205
110 122 196
116 129 207
112 124 199
112 124 198
115 127 203
113 125 201
111 123 197
118 130 208
110 122 197
112 125 200
115 127 203
114 126 202
112 124 200
111 123 197
110 122 197
110 123 198
111 123 198
112 124 200
114 126 203
114 127 205
111 123 198
114 126 201
107 119 192
112 124 199
115 127 204
110 122 197
112 125 201
114 126 202
113 125 199
111 124 199
113 125 200
114 126 203
112 124 199
112 123 198
113 125 201
111 123 197
112 125 201
113 125 201
116 128 204
110 123 196
110 123 198
113 125 201
112 124 199
113 125 201
116 128 204
112 124 199
114 126 202
114 126 202
108 120 194
113 125 200
111 123 197
112 124 200
112 124 199
113 126 201
110 122 196
113 128 190
130 148 186
134 154 180
133 154 181
133 154 181
133 154 180
133 154 180
133 154 181
134 154 181
133 154 180
134 154 180
134 154 181
134 154 181
134 154 181
133 153 180
133 154 181
133 153 180
133 153 180
134 154 180
133 153 180
133 154 180
134 154 181
134 154 181
132 153 180
133 154 181
133 154 181
133 153 180
133 153 180
133 154 180
134 154 181
134 154 181
134 154 180
134 154 181
134 154 181
134 154 181
134 154 181
133 154 180
134 154 181
133 154 181
134 154 181
133 154 181
134 154 181
133 154 181
133 153 180
133 154 181
133 154 180
134 154 181
134 154 181
134 154 181
134 154 181
134 154 181
134 154 181
133 153 180
133 154 181
134 154 180
133 154 181
134 154 181
134 154 181
133 154 181
134 154 181
134 154 181
135 155 181
135 155 181
134 154 181
133 154 181
133 154 181
134 154 181
134 154 181
134 154 181
134 154 181
133 154 181
134 154 180
135 155 181
134 154 181
134 154 181
134 154 181
133 154 181
134 154 181
133 153 180
134 154 181
135 155 181
133 154 181
133 154 181
134 154 181
133 154 180
133 154 181
133 154 181
133 154 181
134 154 181
133 154 181
134 154 181
133 154 181
134 154 181
134 154 181
134 154 180
134 154 181
134 154 181
133 154 181
134 154 181
134 154 181
133 154 181
133 154 180
133 154 181
134 154 181
133 154 181
134 154 181
133 154 181
133 154 180
134 154 181
134 154 181
134 154 181
133 154 181
133 153 180
133 154 181
134 154 181
134 154 181
134 154 181
134 154 181
133 154 180
134 154 181
133 154 181
134 154 181
134 154 181
134 154 181
134 154 181
135 155 181
133 154 181
133 154 181
134 154 181
134 154 181
134 154 181
132 153 181
134 154 181
133 154 181
134 154 181
133 154 181
134 154 181
134 154 181
133 154 181
134 154 181
134 154 181
133 154 181
134 154 180
135 155 181
134 154 181
134 155 181
134 154 181
133 154 181
134 154 181
134 154 181
134 154 181
134 154 181
134 154 181
133 154 181
134 154 181
133 154 181
133 154 181
134 154 181
134 154 181
134 154 181
133 154 181
133 154 181
134 154 181
134 154 181
134 154 181
134 154 180
135 155 181
133 154 181
133 153 180
134 154 181
133 154 181
134 154 181
134 154 181
134 154 181
133 154 181
134 154 181
133 154 181
134 154 181
134 154 181
134 154 181
134 154 181
134 154 181
134 154 181
134 154 181
134 154 181
134 154 181
134 154 181
133 154 181
133 154 181
133 154 181
135 155 181
133 153 180
133 154 180
134 154 181
133 154 180
133 154 181
134 154 181
133 154 181
134 154 181
134 154 181
133 154 181
134 154 181
134 154 181
133 154 181
134 154 181
134 154 181
134 154 181
134 154 181
135 155 181
133 154 181
134 154 181
135 155 181
134 154 181
134 154 180
134 154 181
133 154 181
133 154 180
134 154 180
134 154 181
134 154 181
134 154 181
135 155 181
133 154 181
134 154 181
132 153 180
134 154 181
133 154 181
134 154 181
133 153 180
133 153 180
133 154 181
134 154 181
134 154 181
134 154 181
133 154 180
133 154 180
135 155 181
134 154 181
134 154 181
134 154 181
133 154 181
134 154 180
134 154 181
134 154 181
133 153 180
134 154 181
133 154 180
135 155 181
133 154 181
133 154 181
134 154 181
130 150 184
119 135 193
110 122 194
112 124 198
109 122 198
110 122 196
117 129 206
116 128 205
111 123 197
114 126 202
110 122 197
111 123 197
112 125 201
113 125 202
114 126 202
113 125 200
115 127 203
112 125 201
115 127 203
113 126 202
113 126 202
113 125 200
113 126 202
113 125 201
108 120 193
107 120 193
110 123 198
116 128 204
109 121 195
109 122 196
113 125 200
111 123 198
109 122 196
114 126 202
117 129 206
110 122 197
114 126 202
117 129 206
110 122 197
110 123 198
111 124 200
111 123 197
110 122 197
114 127 204
111 123 197
114 126 202
112 124 198
113 125 200
111 124 199
115 127 202
110 123 198
114 127 203
110 122 196
109 121 194
110 122 196
114 127 203
113 125 200
112 125 200
114 127 204
111 124 200
113 126 202
110 122 197
114 126 202
113 125 201
110 122 197
111 123 197
113 125 200
111 123 198
104 117 190
116 128 204
114 126 202
113 125 200
110 122 196
113 126 202
113 126 201
116 129 206
110 122 195
109 122 197
110 123 198
110 122 196
111 123 198
113 126 201
110 122 196
111 124 198
111 123 196
112 124 199
112 125 200
115 127 204
112 124 198
113 125 202
115 127 202
116 128 204
114 127 203
116 128 204
111 123 197
109 122 195
112 124 200
113 125 201
110 123 198
113 125 201
110 123 197
107 119 193
109 121 196
113 125 200
109 121 194
111 123 197
116 128 204
110 122 197
113 125 201
110 123 197
114 126 201
110 122 196
112 123 199
113 126 202
115 127 204
113 125 200
113 125 200
108 121 195
117 129 206
109 122 196
113 126 201
115 127 202
114 126 202
115 127 204
114 126 202
113 125 200
114 126 202
113 126 202
112 124 200
114 126 203
112 124 200
110 122 197
112 125 201
115 127 205
105 117 189
116 129 206
111 124 200
114 126 203
115 128 204
111 123 198
116 128 205
110 122 197
109 121 195
117 129 206
111 123 197
106 118 191
115 127 203
108 121 195
110 123 197
115 130 192
128 146 187
133 153 180
134 154 181
133 153 180
132 152 179
133 153 180
132 153 179
134 154 181
134 154 181
134 154 181
133 154 181
133 153 180
133 154 180
133 153 180
135 155 181
134 154 181
134 154 181
134 154 181
134 154 180
133 153 180
134 154 180
133 154 181
133 154 181
133 153 180
134 154 180
133 153 180
134 154 180
133 154 181
134 154 181
135 155 181
133 154 181
133 154 180
133 154 180
133 154 181
134 154 180
133 154 180
133 154 181
133 154 181
134 154 181
133 154 181
134 154 181
134 154 181
134 154 181
134 154 181
133 154 180
134 154 181
133 154 180
134 154 181
134 154 181
134 154 181
134 154 181
133 154 181
135 155 181
134 154 181
134 154 180
134 154 181
133 153 180
134 154 181
134 154 181
133 154 181
134 154 181
133 154 180
134 154 181
134 154 180
133 154 180
134 154 180
133 154 181
133 154 181
133 154 181
134 154 181
134 154 181
134 154 181
134 154 181
134 154 181
133 154 181
133 154 181
134 155 181
132 153 180
133 154 181
134 154 181
134 154 181
134 154 181
135 155 181
134 154 181
134 154 181
134 154 181
134 154 181
135 155 181
133 153 180
133 154 181
134 154 181
133 154 181
134 154 181
134 154 181
134 154 181
134 154 181
134 154 181
134 154 181
134 154 181
134 154 181
133 154 181
133 154 181
134 154 181
134 154 181
133 153 180
133 154 181
133 154 181
134 154 181
134 154 181
133 154 181
134 154 181
134 154 181
134 154 181
133 154 181
134 155 181
135 155 181
134 154 181
133 154 181
133 153 180
133 154 181
134 154 181
134 154 181
134 154 181
135 155 181
134 154 181
134 154 181
135 155 181
134 154 181
134 154 181
135 155 181
134 154 181
134 154 181
134 154 181
134 154 181
134 154 181
133 154 181
134 154 181
134 154 181
134 154 181
134 154 181
134 154 181
133 154 181
133 154 181
133 153 180
134 154 181
134 154 181
135 155 181
133 154 181
134 154 181
134 154 181
134 154 181
133 154 181
134 154 181
134 154 181
133 154 181
134 154 181
135 155 181
134 154 181
133 154 181
134 154 181
134 155 181
134 154 181
134 154 181
134 154 181
133 153 180
134 154 181
134 154 181
133 154 181
134 154 181
134 154 181
133 154 181
134 154 181
133 154 181
134 154 181
134 154 181
134 154 181
134 154 181
134 154 181
133 154 181
134 154 181
134 154 181
134 154 181
133 154 181
133 154 181
134 154 181
134 154 181
134 154 181
134 154 181
134 154 181
134 154 181
134 154 181
134 154 181
133 154 181
134 154 181
134 154 181
133 154 181
134 154 181
134 154 181
134 154 181
134 154 181
134 154 181
133 154 181
134 154 181
134 154 181
134 154 181
134 154 181
134 154 181
133 154 181
133 154 181
134 154 181
134 154 181
134 154 181
134 154 181
133 154 181
133 154 181
133 153 180
134 154 181
134 154 181
134 154 180
134 155 181
135 155 181
134 154 181
134 154 180
133 154 181
134 154 181
134 154 181
135 155 181
132 153 180
135 155 181
134 154 181
134 154 181
134 154 181
133 154 181
134 155 181
134 154 181
133 154 181
134 154 180
133 153 180
132 153 179
133 153 180
134 154 181
134 154 181
134 155 181
134 154 181
134 154 181
133 154 180
134 154 181
133 153 180
133 154 181
134 154 181
129 149 183
124 140 195
113 125 200
109 122 196
109 121 196
110 123 197
117 130 207
113 125 202
114 126 203
113 126 202
111 123 197
114 126 201
112 125 201
106 118 190
111 123 199
113 125 201
112 125 201
112 124 199
112 125 201
112 124 199
114 126 201
111 124 199
113 126 202
114 126 201
113 125 200
113 125 200
113 125 200
115 127 202
110 123 198
109 122 197
110 122 197
110 122 196
110 122 196
113 126 201
112 124 200
112 125 201
115 127 203
115 127 204
112 124 198
110 122 197
114 127 203
110 122 197
116 128 205
111 123 198
114 126 201
112 124 200
116 129 206
113 125 200
114 126 203
113 125 201
117 129 207
117 130 207
114 126 201
114 126 200
106 119 191
112 125 200
113 125 200
107 119 192
115 127 203
113 126 201
114 126 201
111 124 199
117 129 206
111 124 198
114 126 202
110 122 196
112 125 200
113 125 199
111 124 199
111 122 196
111 123 198
113 125 202
108 120 195
113 125 199
116 128 204
114 126 202
112 125 200
113 125 201
112 124 199
116 128 206
114 126 200
115 127 203
117 129 207
114 126 201
114 127 203
112 124 199
110 123 198
112 124 199
109 121 196
114 126 202
112 124 198
114 126 203
112 125 201
112 125 201
113 126 202
110 122 197
110 121 195
110 123 198
116 128 204
114 126 203
111 124 199
111 123 199
110 123 197
114 127 204
109 121 194
116 129 206
113 125 200
112 125 200
119 131 210
110 122 196
116 128 204
113 125 200
113 125 201
112 124 199
113 126 202
116 129 206
109 122 196
114 126 202
112 124 199
110 123 198
113 125 201
110 122 195
113 125 201
111 123 198
115 128 204
110 122 197
111 124 199
111 123 198
116 128 205
113 125 201
114 126 202
110 123 198
112 124 200
118 131 208
113 125 202
114 126 201
111 123 197
114 126 202
110 122 197
110 122 196
107 120 194
114 126 201
114 126 203
114 126 201
116 128 205
111 123 199
111 123 198
109 121 196
111 124 198
121 136 196
128 146 184
134 154 181
133 154 181
133 153 180
134 154 180
133 153 180
132 152 179
132 152 180
133 153 180
134 154 180
134 154 180
134 154 181
133 153 180
132 153 180
134 154 181
132 153 179
133 153 180
133 153 180
133 153 180
134 154 181
134 154 181
134 154 181
133 153 180
133 154 180
133 154 181
132 153 180
134 154 180
133 154 180
134 154 181
134 154 180
134 154 181
133 154 180
133 154 181
133 153 180
132 153 179
133 154 181
132 153 181
133 153 180
134 154 181
133 154 181
132 153 180
134 154 181
133 154 181
134 154 181
134 154 180
133 154 181
133 154 181
133 154 181
133 153 180
134 154 181
133 154 181
133 154 180
133 154 181
133 154 180
133 154 181
134 154 181
134 154 181
134 154 181
134 154 180
134 154 181
133 154 181
133 154 181
134 154 181
132 153 180
133 154 180
135 155 181
134 154 181
133 153 180
134 154 180
134 154 181
133 154 180
135 155 181
133 154 181
133 154 181
133 154 180
134 154 181
133 154 181
134 154 181
134 154 180
134 154 181
133 154 181
133 154 181
134 154 181
134 154 181
134 154 181
134 154 181
133 154 181
134 154 181
132 153 180
134 154 181
133 154 181
134 154 181
134 154 181
134 154 181
134 154 181
133 154 181
134 154 181
133 154 181
133 154 181
134 154 181
133 154 181
135 155 181
133 153 180
134 154 180
133 154 181
134 154 181
133 154 181
134 154 181
134 155 181
133 154 181
134 154 181
133 154 181
134 154 181
133 154 181
134 154 181
132 153 180
134 155 181
134 154 181
134 154 181
135 155 181
133 154 181
135 155 181
134 154 181
133 154 181
134 154 181
134 154 181
134 154 181
133 154 181
133 154 181
134 154 181
133 154 181
133 154 180
134 154 181
134 154 181
133 154 181
134 154 181
134 154 181
133 154 181
133 154 181
134 154 181
133 154 181
133 154 180
133 154 181
133 153 180
134 154 181
134 154 181
133 154 181
134 154 180
134 154 181
135 155 181
133 154 181
133 154 181
134 154 181
135 155 181
134 154 181
133 154 181
133 154 181
133 154 180
134 154 181
134 154 181
133 153 180
134 154 181
133 154 181
134 154 181
135 155 181
134 154 181
133 154 181
134 154 181
133 154 181
134 154 181
134 154 181
134 155 181
133 154 181
134 154 181
133 154 181
134 154 181
133 154 181
134 154 181
133 154 180
134 154 181
134 154 181
133 154 181
134 154 181
134 154 181
134 154 181
134 155 181
134 154 181
133 154 181
134 154 181
133 154 181
134 154 181
134 154 181
135 155 181
133 154 181
133 154 181
134 154 181
133 154 181
134 154 181
133 154 181
134 154 181
133 154 181
134 154 181
133 154 181
134 154 181
135 155 181
134 155 181
133 154 181
134 154 181
134 154 181
135 155 181
134 154 181
134 154 181
134 154 181
134 154 181
134 154 181
133 154 180
133 154 181
134 154 181
133 154 181
133 154 181
134 154 181
133 154 181
135 155 181
133 154 181
133 154 180
134 154 181
134 154 181
134 154 181
134 154 181
134 154 180
133 154 180
133 154 181
133 154 181
134 154 181
134 154 181
134 154 180
134 154 181
133 154 181
133 153 180
133 154 181
134 154 181
134 154 180
133 153 180
133 154 181
134 154 180
133 154 181
134 154 181
134 154 181
133 153 180
133 154 181
130 150 181
119 135 185
116 129 203
114 126 203
113 125 201
113 125 200
112 123 198
116 128 204
115 127 204
113 125 201
114 126 203
109 121 195
109 121 195
109 121 194
109 121 194
113 126 201
107 119 192
111 123 197
109 121 196
111 123 197
107 119 194
113 125 201
114 126 202
112 124 199
113 125 201
112 124 199
113 125 201
111 123 199
111 123 197
111 123 198
108 121 194
115 128 205
113 125 201
114 126 202
109 122 196
117 129 206
110 123 197
113 125 200
114 127 203
112 124 200
117 129 205
111 123 198
115 127 204
111 123 198
113 125 201
110 123 197
110 123 197
112 125 200
114 126 203
113 125 202
110 123 198
109 122 197
115 127 203
112 124 198
113 125 200
110 122 197
111 123 198
113 125 200
112 124 199
112 125 200
110 123 197
112 124 200
115 128 204
110 122 196
111 123 198
112 125 200
111 124 200
114 127 203
113 125 200
112 124 199
117 129 206
111 123 197
115 127 204
114 126 203
115 127 202
108 120 194
111 123 198
114 127 203
112 125 200
111 124 200
116 128 204
110 123 197
109 121 196
115 127 203
109 121 195
114 126 203
112 124 198
110 122 197
109 121 195
112 125 199
115 127 203
108 120 195
112 125 201
106 118 191
107 119 193
110 122 196
110 122 196
113 125 201
110 122 196
109 121 195
113 126 202
116 128 204
115 127 204
110 122 196
104 117 190
113 125 201
107 120 194
114 126 202
113 126 201
115 127 204
112 124 198
113 125 202
111 124 200
115 128 205
112 125 200
111 123 198
108 120 194
111 123 198
112 124 199
109 121 195
115 128 204
109 121 196
111 123 199
115 127 204
111 123 198
112 124 199
113 125 201
112 124 199
115 127 204
112 124 200
114 126 201
115 127 204
110 122 196
112 124 198
118 130 207
115 126 202
114 126 202
112 124 199
114 126 203
110 122 196
111 123 199
108 121 196
115 128 205
111 123 197
114 126 202
112 124 200
117 130 207
114 127 203
112 124 201
117 131 195
127 146 183
133 153 180
133 154 180
133 153 179
134 154 181
134 154 180
134 154 180
132 153 180
133 153 180
133 154 180
132 153 179
131 152 179
132 152 179
134 154 181
132 153 180
132 153 180
133 153 180
132 153 180
134 154 180
133 154 181
133 154 180
133 154 181
133 153 180
133 154 180
134 154 180
132 153 180
133 154 180
133 153 180
133 153 180
134 154 181
133 154 180
133 154 181
133 154 181
133 154 181
133 154 181
133 154 181
135 155 181
133 154 181
134 154 181
134 154 181
132 153 179
134 155 181
133 153 180
134 154 181
133 154 181
134 154 181
135 155 181
134 154 181
133 153 180
134 154 180
133 154 181
134 154 181
134 154 181
133 154 180
132 153 181
132 153 180
133 154 181
133 154 181
133 154 180
134 154 181
133 154 181
132 153 180
133 153 180
134 154 181
134 154 180
133 154 180
134 154 180
134 154 181
134 154 181
134 154 181
133 154 181
133 153 180
133 154 181
135 155 181
134 154 181
134 154 181
134 154 181
133 154 181
134 154 181
134 154 181
134 154 181
134 154 181
133 154 181
134 154 181
132 153 181
133 154 181
134 154 181
134 154 181
134 154 181
133 153 180
133 154 181
133 154 180
133 154 181
133 154 181
134 154 181
132 154 181
134 154 181
133 154 181
133 154 181
134 154 181
133 154 181
133 153 180
134 154 180
134 155 181
134 154 181
134 154 181
133 154 181
134 154 181
134 154 181
134 154 181
134 154 181
133 154 180
134 154 181
134 154 181
133 154 180
134 154 181
133 154 181
133 154 181
134 154 181
134 154 181
134 154 181
134 154 181
134 154 181
133 154 181
134 154 181
133 154 181
134 154 181
135 155 181
134 154 181
134 154 181
133 154 181
133 154 180
134 154 181
134 154 181
134 154 181
133 154 181
134 154 181
134 154 181
134 154 181
134 154 181
133 154 181
134 154 181
134 154 181
134 155 181
134 154 181
134 154 181
134 154 181
133 154 181
133 154 181
134 154 181
133 154 181
134 154 181
134 154 181
134 154 181
134 154 181
133 154 181
134 154 181
134 154 180
134 154 181
133 154 181
134 154 181
133 154 181
134 154 181
134 154 181
134 154 181
133 154 181
133 154 181
134 154 181
135 155 181
133 154 181
134 154 181
134 154 181
134 154 181
133 154 181
133 154 181
133 154 181
134 154 181
134 154 181
133 154 180
134 154 181
134 154 181
134 154 181
133 154 181
133 154 181
134 154 181
134 154 181
133 154 180
133 154 181
134 154 181
133 154 181
134 154 181
134 154 181
134 154 181
134 154 181
132 153 181
134 155 181
135 155 181
133 154 181
133 154 181
134 154 181
134 154 181
134 154 181
133 154 181
134 154 181
133 154 181
134 154 181
134 154 181
134 154 181
134 154 181
133 154 181
133 154 181
133 154 180
133 154 181
134 154 181
133 154 181
133 154 181
134 154 181
134 154 181
133 154 181
135 155 181
134 154 181
135 155 181
133 154 181
133 154 181
134 154 181
133 153 180
133 154 180
135 155 181
134 154 181
133 154 181
134 154 180
133 154 181
134 154 181
134 154 181
134 154 181
134 154 180
133 153 180
133 154 180
133 154 180
134 154 181
134 154 181
133 154 181
134 154 180
134 154 181
133 154 181
133 153 180
134 154 181
133 154 181
134 154 181
133 153 179
131 151 184
116 132 186
115 127 201
106 119 192
116 128 205
113 125 201
111 123 197
114 127 203
109 121 195
109 121 196
112 124 199
110 123 199
112 124 199
112 124 200
109 121 194
114 126 202
110 122 196
111 124 199
110 122 195
110 123 197
109 122 196
114 126 202
110 122 196
116 128 205
109 121 195
108 120 194
113 125 201
114 126 203
106 118 191
113 125 201
111 123 198
109 121 196
112 125 200
111 124 199
115 127 203
115 127 203
109 122 196
107 120 193
113 126 202
108 120 194
107 120 194
115 127 203
113 125 200
115 128 204
115 127 203
115 128 204
111 123 198
113 126 202
110 123 197
113 125 200
112 125 200
113 126 202
113 125 200
117 129 206
109 121 195
116 128 205
113 125 200
115 127 203
111 123 197
115 127 204
113 125 200
115 127 203
114 126 202
112 124 199
113 125 200
112 124 199
111 124 198
117 129 206
113 126 202
113 125 200
117 129 207
111 123 199
109 121 195
114 126 201
110 122 197
110 123 198
114 126 201
110 123 198
113 125 201
109 121 196
112 124 200
114 127 203
111 123 198
113 126 203
113 125 201
112 125 200
114 126 202
108 120 194
118 131 209
113 125 201
113 126 202
115 127 205
108 120 193
111 123 198
115 128 204
111 124 199
115 128 205
112 124 199
113 125 202
110 122 195
111 123 198
112 124 199
110 122 197
109 121 195
116 128 205
112 124 199
110 122 196
117 129 205
110 122 197
115 127 204
113 125 200
115 128 204
112 124 200
112 124 199
113 125 200
112 124 199
113 125 200
110 122 197
112 124 200
113 125 200
114 126 200
110 122 195
111 123 199
113 125 201
115 128 205
114 127 204
109 121 195
113 125 201
114 126 202
113 126 202
111 124 198
115 127 204
112 124 199
116 128 205
115 127 202
106 118 191
112 125 201
110 123 198
106 118 191
113 125 202
114 127 203
111 124 199
112 124 198
115 127 204
111 123 198
107 120 194
110 123 198
113 126 202
112 124 200
119 134 197
130 149 184
131 152 179
133 153 179
133 153 180
132 152 179
132 153 180
133 153 180
131 151 178
133 153 180
134 154 181
133 153 180
134 154 180
134 154 181
133 153 180
132 153 180
133 154 180
133 153 180
132 152 179
133 153 180
133 154 181
134 154 181
133 153 180
133 154 181
134 155 181
132 153 180
133 153 180
132 152 179
133 154 180
133 154 181
133 154 181
134 154 180
133 154 181
133 153 180
133 154 180
134 154 180
133 153 180
132 152 179
134 155 181
134 154 181
134 154 180
133 154 180
133 154 181
134 154 181
134 154 181
133 154 181
134 154 181
132 153 180
133 153 180
134 154 181
133 154 180
134 154 181
133 154 181
134 154 181
134 154 181
134 154 181
133 153 180
133 154 181
134 154 180
133 154 181
135 155 181
134 154 181
134 154 181
133 154 180
134 154 181
133 153 179
135 155 181
134 154 180
133 154 180
135 155 181
133 154 181
135 155 181
134 154 181
134 154 181
134 154 180
134 154 180
133 154 181
134 154 181
133 154 181
133 154 181
133 154 181
133 154 180
134 154 181
133 154 181
135 155 181
134 154 181
134 154 181
134 154 181
134 154 181
133 154 181
133 154 181
133 154 181
134 154 181
135 155 181
134 154 180
133 154 181
134 154 181
134 154 181
134 154 181
134 154 181
133 154 181
134 154 180
134 154 181
134 154 181
133 154 181
134 155 181
133 154 181
134 154 181
134 154 181
134 154 181
134 154 180
133 154 181
134 154 180
134 154 181
133 154 181
133 154 181
134 154 181
134 154 181
134 154 181
134 154 181
134 154 181
134 154 181
134 154 181
134 154 181
134 154 181
135 155 181
133 154 181
133 154 181
134 154 181
134 154 181
134 154 181
133 154 181
134 154 181
134 155 181
134 154 181
133 154 181
134 154 181
134 154 181
133 154 181
134 154 181
134 155 181
134 154 181
134 154 181
134 154 181
133 154 180
134 154 181
134 154 181
133 154 181
133 154 181
133 154 181
134 154 181
134 154 181
134 154 181
134 154 181
134 154 181
133 154 181
134 154 181
134 154 180
134 154 181
133 154 181
134 154 181
133 154 181
134 154 181
135 155 181
134 154 180
134 154 181
134 154 181
133 154 181
133 154 181
133 154 181
134 154 181
134 154 181
133 154 181
133 154 181
133 154 181
134 154 181
134 154 181
133 154 181
134 154 181
133 154 181
134 154 181
134 154 181
133 154 181
135 155 181
133 154 181
134 154 181
134 154 181
134 154 181
134 154 181
133 154 181
133 154 181
134 154 181
134 155 181
133 154 181
133 154 181
133 154 181
135 155 181
134 154 181
133 154 181
134 154 181
135 155 181
134 154 181
134 154 181
133 154 181
134 154 180
134 154 181
135 155 181
134 154 181
133 154 181
134 154 181
134 154 181
134 154 180
134 154 181
133 154 180
133 154 181
134 154 181
133 154 181
133 154 181
134 154 181
134 154 181
134 154 181
134 154 181
133 154 180
133 154 180
132 153 180
133 154 181
134 154 181
133 154 181
134 154 180
133 154 181
134 154 181
133 154 181
135 155 181
133 154 181
133 153 180
134 154 181
133 154 180
133 154 180
133 154 181
133 154 181
133 154 180
134 154 181
134 154 181
133 154 180
134 154 181
132 153 180
134 154 180
133 153 180
133 154 181
134 154 180
132 152 179
130 150 180
125 142 188
114 127 199
111 123 199
113 125 201
115 127 204
110 123 197
112 124 200
117 129 205
111 123 198
112 125 202
113 125 201
112 125 200
113 125 200
112 124 199
114 126 202
112 124 199
114 126 202
113 125 202
108 121 194
115 127 204
113 126 201
109 122 197
116 128 205
113 125 201
113 126 202
110 122 196
110 123 197
110 122 197
116 128 205
112 124 199
118 130 207
112 125 201
112 124 199
112 124 199
112 124 200
112 124 199
106 118 192
109 121 195
108 120 194
113 125 200
113 125 201
110 123 197
111 124 198
112 124 200
114 126 202
116 128 204
115 127 203
108 121 194
115 127 204
109 122 196
116 128 204
111 123 198
111 123 197
110 122 197
113 126 202
113 125 201
118 130 207
110 123 197
116 128 204
112 124 198
112 124 200
113 126 201
106 118 192
114 126 202
116 128 204
109 122 196
112 124 200
110 122 196
112 124 199
110 122 196
112 125 201
109 122 198
115 127 203
115 126 202
109 121 196
117 130 208
115 127 203
111 123 198
116 128 205
112 124 201
114 126 202
111 123 197
116 128 205
115 127 204
112 124 199
116 129 206
115 127 202
112 125 201
108 121 194
116 129 206
108 121 194
111 123 199
114 127 203
114 126 202
111 123 197
112 124 199
111 124 199
112 125 201
115 127 204
112 124 199
110 122 197
112 125 200
114 126 202
111 124 198
113 125 200
111 123 198
113 124 200
108 121 194
116 128 205
114 126 202
107 119 193
110 122 196
108 121 194
109 121 195
115 127 202
114 126 203
109 122 196
110 123 198
113 124 200
112 124 199
109 122 197
110 122 197
110 122 197
113 125 201
113 125 200
112 125 201
114 126 203
110 122 197
115 127 204
114 126 202
109 121 196
112 125 200
113 126 202
115 128 204
114 127 203
112 125 201
112 123 198
107 119 192
111 124 198
115 127 204
112 124 200
110 122 197
112 124 199
108 121 196
111 123 198
111 123 198
111 124 199
113 125 201
116 129 196
125 144 185
133 153 181
131 152 179
132 152 179
133 153 180
133 153 180
132 152 179
132 153 180
133 153 180
133 154 180
133 153 180
133 154 180
132 152 179
133 154 181
134 154 181
132 153 180
133 153 180
132 153 180
134 154 181
133 153 180
132 152 179
132 153 180
134 154 181
133 154 181
132 153 180
133 153 179
133 153 180
134 154 180
134 154 180
133 154 181
133 153 180
133 153 180
134 155 181
134 154 180
133 153 179
134 154 180
134 154 181
134 154 181
133 154 181
133 154 180
132 152 179
132 153 180
133 154 180
133 154 180
134 154 180
132 152 179
133 153 180
134 154 181
134 154 180
134 154 180
133 154 180
133 154 180
134 154 181
135 155 181
134 154 181
134 154 180
133 153 180
134 154 181
133 154 181
134 154 181
135 155 181
133 154 181
133 154 181
133 154 181
134 154 181
134 154 181
134 154 180
134 154 181
134 154 181
134 154 181
132 153 180
134 154 181
134 154 181
133 154 180
134 154 181
134 154 181
133 154 181
134 154 181
133 154 181
134 154 181
133 154 181
133 154 181
133 154 181
134 154 181
133 154 181
134 154 181
134 154 181
134 154 181
134 154 180
134 154 181
135 155 181
134 154 181
134 154 181
134 154 181
133 154 181
134 154 181
134 154 181
134 154 181
134 154 181
135 155 181
134 154 181
134 154 181
133 153 180
133 154 181
134 154 181
134 154 181
134 154 181
134 154 181
135 155 181
135 155 181
133 154 181
134 154 181
134 154 181
133 154 181
133 154 181
135 155 181
133 154 181
133 154 181
133 154 181
135 155 181
134 154 181
133 154 181
135 155 181
133 154 181
133 154 181
133 154 181
134 154 181
134 154 181
134 154 181
133 154 181
134 154 181
134 154 181
133 154 181
133 154 181
134 154 181
134 154 180
135 155 181
133 154 181
134 154 181
133 154 181
133 154 181
134 154 181
133 154 181
133 154 181
134 154 181
134 155 181
133 154 181
133 154 181
134 154 181
133 154 181
134 154 181
134 154 181
134 154 181
134 154 181
134 155 181
134 154 181
133 154 180
134 155 181
134 154 181
134 154 181
134 154 181
133 154 180
134 154 181
134 154 181
133 154 181
133 154 181
134 154 181
133 154 181
134 154 181
134 154 181
134 154 181
132 153 180
134 154 181
134 154 181
134 155 181
134 154 181
133 154 181
133 154 181
133 154 181
134 154 181
133 154 181
135 155 181
134 154 181
133 154 181
134 154 181
133 154 181
134 154 181
135 155 181
133 154 181
133 154 181
133 154 181
133 154 181
134 154 181
134 154 181
133 154 181
134 154 181
134 154 181
133 154 181
134 154 181
134 154 181
134 154 181
134 154 181
134 154 181
134 154 181
134 154 181
134 154 181
133 154 181
134 154 181
135 155 181
133 154 181
133 154 181
133 153 180
134 154 181
133 154 180
133 154 181
133 153 179
133 154 181
134 154 180
134 155 181
134 154 181
133 154 181
134 154 181
133 153 180
133 154 181
133 154 180
134 154 181
133 154 181
133 153 180
134 154 180
133 154 180
133 154 181
134 154 181
133 154 180
133 153 180
134 154 181
134 154 181
133 154 181
134 154 181
133 154 180
133 154 180
134 154 181
133 153 179
133 153 180
133 154 181
134 154 181
134 154 180
134 154 181
133 154 181
134 154 180
133 153 180
133 153 182
125 142 186
112 125 195
111 123 199
107 120 194
109 121 195
113 125 201
115 127 204
108 121 194
111 123 198
113 125 201
113 125 200
114 126 202
115 127 204
112 124 199
113 125 201
113 125 200
114 126 203
112 124 199
111 123 198
112 124 198
111 123 198
109 122 196
111 123 198
114 127 204
112 124 200
108 121 195
110 122 195
111 123 198
112 125 200
110 122 196
116 128 204
115 127 204
113 125 201
112 125 200
114 126 202
115 127 204
107 120 194
112 124 198
115 128 205
112 124 200
115 127 203
113 125 200
113 125 201
114 127 204
116 128 204
113 125 200
115 127 202
110 123 197
116 129 206
116 128 205
114 126 202
114 126 202
113 126 202
116 128 205
113 125 200
114 126 201
114 127 204
111 124 200
110 122 197
113 126 201
112 124 199
108 121 195
112 124 199
114 126 202
110 122 197
112 124 200
113 125 200
109 122 196
110 123 197
113 125 201
113 125 199
113 125 202
108 121 195
112 124 199
115 127 203
115 128 205
116 128 205
109 121 195
111 123 197
113 125 201
115 127 202
112 124 198
115 128 204
113 125 202
109 122 196
111 123 197
111 124 200
110 122 196
112 124 198
117 129 207
110 122 196
108 121 194
110 122 195
108 120 194
118 130 207
112 124 199
108 119 193
115 127 204
114 126 203
108 121 194
112 124 200
111 123 198
109 121 196
114 126 203
114 126 202
116 128 205
108 120 196
113 126 202
110 123 197
114 126 203
111 124 198
112 124 200
114 126 201
113 126 202
116 129 206
115 127 204
115 127 204
113 125 201
111 123 197
114 126 202
109 122 196
116 128 205
113 125 200
111 123 198
117 129 206
113 125 201
114 126 203
109 121 196
110 122 197
116 128 206
111 123 198
114 127 203
113 126 202
108 121 195
113 125 201
106 118 190
112 124 200
114 126 202
111 123 198
114 126 202
114 126 202
113 125 202
116 128 204
113 126 201
113 125 200
107 119 192
106 119 192
108 120 194
113 128 191
128 147 185
131 152 179
132 153 180
131 152 179
132 152 179
133 153 180
133 153 180
133 153 180
134 154 180
133 153 180
133 154 181
133 153 180
132 153 180
133 153 179
133 153 180
133 154 181
132 152 180
133 153 179
133 153 180
134 154 180
132 153 179
133 153 180
134 154 181
133 153 180
134 154 180
134 154 180
133 153 180
134 154 181
133 154 180
132 152 179
132 153 180
135 155 181
134 154 181
132 152 180
132 153 180
133 154 181
134 154 180
133 153 180
133 154 180
133 154 181
133 154 181
133 153 179
134 154 181
134 154 181
132 153 180
134 154 180
132 153 180
133 154 180
131 151 178
134 154 181
133 154 181
133 154 181
133 154 181
134 154 181
134 154 181
134 154 181
134 154 180
133 154 181
134 154 181
133 154 181
134 154 181
133 153 180
133 154 181
134 154 181
133 154 181
134 154 181
134 154 181
134 154 181
133 154 181
134 154 181
133 153 180
133 153 180
134 154 181
134 154 181
133 154 180
133 154 181
134 154 181
133 154 181
132 153 180
134 154 180
133 153 180
134 154 180
134 154 181
135 155 181
133 154 181
133 154 181
133 154 181
133 154 181
134 154 181
133 154 181
134 154 181
134 154 181
134 154 181
134 154 181
134 154 181
134 154 181
133 153 180
134 154 181
134 154 181
134 154 181
134 154 181
133 154 181
134 154 181
134 154 181
134 154 181
133 154 181
134 154 181
134 155 181
134 154 181
133 154 181
134 154 181
134 154 181
134 154 181
134 154 180
133 154 181
134 154 181
135 155 181
134 154 181
134 154 181
134 154 181
133 154 181
133 154 181
134 154 181
133 154 181
133 154 181
134 154 181
134 154 181
134 154 181
134 154 181
135 155 181
133 154 181
133 154 181
133 154 181
134 154 181
134 154 181
134 154 181
134 154 181
134 154 181
134 154 181
133 154 181
135 155 181
134 154 181
133 154 181
133 154 181
134 154 181
134 154 181
134 154 181
134 154 181
133 154 181
133 154 181
133 154 181
133 154 180
134 154 181
133 154 181
134 154 181
133 154 181
134 154 181
134 154 181
134 154 181
133 154 181
134 154 181
134 154 181
134 154 181
134 154 181
133 154 181
134 154 181
133 154 181
133 154 181
134 154 181
134 154 181
134 154 181
134 154 181
133 154 181
134 154 181
134 154 181
134 154 181
134 154 181
134 154 181
133 154 181
134 154 181
134 154 181
134 154 181
134 154 181
134 154 181
134 154 181
134 154 181
135 155 181
134 154 181
134 154 181
133 154 181
133 154 181
134 154 180
134 154 181
134 154 181
133 154 181
133 154 181
133 154 181
133 154 181
134 154 181
133 154 181
135 155 181
134 154 181
133 154 181
133 154 181
133 154 181
133 154 180
134 155 181
134 154 181
133 154 180
133 154 181
133 154 181
133 154 181
133 154 181
133 154 181
134 154 181
134 154 181
134 154 180
134 154 180
134 155 181
133 154 181
133 154 180
134 154 181
134 154 181
133 153 180
132 153 180
133 154 181
133 153 180
133 154 180
133 154 180
134 154 181
134 154 180
134 154 181
133 154 180
133 153 179
133 154 180
133 154 181
133 153 180
134 154 180
133 154 180
132 153 180
134 154 181
134 154 180
134 154 181
133 153 180
135 155 181
133 154 181
134 154 181
133 153 180
134 154 181
133 153 180
133 153 181
122 138 189
118 132 199
110 122 197
111 124 199
112 124 200
111 123 199
113 125 201
115 127 205
115 127 204
110 122 197
110 122 197
113 125 201
110 122 196
112 124 198
111 123 198
112 124 200
112 123 198
112 125 201
111 123 198
114 127 203
111 123 198
114 126 202
114 126 202
108 121 196
115 127 204
110 122 197
111 123 198
112 124 200
112 124 198
111 123 198
109 121 196
112 124 198
110 123 197
116 128 204
113 126 201
112 124 199
112 125 201
114 126 202
109 122 196
112 124 200
115 127 203
112 125 200
115 127 204
119 131 209
113 126 201
106 119 192
114 126 202
111 122 196
112 125 200
113 125 202
114 126 203
116 128 205
115 127 204
114 126 201
113 126 201
113 125 200
112 124 200
112 124 198
111 123 197
109 122 196
112 124 198
110 122 197
110 123 197
115 128 204
110 123 198
117 129 206
108 120 193
115 128 204
110 122 196
114 126 201
111 123 198
108 120 194
117 129 205
111 123 197
114 126 202
113 125 199
115 127 203
110 123 197
112 125 201
111 123 198
112 124 200
116 129 206
112 124 199
114 126 202
116 128 204
109 122 197
112 125 200
110 122 196
109 122 196
112 125 200
113 126 202
113 125 201
112 124 200
115 127 202
111 123 198
114 126 201
112 125 200
110 122 198
113 125 202
112 124 199
116 128 205
112 124 199
113 126 202
117 129 207
107 120 194
107 119 193
115 128 205
109 121 196
114 126 201
114 126 203
114 126 204
114 126 202
111 123 199
112 124 200
113 125 200
111 123 197
109 121 196
108 121 196
115 127 204
112 124 199
114 127 203
110 122 197
110 122 197
112 125 200
111 123 198
113 125 200
109 122 197
113 126 201
112 124 200
110 123 198
109 121 194
115 127 204
110 123 198
111 123 198
112 124 199
113 126 201
112 124 200
113 125 201
111 124 199
112 124 200
107 120 196
111 123 197
115 127 203
114 127 202
111 123 199
115 127 202
115 127 203
110 122 196
113 127 193
126 144 188
131 152 179
133 153 180
132 152 180
132 152 179
131 152 179
133 154 181
133 153 180
134 154 180
132 153 179
133 153 180
130 150 178
132 153 180
132 152 179
131 151 179
134 154 180
133 153 180
132 153 180
132 152 179
132 152 179
132 153 180
130 151 179
133 153 180
131 152 179
133 153 180
133 153 180
132 153 179
133 154 181
133 153 180
133 153 180
133 154 181
133 153 180
134 154 181
133 154 181
134 154 180
132 153 180
134 154 181
134 154 181
133 153 180
134 155 181
134 154 180
134 154 181
133 154 180
133 154 180
133 154 180
134 154 181
134 154 180
133 154 181
134 154 181
133 154 180
133 154 181
133 154 181
133 154 180
133 154 181
133 153 180
134 154 180
133 154 180
134 154 181
133 154 181
133 154 180
133 154 181
134 154 181
134 154 181
134 154 181
133 154 181
133 154 180
133 154 181
133 154 181
134 154 181
134 154 181
134 154 181
134 155 181
132 153 180
134 154 181
133 154 181
134 154 181
134 154 181
133 154 181
134 154 180
133 154 181
134 154 181
134 154 181
133 154 181
134 154 181
133 154 181
133 154 181
134 154 181
134 154 181
133 153 180
134 154 181
134 154 181
134 154 181
133 154 181
133 154 180
134 154 181
134 154 181
134 154 181
134 154 181
134 154 181
134 154 181
132 153 181
133 154 181
133 154 181
133 154 181
133 154 181
134 154 181
134 154 181
133 154 181
134 154 180
133 154 181
133 154 181
134 154 181
133 154 181
134 154 181
134 154 181
133 154 181
133 154 180
134 154 181
135 155 181
134 154 181
135 155 181
133 154 181
134 154 181
133 154 181
134 154 181
134 154 181
134 154 181
134 154 181
134 154 181
134 154 181
134 154 181
134 154 181
133 153 180
134 154 181
133 154 181
134 154 181
134 154 181
133 154 181
133 154 181
134 154 181
134 154 180
133 154 181
134 154 181
133 154 181
134 154 181
133 154 181
133 154 181
134 154 181
134 154 181
133 153 180
134 154 181
135 155 181
133 154 181
134 155 181
135 155 181
133 154 181
133 154 181
133 154 181
133 154 181
133 153 180
134 154 181
133 154 181
134 154 181
134 154 181
135 155 181
134 154 181
133 153 180
134 154 181
134 154 181
134 154 181
134 154 181
134 154 181
133 154 181
135 155 181
133 154 181
134 154 181
133 154 181
134 154 181
134 154 181
133 153 180
134 154 181
134 154 181
134 154 181
133 154 181
134 154 181
135 155 181
134 154 181
135 155 181
134 154 181
134 154 181
134 154 181
134 155 181
135 155 181
135 155 181
134 154 181
133 154 181
133 154 181
134 154 181
133 154 181
134 154 181
133 154 180
134 154 181
133 154 181
133 154 181
133 154 181
134 154 181
134 154 181
134 154 181
134 154 181
133 154 180
133 153 180
134 154 181
133 153 180
134 154 181
134 154 181
133 154 180
133 154 181
134 154 181
133 153 180
135 155 181
133 154 180
132 153 181
134 154 181
134 154 180
133 154 180
134 154 181
134 154 180
133 154 181
132 153 180
133 154 180
134 154 181
133 153 180
133 153 180
134 154 181
133 153 180
133 154 181
133 154 180
133 153 180
134 154 180
132 152 179
133 154 181
133 154 181
133 153 180
134 154 180
134 154 181
132 152 179
132 153 180
134 154 181
132 153 180
133 153 180
131 151 180
127 144 193
118 132 200
115 128 205
115 127 204
109 121 195
111 123 197
113 125 199
109 121 195
116 129 205
112 124 201
107 119 192
108 120 194
113 125 202
116 128 205
107 119 192
109 121 195
114 126 201
113 125 201
110 122 197
111 124 199
113 125 202
111 123 198
113 125 201
113 125 200
109 121 194
114 126 202
114 126 203
113 126 201
110 122 196
118 130 207
110 122 196
112 123 198
115 127 203
113 125 201
113 125 202
110 122 196
116 128 205
110 122 197
110 122 197
114 126 202
112 124 198
116 128 204
115 127 203
112 124 200
114 126 202
110 122 198
116 128 204
114 126 202
112 124 199
115 127 203
113 125 201
114 126 202
108 120 195
110 122 197
112 124 200
110 122 196
110 122 196
113 125 200
111 123 198
113 126 202
112 124 199
112 124 199
110 122 197
111 124 200
115 127 202
111 124 199
116 130 208
111 123 198
108 120 193
115 127 204
116 127 203
111 123 197
113 125 201
110 123 197
114 127 203
113 126 202
114 127 203
111 123 197
108 120 194
111 123 199
115 127 203
113 125 201
111 124 200
113 125 201
112 124 199
115 127 204
113 125 200
109 122 196
112 124 199
110 123 197
108 120 194
113 126 202
111 123 198
114 126 202
112 124 199
112 124 199
111 123 198
114 127 204
112 125 201
112 124 200
110 122 197
109 121 195
111 123 198
110 122 196
112 124 199
114 126 201
115 127 203
110 123 198
111 123 198
109 121 195
111 123 198
110 122 197
113 125 200
107 119 193
112 124 200
111 124 199
110 123 198
113 125 201
114 126 201
110 122 196
113 125 202
111 123 199
112 124 201
113 125 201
111 123 198
108 121 195
112 125 201
109 122 197
112 124 199
110 123 198
110 123 198
111 123 198
110 123 198
112 124 198
111 123 198
113 125 202
112 124 199
116 128 204
113 126 203
112 125 200
110 123 198
110 122 197
111 124 200
118 130 207
108 121 195
112 124 200
110 122 197
113 125 202
115 129 193
125 143 187
129 149 177
133 153 180
133 154 180
130 150 178
132 153 180
131 151 179
131 151 178
131 151 178
133 154 180
131 152 179
133 153 179
132 152 179
131 151 179
132 152 179
132 153 180
132 153 180
133 154 181
132 153 180
133 152 179
132 152 179
133 153 180
133 153 180
133 154 181
133 153 180
134 154 181
134 154 180
131 152 179
132 152 179
132 153 180
133 153 180
131 151 179
132 153 180
134 154 181
134 154 181
133 154 181
133 154 180
133 153 180
132 153 180
134 154 181
133 154 181
134 154 181
133 154 181
133 153 180
133 153 180
134 154 180
134 154 181
134 154 180
133 153 180
134 154 181
133 153 180
134 154 181
133 153 180
134 154 181
134 154 180
133 154 181
133 153 180
133 154 180
134 154 180
133 154 181
134 154 181
133 153 180
134 154 181
134 154 180
134 154 181
135 155 181
134 154 181
134 154 181
134 154 181
134 154 181
134 154 181
132 153 180
133 154 181
133 154 180
134 154 181
134 154 181
134 154 181
134 154 181
134 154 181
134 154 181
134 154 181
135 155 181
134 155 181
133 154 181
134 154 181
134 154 181
134 154 181
134 154 181
134 154 181
133 153 180
133 154 181
134 154 181
133 154 181
133 154 180
134 154 180
134 154 181
133 154 181
133 154 181
133 154 181
134 154 181
134 154 181
134 155 181
133 154 181
133 154 181
133 154 181
134 154 181
133 154 181
134 154 181
134 154 181
134 154 181
135 155 181
134 154 181
135 155 181
133 154 181
134 154 181
134 154 181
135 155 181
132 153 180
133 154 181
134 154 181
134 154 181
134 154 181
134 154 181
134 155 181
134 154 181
134 154 181
133 154 180
133 154 181
134 154 181
134 154 181
133 154 180
134 154 181
133 154 181
134 154 181
134 154 181
134 154 181
134 154 181
135 155 181
134 154 181
133 154 181
134 154 181
133 154 181
134 154 181
133 154 181
133 154 181
134 154 181
133 154 181
134 154 181
134 154 181
134 154 181
134 155 181
133 154 181
134 154 181
134 154 181
134 154 181
133 154 181
133 154 181
134 154 181
132 153 180
134 154 181
134 154 181
133 154 181
134 155 181
134 154 181
133 154 181
134 154 181
133 154 181
133 154 181
134 154 181
134 154 181
134 154 181
134 155 181
134 154 181
134 154 181
134 154 181
133 154 181
134 154 181
133 154 181
134 154 181
134 154 181
133 154 181
134 154 181
134 154 181
133 154 181
135 155 181
133 154 181
134 154 181
134 154 181
134 154 181
134 154 181
133 154 181
134 154 181
134 154 181
133 154 181
134 154 181
134 154 181
133 154 181
134 154 181
134 154 181
133 154 181
134 154 181
133 154 181
135 155 181
134 154 181
133 153 180
134 154 181
134 154 181
134 154 181
134 154 181
134 154 181
134 154 181
133 154 181
133 153 180
134 154 180
134 154 180
133 153 180
133 154 181
133 154 181
134 154 180
134 154 180
134 154 181
134 154 181
134 154 181
134 154 181
134 154 181
134 154 181
133 153 180
133 154 180
133 154 181
135 155 181
133 154 181
133 153 180
134 154 180
133 153 180
134 154 181
133 154 181
134 154 180
134 154 181
132 153 180
133 153 180
133 154 180
134 154 181
133 154 180
134 154 181
133 154 181
131 151 179
134 154 181
133 153 180
134 154 181
132 152 179
133 154 181
128 146 190
117 131 195
112 124 200
114 126 202
111 123 198
115 127 203
112 124 199
111 124 199
111 124 199
111 124 200
112 124 200
109 122 197
108 120 195
111 124 199
108 121 196
113 125 201
107 119 192
113 126 201
109 121 194
113 125 200
110 122 196
113 126 202
111 123 197
106 119 193
113 126 202
117 129 207
116 127 204
117 129 206
108 121 194
112 124 200
110 122 195
113 125 201
111 123 198
113 125 201
111 123 198
115 128 205
118 130 207
112 124 199
112 124 198
109 121 195
113 126 202
114 126 202
113 126 201
114 127 203
110 122 195
113 125 202
115 127 204
114 126 202
113 125 201
113 125 199
114 126 202
113 125 200
109 122 196
112 124 199
115 127 203
112 124 199
109 122 196
108 120 194
115 127 203
115 127 203
111 123 198
112 124 199
112 124 199
114 126 202
110 122 197
111 123 198
111 124 198
111 124 199
109 121 195
110 123 197
112 124 199
111 123 198
119 131 210
116 128 205
110 122 197
114 126 202
113 125 201
114 126 202
110 123 196
113 126 202
113 126 202
106 119 192
107 120 194
112 125 200
115 127 203
111 123 197
113 125 200
112 124 198
110 122 198
111 124 199
110 122 197
113 124 199
116 129 207
111 123 198
113 125 201
112 124 199
109 121 195
115 127 204
112 125 200
113 126 202
111 124 199
113 126 201
110 122 196
112 125 200
113 125 201
113 125 201
111 123 197
112 124 199
111 123 198
115 128 205
115 127 203
113 125 200
109 122 196
113 125 200
114 126 201
109 122 196
112 124 199
109 121 195
108 119 193
113 126 202
111 124 200
113 125 200
113 126 202
113 126 202
112 124 201
109 121 196
109 121 196
114 126 203
115 127 202
111 123 199
112 124 199
110 122 197
110 122 196
110 123 197
111 124 199
115 127 203
110 123 198
113 125 200
112 125 201
111 123 198
112 124 200
115 128 205
114 126 202
117 130 208
115 127 203
112 125 200
116 128 205
111 123 197
114 129 193
126 144 185
130 150 178
130 150 178
128 148 177
131 152 179
133 153 180
132 153 180
131 151 179
130 151 179
131 152 179
131 151 178
131 151 178
130 151 179
133 154 180
131 151 178
130 150 178
132 153 180
133 154 180
131 152 179
133 153 180
132 152 180
133 153 180
134 154 181
133 154 180
133 153 179
133 153 180
133 154 180
134 154 181
133 154 180
133 153 180
134 154 181
134 154 181
133 153 180
133 153 180
133 154 181
134 154 181
133 154 180
134 154 180
133 153 180
134 154 181
133 154 180
134 154 180
133 154 180
132 153 180
133 153 180
134 154 180
133 153 179
132 153 180
134 154 181
133 153 180
132 153 180
133 154 181
134 154 181
132 153 181
133 154 180
133 154 181
133 154 181
133 154 181
133 153 180
134 154 180
133 153 180
133 154 181
133 154 180
134 154 180
132 153 180
134 154 181
134 154 181
134 154 181
132 153 181
134 154 181
135 155 181
133 154 181
133 154 181
134 154 180
133 154 181
133 153 180
134 154 180
134 154 180
133 154 181
134 154 181
134 154 180
133 154 181
134 154 181
134 154 181
134 154 181
133 154 180
133 154 181
133 154 181
134 154 181
134 154 181
133 154 180
134 154 181
135 155 181
133 154 180
134 154 181
133 154 180
134 154 181
133 154 181
134 154 181
134 154 181
133 154 181
134 154 181
133 154 180
133 154 181
133 154 180
133 154 181
133 154 181
134 154 181
133 154 181
134 154 181
134 154 181
133 154 180
133 154 181
135 155 181
133 154 181
133 154 181
134 154 181
134 154 181
134 154 181
134 154 181
134 154 181
134 154 180
133 154 181
133 154 181
134 154 181
134 154 181
134 154 181
133 154 181
134 154 181
134 154 181
134 154 181
133 154 181
133 154 181
133 154 181
133 154 181
134 154 181
134 154 181
133 153 180
134 154 181
133 154 181
134 154 181
133 154 181
134 154 181
134 154 181
134 154 181
134 154 181
134 154 181
134 154 181
133 154 181
134 154 181
133 154 181
134 154 181
134 154 180
134 154 181
134 154 181
133 154 181
134 154 181
133 154 181
134 154 181
134 154 181
133 154 180
134 154 181
135 155 181
133 154 181
134 154 181
133 154 181
133 154 181
134 154 181
134 154 181
133 154 181
133 154 181
134 154 181
134 154 181
134 154 181
134 154 181
134 154 181
134 154 181
133 154 181
134 154 181
134 154 181
133 154 181
134 154 181
132 153 181
133 154 181
135 155 181
135 155 181
133 154 181
134 154 181
133 154 181
134 154 181
133 154 181
135 155 181
134 154 181
134 154 181
133 154 181
134 154 181
134 154 181
134 154 181
134 154 181
134 154 181
134 154 181
133 154 181
134 154 181
135 155 181
133 154 181
133 154 181
134 154 181
134 154 181
133 154 181
134 154 181
134 154 181
133 153 180
134 154 181
133 154 181
133 154 181
134 154 181
134 154 181
134 154 181
133 154 181
133 153 180
133 153 179
133 153 180
133 154 181
133 154 180
133 154 181
135 155 181
133 153 180
134 154 181
133 153 180
133 154 181
133 153 180
134 154 180
133 154 181
134 154 181
134 154 181
133 154 180
133 153 180
132 152 179
134 155 181
133 153 180
133 153 180
133 154 181
132 153 180
134 154 181
131 151 178
133 153 180
134 154 180
133 153 180
133 153 180
133 153 180
133 153 181
129 147 187
117 131 195
108 120 194
110 122 196
113 125 201
112 124 199
111 123 198
113 125 201
108 120 193
113 125 201
111 123 197
112 124 198
110 122 196
114 126 201
115 128 206
111 124 199
112 124 199
113 125 201
115 128 204
118 130 208
111 123 198
114 126 202
113 125 201
110 122 197
110 123 199
111 124 199
109 121 195
111 123 198
115 127 204
113 125 201
115 127 203
117 129 207
115 128 204
116 128 204
111 123 197
109 121 194
115 127 204
116 128 205
111 123 198
106 118 191
110 123 198
111 123 198
113 125 201
113 125 200
110 123 198
111 123 197
110 122 196
113 125 200
110 122 196
108 120 193
108 120 194
110 123 197
113 125 201
115 127 202
110 123 197
111 124 200
115 127 203
113 125 201
112 124 200
114 126 202
110 122 196
106 118 192
111 123 198
116 128 205
113 125 200
111 124 198
111 123 199
112 125 200
114 126 203
115 128 206
112 124 200
110 123 197
110 123 198
110 123 198
114 125 201
116 128 206
110 122 198
111 123 198
112 124 200
112 124 199
110 122 196
110 123 198
110 122 196
113 125 200
112 124 199
119 131 209
115 127 203
115 127 202
111 124 199
114 126 202
112 124 200
113 125 201
114 126 202
113 126 202
110 122 197
113 125 201
114 127 203
113 126 202
110 123 197
111 124 200
117 129 207
112 124 199
114 126 202
117 129 206
111 124 200
113 125 200
109 121 196
110 122 196
110 122 196
108 120 195
111 123 199
113 126 202
111 124 199
105 117 189
110 122 197
111 124 199
110 122 195
111 123 198
113 126 201
113 126 201
111 123 197
112 124 199
117 129 207
113 124 199
115 127 203
110 122 196
114 126 202
112 125 201
110 122 196
108 120 194
112 124 199
113 125 201
113 125 202
111 123 198
108 121 196
108 120 194
112 125 200
111 123 198
112 124 200
111 123 198
109 121 195
112 124 200
113 125 201
117 129 207
112 124 200
113 125 200
113 126 202
114 127 203
117 131 194
124 142 185
132 152 179
131 151 179
131 151 179
130 151 178
132 153 179
133 153 180
130 150 178
130 151 179
131 151 179
132 152 179
130 151 179
131 151 178
130 151 178
131 151 178
132 152 179
132 153 180
131 151 179
132 152 179
132 152 179
132 152 178
134 154 180
132 153 179
134 154 181
132 152 179
134 154 181
134 154 181
133 153 180
133 153 180
133 154 181
131 152 179
133 154 181
133 154 180
133 154 180
132 152 180
133 153 180
132 153 180
134 154 180
133 153 180
133 153 180
134 154 181
133 153 180
134 154 181
133 153 180
133 154 181
134 154 181
132 152 179
133 153 180
134 154 181
133 154 180
133 154 180
133 154 181
134 154 181
133 154 181
134 154 181
134 154 181
133 154 181
134 154 181
134 154 181
134 154 181
134 154 181
134 154 181
133 154 180
134 154 181
133 154 181
134 154 180
134 154 181
133 154 180
134 154 181
134 154 181
133 153 180
134 154 180
134 154 180
134 154 181
134 154 181
135 155 181
134 154 181
134 154 181
133 154 181
134 154 181
133 153 180
134 154 181
134 154 181
134 154 181
134 154 181
134 154 181
134 154 181
134 154 181
133 154 181
133 154 181
134 154 181
133 153 180
134 154 181
134 154 181
133 154 181
134 154 181
133 154 181
134 154 181
134 154 181
133 154 180
134 154 181
134 154 181
135 155 181
133 154 181
133 154 181
134 154 181
134 154 181
132 153 180
134 154 181
134 154 181
135 155 181
134 154 181
134 154 181
133 154 181
132 153 180
133 154 181
134 154 181
133 154 181
133 154 181
134 154 181
133 154 180
133 154 181
133 154 181
133 154 181
134 154 180
134 154 181
134 154 181
134 154 181
134 154 181
133 154 181
134 154 181
134 154 181
135 155 181
134 154 181
133 154 181
134 154 181
134 154 181
134 154 181
133 154 181
134 154 181
133 154 181
133 154 181
134 154 181
134 154 181
133 154 181
134 155 181
134 154 181
134 154 181
134 154 181
134 154 181
133 154 181
134 154 181
133 154 181
134 154 181
134 154 181
134 154 181
134 154 181
133 154 181
134 154 181
134 154 181
134 154 181
133 154 181
133 154 181
134 154 181
134 154 181
133 154 181
134 154 181
134 154 181
134 154 181
134 154 181
134 154 181
134 154 181
133 154 181
133 154 181
134 154 181
133 154 180
134 154 181
134 154 181
134 154 181
135 155 181
134 154 181
134 154 181
134 154 181
134 154 181
134 154 181
133 154 180
134 154 180
134 154 181
135 155 181
133 154 181
134 154 181
134 154 181
134 154 181
134 154 181
134 154 181
134 154 180
133 154 181
134 154 181
134 154 181
134 154 181
134 154 181
134 154 181
134 154 181
133 154 181
132 153 181
134 154 181
133 154 181
134 154 181
134 154 181
133 154 181
134 154 181
134 154 181
134 154 181
133 153 179
133 153 180
132 152 179
134 154 180
134 154 181
133 153 180
132 153 179
134 154 181
133 153 180
131 152 180
135 155 181
133 154 181
133 153 180
133 154 180
133 153 180
134 154 181
133 154 180
133 154 181
134 154 181
135 155 181
134 154 181
133 153 180
133 153 180
133 154 181
134 154 181
132 153 179
132 152 179
132 153 180
133 154 180
132 152 179
132 152 179
132 153 179
131 152 179
134 154 180
132 153 180
133 153 180
134 154 180
132 152 179
129 148 186
117 131 190
109 121 194
114 126 203
107 120 193
114 126 203
113 125 201
111 123 198
111 124 200
109 121 196
109 121 196
111 123 199
116 128 205
111 124 199
113 125 202
113 125 201
107 120 194
116 129 206
114 126 202
116 128 204
107 118 191
107 119 193
114 126 202
110 122 197
111 123 198
112 125 200
109 121 194
116 128 205
116 129 206
109 121 196
110 122 197
113 126 202
111 123 197
110 122 197
114 126 203
111 124 200
109 121 194
116 128 206
114 126 204
111 122 197
114 126 202
117 129 206
116 129 206
113 125 200
110 123 197
114 126 201
114 126 202
115 128 204
110 123 198
115 127 204
110 122 197
117 129 206
107 119 193
111 123 198
111 123 197
113 126 202
112 124 200
114 127 203
114 126 203
116 128 204
110 122 196
114 127 202
111 124 198
111 124 199
111 124 200
111 124 199
116 129 206
114 126 202
114 126 203
114 126 202
112 124 198
111 124 200
113 125 200
110 123 198
112 125 201
108 121 195
114 126 202
107 119 192
111 123 198
113 125 201
110 123 198
111 123 198
112 125 201
111 124 198
114 126 202
114 127 205
113 125 200
109 122 196
117 129 206
112 124 199
108 120 194
111 124 199
106 119 191
115 128 204
113 125 201
111 124 199
109 122 197
112 124 199
111 123 198
114 125 201
114 127 204
113 125 202
113 125 202
117 129 206
107 120 194
112 124 199
111 123 199
114 126 203
111 123 198
111 123 198
113 126 203
112 124 200
114 126 202
111 123 199
109 121 195
110 122 196
109 121 195
111 124 198
114 126 202
111 123 198
109 121 196
115 127 203
112 124 200
113 125 201
114 126 203
111 124 199
108 120 194
115 127 203
112 124 199
112 124 200
111 123 198
115 127 204
108 121 195
110 122 196
109 121 195
113 126 201
111 123 198
108 121 195
108 121 195
108 120 195
113 125 199
107 120 193
110 122 197
113 126 202
109 121 196
113 125 202
112 125 201
110 122 197
118 132 194
126 144 184
129 149 177
132 152 179
131 151 179
129 149 177
130 151 178
132 152 179
130 151 178
131 151 178
130 150 178
132 153 180
132 153 180
132 151 179
131 151 179
131 152 179
132 152 179
133 153 180
132 153 179
132 152 180
131 151 179
132 152 180
132 152 180
131 152 179
131 151 179
133 154 180
133 154 180
133 153 180
132 153 179
133 154 181
134 154 181
132 152 180
132 152 179
131 152 179
133 153 179
134 154 180
133 153 180
132 152 179
134 154 180
132 153 180
132 152 179
132 153 180
133 154 180
134 154 180
134 154 180
133 154 180
132 153 180
133 153 180
134 154 181
133 154 180
133 154 181
133 154 181
134 154 181
134 154 181
133 153 180
133 154 180
134 154 181
134 154 181
133 154 180
133 153 180
133 154 181
134 154 180
133 154 180
134 154 181
134 154 180
134 154 181
133 154 181
134 154 181
134 154 181
133 154 180
134 154 181
133 154 180
133 154 181
133 154 181
133 153 180
134 154 181
133 153 179
134 154 181
134 154 181
133 154 181
133 154 181
134 154 181
133 154 181
133 154 181
133 154 181
133 154 180
133 154 181
134 154 181
133 154 181
134 154 181
134 154 181
133 154 181
134 154 181
134 154 181
133 154 181
134 154 180
133 154 181
134 154 181
134 154 181
134 154 181
134 154 181
134 154 181
133 154 181
134 154 180
134 154 181
134 154 181
134 154 180
133 154 181
133 154 181
134 154 181
134 154 181
134 154 181
133 154 181
135 155 181
134 154 181
133 154 181
133 154 181
134 154 181
134 154 181
134 155 181
134 154 181
134 154 181
135 155 181
133 154 181
135 155 181
134 154 181
133 153 180
133 154 181
134 154 181
134 155 181
134 154 181
133 154 181
133 154 181
133 154 180
134 154 181
134 154 181
134 154 181
134 154 181
134 154 181
134 154 181
133 154 181
134 155 181
135 155 181
134 154 181
134 154 181
135 155 181
134 154 181
133 154 180
135 155 181
134 154 181
134 154 181
134 154 181
134 154 181
133 154 181
136 155 181
133 154 180
133 154 181
134 154 181
134 154 181
133 154 181
134 154 181
134 154 181
134 154 181
133 154 181
134 154 181
134 154 181
132 153 181
135 155 181
133 154 181
134 154 180
133 154 181
134 154 181
133 154 181
134 154 181
134 155 181
133 154 181
134 154 181
133 154 181
133 154 181
134 154 181
134 154 181
133 154 181
134 154 181
134 154 181
134 154 181
134 154 181
135 155 181
134 154 181
133 154 181
134 154 181
134 154 181
134 154 181
133 154 181
134 154 181
133 154 181
134 154 181
134 154 181
134 154 181
133 154 181
134 154 181
134 154 181
133 154 181
134 154 181
134 154 181
134 155 181
133 154 181
133 154 181
134 154 181
134 154 181
133 154 181
134 154 181
135 155 181
134 154 181
134 154 181
134 154 181
134 154 180
133 154 180
133 154 180
132 153 180
134 154 181
134 154 181
133 153 180
133 153 180
133 154 181
133 154 180
134 154 180
133 153 180
134 154 181
135 155 181
134 154 181
133 154 181
133 153 180
133 153 180
133 153 180
133 154 181
132 152 179
134 154 181
134 154 181
133 154 180
132 153 179
133 153 180
132 152 179
132 153 180
134 154 181
132 152 179
134 154 180
133 154 180
134 154 180
132 152 179
133 153 180
132 152 179
132 152 180
128 147 185
118 132 192
109 122 196
112 125 201
111 124 200
109 122 195
115 127 204
112 124 199
115 128 204
111 123 198
110 122 197
113 125 201
114 126 202
111 123 199
113 126 202
111 123 197
111 123 198
110 122 197
116 128 205
118 130 207
111 124 200
113 125 201
114 127 204
110 123 198
114 126 201
115 127 204
112 125 200
116 128 204
116 128 204
110 123 198
109 122 197
115 127 204
110 122 196
113 125 201
111 124 198
115 127 203
117 129 206
113 125 200
113 125 201
111 124 198
112 124 199
118 130 208
113 125 201
118 130 207
112 124 199
113 125 201
114 126 202
113 126 202
111 124 199
109 121 195
113 125 201
112 123 198
109 121 195
105 118 191
114 125 200
110 123 197
117 129 206
109 122 196
112 124 198
110 122 198
111 123 198
113 126 202
109 121 195
109 122 196
111 124 199
109 121 194
110 122 195
113 125 201
115 127 203
114 126 201
112 124 199
113 125 201
111 123 197
114 126 202
111 124 199
112 124 200
115 127 203
114 126 202
111 123 198
119 131 208
110 122 196
111 124 199
113 125 201
113 125 201
109 121 194
110 122 197
109 121 195
107 120 193
109 121 196
110 122 197
109 121 195
110 123 197
113 125 200
113 126 201
111 123 198
111 124 199
114 126 202
109 121 194
115 127 203
109 121 195
115 127 202
113 125 202
111 123 198
112 124 200
116 129 205
112 124 199
113 125 201
114 126 202
111 123 198
112 124 200
107 119 193
113 125 201
110 122 196
115 127 204
118 130 208
113 125 201
112 124 200
113 125 201
110 123 197
107 119 192
108 121 196
110 122 197
114 126 202
113 125 199
114 127 204
113 125 202
114 127 203
109 121 195
114 126 201
112 125 201
111 123 199
112 124 201
113 125 201
111 123 197
109 121 196
117 129 205
111 123 196
111 123 198
108 120 194
107 119 193
116 128 205
109 121 195
111 123 198
110 122 196
116 128 204
116 128 205
111 123 197
110 122 197
117 132 194
125 143 185
128 148 177
129 149 177
129 149 177
130 150 177
130 151 178
129 148 177
130 151 179
130 151 178
129 149 178
130 150 178
131 151 179
131 151 179
130 151 179
131 151 179
130 150 178
131 151 179
132 153 180
132 152 179
132 152 179
132 151 178
132 153 180
132 153 180
133 153 179
133 153 180
133 153 180
132 152 179
133 153 180
133 154 180
132 152 179
132 152 179
133 153 180
133 153 180
133 154 180
133 154 181
131 151 179
133 154 181
133 154 181
132 152 179
133 153 180
133 154 181
132 152 179
133 154 180
133 154 180
133 153 180
134 154 181
134 154 181
134 153 180
134 154 180
133 154 180
134 154 181
134 154 180
133 153 180
133 153 179
133 154 181
133 154 181
133 154 181
134 154 180
133 153 180
135 155 181
134 154 181
133 154 180
133 154 181
133 154 181
134 154 181
134 154 181
134 154 181
133 154 181
133 154 180
133 154 181
134 154 181
133 154 181
135 155 181
134 154 181
132 153 180
135 155 181
134 154 181
134 154 180
133 153 180
133 154 181
133 153 180
134 154 181
133 154 180
133 154 181
133 154 181
134 154 181
133 154 180
134 154 181
133 154 181
134 154 181
134 154 181
133 154 181
133 154 181
133 154 181
134 154 181
134 154 181
133 154 181
133 154 180
134 154 181
134 154 181
133 154 181
133 154 181
134 154 181
134 154 181
134 154 181
134 154 181
134 155 181
134 154 180
134 154 181
133 154 181
133 154 180
134 154 181
134 154 181
134 154 181
134 154 181
133 154 181
133 154 181
134 154 181
133 154 181
134 154 181
133 154 181
133 154 180
134 154 181
133 154 181
133 154 181
135 155 181
134 155 181
133 154 181
134 154 181
134 154 181
133 154 181
134 154 181
134 154 181
134 154 181
134 154 181
134 154 181
134 154 181
133 154 181
134 154 181
134 154 181
133 154 181
133 154 181
134 154 181
134 154 181
133 154 181
133 154 181
133 153 180
133 154 181
134 154 181
134 154 181
133 154 181
133 154 181
134 154 181
132 153 181
135 155 181
133 154 181
133 154 181
133 154 181
133 154 181
133 154 181
134 154 181
133 154 181
133 154 181
134 154 180
133 154 181
134 154 181
134 154 181
135 155 181
134 155 181
134 154 181
134 154 181
134 154 181
134 154 181
134 154 181
134 154 181
134 154 181
134 154 181
134 154 181
133 154 181
134 154 181
134 154 181
133 154 181
133 154 180
134 154 181
134 154 181
133 154 181
133 154 181
134 154 181
134 154 181
133 154 181
134 154 181
132 153 180
134 154 181
133 154 181
133 154 180
133 154 181
134 155 181
134 154 181
133 154 181
133 154 181
134 154 181
134 154 181
134 155 181
134 154 181
134 154 181
133 154 181
134 154 181
133 154 181
133 154 181
134 154 181
134 154 181
133 154 181
134 154 181
134 154 181
133 154 180
132 153 180
133 153 180
133 153 180
133 154 180
134 154 181
132 153 180
133 153 180
134 154 181
134 154 180
133 153 180
134 154 181
134 154 181
133 154 180
133 153 179
134 154 180
134 154 180
133 154 181
132 152 180
133 153 180
132 152 179
132 153 180
133 153 179
133 154 181
132 153 180
132 153 180
133 154 181
131 151 179
132 152 180
133 153 179
132 152 179
131 152 180
131 151 179
132 153 180
132 151 178
131 151 179
131 151 179
128 147 185
115 130 191
107 119 192
107 119 193
112 124 200
109 121 195
110 123 198
113 125 201
111 123 199
114 126 201
110 122 197
114 126 202
109 121 195
112 124 200
116 128 205
110 123 198
111 123 198
118 130 207
105 118 191
110 122 197
111 123 199
112 124 199
111 124 199
111 123 197
110 122 197
110 123 198
112 125 200
110 122 196
119 131 210
115 127 203
111 123 198
111 124 199
110 123 199
114 127 203
110 122 197
113 125 201
116 128 204
115 127 204
116 128 205
111 123 198
116 128 205
113 126 203
110 123 197
114 126 202
113 126 202
113 124 199
109 121 195
111 123 198
106 119 191
112 124 199
110 122 197
108 120 194
115 128 204
111 123 197
113 126 201
116 128 205
112 124 200
112 124 199
115 127 203
112 124 198
114 126 202
111 123 199
115 127 204
115 127 203
108 120 194
111 123 199
113 125 201
108 120 195
112 124 200
115 127 202
113 125 200
115 127 203
112 124 199
107 119 193
112 124 199
112 124 199
111 123 198
111 123 198
115 128 205
113 126 201
114 126 202
113 125 200
115 127 204
115 127 204
115 127 203
112 124 198
112 125 201
113 124 198
114 127 204
118 130 208
111 123 197
113 125 201
109 122 196
114 126 202
113 125 201
107 119 193
104 116 188
112 124 200
115 127 203
109 122 196
115 127 204
107 119 192
113 125 201
107 119 192
110 123 198
114 126 203
109 121 196
114 126 203
110 123 198
114 126 202
113 125 200
109 121 195
112 123 198
108 120 193
109 121 195
111 123 198
114 126 202
113 126 201
110 122 196
111 123 199
116 128 205
110 121 195
114 126 201
111 123 199
108 121 194
114 125 201
107 119 192
112 124 200
111 123 199
115 126 202
113 125 201
113 125 200
113 124 200
110 123 197
112 124 198
110 122 198
110 123 198
106 118 192
111 123 197
107 119 192
112 124 201
110 123 198
110 123 198
111 123 200
111 123 199
111 123 198
113 126 203
109 122 196
117 131 193
124 142 186
127 147 176
129 149 177
130 150 178
129 150 178
130 150 178
129 150 178
130 150 178
128 148 176
130 150 179
128 147 176
130 150 178
132 152 179
129 149 177
133 153 179
132 152 179
130 150 178
131 152 179
132 153 180
130 150 178
130 150 178
132 152 179
133 153 180
133 153 180
133 153 180
131 151 178
132 153 180
132 152 179
132 152 179
132 152 180
133 153 180
133 153 179
132 153 180
134 154 181
132 152 179
133 153 180
133 153 180
133 153 180
132 153 180
133 153 180
132 153 179
133 153 179
133 154 180
132 152 178
132 153 180
134 154 180
133 154 181
134 154 180
132 153 180
133 153 180
134 154 180
134 154 180
133 154 181
134 154 181
133 154 181
134 154 181
134 154 181
133 153 179
134 154 181
134 154 180
133 154 180
134 154 181
133 153 180
134 154 180
133 153 180
133 154 180
134 154 181
134 154 181
134 154 181
134 154 181
134 154 181
134 154 181
133 153 180
134 154 181
133 154 181
134 154 181
134 154 181
135 155 181
133 154 181
134 154 181
134 154 181
134 154 181
133 154 181
134 154 181
134 154 181
134 154 181
134 154 180
133 153 179
133 154 181
134 154 181
134 154 181
133 154 181
134 154 181
134 154 181
134 154 181
133 154 181
133 153 180
134 154 180
133 153 180
133 154 181
133 154 181
134 154 181
134 154 181
133 154 181
134 154 181
133 154 181
132 153 181
133 154 181
133 154 180
134 154 181
134 154 181
134 154 181
134 154 181
133 154 181
134 154 181
133 154 181
134 154 181
133 154 181
133 154 181
134 154 181
134 154 181
133 154 181
134 154 181
134 154 181
134 154 181
134 154 181
133 154 181
133 154 181
133 154 181
133 154 181
133 154 181
134 154 181
133 154 181
134 154 181
134 154 181
134 154 181
133 154 181
133 154 181
134 154 181
132 153 181
134 154 181
134 154 181
134 154 181
133 154 181
133 154 181
134 154 181
133 154 181
134 154 181
133 154 181
133 154 181
134 154 181
134 154 181
134 154 181
134 154 181
134 155 181
134 154 181
134 154 181
134 154 181
134 154 181
133 154 181
134 154 181
134 154 181
134 154 181
134 154 181
134 154 181
133 154 181
134 154 181
134 154 181
134 154 181
134 154 181
133 154 181
135 155 181
133 154 181
134 154 180
134 154 181
134 154 181
134 154 181
134 155 181
134 154 181
134 154 181
135 155 181
133 154 181
134 154 181
133 154 181
133 154 181
133 154 181
134 154 181
134 154 181
133 154 181
133 154 181
134 155 181
133 154 180
134 154 181
134 154 181
134 154 181
135 155 181
133 154 181
133 154 181
134 154 181
134 154 181
134 154 181
134 154 181
135 155 181
134 154 181
133 154 181
134 154 181
134 154 181
133 154 181
133 154 180
134 154 181
133 154 181
132 153 180
134 154 181
133 153 179
133 154 181
133 154 180
133 154 181
133 154 181
133 153 180
134 154 180
134 154 180
132 153 180
133 153 180
132 153 180
132 152 179
132 152 179
134 154 180
132 153 180
133 154 180
134 154 181
133 153 180
133 154 180
132 152 180
133 153 180
133 153 180
133 153 180
132 152 179
132 152 179
133 153 180
133 153 179
131 152 179
132 153 179
131 151 179
131 151 179
132 152 179
132 153 180
132 153 180
132 153 180
132 153 180
130 150 177
131 151 178
127 146 179
118 133 190
112 125 199
114 125 201
111 123 197
109 121 196
109 121 195
109 121 196
111 123 198
112 124 199
111 124 199
113 125 200
111 123 199
114 126 202
109 122 197
109 122 198
110 122 197
113 126 202
108 120 195
109 122 196
113 125 202
109 122 196
110 122 196
110 123 197
115 127 203
111 123 198
111 123 199
117 129 206
107 119 192
109 122 196
113 126 203
114 126 202
115 127 201
112 124 199
114 126 203
113 125 200
115 128 204
116 128 205
109 122 197
111 123 198
114 126 202
111 123 199
112 124 199
111 123 198
118 130 207
115 128 205
109 121 195
116 128 204
110 122 197
114 126 203
113 125 201
111 123 198
114 127 203
112 124 200
114 126 202
113 125 200
111 123 198
116 128 204
111 124 199
119 131 210
111 123 198
113 125 200
112 124 199
111 124 200
112 125 200
117 129 205
112 125 200
115 128 204
116 128 205
114 126 202
108 120 194
112 125 200
111 124 200
112 125 200
112 124 200
109 121 196
115 127 204
114 126 203
112 125 200
112 125 201
109 121 195
110 123 197
107 119 192
111 123 198
113 126 202
112 124 200
113 126 201
116 128 205
111 124 199
114 126 202
114 126 201
108 120 194
113 125 201
110 123 198
111 124 198
115 127 202
110 122 197
111 123 198
109 121 195
113 125 201
110 122 197
109 121 194
113 125 200
109 121 196
110 122 197
109 122 196
109 122 196
112 124 200
113 125 201
112 124 200
113 125 201
112 124 200
107 120 194
110 122 196
109 121 195
110 122 196
111 123 199
110 123 198
107 119 192
114 127 204
110 123 198
113 125 200
110 122 197
114 127 204
112 124 199
115 127 203
112 124 199
110 122 197
110 122 197
113 125 201
113 125 201
112 124 199
109 121 195
116 128 205
113 125 201
107 119 191
111 123 198
114 126 203
107 119 193
108 120 193
104 116 189
111 123 198
110 122 197
111 123 198
110 123 199
115 127 204
115 127 204
110 122 196
115 130 190
125 142 183
129 148 177
127 146 175
129 149 177
129 149 176
128 148 176
132 152 179
128 148 176
131 151 178
131 151 179
130 150 178
130 150 178
132 152 180
130 150 177
130 151 179
131 151 179
128 148 176
131 151 179
131 152 179
130 150 179
131 151 178
131 151 179
133 153 180
132 152 179
132 152 180
131 151 179
132 153 180
130 151 179
132 153 180
133 154 180
132 152 179
132 152 179
133 153 180
131 152 180
133 153 180
131 151 178
132 153 180
133 153 180
131 152 179
133 153 180
134 154 180
133 153 180
134 154 180
132 152 179
134 154 180
133 153 180
133 153 180
134 155 181
132 153 180
133 153 180
133 153 180
133 154 180
135 155 181
133 154 180
133 153 180
132 153 179
134 154 181
134 154 180
133 153 180
132 153 180
133 153 180
132 153 180
132 153 180
133 154 180
134 154 180
133 154 181
133 154 180
132 152 180
134 154 180
134 154 181
133 154 181
134 154 181
135 155 181
133 154 181
133 154 181
134 154 181
133 154 181
134 154 181
133 154 181
135 155 181
133 153 180
134 154 181
134 154 180
134 154 181
133 154 181
133 154 180
134 154 181
134 154 181
134 154 181
134 154 181
134 155 181
133 154 181
133 153 180
133 154 181
133 154 180
134 155 181
133 154 180
133 154 181
133 154 181
134 154 181
134 154 181
133 154 181
134 154 181
134 154 181
134 154 181
134 154 181
134 154 180
133 154 181
134 154 181
134 154 181
134 154 181
133 154 180
134 154 181
134 154 181
134 154 181
134 155 181
133 154 181
134 154 180
133 154 181
134 154 181
134 154 181
133 154 181
134 154 181
134 154 181
134 154 181
133 154 181
134 154 181
134 154 181
134 154 181
134 154 180
133 154 181
134 154 181
134 154 181
135 155 181
133 154 181
134 154 181
135 155 181
134 154 181
135 155 181
134 154 181
133 154 181
133 154 181
134 154 181
134 154 181
134 154 181
134 154 181
133 154 181
134 155 181
134 154 181
133 154 181
134 154 181
134 154 180
134 154 181
133 154 181
133 154 181
134 154 181
135 155 181
133 154 181
133 154 181
133 154 181
133 153 180
133 154 181
134 154 181
133 154 181
134 154 181
133 154 181
134 154 181
133 154 181
133 154 181
135 155 181
134 154 181
133 154 181
134 155 181
134 154 180
134 154 181
133 154 181
134 155 181
134 154 181
133 154 181
133 154 181
134 155 181
133 154 181
134 154 181
134 154 181
134 154 181
134 154 181
135 155 181
133 154 181
134 154 181
134 154 181
134 154 181
133 154 181
133 154 181
134 154 181
133 154 181
133 154 181
134 154 181
134 154 181
134 154 181
133 154 180
133 154 181
134 154 181
133 154 180
134 154 181
134 154 181
134 154 181
133 154 181
134 154 181
134 154 181
134 154 181
132 153 180
132 153 180
134 154 180
134 154 181
133 153 180
131 152 179
133 153 179
134 154 181
133 154 181
134 154 180
133 154 181
133 153 179
132 153 179
134 154 181
133 153 180
133 154 180
133 153 180
134 154 181
134 154 181
133 153 180
132 152 179
133 153 180
134 154 181
132 153 180
133 154 181
132 152 180
132 153 179
131 151 178
132 152 180
132 153 180
133 153 180
132 152 180
132 153 180
130 151 178
130 150 178
130 150 178
133 153 180
131 152 179
131 152 179
130 151 178
132 153 180
126 145 180
119 134 190
115 128 200
110 122 196
112 124 200
109 121 196
113 126 201
114 127 203
108 120 194
106 119 193
107 119 193
110 123 198
116 127 203
111 123 197
114 127 205
113 126 202
112 124 200
113 125 200
111 124 201
110 122 196
112 124 200
110 122 196
112 124 200
112 124 201
112 124 199
108 120 194
113 125 200
111 123 198
113 125 200
108 120 194
110 123 198
112 124 198
111 123 197
115 127 203
111 123 197
111 123 198
110 122 196
111 122 197
112 124 199
112 124 200
108 121 194
109 121 195
113 125 202
113 125 201
112 124 199
109 121 195
110 122 196
112 125 202
111 123 198
113 125 199
112 124 199
115 127 204
112 124 200
108 120 194
114 126 202
110 122 197
112 124 198
114 126 201
110 122 197
114 126 203
108 121 195
112 125 200
111 123 198
114 126 202
114 126 201
107 120 194
116 127 203
109 122 197
113 125 200
114 126 202
113 125 201
115 127 204
112 124 199
116 128 204
114 126 202
115 128 205
116 129 206
112 124 200
113 125 200
115 127 202
113 125 201
110 122 197
110 122 197
111 123 198
107 119 193
110 122 197
111 123 198
112 124 200
108 121 195
116 129 206
112 125 200
114 126 202
106 118 192
108 120 193
114 126 203
112 124 200
109 121 196
109 122 196
108 120 193
116 128 205
113 126 202
111 124 200
106 118 190
112 124 199
108 120 193
116 128 206
113 125 201
110 123 198
110 121 196
112 124 199
116 127 204
111 123 197
112 124 198
112 124 200
111 123 197
109 120 194
111 123 199
117 128 205
114 126 202
115 127 204
113 126 201
109 121 194
112 125 200
112 124 200
110 123 199
108 120 194
108 120 194
112 124 200
109 121 195
112 124 201
108 120 193
112 123 199
113 125 201
116 128 204
110 122 197
110 123 198
112 124 199
113 125 200
110 123 198
110 122 196
111 123 198
114 126 201
113 125 200
109 121 195
109 121 196
110 122 196
111 124 199
112 124 200
118 133 196
120 137 182
129 149 177
128 149 177
127 146 176
129 149 178
128 148 177
128 148 177
130 150 178
127 147 175
129 148 176
131 151 178
129 149 178
129 149 177
131 150 179
130 150 178
130 150 178
132 152 179
133 153 180
130 151 178
132 152 179
133 153 180
132 152 179
133 153 180
132 152 180
132 153 180
131 151 178
133 153 180
132 152 179
133 153 179
133 154 181
132 152 180
132 153 180
133 154 180
132 152 179
131 151 178
131 152 179
133 154 181
132 153 180
133 154 181
133 153 180
133 153 180
133 153 180
134 154 180
134 154 181
130 150 178
133 154 181
134 154 181
133 154 180
133 153 179
133 154 181
134 154 181
133 153 180
134 154 180
134 154 180
133 153 180
134 154 181
134 154 180
134 154 181
133 154 180
133 154 181
133 153 180
134 154 181
133 153 180
133 153 180
133 153 180
134 154 181
133 154 181
134 154 181
134 154 181
133 153 179
134 154 181
133 154 180
133 153 180
134 154 181
133 154 181
134 154 180
134 154 181
134 154 181
133 154 181
134 154 181
134 154 181
133 154 181
134 154 181
134 154 181
135 155 181
133 154 180
134 154 181
133 154 180
135 155 181
134 154 181
134 154 181
133 154 181
134 154 180
133 154 181
132 153 180
132 153 180
134 154 181
133 154 181
134 154 181
133 154 181
134 154 181
134 154 181
134 154 180
134 154 181
133 153 180
134 154 181
134 154 181
134 155 181
134 154 181
134 154 181
134 154 181
133 154 181
134 154 181
134 154 181
134 154 181
133 154 181
134 154 181
133 154 181
134 154 181
134 154 181
133 154 181
133 154 181
133 154 181
133 154 181
134 154 181
134 154 181
134 154 181
133 154 181
134 154 181
134 154 181
134 154 181
134 154 181
135 155 181
133 154 181
133 154 181
133 154 181
133 154 181
133 154 181
134 154 181
134 154 181
134 154 181
134 155 181
133 154 181
134 154 181
134 154 181
134 154 181
133 154 181
134 154 181
134 154 181
134 155 181
134 154 181
134 154 181
133 154 181
135 155 181
134 154 181
134 154 181
134 154 181
133 154 181
134 154 181
134 154 181
134 154 181
134 155 181
133 154 181
133 154 181
134 154 181
134 154 181
134 154 181
134 154 181
133 154 181
133 154 181
134 154 181
135 155 181
134 154 181
135 155 181
134 154 181
133 154 181
133 154 181
134 154 181
134 154 181
134 154 181
134 154 181
133 154 181
133 154 180
134 154 181
133 154 180
134 154 181
134 154 181
135 155 181
133 154 181
133 154 181
134 154 181
133 154 181
134 154 181
134 154 181
133 154 181
134 154 181
134 154 181
133 154 181
134 154 181
133 154 181
133 154 181
133 154 181
134 154 181
134 154 181
134 154 181
133 154 181
134 154 180
134 154 181
134 154 181
134 154 181
133 153 180
134 154 181
133 154 180
133 153 180
134 154 180
133 153 180
132 152 179
133 153 180
133 153 180
133 153 180
132 153 180
134 154 180
133 154 180
132 152 180
133 153 180
133 153 180
134 153 179
131 151 178
132 152 180
132 152 179
133 153 180
133 153 179
134 154 180
132 152 179
132 153 179
132 153 180
131 152 179
132 152 179
133 153 180
132 152 179
133 153 180
131 152 179
132 153 180
131 151 178
131 151 178
130 150 178
132 152 180
131 150 178
130 150 178
132 152 179
133 153 180
126 145 178
118 134 188
109 122 193
107 120 193
112 124 200
112 125 201
112 124 200
108 120 194
113 125 201
116 129 206
112 124 201
111 123 198
114 126 203
110 122 198
112 124 199
113 124 199
111 124 199
115 127 204
112 124 200
114 126 203
116 128 205
114 126 202
112 124 199
109 122 196
108 120 194
111 123 198
113 125 200
111 123 197
108 120 194
112 124 198
111 123 198
112 124 200
116 128 204
113 125 200
114 127 204
112 124 200
112 124 199
112 125 200
111 123 198
113 125 200
110 122 197
110 123 197
114 126 201
110 122 196
113 125 200
112 124 198
110 122 196
108 121 194
116 129 207
115 127 204
116 129 205
114 127 204
111 123 198
114 126 201
117 129 207
111 123 196
111 123 197
109 122 196
114 126 202
112 124 200
113 125 201
117 129 207
109 121 196
112 124 200
112 125 200
110 122 196
115 127 202
115 127 203
111 124 201
113 125 200
110 122 196
117 129 206
106 118 192
112 125 200
111 124 200
116 128 204
108 121 195
115 127 204
113 125 201
107 120 193
113 125 200
113 125 202
109 121 196
115 127 203
112 124 199
109 122 197
112 124 200
115 127 203
111 123 198
116 128 204
113 125 200
112 124 199
110 122 196
112 125 201
115 127 203
109 122 197
110 123 197
114 126 202
111 123 198
112 125 201
113 125 202
109 121 194
113 125 200
112 124 199
111 124 200
110 122 197
113 125 201
111 123 198
111 123 198
111 123 198
116 128 205
118 130 208
110 122 196
109 121 197
109 121 195
115 128 205
109 121 196
111 123 198
109 121 196
106 118 191
113 125 202
112 124 199
108 120 194
111 123 199
115 127 203
113 126 202
114 126 201
109 121 195
113 125 201
115 127 203
113 126 203
103 116 188
113 125 200
112 125 202
111 123 198
120 132 210
107 119 193
109 121 196
111 123 198
113 125 201
108 121 195
108 120 193
115 127 204
108 120 193
114 127 204
114 127 204
111 123 198
108 120 194
116 131 197
124 141 184
128 147 178
127 147 176
127 147 176
130 150 178
130 150 178
128 148 176
130 150 177
126 145 174
128 148 176
129 149 177
131 151 178
131 151 179
130 150 178
129 148 176
130 150 178
129 149 177
131 152 179
131 150 178
131 151 178
131 151 178
131 151 179
132 152 180
133 153 180
132 153 180
132 152 179
131 151 178
132 153 179
131 152 179
132 153 180
133 153 180
132 152 179
133 153 180
132 153 180
131 152 180
131 151 179
133 154 180
131 152 180
133 154 181
132 153 179
133 153 180
133 153 179
134 154 181
133 154 180
133 154 180
134 154 181
133 154 181
133 153 179
133 154 181
132 153 180
134 154 181
134 154 181
132 153 180
133 153 180
134 154 181
133 153 180
133 153 180
133 153 180
134 154 181
132 153 180
134 154 180
133 153 180
134 154 181
133 153 180
133 153 179
133 154 180
133 153 180
133 154 180
133 153 180
134 154 181
134 154 180
132 153 181
134 154 180
135 155 181
132 153 180
134 154 181
133 154 181
134 154 181
134 154 181
133 153 180
134 154 181
134 154 181
134 154 180
134 154 180
134 154 181
134 154 181
134 154 181
135 155 181
134 154 181
133 154 181
134 154 181
133 154 181
134 154 181
135 155 181
133 153 180
132 153 180
133 154 180
134 154 181
134 154 181
133 154 181
134 154 181
134 154 181
133 154 181
134 154 181
134 154 181
133 154 180
134 154 181
134 154 181
134 154 181
134 154 181
134 154 181
133 154 181
133 154 181
134 154 181
133 153 180
133 154 181
134 154 181
133 154 180
134 154 181
133 154 181
134 154 181
133 154 181
134 154 181
134 154 181
133 154 181
134 154 181
134 155 181
133 154 181
133 153 180
133 154 181
133 154 181
135 155 181
134 154 181
134 154 181
134 154 181
134 154 181
134 154 181
134 154 181
133 154 181
133 154 181
134 154 180
134 154 181
132 153 180
133 153 180
133 154 181
133 154 181
134 154 181
133 154 181
135 155 181
134 154 181
133 154 180
134 154 181
134 154 181
133 154 181
134 154 181
133 154 181
134 154 181
134 154 181
135 155 181
134 154 181
134 154 181
134 154 181
133 154 181
133 154 181
134 155 181
135 155 181
134 154 181
134 154 181
134 154 181
134 154 181
135 155 181
133 154 181
134 154 181
133 154 181
134 154 181
134 154 181
134 154 181
134 154 181
133 153 180
134 154 181
134 154 181
134 154 181
134 154 181
133 154 181
133 154 180
134 154 181
134 154 181
134 154 181
134 154 181
133 154 181
133 154 181
134 154 181
134 154 181
134 154 181
134 154 181
134 154 181
133 154 181
134 154 181
134 154 181
135 155 181
133 154 181
134 154 181
134 154 181
134 154 181
133 154 181
134 154 181
133 154 181
134 154 181
134 154 181
134 154 181
134 154 181
133 154 180
133 153 180
134 154 181
133 153 180
133 153 180
133 153 180
132 151 179
132 152 179
131 151 179
133 153 180
133 153 180
133 154 181
133 154 181
133 154 181
133 154 180
133 154 180
133 153 180
133 154 180
130 150 177
132 153 179
131 152 180
132 152 179
133 153 179
132 152 179
133 153 179
131 152 180
132 152 179
132 152 179
131 151 178
132 152 179
130 150 178
132 152 179
130 150 178
131 151 179
130 150 178
131 151 179
130 150 179
130 150 179
126 145 174
130 151 179
129 149 179
121 138 189
114 127 197
109 122 196
111 123 198
110 122 197
114 126 202
112 125 201
112 124 200
113 125 201
113 125 201
112 124 200
110 122 196
112 124 200
113 126 203
109 122 197
112 124 199
107 119 194
107 119 193
110 123 198
112 124 200
109 122 197
113 125 201
117 129 207
116 128 204
111 123 199
112 124 200
112 124 199
112 125 201
112 124 200
114 126 202
108 120 193
112 124 199
114 126 202
108 120 194
111 123 198
108 120 193
113 125 201
112 124 199
114 127 203
110 122 196
110 122 196
113 125 201
109 121 196
110 123 198
112 124 199
111 123 198
108 121 194
112 124 199
110 123 197
110 123 197
112 124 200
110 123 198
110 123 198
114 126 201
110 122 196
114 126 201
116 128 204
114 126 203
115 128 205
106 118 192
114 126 201
112 124 200
114 126 202
106 119 193
113 125 201
114 126 202
112 125 200
111 124 199
114 126 203
111 123 197
113 125 201
114 126 201
112 124 200
106 118 191
110 123 197
115 127 204
116 128 204
115 127 204
113 125 200
113 125 201
112 124 199
114 126 201
111 123 198
113 125 200
109 122 197
108 121 195
111 124 199
113 125 200
107 120 195
112 125 202
115 128 204
110 122 196
110 122 197
111 123 198
111 124 199
113 125 201
115 127 204
111 123 199
114 126 203
113 125 200
112 124 199
111 124 199
111 123 200
111 123 199
113 125 201
114 126 201
116 129 206
108 121 196
112 124 199
115 127 204
107 119 192
112 124 200
112 124 200
110 123 198
112 125 200
112 124 200
115 127 205
109 121 196
113 126 202
112 124 200
112 124 199
110 122 196
111 123 198
111 124 199
113 126 202
113 125 201
107 119 193
111 123 198
110 123 198
110 122 196
112 124 199
113 125 201
109 121 195
107 119 193
112 125 201
114 126 201
114 125 202
111 123 199
110 122 197
108 120 194
113 125 201
110 122 196
115 128 205
115 128 205
111 123 198
112 124 200
110 123 198
111 125 191
125 143 184
125 144 174
126 145 174
124 143 174
124 143 173
128 148 176
128 148 177
129 149 177
129 149 178
129 149 178
129 149 177
129 149 177
130 150 177
127 147 175
130 150 177
130 150 178
130 150 177
131 151 179
131 151 178
131 151 178
130 150 178
130 150 178
132 152 179
131 151 179
129 149 178
132 152 178
132 151 178
133 153 180
131 152 179
131 151 178
132 152 179
133 152 179
134 154 180
133 153 180
131 151 179
131 152 179
132 152 179
133 153 180
133 154 180
132 153 180
133 153 180
132 153 180
131 151 179
133 153 180
132 153 179
133 153 180
133 153 180
134 154 181
132 152 179
133 154 180
133 153 179
132 153 180
133 153 180
134 154 181
135 155 181
135 154 180
133 154 180
134 154 180
133 153 180
134 154 181
133 153 180
134 154 181
134 154 181
134 154 181
133 154 180
133 153 180
132 153 180
134 154 181
134 154 180
133 154 181
133 154 181
133 154 180
134 154 181
134 154 181
133 154 181
134 154 181
134 154 181
133 154 181
134 154 181
134 154 181
133 154 181
133 154 181
134 154 180
134 154 181
134 154 181
134 154 181
133 154 181
134 154 180
134 154 181
133 154 181
134 154 181
133 153 180
134 154 181
133 154 181
134 155 181
133 154 181
134 154 181
134 154 181
134 154 181
134 154 181
133 154 181
134 154 181
133 154 181
133 154 181
135 155 181
134 154 181
134 154 180
133 153 180
134 154 180
134 154 181
134 154 181
133 154 180
134 154 181
134 154 181
134 155 181
134 154 181
134 154 181
134 154 181
133 153 180
133 154 181
134 154 181
134 154 180
133 154 181
134 154 181
134 154 181
134 154 181
134 154 181
134 155 181
134 154 181
133 154 181
134 154 181
134 154 181
134 154 181
134 154 181
133 154 181
134 154 181
133 154 181
134 154 181
133 154 181
133 154 181
134 154 181
134 154 181
134 154 180
134 154 181
133 154 181
134 154 181
134 154 181
134 154 181
134 154 181
133 154 181
133 154 181
135 155 181
134 154 181
134 154 181
134 155 181
133 154 181
133 154 181
133 154 181
134 154 181
135 155 181
133 154 181
134 154 181
134 154 181
133 154 181
134 154 181
133 153 180
133 154 181
134 154 181
134 154 180
134 154 181
133 154 181
134 154 181
133 154 181
134 154 181
133 154 181
134 154 181
134 154 181
133 154 181
134 154 181
134 154 181
133 154 181
133 154 181
133 154 181
133 154 181
133 154 181
133 154 181
133 154 181
133 154 181
134 154 181
133 154 181
134 154 181
134 154 181
134 155 181
134 154 181
134 154 181
134 154 181
134 154 181
134 154 181
133 154 181
134 154 181
134 154 181
134 154 181
133 154 181
134 154 181
134 154 181
134 154 181
134 154 181
133 154 181
134 154 181
134 154 181
133 153 180
133 153 180
132 153 180
133 153 180
132 153 180
133 153 180
133 153 180
133 154 180
133 154 180
133 153 179
133 153 180
133 153 180
131 152 179
133 153 180
132 152 179
132 153 180
132 152 180
133 153 179
131 152 179
133 153 179
132 153 180
132 152 179
132 152 179
133 152 179
131 151 178
132 153 179
131 151 179
132 152 180
131 152 179
131 152 178
133 153 179
131 151 179
131 151 179
131 151 179
133 153 180
131 151 178
130 150 177
129 150 177
130 150 178
131 151 179
127 146 175
131 150 180
122 140 186
108 121 191
113 125 201
115 127 204
115 126 203
110 122 197
111 123 198
109 122 196
113 125 201
110 123 197
109 120 194
113 125 201
109 120 194
110 123 197
113 125 201
112 124 199
110 123 199
113 124 199
110 122 197
112 123 198
116 128 205
111 123 198
113 125 201
113 126 202
112 124 200
115 127 203
116 128 205
112 125 201
111 123 199
111 123 198
110 122 197
111 124 199
109 121 195
111 123 197
110 123 198
111 123 198
115 128 205
109 122 197
111 124 200
114 126 202
113 125 201
114 126 202
112 124 199
112 124 199
114 126 202
111 124 199
114 126 202
117 129 205
116 128 204
114 127 204
112 124 200
111 123 199
111 123 198
113 125 201
109 121 194
110 122 196
112 124 200
114 126 202
114 126 201
113 125 202
112 124 200
110 123 197
113 125 201
111 123 199
108 121 195
112 124 198
112 124 199
115 127 204
111 123 198
114 126 202
114 126 203
109 121 195
112 125 201
114 126 203
112 124 200
112 124 199
111 123 198
109 121 195
113 126 202
109 122 196
110 123 198
110 122 196
106 118 192
111 123 197
112 125 201
113 126 202
112 125 200
110 122 196
112 124 200
108 120 195
110 123 198
110 122 197
109 122 196
112 125 201
112 125 200
110 122 197
108 121 194
112 124 199
113 125 201
109 121 195
111 123 198
114 127 204
114 127 203
108 120 194
113 125 201
115 127 204
115 128 205
108 120 194
110 122 196
110 122 197
113 125 200
112 125 200
110 123 199
113 125 200
114 127 203
106 118 191
104 116 189
111 123 199
111 122 197
109 122 197
117 129 207
111 123 199
112 123 198
109 122 197
112 125 200
115 127 204
108 120 195
106 117 190
112 124 200
111 123 199
111 123 198
108 121 195
107 119 194
110 122 196
109 121 195
112 125 202
111 123 199
110 122 197
114 125 201
108 121 195
111 123 198
112 124 200
113 125 200
109 122 197
113 125 200
115 127 203
103 116 189
113 127 192
122 140 181
123 141 173
125 144 173
126 145 174
128 148 176
128 148 176
126 146 175
129 149 178
125 145 175
129 149 178
130 149 178
127 147 176
129 148 177
132 152 179
126 145 174
129 149 178
128 148 175
130 150 178
126 145 173
131 151 179
132 152 179
130 150 178
130 151 179
130 150 178
130 150 179
132 152 179
130 150 178
132 152 179
131 151 179
130 151 179
132 152 179
131 151 178
132 151 179
132 152 180
131 152 179
133 154 180
133 154 181
130 151 179
133 153 180
134 154 181
133 153 180
134 154 181
133 153 179
134 154 181
132 152 179
132 152 180
133 153 180
132 152 179
134 154 181
133 154 180
133 154 181
132 153 180
133 153 180
132 152 179
133 154 181
133 153 179
133 154 181
134 154 180
133 153 180
133 154 181
134 154 181
133 154 180
133 153 180
133 154 180
134 154 181
133 154 180
132 153 179
133 153 180
133 153 180
133 154 181
133 154 180
134 154 181
133 154 181
134 154 181
133 154 181
133 154 180
133 154 181
134 154 181
133 153 180
134 154 181
134 154 180
133 154 181
133 154 180
132 152 179
133 154 180
134 154 181
134 154 180
134 154 181
133 154 180
134 154 181
132 153 181
134 154 181
134 154 181
134 154 181
133 154 181
134 154 181
133 154 180
134 154 181
134 154 181
134 154 181
133 154 181
134 154 181
134 154 181
133 154 181
134 154 181
133 154 181
134 154 181
134 154 181
134 154 181
134 154 181
134 154 181
135 155 181
134 154 181
134 154 180
133 154 180
135 155 181
133 154 181
133 154 180
134 154 181
134 154 181
134 154 181
134 154 181
134 154 181
135 155 181
134 155 181
135 155 181
135 155 181
134 154 181
134 154 181
135 155 181
134 154 181
134 154 181
134 154 181
133 154 181
134 154 181
135 155 181
134 154 181
133 154 180
134 154 181
135 155 181
133 154 181
134 154 181
133 154 181
133 154 181
134 154 181
133 154 181
133 154 181
134 154 181
134 154 181
134 154 181
133 154 181
134 154 180
134 154 181
133 154 181
133 154 181
134 154 181
133 154 181
134 154 181
134 154 181
133 154 181
134 154 181
134 154 181
135 155 181
134 154 181
134 154 181
134 154 181
133 154 181
134 154 181
133 154 181
133 154 181
133 154 181
134 154 180
134 155 181
133 154 181
134 154 181
134 154 181
133 154 181
135 155 181
133 154 180
135 155 181
134 154 181
134 154 180
134 154 181
134 154 181
134 154 181
134 154 181
134 154 181
134 154 181
134 154 181
133 154 181
134 154 181
134 154 181
134 154 181
134 154 181
134 154 181
133 154 181
133 154 181
133 154 181
135 155 181
135 155 181
135 155 181
133 154 181
134 154 181
134 154 181
135 155 181
134 154 181
135 155 181
133 154 181
133 154 181
133 154 181
133 154 181
133 154 180
134 154 180
132 153 180
132 153 180
132 153 179
132 153 180
133 153 179
133 153 180
132 152 179
134 154 181
133 153 180
133 154 180
131 151 178
133 153 180
133 153 180
132 152 179
134 154 180
132 152 179
133 153 180
130 150 178
130 150 178
132 152 180
133 153 180
132 153 180
130 150 178
132 152 179
133 153 180
133 153 180
131 151 179
130 151 178
133 153 179
128 148 176
132 152 179
132 152 179
131 151 179
130 150 178
129 149 177
128 148 177
129 148 177
130 150 177
127 147 176
121 138 182
113 126 194
113 125 201
113 126 202
112 124 199
107 120 195
109 121 195
110 123 198
107 119 192
108 120 194
112 124 200
109 121 196
111 123 199
115 127 202
108 121 195
113 125 202
111 123 199
105 118 191
114 127 204
116 128 206
111 124 199
109 121 196
109 120 194
111 123 198
106 119 192
117 129 206
108 120 193
107 120 193
114 126 203
114 126 202
109 121 195
111 123 197
112 124 200
115 127 203
112 124 200
110 122 197
115 127 204
112 125 200
117 130 207
113 125 201
114 126 203
110 122 196
109 122 196
111 123 198
106 118 192
114 126 201
115 127 204
108 119 193
111 123 198
112 124 199
110 122 196
115 127 202
113 125 201
113 125 201
114 127 203
114 126 203
113 125 201
110 122 197
110 122 197
115 127 204
113 125 202
111 123 199
114 126 202
113 125 201
106 118 191
111 123 198
112 124 199
116 128 204
109 121 195
110 122 196
116 128 204
110 123 197
113 125 199
112 124 198
116 128 204
109 122 197
108 120 194
115 127 203
114 126 202
113 126 203
114 126 202
111 123 197
110 123 198
110 121 195
115 127 204
110 121 196
112 124 199
117 129 207
109 121 196
113 125 201
112 124 199
115 127 203
117 128 206
112 125 200
109 122 197
109 121 196
112 124 200
112 124 200
113 125 200
110 122 197
111 123 198
113 125 201
108 120 194
112 124 201
114 126 203
115 127 203
108 119 193
111 123 198
115 127 204
110 121 196
112 125 201
110 122 197
111 123 199
110 123 198
114 126 202
111 123 198
110 122 195
115 127 204
112 124 200
112 124 199
111 123 198
112 124 199
110 123 199
112 124 200
110 122 197
111 123 198
109 121 195
106 118 192
114 126 202
108 120 194
114 126 202
112 124 201
110 122 197
110 122 197
112 124 200
111 123 198
111 122 197
113 125 201
111 124 200
109 122 198
107 119 192
109 121 195
108 120 195
111 123 198
106 118 192
107 120 195
109 121 195
108 122 187
119 135 182
124 143 173
123 142 172
126 145 175
124 144 174
125 144 175
125 144 174
125 145 174
128 148 177
126 146 175
126 145 175
128 148 177
126 145 175
128 148 176
129 149 177
128 149 177
127 146 176
131 151 179
130 150 179
127 146 174
131 151 179
128 148 176
131 151 179
128 148 177
132 151 179
131 150 178
131 151 179
132 153 180
132 152 179
132 153 179
131 151 178
129 149 178
130 151 179
132 152 179
132 153 180
133 154 180
131 151 179
133 153 180
133 153 180
132 152 179
132 153 180
132 153 180
131 152 179
133 153 180
133 153 180
131 152 179
132 152 179
133 153 180
134 154 181
134 154 181
134 154 181
132 153 180
134 154 181
132 153 180
134 154 181
133 153 180
133 153 180
132 153 180
133 154 181
133 153 180
133 153 180
133 154 181
134 154 180
132 153 180
133 154 181
134 154 181
133 153 180
134 154 181
133 154 180
133 153 180
134 154 181
133 154 181
133 154 181
132 153 180
133 154 181
134 154 180
133 153 180
134 154 181
134 154 181
134 154 180
133 154 181
134 154 180
133 154 181
133 154 181
134 154 181
133 154 181
133 154 180
134 154 181
134 154 181
134 154 181
133 154 181
134 154 181
133 153 179
134 154 181
134 154 180
134 154 181
133 153 180
133 154 181
134 154 181
134 154 181
134 154 181
133 154 181
134 154 180
133 154 181
134 154 181
134 154 181
134 154 181
134 154 181
133 154 181
134 154 181
134 154 181
134 154 181
133 154 181
134 154 181
134 154 181
134 154 181
133 153 180
134 155 181
134 154 181
132 153 181
134 154 181
133 154 181
133 154 181
133 154 181
134 154 181
133 154 181
134 154 181
133 154 181
134 154 181
135 155 181
134 154 181
134 154 181
134 154 181
134 154 181
134 155 181
134 154 181
134 154 181
133 154 181
133 154 181
134 154 181
134 154 181
134 154 181
133 154 181
134 154 181
134 154 181
134 154 181
134 154 181
134 154 181
134 154 181
133 154 181
134 154 181
133 154 181
133 154 181
134 154 181
134 154 181
133 154 181
133 154 181
134 154 181
134 154 181
134 154 181
134 154 181
133 154 181
134 154 181
133 154 181
134 154 181
134 154 181
133 154 181
134 154 181
133 154 181
134 154 181
134 154 181
135 155 181
134 155 181
133 154 181
135 155 181
133 154 181
133 154 180
134 154 181
133 154 181
134 154 181
134 154 181
134 154 181
134 154 181
133 154 181
134 154 181
134 154 181
134 154 181
134 154 181
133 154 181
134 154 181
134 154 181
134 154 181
133 154 181
134 154 181
134 154 181
134 154 181
134 154 181
134 154 181
134 154 181
133 154 181
135 155 181
134 154 181
134 154 181
134 154 181
134 154 181
133 154 181
134 154 181
134 154 181
134 154 181
134 154 181
134 154 181
132 152 180
133 154 181
133 154 181
132 152 179
133 154 180
131 152 180
134 154 181
133 153 180
132 152 179
132 152 180
134 154 181
132 152 179
133 154 180
132 153 179
132 152 179
133 153 180
133 154 180
132 152 180
133 153 180
131 152 180
133 153 180
132 152 179
132 152 179
130 150 177
130 149 178
131 151 179
130 149 178
133 153 180
131 151 179
131 151 179
128 149 177
131 151 179
132 152 179
132 152 179
131 151 179
128 147 176
128 148 177
128 148 176
129 148 177
127 146 176
124 143 174
121 138 183
113 127 197
113 125 202
114 125 202
110 122 198
114 126 203
111 123 198
109 121 197
113 125 201
112 124 201
105 117 190
107 118 192
112 124 200
113 125 200
113 125 201
112 125 202
113 125 200
113 124 199
106 118 192
111 123 198
110 123 197
110 122 197
112 124 200
107 119 192
111 124 201
111 123 197
114 126 202
115 127 203
113 125 202
112 124 200
117 129 207
113 125 200
112 124 199
114 126 202
111 123 198
111 124 199
113 126 201
111 123 197
109 122 196
111 124 199
114 127 204
112 125 202
111 124 200
111 123 198
106 119 193
113 126 202
111 123 198
111 123 197
110 122 197
110 122 196
113 125 201
114 127 203
110 122 196
110 122 195
111 123 198
111 124 199
109 122 196
114 126 203
111 124 199
114 127 203
111 124 198
109 122 196
112 124 199
113 125 200
111 124 199
114 126 202
113 125 201
112 124 198
111 123 199
115 127 203
111 123 198
112 124 199
113 125 201
114 126 202
111 123 198
113 126 202
115 127 202
108 120 193
112 124 199
113 124 200
109 121 195
111 123 198
105 117 189
111 124 199
114 126 202
113 126 203
109 122 196
113 125 201
115 127 204
114 126 202
108 121 195
107 119 191
112 124 200
112 124 200
112 124 200
112 124 200
107 120 194
113 125 200
113 125 201
114 126 202
116 129 207
109 121 195
110 122 196
113 125 202
112 124 199
106 118 191
110 122 196
111 124 199
115 127 204
107 119 193
113 125 201
114 126 202
116 128 206
113 126 202
114 127 204
112 124 199
112 125 200
112 124 200
114 125 201
110 122 198
113 125 201
111 123 197
112 124 199
110 122 197
107 119 193
110 122 196
112 124 201
107 119 193
112 125 201
113 125 201
109 121 196
110 123 198
110 122 197
110 121 196
109 121 196
116 129 207
108 120 194
109 120 195
111 123 199
110 122 197
109 121 195
111 123 199
114 126 202
112 124 199
109 121 196
109 121 196
109 122 197
116 130 193
121 139 181
124 143 175
122 141 173
125 144 175
124 143 173
126 146 176
125 145 175
128 147 176
126 146 177
126 145 174
127 147 176
127 146 175
129 148 176
125 144 174
130 150 178
127 146 175
128 148 176
129 148 177
131 150 178
129 149 178
131 152 179
131 151 179
127 147 175
131 152 179
131 151 178
132 152 180
128 148 177
132 152 179
132 152 179
132 152 180
131 151 178
133 153 179
133 154 180
132 153 180
134 154 180
133 153 180
132 152 179
131 151 179
131 151 179
133 153 180
132 153 179
133 153 180
133 153 180
132 153 180
133 154 181
132 152 180
132 152 179
132 153 180
133 154 180
134 154 181
133 153 180
134 154 181
133 154 180
134 154 180
133 154 181
134 154 180
133 154 181
134 154 180
134 154 180
132 153 180
134 154 181
134 154 180
134 154 181
134 155 181
134 154 180
134 154 181
134 154 181
135 155 181
133 153 180
133 154 181
133 153 180
133 154 181
134 154 181
134 154 180
132 152 179
133 154 181
134 154 181
133 154 181
134 154 181
134 154 181
133 153 180
132 153 180
133 154 181
134 154 181
134 154 181
133 154 181
134 154 181
134 154 181
134 154 181
134 154 181
133 154 181
132 153 180
133 154 181
132 153 180
133 153 180
134 154 181
134 154 181
133 153 180
133 154 181
133 154 181
134 154 181
133 154 181
134 154 180
134 154 181
135 155 181
134 154 181
134 154 180
133 154 181
134 154 181
133 154 181
133 154 181
135 155 181
134 154 181
135 154 180
134 154 181
132 153 180
133 154 181
134 154 181
134 154 181
135 155 181
134 154 181
134 154 181
133 154 181
134 154 181
133 154 181
133 154 181
134 154 181
133 154 181
134 154 181
133 154 181
134 154 181
135 155 181
134 154 181
133 154 181
134 154 181
134 154 181
134 154 181
134 154 181
133 154 181
134 154 181
134 154 181
134 154 181
133 154 181
134 154 181
133 154 181
134 154 181
134 154 181
133 154 181
134 154 181
135 155 181
134 154 181
134 154 181
134 154 181
134 154 181
133 154 181
133 154 181
133 154 181
133 154 181
133 154 181
133 154 181
134 154 181
134 154 181
134 154 181
133 154 181
134 154 181
133 154 180
134 154 181
133 154 181
134 155 181
133 154 181
134 154 181
134 154 181
134 154 180
133 154 181
134 154 181
134 154 181
134 154 180
134 154 181
134 154 181
133 154 181
133 154 181
134 154 181
134 154 181
133 154 181
133 154 181
133 154 181
134 154 181
134 154 181
133 154 181
134 154 181
134 154 181
133 154 181
134 154 181
133 154 180
134 154 181
133 154 181
134 154 181
134 154 181
133 154 181
133 154 181
133 154 181
134 154 181
134 154 181
134 154 181
134 154 181
134 154 181
134 154 181
133 154 181
134 154 181
134 154 181
133 153 180
133 153 180
132 152 179
132 152 179
132 152 179
132 152 179
132 152 179
133 153 180
132 152 179
133 153 180
132 152 179
133 153 180
131 151 179
132 152 179
131 151 178
132 153 180
131 152 179
133 152 179
131 152 179
129 149 177
132 153 180
132 153 180
132 152 180
130 150 178
131 151 179
131 151 179
131 151 179
132 153 180
131 152 179
130 151 178
132 153 179
131 150 178
130 149 177
131 150 178
125 145 174
130 149 177
128 147 176
130 150 178
125 143 172
128 147 176
124 142 173
126 145 176
123 140 182
121 135 201
109 121 195
109 121 195
105 117 189
108 120 194
109 121 196
109 121 196
106 118 191
115 127 203
112 123 198
107 118 193
109 122 197
114 125 201
114 126 202
107 119 193
112 124 199
114 126 202
112 124 200
110 122 196
109 121 195
114 126 202
109 121 196
110 122 197
108 120 194
112 124 198
113 125 202
113 125 200
112 124 200
113 126 202
113 125 199
105 118 192
106 119 192
110 122 195
113 125 201
118 129 205
114 126 202
111 123 198
111 124 199
113 125 201
109 122 196
116 128 205
110 123 199
110 122 197
117 129 207
109 121 195
115 127 202
109 121 195
112 124 200
114 126 202
109 121 195
109 122 196
115 127 204
110 123 197
111 124 199
111 124 199
111 123 198
110 122 196
117 129 207
113 125 200
114 126 202
110 123 198
111 123 197
115 127 204
113 125 201
114 126 202
112 125 201
117 129 205
112 124 200
110 123 199
112 124 200
113 125 202
111 124 199
107 119 194
115 127 204
115 127 205
111 123 199
114 126 202
114 126 203
113 126 201
107 120 193
104 116 188
113 124 199
108 120 195
109 121 195
109 122 197
113 125 202
114 126 203
112 125 200
110 122 196
114 126 202
111 123 197
110 123 198
116 129 207
113 125 200
107 119 193
114 125 201
104 117 191
106 118 193
111 123 198
109 121 195
112 125 201
111 123 198
114 126 201
114 126 202
111 124 198
112 124 200
113 125 202
112 124 199
109 121 195
110 122 198
111 123 200
109 121 195
111 123 200
112 124 199
108 121 196
108 120 195
113 125 201
111 123 198
112 124 200
106 118 191
107 119 193
114 126 202
110 122 198
109 121 197
109 121 196
111 123 198
114 126 202
106 119 194
115 127 203
114 126 201
109 121 197
107 119 194
112 124 200
112 124 199
106 117 191
111 123 198
110 122 198
110 122 197
113 125 201
110 122 198
110 122 197
108 121 195
116 128 205
114 126 203
111 123 198
107 119 193
115 129 192
122 139 183
121 140 171
124 142 172
122 140 172
126 145 173
123 142 172
128 148 177
126 146 175
124 143 172
128 148 177
127 147 175
128 147 177
126 145 174
129 149 176
130 149 178
127 146 176
128 148 176
129 149 178
129 147 176
131 151 179
130 151 178
128 148 177
129 149 178
130 150 178
131 151 179
132 152 179
131 151 178
133 153 180
133 153 180
134 154 180
130 150 177
132 153 180
132 152 179
130 150 177
131 151 179
132 152 179
131 151 178
132 152 180
132 153 180
134 154 180
132 152 179
132 152 180
132 152 179
133 153 180
133 153 180
134 153 180
132 152 179
133 153 180
134 154 180
133 154 180
133 153 180
134 154 180
133 153 180
134 154 181
133 154 181
133 153 180
134 154 181
134 154 181
133 153 180
134 154 180
133 154 180
133 154 180
134 154 180
133 153 180
133 154 181
133 154 180
133 154 181
133 154 180
134 154 180
134 154 181
133 154 180
133 154 181
133 154 181
134 154 181
134 154 181
134 154 180
133 153 180
134 154 181
134 154 180
133 154 180
134 154 180
133 154 180
134 154 180
134 154 181
134 154 180
134 154 181
133 154 180
133 154 180
134 154 180
133 153 180
134 154 181
133 154 181
134 154 180
134 154 181
134 154 181
133 153 180
133 154 180
133 154 181
133 154 181
134 154 181
134 154 180
133 154 180
134 154 181
134 154 181
133 153 180
134 154 181
134 154 181
133 154 181
133 154 181
134 154 181
134 154 181
133 154 181
135 155 181
133 154 181
134 154 181
134 154 181
134 154 181
133 154 181
134 154 181
134 154 181
135 155 181
134 154 181
134 154 181
133 154 181
134 154 181
134 155 181
133 154 181
134 154 180
134 154 181
134 154 181
133 154 181
134 154 181
133 154 181
133 154 181
134 154 181
135 155 181
134 155 181
134 154 181
134 154 181
133 154 181
134 154 181
134 154 181
135 155 181
133 154 180
134 154 181
134 154 181
134 155 181
135 155 181
134 154 181
133 154 181
134 154 181
134 154 181
133 154 181
133 154 181
134 154 181
133 154 181
133 154 181
134 154 181
133 154 181
134 154 181
133 154 180
135 155 181
133 154 181
134 154 181
134 154 181
133 154 181
134 154 181
134 154 181
135 155 181
134 154 181
134 154 181
134 154 181
134 154 181
135 155 181
134 154 181
135 154 180
134 154 181
133 154 181
134 154 181
135 155 181
132 153 181
133 154 181
135 155 181
134 154 181
134 154 181
134 154 181
134 154 181
134 154 181
133 154 181
134 154 181
135 155 181
134 154 181
134 154 181
134 154 181
135 155 181
134 154 181
133 154 181
133 154 181
134 154 181
134 154 181
134 154 181
133 154 181
134 154 181
134 154 181
133 154 181
134 154 181
132 153 180
134 154 180
133 154 181
134 154 181
134 154 180
134 154 181
133 153 179
133 153 180
134 154 180
134 154 180
131 152 179
132 152 180
132 152 179
131 151 179
132 152 179
132 151 179
131 152 179
131 151 178
132 153 179
132 153 180
132 153 179
130 150 178
131 151 178
131 151 178
131 151 179
131 151 178
132 152 179
130 151 178
130 150 178
127 146 175
129 149 178
132 152 179
128 147 176
129 149 178
130 150 177
126 146 175
128 148 177
129 149 178
129 149 177
130 150 178
125 144 174
127 146 175
125 144 172
124 143 173
125 144 173
127 146 175
124 141 181
116 129 196
107 119 193
106 118 192
111 123 199
107 119 193
108 120 194
112 124 201
103 115 189
107 119 193
109 122 198
107 119 194
118 130 208
107 119 193
113 125 201
112 124 199
110 122 196
110 123 197
113 125 201
110 123 198
115 128 205
112 124 200
111 124 199
108 121 195
112 125 201
108 121 196
111 123 198
115 127 203
108 121 194
112 124 200
110 122 198
109 121 196
110 122 196
110 122 197
116 127 204
110 122 197
110 122 197
113 126 202
111 123 199
114 126 202
115 127 203
112 124 200
113 125 201
116 128 204
108 120 195
109 122 196
109 121 196
112 124 200
108 121 195
108 121 196
115 128 205
111 124 198
117 129 206
116 129 206
112 124 200
107 120 193
111 124 198
113 124 199
110 122 196
112 124 199
109 122 197
112 124 199
116 128 204
108 121 195
111 123 198
113 125 200
114 127 203
114 126 201
113 124 200
115 127 203
112 124 199
107 120 193
109 121 194
113 125 199
110 122 195
112 125 201
111 123 197
116 128 205
112 125 201
117 129 206
108 120 194
118 130 207
114 126 202
114 126 201
111 123 198
111 124 199
111 123 198
109 121 196
109 121 196
110 122 197
115 128 205
112 125 201
113 126 203
120 132 211
109 121 195
108 121 195
109 121 196
110 122 197
114 126 202
111 123 197
109 121 197
109 122 197
109 121 197
109 121 195
109 121 195
116 128 204
111 124 200
109 121 196
113 125 201
112 124 199
113 125 200
112 124 200
105 117 191
109 122 197
109 121 196
105 117 190
109 120 194
110 122 197
108 120 195
109 122 196
111 123 198
115 127 204
110 123 198
108 121 195
113 125 202
111 123 198
110 122 197
112 123 198
114 127 204
110 121 197
109 122 197
107 119 193
110 122 198
110 122 196
110 122 197
112 125 201
106 118 192
111 123 198
104 117 190
110 121 196
104 116 189
112 124 200
113 125 200
114 126 204
107 119 194
110 122 198
106 118 192
112 125 191
119 135 181
119 137 169
121 139 171
122 141 171
122 141 173
122 141 171
122 141 172
124 143 173
128 148 177
125 144 176
122 141 171
127 146 175
128 147 176
123 142 172
127 146 176
127 147 175
129 149 178
130 150 177
129 149 177
130 150 178
129 149 177
131 151 178
130 151 178
129 148 177
132 152 179
129 149 177
130 150 178
133 153 180
132 152 179
132 152 179
132 152 179
131 152 179
132 152 179
132 152 180
130 150 178
132 152 179
131 151 177
131 151 178
132 153 180
131 151 179
133 154 180
133 154 181
133 153 180
132 152 179
133 153 180
132 153 180
134 154 181
133 154 180
132 152 179
133 153 179
132 153 179
132 153 180
132 153 180
133 154 181
133 153 179
134 154 180
133 153 180
133 153 180
133 153 180
134 154 181
133 153 180
133 154 180
132 153 180
133 153 180
134 154 180
133 153 180
132 153 180
133 154 181
134 155 181
132 153 180
134 154 181
134 154 181
133 153 180
133 153 180
133 154 181
134 154 180
134 154 181
133 154 180
134 154 180
133 153 180
134 154 181
133 154 181
134 154 181
133 154 180
135 155 181
134 154 181
133 153 180
133 154 181
133 154 181
134 154 181
132 153 181
134 154 181
133 154 181
134 154 181
134 154 181
133 153 180
133 153 180
133 154 181
133 153 180
132 153 180
134 154 181
134 154 181
133 154 180
133 154 180
134 154 181
134 154 181
133 154 181
134 154 181
133 154 181
133 154 181
133 154 181
133 154 181
133 154 181
134 154 181
134 154 181
134 154 181
133 154 181
133 154 181
134 154 181
134 154 181
133 154 181
133 154 181
133 154 181
133 153 180
133 154 181
134 154 181
134 154 181
134 154 181
133 154 181
133 154 181
134 155 181
133 154 180
134 154 181
133 154 181
135 155 181
134 154 181
134 154 181
134 154 181
134 154 181
134 154 181
134 154 181
133 154 181
133 154 181
133 154 181
134 154 181
133 154 181
134 154 181
134 154 181
134 154 181
134 154 181
134 154 181
133 154 181
133 154 180
134 154 181
134 154 180
134 154 181
134 154 181
134 154 181
134 154 181
133 154 181
133 154 181
134 154 181
134 154 181
134 154 181
133 154 181
134 154 181
134 154 181
133 154 181
134 154 181
133 154 181
133 154 181
134 154 181
133 154 181
133 154 180
133 154 181
134 154 181
134 154 181
133 154 181
134 154 181
134 154 181
134 154 181
134 154 181
133 154 181
134 155 181
134 154 181
134 154 181
134 154 181
134 154 181
133 154 181
133 154 181
134 154 181
134 154 181
134 154 181
134 154 181
133 154 181
134 154 181
134 154 181
134 154 181
134 154 181
134 154 181
133 154 180
133 154 181
132 153 181
134 154 181
134 154 181
133 154 181
134 154 181
134 155 181
134 154 181
133 154 181
134 154 180
132 152 179
133 153 180
133 153 180
132 153 180
133 153 180
133 154 180
131 151 178
132 152 179
133 153 180
132 152 179
131 151 179
131 151 178
134 153 180
132 152 180
132 152 178
132 152 179
129 149 177
131 151 179
133 153 180
130 150 178
131 151 178
130 150 177
131 151 178
131 150 178
128 149 177
129 149 177
126 146 175
132 152 179
129 149 177
127 146 176
129 148 177
128 147 176
130 151 178
130 149 177
124 143 173
126 145 174
128 147 177
129 148 176
126 145 174
124 143 173
125 144 174
117 134 175
118 133 193
114 126 203
106 117 190
110 122 197
112 124 199
114 126 204
112 124 200
106 118 193
111 123 198
112 124 199
111 123 199
111 123 200
113 124 201
112 123 199
112 125 201
112 124 199
112 124 200
111 123 198
113 124 200
115 127 203
109 121 196
113 125 201
110 122 196
113 125 201
109 122 197
107 119 193
107 119 192
111 123 198
115 126 202
107 120 194
115 127 203
111 123 199
112 125 201
111 124 200
112 124 200
112 124 199
111 123 198
111 124 200
108 120 195
110 122 197
111 123 197
112 125 201
111 124 200
111 123 198
111 124 200
114 126 202
114 127 203
111 123 198
112 125 200
115 127 204
114 126 202
108 120 194
112 124 199
113 125 202
109 121 194
112 125 201
114 126 202
111 124 199
109 122 196
110 122 196
113 126 202
114 126 201
110 122 197
112 125 201
107 120 193
110 123 197
108 120 194
111 123 198
112 125 201
115 127 204
111 123 199
113 125 201
114 126 203
111 123 198
112 124 201
112 125 201
116 128 204
109 121 196
114 126 202
109 122 197
102 114 186
112 124 201
114 127 204
109 121 196
109 121 196
111 123 199
113 125 200
107 119 193
111 123 198
111 123 197
114 126 202
111 123 198
106 118 192
109 121 196
110 123 198
111 123 198
109 121 195
110 122 198
111 123 199
110 122 198
109 121 195
105 117 190
113 125 200
113 125 201
107 119 193
110 122 196
110 122 197
112 124 200
114 126 202
114 126 203
112 123 199
111 123 198
109 122 197
111 123 199
110 122 197
110 122 197
111 123 198
109 122 197
108 120 194
109 120 195
110 122 197
112 124 199
108 120 195
112 124 199
111 123 198
112 124 199
111 123 198
108 120 194
109 120 194
112 124 201
110 122 197
107 119 194
108 121 196
110 122 197
105 117 191
114 126 203
106 118 192
108 120 194
111 124 200
113 124 201
112 124 199
110 122 196
108 121 196
114 126 203
112 124 201
115 127 202
112 124 193
116 131 181
124 142 173
118 136 169
119 138 169
121 139 170
128 146 176
126 145 175
126 145 174
123 141 173
124 142 173
126 145 174
127 146 176
128 147 176
130 148 177
130 149 178
127 146 175
129 148 177
125 145 173
127 147 175
129 149 176
126 146 174
130 151 179
127 146 176
127 147 176
132 152 179
130 151 179
132 152 180
131 152 179
133 153 180
131 151 179
131 151 179
132 152 179
133 153 180
133 153 180
130 150 178
132 152 180
133 154 180
132 152 180
131 151 178
133 153 180
133 153 180
134 153 180
131 152 179
133 154 180
132 153 180
134 154 181
133 153 180
132 152 179
133 153 179
132 152 179
133 154 180
133 153 180
134 155 181
133 154 180
132 152 179
134 154 181
133 153 180
131 151 179
134 154 180
131 152 179
133 153 180
133 154 180
134 154 180
133 153 180
133 154 181
134 154 181
133 153 180
133 152 179
133 153 180
133 154 181
133 154 181
133 154 181
133 154 180
132 153 180
133 154 180
133 154 181
134 154 181
133 154 181
134 154 180
133 154 181
133 154 181
133 154 180
134 154 181
134 154 181
133 154 181
132 154 181
134 154 181
133 154 181
133 154 181
134 154 180
134 154 181
133 154 181
133 154 180
134 154 181
134 154 181
134 154 181
134 154 181
133 154 181
133 154 180
134 154 181
133 154 181
133 153 180
134 154 180
135 155 181
134 154 181
134 154 180
134 154 181
133 154 181
134 154 181
133 154 181
134 154 181
135 155 181
134 154 181
134 154 181
133 154 181
134 154 181
134 154 181
132 153 181
134 154 181
135 155 181
133 154 181
133 154 181
134 154 181
134 154 181
134 154 181
134 154 181
134 154 181
134 154 180
135 155 181
133 154 181
134 154 181
134 154 181
134 154 181
133 154 181
134 154 181
134 154 181
134 154 181
134 154 181
133 154 181
133 153 180
134 154 181
133 153 180
133 154 181
134 155 181
133 154 181
133 154 181
134 154 181
133 153 180
134 154 181
134 154 181
134 154 180
134 154 181
133 154 181
132 153 181
134 154 181
133 154 181
133 154 180
134 154 180
134 154 181
134 154 181
134 154 180
134 154 181
134 154 181
133 154 180
135 155 181
134 154 181
134 154 180
133 154 181
134 154 181
134 154 181
135 155 181
135 155 181
135 155 181
135 155 181
133 154 181
134 154 181
134 154 181
135 155 181
135 155 181
134 154 181
134 154 181
133 154 180
134 154 181
134 154 181
133 154 181
134 154 181
133 154 181
133 154 181
134 154 180
134 154 181
134 154 181
134 154 181
134 154 181
133 154 180
134 154 181
134 154 181
134 154 181
133 154 181
134 154 181
134 154 181
133 154 181
134 154 181
134 154 181
134 154 181
133 154 181
135 155 181
133 154 181
133 154 181
133 154 181
134 154 181
133 153 180
134 154 180
132 152 179
132 152 180
133 154 180
131 152 179
131 152 178
134 154 180
132 151 179
130 151 178
131 151 179
131 151 179
132 152 179
131 151 179
132 152 179
132 152 179
132 153 180
129 149 177
130 150 178
133 153 179
130 151 179
129 149 177
130 150 178
129 149 177
130 150 179
128 148 176
131 151 179
129 148 176
129 148 177
130 150 178
131 150 178
126 145 175
130 150 178
127 147 176
129 149 177
129 149 177
129 147 176
127 146 175
128 147 176
128 147 176
126 144 174
124 143 173
121 139 175
110 124 182
102 114 186
106 118 193
105 117 191
111 123 200
113 125 201
110 121 197
112 124 200
108 120 195
112 124 199
103 115 187
107 119 193
107 119 193
111 123 199
112 124 199
110 122 197
109 121 195
110 122 197
113 126 201
108 120 194
113 125 202
109 121 196
108 120 195
116 128 205
111 123 197
108 120 195
111 124 199
109 121 195
107 120 194
106 118 191
113 126 203
107 120 194
110 122 196
110 122 197
114 126 201
111 124 199
112 124 200
112 124 199
118 131 209
112 125 200
113 126 202
114 126 203
114 127 204
115 127 204
109 121 195
112 124 199
109 122 197
111 123 197
110 122 197
114 126 202
111 123 198
109 122 197
112 124 200
111 123 199
113 125 201
114 126 203
107 119 192
107 119 194
115 128 204
114 126 201
112 125 201
117 129 206
112 124 200
108 121 194
110 123 198
108 120 193
113 125 200
110 122 197
111 124 199
110 122 196
115 128 205
112 124 199
111 124 200
107 120 193
109 122 196
110 122 196
110 122 196
109 121 195
112 123 198
112 124 200
111 123 197
112 124 200
114 126 202
113 125 200
115 127 203
107 119 194
112 124 199
108 120 195
110 122 197
111 122 197
109 121 196
113 125 199
108 120 194
114 126 201
112 124 200
114 126 203
111 123 199
110 122 197
114 125 202
111 123 199
112 124 201
112 124 200
110 122 197
106 119 192
105 117 191
109 121 196
114 126 203
108 120 194
111 123 199
113 126 201
107 119 194
110 122 198
105 117 190
113 124 200
112 124 200
106 118 191
113 125 201
106 118 192
105 117 191
108 120 195
109 121 196
110 123 199
108 120 194
110 122 197
108 120 195
110 122 198
113 125 201
109 121 195
110 122 196
110 122 196
111 122 198
109 121 196
107 119 195
108 121 197
107 118 192
111 124 201
105 118 192
108 120 195
108 120 194
108 120 195
107 118 192
112 125 201
116 128 206
107 119 193
109 121 195
110 122 198
110 123 192
116 131 178
122 140 172
118 136 167
124 142 171
121 139 171
124 143 173
123 141 172
125 143 173
125 145 174
125 145 175
127 146 174
125 144 173
127 146 175
124 143 174
127 146 174
130 150 178
127 147 176
130 150 178
130 150 177
128 147 175
128 147 176
127 147 176
131 151 179
131 150 178
130 150 178
127 147 177
130 151 179
133 153 179
132 152 179
131 151 179
130 151 178
133 154 181
131 152 179
131 152 179
133 153 180
131 151 178
131 151 179
132 152 179
133 153 180
132 153 180
133 153 180
132 152 180
133 153 180
131 151 178
132 152 179
132 153 180
132 153 179
132 153 180
133 153 180
133 153 180
133 153 180
132 153 180
133 153 180
132 152 179
133 153 180
134 154 181
134 154 180
133 153 180
133 154 180
133 153 180
133 154 181
133 153 180
134 154 180
133 153 180
133 153 179
134 154 181
134 154 181
132 153 180
134 154 181
133 153 180
134 154 181
133 154 181
132 152 179
134 154 180
134 154 180
134 154 181
134 154 181
134 154 180
134 154 181
133 154 181
134 154 181
133 153 180
134 154 180
134 154 181
134 154 181
134 154 181
132 152 179
133 154 181
134 154 181
133 154 181
134 154 181
133 154 180
134 154 181
133 154 180
134 154 181
133 154 181
134 154 181
133 154 181
133 154 181
133 154 181
133 154 181
133 153 180
134 154 181
134 154 180
133 154 180
134 154 180
135 155 181
134 155 181
134 154 181
134 154 181
134 154 181
134 154 180
133 154 181
134 154 181
134 154 181
135 155 181
134 154 181
134 154 181
134 154 181
134 154 181
133 154 181
134 154 181
133 154 181
133 154 180
134 154 181
133 154 181
134 154 181
134 154 181
134 154 181
132 153 180
134 154 181
134 154 180
133 154 181
134 154 181
133 154 181
133 154 181
134 154 181
135 155 181
135 155 181
134 154 181
134 154 181
133 154 181
134 154 181
133 154 181
134 154 181
133 154 181
133 154 181
134 154 181
134 154 181
135 155 181
134 154 181
133 154 181
134 154 181
134 154 181
134 154 181
133 154 181
134 154 180
134 154 181
134 154 181
133 154 181
133 154 181
134 154 181
134 154 181
134 154 181
133 154 181
133 154 181
134 154 181
134 154 181
134 154 181
134 154 181
133 154 181
133 154 181
134 154 181
134 154 181
134 154 181
135 155 181
133 154 181
134 154 181
133 154 181
133 154 180
134 154 181
134 154 181
134 154 181
133 154 181
134 155 181
134 154 181
134 154 181
134 154 181
134 154 181
133 154 180
133 154 181
134 155 181
134 154 180
133 154 181
134 154 181
133 154 181
134 154 181
133 154 181
134 154 181
134 154 181
134 154 181
134 154 181
134 155 181
134 154 181
134 155 181
134 154 181
133 154 180
133 154 181
133 154 181
134 154 181
133 153 179
133 153 180
132 152 180
133 153 180
133 153 179
132 153 180
134 154 180
133 153 180
133 154 181
130 150 178
133 154 180
130 150 178
132 152 179
131 152 179
131 151 178
131 151 178
134 154 181
129 149 177
127 147 175
132 152 178
129 150 177
131 150 178
131 151 179
129 149 177
131 151 179
130 150 178
125 144 175
129 149 178
130 150 178
127 147 175
128 147 177
129 148 176
129 149 177
125 144 174
124 144 174
127 147 176
127 147 176
128 148 176
126 144 174
127 146 176
125 143 173
122 140 172
118 136 172
111 125 186
111 123 197
108 119 193
105 117 190
105 116 190
108 119 194
110 121 196
103 115 189
108 120 195
112 124 201
110 121 197
113 126 203
113 125 201
109 121 196
106 118 191
113 126 203
109 121 196
109 121 195
112 124 199
112 125 200
109 121 196
113 125 200
108 120 194
109 121 197
112 124 199
114 126 202
115 127 204
111 123 198
110 122 197
110 122 197
110 122 196
109 121 195
113 125 200
108 121 196
111 124 199
112 124 199
112 124 199
111 123 199
111 123 197
113 125 200
106 118 191
114 126 202
108 121 195
110 122 197
106 119 192
111 124 200
108 120 194
112 124 199
114 126 202
112 124 198
110 123 198
113 125 201
114 126 203
110 123 199
115 127 203
110 122 197
113 126 201
113 125 201
113 125 201
107 120 194
108 120 194
113 124 200
112 124 199
110 122 197
110 122 197
109 121 195
112 124 198
112 124 199
107 120 193
110 123 198
111 123 199
113 125 200
110 122 197
106 118 192
112 124 200
116 129 207
108 120 194
110 122 198
113 126 204
112 124 199
109 121 195
112 124 200
111 124 200
113 125 201
113 125 201
110 122 198
112 124 199
107 119 193
114 126 202
105 117 190
108 120 196
112 125 200
109 121 195
111 123 198
110 122 198
111 123 198
107 119 193
108 120 194
110 123 198
113 124 200
109 121 197
109 122 197
107 119 192
117 129 206
113 125 202
110 122 197
114 126 203
107 119 193
108 120 195
112 125 201
111 123 199
110 123 199
111 123 199
108 120 194
110 122 197
107 119 193
112 124 200
108 120 194
107 118 192
111 124 200
107 119 194
106 118 191
113 125 201
113 125 201
106 117 191
111 123 200
111 123 199
105 117 193
111 123 199
110 122 197
108 120 195
105 117 190
109 122 197
103 114 187
110 122 197
108 121 196
109 121 197
106 118 193
109 120 195
110 122 197
106 118 191
109 120 195
104 116 189
103 114 187
105 116 190
111 122 198
110 123 191
113 129 174
121 138 170
123 141 172
116 133 167
126 144 175
127 146 176
120 138 170
127 146 175
128 148 176
125 144 173
124 143 173
129 148 176
129 149 177
129 149 177
129 148 177
130 150 178
127 146 176
129 149 177
129 149 177
128 147 176
130 150 178
129 148 176
130 150 178
130 149 177
132 152 180
132 153 180
130 149 178
132 153 180
130 151 179
131 151 178
134 154 181
130 149 177
132 152 179
131 151 179
131 151 179
133 153 180
134 154 180
132 152 180
133 153 180
133 153 180
132 151 178
132 153 180
132 152 179
133 153 180
132 152 179
133 153 180
131 152 180
132 153 180
133 154 181
133 153 180
134 154 181
132 153 180
132 152 179
133 154 181
133 154 180
133 153 179
133 154 180
132 153 180
134 154 181
133 153 180
134 154 180
132 152 179
133 153 180
133 154 180
133 153 180
133 153 179
134 154 181
134 155 181
134 154 180
132 153 180
133 154 181
134 154 181
133 154 180
134 154 181
134 154 181
134 154 181
134 154 181
134 155 181
134 154 180
133 154 180
134 154 181
132 152 179
134 154 181
133 154 181
133 154 181
134 154 181
133 154 181
134 154 181
134 154 181
132 153 180
134 154 181
133 154 180
133 153 180
133 154 180
133 154 181
134 154 181
133 154 181
133 153 180
133 154 181
134 154 181
133 153 180
134 154 181
133 153 180
134 154 181
133 154 181
134 154 181
133 154 180
134 154 181
132 153 181
133 154 181
133 154 181
133 154 181
133 154 181
134 155 181
133 154 181
134 154 181
134 154 181
134 154 181
134 154 181
133 154 181
134 154 181
133 154 181
133 154 181
134 154 181
134 154 181
134 154 181
134 155 181
134 154 181
133 153 180
134 155 181
134 154 181
133 154 181
134 154 181
135 155 181
134 154 181
134 154 181
134 154 181
133 154 181
133 154 181
134 154 181
134 154 181
134 154 181
134 154 181
134 154 181
134 154 181
133 154 181
133 154 181
134 154 181
134 154 181
134 154 181
133 154 180
133 154 181
134 154 181
133 154 181
134 154 181
133 154 181
133 154 181
134 154 181
132 154 181
134 154 181
134 154 181
134 154 181
134 154 181
134 154 181
133 154 181
133 154 181
133 154 181
134 154 181
133 154 181
134 154 181
134 154 181
133 154 181
133 154 181
133 154 181
134 155 181
134 154 181
133 153 180
134 154 181
134 154 181
133 154 180
133 154 181
134 154 181
135 155 181
134 154 181
135 155 181
133 154 181
134 154 181
134 154 181
134 154 181
134 154 181
134 154 181
134 154 181
134 154 181
133 154 181
134 154 181
134 154 181
134 154 181
133 154 181
135 155 181
135 155 181
135 155 181
133 154 181
133 154 181
133 154 181
134 154 181
134 155 181
134 154 181
134 154 181
134 154 181
134 154 181
133 153 180
133 154 181
133 153 180
132 152 179
133 153 180
131 151 179
134 154 180
132 153 180
132 152 179
131 151 179
131 151 178
132 153 179
131 151 178
131 152 179
131 151 179
132 152 179
132 152 180
131 151 178
133 154 180
131 150 178
132 152 180
133 152 179
128 148 177
130 150 177
129 149 177
131 149 177
129 148 177
131 150 178
127 145 174
128 148 177
128 147 175
127 146 175
126 145 175
126 145 175
127 146 175
127 146 175
129 148 176
126 146 175
122 141 171
126 145 174
121 139 171
122 140 172
117 134 169
114 129 178
110 123 188
109 122 194
109 121 197
114 126 202
106 118 194
106 118 192
111 123 199
109 121 196
105 117 190
106 117 191
110 123 199
109 121 195
111 123 198
109 121 196
106 118 192
112 124 199
112 124 201
107 119 193
108 120 195
109 121 196
109 121 195
110 122 197
111 123 199
105 117 191
112 124 200
109 121 195
111 123 199
109 121 196
109 122 196
110 123 197
115 127 204
110 122 198
111 123 198
108 120 193
113 125 201
111 123 199
109 121 195
109 122 196
113 125 200
112 124 198
113 125 200
112 125 201
109 121 195
113 125 202
115 128 204
115 128 206
112 124 199
113 125 201
111 123 197
114 126 203
114 126 202
116 128 205
110 123 198
112 124 199
112 124 199
113 125 200
113 125 201
112 124 200
112 124 198
108 120 193
114 126 202
113 125 201
111 123 198
112 124 200
110 122 198
116 128 204
110 122 196
106 118 191
110 123 197
107 120 194
111 123 199
111 123 198
111 123 196
112 124 199
110 122 196
112 124 200
112 124 200
109 121 196
114 126 203
110 122 197
110 122 197
107 119 193
111 123 199
110 122 196
108 121 196
110 122 196
114 127 204
107 120 194
110 122 197
111 123 199
110 122 196
111 123 198
112 124 199
109 121 195
113 125 201
112 124 200
105 117 192
108 121 197
111 123 199
112 124 199
109 122 198
111 123 198
110 122 198
110 122 197
110 123 199
110 122 198
110 122 197
106 118 193
109 121 196
110 123 198
115 127 205
104 116 189
111 123 198
116 128 206
106 118 191
111 123 198
111 123 199
108 120 194
112 124 200
105 117 191
109 121 197
105 117 192
112 124 200
114 126 203
114 127 204
106 117 190
106 117 192
108 120 194
108 119 194
114 126 203
107 119 193
106 118 192
109 121 195
103 115 187
113 125 201
112 124 200
109 121 197
106 118 193
106 118 192
110 122 198
109 121 196
108 120 195
111 123 199
107 119 195
106 118 192
109 121 187
116 132 179
113 129 165
115 132 166
121 139 171
124 143 172
127 146 174
123 142 172
129 148 177
127 146 176
128 147 176
126 145 174
128 148 177
129 149 178
128 147 176
128 148 176
127 147 176
131 151 179
129 148 177
129 149 176
129 149 177
131 151 178
132 152 179
128 148 177
128 148 177
129 149 177
130 150 177
130 150 178
129 148 176
132 151 179
132 153 179
130 151 178
132 152 180
131 152 179
131 151 178
131 151 179
132 152 179
131 151 179
133 153 180
133 153 180
131 152 179
133 153 179
131 151 178
131 151 178
132 153 180
134 154 180
132 153 180
133 153 180
131 152 179
132 153 180
134 154 181
132 153 180
132 152 179
134 154 181
133 154 181
132 153 179
133 153 180
132 153 180
133 154 181
134 154 181
133 153 180
133 154 180
133 153 180
135 155 180
133 154 180
133 153 180
133 153 180
133 154 181
134 154 181
133 154 181
133 154 180
134 154 180
133 154 180
133 154 180
134 154 181
134 154 180
133 153 180
133 153 180
134 155 181
133 154 181
133 153 180
133 154 181
134 154 181
133 154 180
133 154 181
134 154 181
133 153 180
133 154 181
133 154 180
133 154 181
133 154 181
134 154 181
134 154 181
134 154 181
134 154 181
134 154 181
133 154 181
134 154 181
134 154 180
134 154 181
133 154 181
134 154 181
134 154 181
134 154 181
134 154 181
134 154 181
133 154 180
133 154 181
134 154 181
133 153 180
134 154 181
134 154 181
134 154 181
133 154 181
133 154 181
133 154 180
134 154 181
133 154 181
134 154 181
134 154 181
133 154 181
134 154 181
133 154 181
135 155 181
133 154 181
133 154 181
134 154 181
134 154 181
134 154 181
134 154 181
134 154 181
133 154 181
134 154 181
134 154 181
134 155 181
134 154 181
134 154 181
134 154 181
135 155 181
134 154 181
134 155 181
134 154 181
134 154 181
133 153 180
133 154 181
134 154 181
134 154 181
134 155 181
134 154 181
134 154 181
134 154 181
133 154 181
135 155 181
133 154 181
133 154 181
133 154 180
133 154 181
133 154 181
134 154 181
134 154 181
134 154 181
134 154 181
134 154 181
134 154 181
134 154 181
133 154 181
133 154 181
134 154 181
134 154 181
133 154 181
134 154 181
134 155 181
133 154 181
134 154 181
134 154 181
134 154 181
134 154 181
133 154 181
134 154 181
134 155 181
134 154 181
134 154 181
134 154 181
134 154 181
134 154 181
135 155 181
134 154 181
133 154 181
134 154 181
134 154 181
134 154 181
134 154 181
134 154 181
134 154 181
133 154 181
134 154 181
135 155 181
133 154 181
134 154 181
134 154 181
134 154 181
134 154 181
133 154 181
134 154 181
133 154 181
134 154 181
134 154 181
133 154 181
134 154 181
133 154 181
133 154 181
132 152 180
132 152 179
132 153 180
132 152 179
134 154 180
133 153 179
132 152 179
133 152 179
131 151 179
132 153 179
131 152 179
132 153 180
133 153 180
130 150 178
132 151 179
130 150 177
130 149 177
131 151 178
131 151 178
127 146 176
133 153 179
129 149 178
130 150 178
129 149 177
129 149 176
130 150 177
127 147 176
128 148 176
128 148 176
127 146 175
128 147 176
126 145 175
128 147 176
126 145 174
128 147 176
127 146 175
121 139 170
124 142 174
127 145 173
125 144 173
119 137 169
121 138 170
114 131 166
113 129 168
108 123 170
115 130 184
106 118 184
105 117 191
105 117 192
108 119 194
111 123 199
106 119 194
107 118 192
108 119 194
108 119 193
108 120 195
115 127 204
106 118 191
109 121 196
110 122 198
112 124 199
108 121 196
112 124 200
109 121 196
110 122 198
114 126 202
111 122 197
110 122 197
111 124 200
105 117 190
108 120 195
110 122 196
111 123 199
112 124 200
113 125 202
117 129 206
112 124 200
111 122 197
108 120 194
112 124 200
111 124 200
114 127 204
110 123 199
110 122 196
110 122 196
115 127 203
109 122 196
112 125 200
109 121 194
112 124 200
115 127 204
108 120 195
111 124 198
115 127 204
111 124 200
113 126 202
116 128 204
111 123 197
112 124 200
111 123 198
112 124 200
108 121 195
113 125 201
111 124 199
114 126 202
106 118 192
114 125 201
107 119 193
114 125 201
110 123 197
106 119 193
109 122 196
110 122 197
113 126 202
108 121 196
112 123 198
111 123 197
107 119 193
113 125 200
112 124 200
113 125 200
109 122 196
109 121 195
109 121 195
109 121 195
112 124 200
113 125 201
109 122 196
114 127 203
113 125 201
109 121 195
110 123 198
108 120 195
109 121 196
110 121 196
113 125 201
110 122 198
113 126 203
109 121 196
108 120 194
109 121 197
111 123 197
113 125 201
113 125 200
109 121 196
109 121 195
109 121 196
111 123 198
106 118 192
106 118 191
108 120 194
111 123 198
110 123 198
109 120 195
109 121 196
111 123 198
105 116 189
110 122 196
111 123 199
109 121 196
105 117 191
110 122 198
109 121 196
109 122 196
110 122 197
109 121 195
110 123 199
109 121 196
111 124 201
114 126 202
107 119 193
108 120 195
107 119 195
110 122 197
109 122 198
106 118 191
103 115 188
109 121 198
112 123 199
107 119 193
105 116 190
108 120 196
109 120 196
102 113 187
109 120 195
104 115 189
103 114 186
111 123 199
108 120 195
109 122 185
110 126 169
118 135 169
123 141 172
123 141 172
124 142 173
126 145 174
126 145 174
124 142 172
125 144 174
126 145 175
126 146 176
127 146 175
128 147 176
124 143 173
127 147 175
128 147 176
128 147 176
126 146 176
129 149 177
129 149 177
130 150 178
131 152 179
132 151 179
128 148 176
130 150 178
130 150 178
129 149 178
129 149 177
131 151 179
130 151 179
134 153 180
132 152 179
131 151 178
131 151 179
130 150 178
131 151 179
132 152 179
131 151 179
132 152 179
132 153 180
132 152 179
131 152 179
132 153 179
133 154 181
131 152 179
132 153 180
131 152 179
132 153 179
133 153 180
132 152 179
132 153 180
132 153 180
132 153 179
133 154 180
132 153 180
132 153 180
134 154 180
133 153 180
133 153 180
133 154 180
133 153 180
132 152 179
133 153 180
133 153 180
133 154 181
133 154 181
134 154 181
134 154 180
133 153 180
134 154 180
132 152 179
133 153 180
133 154 181
133 153 180
133 154 180
133 153 180
133 154 181
133 154 180
134 154 181
133 154 180
132 153 180
134 154 181
133 154 181
134 154 181
134 154 181
134 154 181
133 153 180
134 154 181
134 154 181
133 153 180
134 154 181
135 154 180
134 154 181
134 155 181
134 154 181
134 154 181
134 154 181
134 154 181
134 154 181
134 154 181
133 154 181
133 154 181
133 154 181
133 154 180
135 155 181
133 154 181
134 154 181
134 154 181
134 154 181
134 154 181
133 154 181
133 154 181
133 154 181
134 154 181
134 154 181
133 154 181
134 154 181
134 154 181
133 154 181
134 154 181
133 154 181
133 154 180
134 154 181
133 154 181
133 154 181
134 154 181
133 154 181
134 154 181
135 155 181
133 154 181
135 155 181
134 154 181
134 154 181
133 154 181
133 154 181
134 155 181
134 154 181
133 154 181
134 154 181
133 154 181
134 154 181
133 154 181
134 154 181
133 154 181
134 154 181
134 154 181
134 154 181
133 154 181
134 154 181
134 154 181
134 154 181
134 154 180
134 154 181
134 154 181
134 154 181
134 154 181
134 154 181
134 154 181
134 154 181
133 154 181
135 155 181
134 154 181
134 154 181
134 154 181
134 154 181
133 154 181
133 154 181
134 154 181
134 154 180
133 154 181
134 154 181
133 154 181
134 154 181
134 154 180
134 154 181
133 154 181
133 154 181
135 155 181
133 154 181
134 155 181
134 154 181
134 155 181
133 154 181
133 154 181
134 154 181
134 154 181
134 154 181
133 154 181
134 154 181
134 154 181
134 154 181
135 155 181
134 154 181
134 154 181
133 154 181
134 154 181
133 154 181
133 154 181
133 154 181
134 154 181
133 154 181
134 154 181
133 154 181
133 154 181
134 154 181
134 154 181
134 154 181
134 154 181
135 155 181
134 154 181
132 153 180
132 152 179
132 153 180
132 153 179
130 150 178
132 151 179
131 151 178
131 151 179
131 151 179
130 151 178
134 154 180
133 153 180
128 149 177
131 151 178
132 152 179
131 151 178
132 152 179
130 150 178
129 149 176
129 148 177
129 148 176
128 147 175
129 149 177
129 148 177
128 147 176
127 146 176
130 150 179
128 148 176
130 149 177
126 145 175
130 149 178
127 146 175
125 143 173
125 145 174
125 144 175
122 140 171
124 143 173
123 141 172
124 142 173
120 138 170
120 137 169
119 137 169
116 133 165
114 131 165
116 133 166
105 119 163
106 120 171
107 120 181
108 119 189
105 116 188
112 124 200
104 115 188
106 118 192
110 121 197
103 115 188
110 122 198
108 120 194
107 119 193
109 121 196
105 116 190
112 125 201
108 120 195
111 123 199
107 119 194
112 124 200
103 115 188
107 119 193
110 122 198
112 124 199
114 126 202
111 124 201
108 119 193
113 125 200
111 123 197
112 125 201
112 125 201
114 126 202
114 126 203
114 126 202
110 121 196
111 124 199
114 126 203
113 125 201
109 121 196
110 123 196
114 126 201
112 124 199
109 122 196
109 122 196
112 124 199
113 125 201
108 120 194
115 128 205
114 126 202
110 122 197
112 124 200
109 122 195
108 120 194
108 120 194
112 124 200
118 130 209
107 120 193
110 122 198
111 123 198
106 118 192
108 120 194
112 124 200
115 128 205
110 123 198
111 122 198
111 123 198
109 121 195
106 118 192
118 130 208
111 123 199
102 115 187
112 124 199
112 124 200
110 122 196
108 121 195
112 124 201
107 119 194
111 123 198
109 121 195
112 125 201
108 121 195
106 119 193
109 121 196
111 124 200
112 124 200
108 120 194
113 125 202
110 122 196
105 117 191
111 123 198
111 123 199
110 122 196
114 126 203
109 121 195
112 124 200
108 121 196
114 125 201
112 125 201
114 126 203
109 120 195
109 121 195
108 120 195
109 121 197
112 124 200
111 123 198
111 123 198
108 120 196
108 120 195
110 122 199
109 121 196
109 121 195
114 126 201
112 124 199
109 122 198
114 126 203
113 125 202
106 118 192
107 119 193
107 119 193
107 119 194
110 122 197
112 124 201
108 120 195
107 119 194
108 120 194
110 122 197
113 125 201
108 119 194
107 118 193
108 120 196
105 117 192
105 117 192
107 118 193
107 118 192
107 119 194
108 120 195
105 117 191
98 109 183
107 118 194
109 122 194
110 121 191
112 125 192
110 123 185
108 121 180
119 134 187
116 132 171
122 141 173
122 140 171
121 140 172
126 145 174
123 141 171
124 144 174
124 142 172
124 143 174
123 141 172
129 148 176
128 148 177
126 145 174
125 143 174
126 145 175
131 151 179
127 147 175
128 148 177
129 148 176
131 152 179
128 148 176
130 149 177
129 149 178
128 147 176
130 150 178
131 152 179
130 151 178
131 151 178
131 151 179
132 152 179
131 151 179
130 150 178
132 152 179
132 152 179
131 151 179
132 152 179
131 151 179
133 153 180
132 152 180
133 153 180
132 153 179
131 151 178
131 151 178
133 153 180
133 154 180
133 153 180
134 154 180
134 154 180
132 153 180
132 152 180
132 153 180
132 152 180
133 154 180
133 154 180
134 154 181
133 154 181
134 154 180
134 154 180
134 154 180
132 152 179
133 153 180
132 153 180
133 154 181
132 153 180
134 154 180
134 154 181
133 154 181
133 154 180
134 154 181
134 154 180
133 154 180
133 153 180
134 154 181
134 154 180
133 153 180
134 154 181
133 154 180
133 153 180
134 154 181
133 153 180
133 154 180
133 153 179
132 152 179
134 154 181
134 154 180
133 153 180
135 155 181
135 155 181
133 153 180
134 154 181
134 154 181
134 154 181
134 155 181
134 154 181
133 154 181
133 154 181
134 154 180
134 154 181
134 154 181
135 155 181
135 155 181
134 154 181
134 154 181
133 154 180
133 154 181
133 154 181
134 154 181
134 154 181
134 154 181
134 154 181
134 154 180
134 154 181
134 155 181
133 154 181
134 154 181
134 154 181
134 154 181
134 154 181
133 154 181
134 154 181
134 155 181
134 154 181
134 154 181
134 154 181
134 154 181
134 154 181
133 154 181
133 154 181
134 154 180
133 154 181
133 154 181
134 154 181
135 155 181
133 154 180
133 154 181
134 154 181
134 154 181
134 154 181
133 154 180
133 153 180
133 154 181
133 154 181
133 154 181
134 154 181
133 154 181
134 154 181
134 154 181
133 154 181
134 154 181
134 154 181
134 154 181
133 154 181
133 154 181
134 154 181
134 154 181
133 154 181
134 154 181
134 154 181
135 155 181
133 154 181
135 155 181
133 154 181
134 154 181
134 154 181
134 154 181
133 154 181
134 154 181
134 154 181
134 155 181
135 155 181
134 155 181
134 154 181
134 154 181
134 154 181
133 154 181
134 154 181
133 154 181
133 154 180
133 154 181
134 155 181
133 154 181
133 154 181
134 154 181
133 154 181
134 154 181
134 154 181
135 155 181
133 154 181
133 154 181
133 154 181
133 154 181
133 154 181
134 154 181
134 154 181
133 154 181
134 154 181
135 155 181
134 154 181
133 154 181
133 154 181
134 154 181
134 154 181
134 154 181
134 154 181
134 154 181
133 154 181
133 154 181
134 154 181
134 154 181
134 154 181
131 151 178
133 153 180
133 153 179
132 152 179
132 152 179
132 153 180
131 151 178
130 150 179
131 151 179
130 150 178
131 152 179
129 149 178
132 152 180
130 150 178
131 150 178
128 148 176
131 151 179
132 151 179
127 147 175
129 149 177
128 148 178
129 148 177
127 147 176
128 147 176
129 149 177
128 147 176
125 144 174
128 148 176
127 147 176
127 146 175
123 143 173
125 144 174
122 141 172
122 141 172
125 144 174
119 137 168
123 141 172
118 136 168
116 133 167
116 134 166
115 132 166
115 132 165
115 132 165
116 132 166
114 131 164
116 133 167
108 122 161
113 129 169
107 121 172
106 119 183
106 118 186
108 120 194
109 120 194
112 124 200
110 121 197
106 118 193
106 117 191
110 121 197
111 123 199
107 119 193
109 121 196
112 124 200
107 119 192
105 117 190
109 121 196
108 120 194
110 122 198
108 119 194
111 123 199
106 118 191
112 124 199
109 122 196
115 127 203
114 126 202
111 123 196
107 119 194
110 122 198
113 125 200
116 127 204
109 121 195
115 126 202
114 126 202
109 121 195
111 123 198
112 124 200
110 123 197
108 121 195
111 123 198
111 123 198
113 125 200
113 125 200
110 123 198
111 123 197
109 121 196
112 124 198
112 124 201
109 121 195
114 126 202
110 122 196
111 123 198
112 125 201
115 128 205
110 122 197
109 121 196
112 125 201
112 124 200
112 124 199
110 122 198
111 123 198
113 126 202
109 121 195
108 119 193
109 121 196
112 124 200
105 118 192
112 124 201
111 123 198
115 128 205
111 122 197
111 124 200
108 120 195
112 124 200
108 120 195
111 123 199
108 120 195
115 127 204
112 125 201
108 120 195
110 122 197
114 126 203
106 117 190
108 120 195
112 125 201
110 121 196
110 122 197
108 120 194
112 124 200
109 122 197
108 120 194
105 117 190
113 125 201
110 122 196
110 122 198
103 115 188
111 123 198
112 124 200
111 123 199
110 121 196
110 121 196
108 119 194
111 124 200
107 119 193
109 121 196
111 123 199
111 123 198
109 121 195
107 119 193
107 119 194
110 122 198
107 118 192
111 122 199
103 115 187
109 121 196
108 120 196
111 122 197
107 118 193
110 122 198
107 119 194
113 125 202
110 122 197
105 117 192
110 122 197
102 114 187
108 119 194
106 117 192
109 121 196
112 123 200
102 114 188
108 119 195
105 117 189
105 117 187
102 114 181
107 119 183
107 120 175
108 122 179
107 121 170
112 128 170
117 133 175
110 125 167
113 129 165
116 133 167
119 138 169
125 144 173
119 137 170
123 143 173
123 142 173
123 141 172
127 146 175
128 147 176
125 144 175
128 147 176
121 139 170
127 145 175
128 148 176
131 150 179
128 148 176
131 150 178
130 150 177
130 149 177
129 149 177
130 150 178
128 147 177
131 150 178
130 150 178
130 150 178
130 150 177
131 151 178
131 151 178
131 152 179
132 152 180
132 151 179
130 150 177
132 153 179
130 150 178
129 149 177
132 152 180
133 153 180
133 154 181
132 152 179
133 153 180
131 151 179
132 153 180
133 153 180
131 151 178
133 153 180
133 153 180
133 154 181
134 154 180
133 153 180
131 152 179
132 152 179
133 152 179
134 154 180
132 152 180
134 154 180
132 153 180
133 154 181
132 152 180
132 153 180
133 153 180
134 155 181
133 154 180
133 153 180
133 154 181
133 153 180
133 153 180
133 154 181
134 153 180
133 154 181
133 154 181
134 154 180
133 153 180
133 154 181
133 154 181
133 153 180
134 154 181
134 154 181
133 154 181
134 154 181
134 154 181
133 154 181
132 153 180
134 154 181
133 154 180
133 154 181
134 154 181
134 154 181
133 154 181
134 154 181
133 154 181
133 154 181
134 154 181
134 154 181
133 154 180
134 154 181
134 154 180
134 154 180
133 153 180
134 154 181
134 154 181
134 154 181
133 154 181
133 154 181
133 154 180
134 154 181
134 154 181
133 154 181
133 154 181
134 154 181
134 154 181
133 153 180
133 154 181
134 154 181
134 154 181
134 154 181
134 154 181
134 154 181
133 154 181
134 154 181
134 154 181
134 154 181
134 154 181
134 154 181
133 154 181
133 154 180
133 154 181
133 154 181
133 153 180
134 154 181
134 154 181
133 154 181
134 155 181
135 155 181
133 154 180
134 154 180
135 155 181
134 154 181
134 154 181
133 154 181
134 154 181
133 154 181
135 155 181
134 154 181
134 154 181
134 154 181
134 154 181
134 154 181
134 154 181
134 154 180
134 154 181
135 155 181
135 155 181
134 154 181
134 154 181
135 155 181
134 154 181
134 154 181
134 155 181
134 154 181
134 154 181
134 155 181
133 154 180
133 154 181
134 154 180
133 154 181
134 154 181
135 155 181
133 154 181
133 154 181
134 154 181
134 154 181
133 154 181
135 155 181
134 154 181
134 154 181
133 154 181
133 154 181
133 154 181
133 154 180
134 154 181
134 154 181
134 154 181
133 154 181
134 154 181
133 154 181
133 154 181
134 154 181
134 154 181
134 154 181
134 154 180
134 154 181
134 154 180
134 154 181
134 154 181
134 154 181
134 154 181
133 154 181
134 154 181
135 155 181
133 154 181
134 154 181
133 154 181
133 154 181
133 154 181
133 154 181
133 154 181
133 154 181
135 155 181
134 154 181
134 154 181
133 153 180
132 153 180
131 152 179
132 153 180
132 153 180
131 151 178
129 149 178
132 153 180
132 152 180
131 151 178
131 152 179
131 152 179
131 151 179
132 152 179
130 150 178
131 151 179
129 148 176
129 150 178
131 151 179
130 149 177
129 149 177
132 152 179
129 149 177
128 147 176
128 148 176
125 144 174
128 147 176
127 147 176
123 142 173
124 144 173
126 145 173
125 144 173
125 144 174
124 143 173
125 144 174
123 142 173
117 135 168
120 138 169
119 136 170
121 139 171
117 134 167
118 135 168
117 134 167
118 135 168
115 132 166
110 125 163
108 124 160
115 131 167
105 120 161
110 125 169
109 123 176
108 120 185
110 123 196
109 120 196
104 116 190
107 119 194
107 119 194
109 121 196
107 118 193
110 122 196
110 121 197
109 121 196
105 117 191
111 123 198
111 122 197
110 122 197
107 119 195
111 123 198
107 119 193
110 123 198
113 124 200
110 122 198
115 127 203
111 124 199
109 121 195
111 124 199
110 122 197
106 118 191
113 125 202
109 121 195
114 126 202
114 126 202
114 126 201
110 123 197
113 125 201
113 126 201
110 123 198
112 124 199
112 125 200
112 124 200
113 125 201
113 125 200
112 124 200
112 124 200
114 126 202
110 123 198
114 126 202
111 123 199
110 122 197
117 130 207
107 119 194
111 124 200
110 122 197
115 127 204
111 123 198
116 128 205
114 126 202
109 121 195
111 123 198
110 122 197
110 122 197
115 126 203
111 123 197
110 123 198
108 120 195
106 118 191
110 122 196
108 121 195
111 123 199
111 123 198
113 126 202
112 124 200
107 119 193
111 123 199
111 123 199
107 119 193
111 123 200
108 120 194
115 127 204
108 120 195
108 120 194
109 121 196
113 125 201
114 126 202
112 125 201
107 119 193
112 124 200
110 122 197
108 120 196
112 123 198
113 125 201
106 117 192
109 121 197
108 120 195
114 126 203
108 120 194
111 123 199
102 114 187
109 121 195
105 116 191
109 120 195
108 120 194
114 126 202
108 120 195
109 121 195
105 117 191
108 120 194
111 123 199
108 120 194
108 120 195
105 116 189
111 123 198
106 118 193
107 118 193
108 119 194
106 118 193
103 115 188
105 117 192
105 117 191
108 120 196
108 119 194
111 123 198
108 120 194
108 120 196
105 117 187
106 117 188
105 117 184
109 121 183
108 121 184
112 126 182
109 122 178
108 122 172
112 128 171
114 129 171
116 132 169
118 135 170
116 133 169
116 133 168
113 129 162
118 136 168
121 138 169
122 140 172
118 136 167
123 142 173
123 141 173
124 143 173
127 146 175
129 148 176
126 145 175
124 143 173
124 142 171
128 148 176
128 148 176
128 148 177
128 148 177
128 148 176
129 149 177
126 145 175
129 149 177
130 150 178
127 147 175
131 151 179
129 149 177
130 150 178
130 150 178
129 148 176
131 151 178
131 151 178
132 153 180
131 151 179
133 154 180
131 151 179
131 151 179
131 151 177
131 152 179
133 153 180
133 153 180
131 151 179
131 152 179
132 152 179
132 152 180
132 152 180
134 154 181
132 152 179
133 154 180
133 153 180
134 154 180
133 153 180
131 151 179
133 153 180
133 154 180
134 154 181
132 153 179
133 153 180
134 154 181
134 154 180
133 154 181
133 153 180
133 154 180
134 154 181
133 154 180
133 153 180
134 154 181
133 154 181
133 153 180
133 154 181
133 154 181
133 154 180
134 154 180
133 154 181
133 153 180
132 153 180
133 153 180
133 153 180
134 154 181
133 153 180
134 154 181
133 153 180
133 154 181
134 154 180
134 154 181
133 153 180
134 154 181
134 154 181
134 154 181
134 154 181
134 154 181
133 154 180
133 154 181
135 155 181
133 154 181
133 154 180
133 154 180
134 154 181
133 154 181
134 154 180
134 154 181
134 154 180
134 154 181
133 154 181
133 154 181
134 154 181
135 155 181
134 154 181
133 154 180
133 154 180
134 155 181
133 154 181
134 154 181
133 154 181
134 154 181
134 154 181
134 154 181
134 154 181
134 154 180
134 154 181
133 154 181
133 154 180
134 154 181
134 154 181
134 154 181
134 154 181
133 154 181
133 153 180
132 153 180
134 154 180
134 154 181
133 154 181
134 154 181
134 154 181
133 154 180
134 154 181
133 154 181
134 154 181
134 154 181
133 154 181
134 154 181
133 153 180
134 154 181
134 154 181
134 154 181
134 154 180
134 154 181
134 154 180
133 154 181
134 154 181
133 154 181
134 154 181
133 154 180
135 155 181
134 154 181
134 154 181
134 154 181
133 154 181
134 154 181
134 154 181
133 154 181
134 154 181
134 154 181
134 154 181
134 154 181
134 154 181
134 154 180
134 154 181
134 154 181
133 154 181
133 154 181
133 154 180
134 154 181
134 154 181
133 154 181
133 154 181
134 154 181
133 154 181
134 154 181
133 154 181
134 154 181
134 154 181
134 154 181
134 154 181
134 154 181
134 154 181
134 154 181
133 154 181
135 155 181
134 154 181
134 154 181
134 154 181
134 154 180
134 154 181
133 154 180
134 154 181
133 154 181
134 154 181
134 154 181
134 154 181
134 154 181
134 155 181
134 154 181
134 154 181
133 154 181
134 154 181
133 154 181
134 154 181
134 154 181
134 154 181
134 154 181
133 154 181
134 155 181
134 154 181
133 153 180
130 150 178
134 154 181
133 153 180
133 154 180
128 148 175
132 152 179
131 151 179
132 152 179
133 153 180
133 153 180
130 151 179
131 151 178
133 153 180
129 149 177
130 150 178
128 147 176
129 149 177
129 149 177
130 149 177
128 148 177
126 144 173
131 150 178
128 147 175
129 148 176
126 146 175
126 145 174
126 145 174
124 143 174
123 142 173
124 142 172
127 146 176
127 146 176
117 135 167
124 143 174
120 137 168
125 143 174
121 139 171
117 135 168
123 140 172
118 135 167
120 138 170
118 136 167
116 134 168
116 132 167
112 128 165
117 135 167
112 128 164
118 135 167
110 126 161
106 122 160
110 125 169
110 123 183
111 124 189
104 115 187
109 120 195
104 116 190
110 123 199
102 114 186
106 118 191
106 118 193
107 119 194
110 122 198
106 118 191
108 120 195
105 118 191
107 119 193
109 122 198
109 122 197
110 122 197
112 124 200
108 120 194
113 125 202
111 123 197
111 123 199
111 123 198
104 116 189
112 124 200
111 123 197
111 123 198
112 124 198
111 123 199
111 123 198
116 128 205
112 125 201
110 123 197
116 128 205
113 125 201
111 123 198
111 123 197
113 125 201
109 121 196
112 125 200
115 127 203
107 120 194
108 121 194
111 123 198
111 123 198
109 121 195
114 126 202
110 123 197
108 120 193
109 122 197
104 117 191
112 124 199
109 121 196
113 125 200
115 127 203
113 126 202
112 124 199
105 117 190
113 125 200
111 123 197
113 125 201
110 121 196
108 120 195
112 124 200
107 120 194
111 123 198
111 123 199
102 114 187
111 123 198
111 123 199
112 124 200
109 121 195
110 122 197
111 123 200
115 128 205
114 126 203
110 122 198
116 128 205
113 125 201
109 121 196
111 123 198
107 119 194
109 120 194
112 124 201
112 124 200
111 123 199
112 124 200
114 126 202
111 123 200
109 121 196
109 122 198
111 123 201
112 124 200
112 124 200
110 122 197
110 122 198
107 118 192
109 120 195
108 120 194
109 121 196
107 120 195
108 119 194
111 123 198
106 117 192
109 121 196
105 117 192
110 122 197
112 124 202
107 119 194
109 121 197
109 121 197
108 119 195
105 117 192
104 116 189
109 121 198
104 115 190
108 119 194
106 118 190
110 122 192
100 111 179
106 118 180
107 121 178
113 127 184
111 126 178
110 126 168
108 124 164
109 125 163
113 129 166
120 137 171
113 129 163
115 133 167
115 132 164
120 139 170
115 131 165
119 137 169
118 136 168
121 139 170
119 137 169
122 140 171
121 139 171
126 144 174
128 147 176
125 145 174
124 143 173
127 146 176
125 144 175
127 146 175
129 148 176
127 147 176
128 148 177
128 148 176
126 146 175
130 150 177
128 148 176
131 150 178
130 150 178
129 148 177
129 149 177
130 149 176
130 150 178
131 151 178
131 151 179
132 151 179
132 152 180
131 151 179
131 151 178
130 150 178
130 149 177
132 152 178
132 152 179
130 150 178
131 152 179
133 153 180
131 151 179
131 152 179
131 152 179
132 152 179
132 153 180
133 153 180
132 152 179
133 153 179
132 153 179
132 153 180
132 152 179
132 153 179
133 153 180
133 154 181
133 153 180
132 153 180
133 153 180
134 154 180
134 154 180
132 152 179
133 152 179
133 153 180
133 154 181
134 154 181
132 152 179
133 153 180
133 154 180
133 154 181
134 154 181
132 153 180
133 154 181
132 153 181
134 154 180
133 154 181
134 154 180
133 153 180
134 154 181
133 153 180
134 154 181
134 154 181
134 154 181
133 153 180
133 154 180
134 154 181
133 154 181
133 154 181
133 154 181
132 153 181
133 153 180
133 154 181
133 154 181
133 154 181
133 154 181
133 154 181
133 153 180
134 154 181
134 154 181
133 154 181
133 153 180
134 154 181
133 154 181
133 153 179
134 154 181
133 153 180
132 153 180
133 154 181
133 154 181
133 154 181
133 154 181
133 154 181
133 153 180
134 154 181
135 155 181
133 154 181
134 155 181
134 154 181
134 154 181
134 154 181
132 153 180
133 154 180
133 154 181
134 154 180
134 154 180
133 154 181
134 154 181
134 154 180
134 154 181
134 154 181
134 154 181
133 154 180
134 154 181
134 154 181
134 154 181
134 154 181
133 154 181
133 154 181
134 154 181
133 154 181
134 154 181
134 154 181
134 154 181
134 154 181
133 154 181
133 154 180
134 154 181
133 154 181
134 154 181
134 154 181
134 154 181
134 154 181
134 154 181
133 154 181
134 154 181
133 154 181
134 154 181
134 154 181
133 154 181
135 155 181
133 154 181
133 154 181
134 154 181
135 155 181
133 154 181
134 154 181
134 155 181
133 154 181
134 154 181
134 154 181
133 154 181
133 154 181
134 155 181
133 154 181
134 154 181
133 154 181
133 154 181
133 154 181
134 154 181
133 154 181
133 154 181
134 154 181
133 154 181
134 154 181
133 154 181
134 154 181
133 154 181
134 154 181
134 154 181
134 154 181
134 154 181
133 154 181
134 154 181
134 154 181
132 153 181
134 154 181
134 154 181
134 154 181
134 154 181
133 154 181
134 154 181
135 155 181
133 154 181
134 154 181
134 154 181
132 153 181
134 154 181
134 154 181
135 155 181
134 154 181
134 154 181
135 155 181
133 154 181
133 154 181
134 154 181
134 154 181
133 153 180
132 152 179
132 152 179
133 153 180
132 152 179
131 151 179
131 151 179
131 151 179
131 151 179
131 151 179
130 150 178
129 148 176
131 150 178
131 150 178
132 152 179
129 148 175
128 148 176
128 148 176
130 149 178
129 149 178
129 149 178
127 147 175
127 147 175
127 146 175
129 148 176
127 146 176
122 141 172
126 146 175
128 147 176
125 143 174
126 145 175
127 146 176
123 142 172
123 141 172
125 144 174
116 134 166
119 137 170
117 135 168
119 137 168
121 139 170
116 133 166
115 133 164
118 135 169
112 129 164
117 133 167
121 139 171
117 134 167
114 131 163
116 133 166
116 133 165
110 125 162
109 125 160
108 122 161
109 123 170
109 123 178
110 123 192
102 113 186
106 117 192
105 117 192
103 114 187
113 125 201
114 127 203
103 115 188
111 123 201
107 119 194
106 118 192
109 121 196
110 122 199
109 121 196
109 121 194
104 117 190
107 119 192
106 118 191
110 122 198
112 124 199
111 123 199
104 117 190
108 120 194
112 124 201
111 124 200
111 124 199
112 124 199
109 122 197
110 122 197
111 122 196
111 124 199
111 124 199
112 124 198
110 123 198
114 126 203
113 125 201
111 124 199
112 124 199
107 120 194
112 124 199
110 122 196
113 126 202
111 123 197
112 124 200
110 121 196
113 125 201
110 122 197
113 125 201
110 122 196
108 120 194
115 127 204
110 122 198
103 116 189
111 124 200
110 121 196
111 123 198
109 121 197
114 126 204
112 124 200
111 124 199
113 125 200
108 119 194
109 122 197
105 117 191
107 119 193
111 123 199
109 121 196
110 123 198
108 120 196
112 124 199
109 121 196
111 123 199
113 125 202
109 120 195
108 120 194
110 122 198
108 120 194
105 117 189
106 118 193
111 124 199
110 122 197
107 119 192
110 122 198
110 121 197
113 124 201
110 122 198
115 127 205
106 118 192
106 118 193
108 120 196
105 117 191
108 120 195
107 119 193
108 120 194
107 118 193
107 118 193
107 118 192
111 123 200
109 121 196
105 117 191
117 130 209
109 120 195
105 117 192
106 118 192
104 115 190
104 115 189
106 118 191
105 116 189
102 114 188
103 114 188
109 120 195
104 116 184
106 118 186
105 117 185
109 122 184
109 122 178
112 127 176
112 127 169
113 128 168
111 127 163
114 130 166
112 129 164
120 137 170
111 127 164
113 130 163
118 135 168
115 132 165
116 133 166
116 133 167
114 131 165
115 132 166
118 136 168
119 136 169
117 135 166
121 139 171
125 143 174
123 141 172
125 144 174
128 147 176
118 135 168
128 147 176
126 145 175
127 147 176
128 148 177
127 147 176
129 149 177
130 150 178
127 146 175
129 149 177
129 148 177
129 149 178
129 149 177
130 150 178
127 147 175
130 149 177
130 150 178
131 151 178
131 151 179
131 151 179
132 152 179
128 148 176
131 151 178
131 152 180
131 151 179
129 150 178
133 153 180
134 154 181
131 152 179
133 154 180
133 154 180
131 152 180
132 153 180
133 153 180
132 152 180
133 153 180
133 154 180
132 152 179
131 151 179
132 152 179
133 153 180
133 153 180
134 154 181
131 151 178
133 154 180
131 152 178
133 153 180
134 154 180
134 154 181
133 153 179
132 152 179
133 153 180
134 154 181
132 153 180
133 154 180
133 153 180
134 154 181
134 154 181
134 154 181
133 153 179
133 154 180
134 154 180
134 154 180
133 154 181
133 154 180
134 154 181
133 153 180
133 154 181
133 154 181
134 154 180
134 154 181
134 154 180
134 154 181
133 153 180
134 154 181
133 153 180
135 155 181
134 154 180
134 154 181
134 154 180
134 154 181
133 154 180
133 153 180
133 154 181
133 154 180
134 154 181
133 154 181
134 154 181
134 154 181
134 154 181
134 154 180
134 154 181
134 154 181
134 154 181
134 154 181
134 154 181
134 154 181
133 154 181
133 154 181
134 154 180
133 154 181
134 154 181
134 154 181
133 154 181
133 154 181
134 154 181
134 154 181
134 154 181
135 155 181
134 154 181
134 154 181
135 155 181
134 154 181
134 154 181
133 154 181
133 154 181
133 154 181
134 154 181
134 154 181
133 154 181
133 154 181
135 155 181
134 154 181
135 155 181
134 154 181
133 154 181
134 154 181
133 154 181
135 155 181
134 154 181
134 154 181
135 155 181
133 154 181
133 154 181
133 154 180
134 154 181
133 154 181
133 154 181
134 154 181
133 154 181
134 154 181
134 154 181
133 154 181
133 154 181
133 154 181
133 154 181
134 154 181
134 154 181
133 154 181
134 154 181
135 155 181
134 154 181
135 155 181
133 154 181
134 154 181
134 154 181
134 154 181
134 154 181
135 155 181
134 154 181
134 154 181
134 154 181
134 154 181
134 154 181
134 154 181
133 154 181
134 154 181
133 154 181
134 154 181
134 155 181
133 154 181
134 154 181
134 154 181
134 154 181
134 154 181
134 154 181
133 154 181
134 154 181
133 154 181
134 154 180
134 154 181
134 155 181
134 154 181
134 154 181
134 154 180
133 154 181
133 154 181
134 154 181
134 154 181
133 154 181
133 154 181
133 154 181
134 154 181
133 154 181
134 154 180
133 154 180
133 154 181
134 154 181
134 154 181
134 155 181
134 154 181
134 154 181
134 154 181
134 154 181
134 154 181
134 154 181
133 154 181
129 150 178
131 150 178
132 152 180
131 152 179
133 153 180
131 151 179
131 151 178
132 153 180
131 151 179
130 150 178
131 151 179
129 149 177
130 150 178
131 152 179
130 150 177
129 148 177
132 152 179
129 149 177
128 147 176
127 147 175
129 149 176
127 146 175
128 148 177
127 146 175
130 150 179
128 147 175
122 140 171
127 147 176
126 145 175
122 141 171
125 144 174
122 141 173
123 142 173
119 137 170
122 139 170
122 141 172
120 138 171
118 135 169
120 137 168
118 135 168
118 136 169
119 136 169
117 135 167
114 130 164
113 130 164
115 131 165
117 134 168
118 135 168
116 134 167
115 132 166
115 132 166
117 134 167
109 124 160
110 125 166
105 119 171
104 118 174
106 118 186
106 118 190
109 121 196
107 119 193
107 120 196
105 116 189
110 122 198
104 115 188
109 121 198
105 117 192
108 119 195
114 126 202
109 121 195
110 122 197
111 123 200
115 128 206
108 120 194
111 123 199
107 119 193
113 125 200
110 122 197
112 124 200
111 124 199
111 123 198
110 122 198
112 124 200
111 123 198
113 125 201
110 122 196
109 121 194
114 126 203
107 119 193
107 119 192
110 122 197
115 127 204
111 122 196
112 125 201
109 121 196
113 125 202
111 124 199
111 124 199
106 119 192
113 124 199
114 126 204
113 125 202
110 122 198
107 120 194
110 123 199
110 121 196
114 127 204
108 121 195
116 128 205
112 123 198
109 121 196
109 121 196
107 119 193
112 124 200
111 123 198
113 124 200
107 120 194
114 126 202
112 125 201
111 123 198
109 121 196
107 119 193
109 121 196
111 123 197
108 120 195
108 121 196
107 119 192
107 120 194
109 121 196
112 124 200
107 119 193
113 125 202
106 118 192
110 122 198
113 125 202
110 122 197
114 125 201
109 121 196
110 123 198
106 118 192
112 124 200
109 121 196
107 118 193
108 120 194
110 122 197
110 122 198
111 124 201
109 121 197
109 121 197
111 123 199
109 121 197
109 121 196
108 120 195
108 119 195
106 117 192
107 118 192
109 121 196
108 120 195
106 118 193
109 120 194
107 119 193
106 118 190
108 121 187
112 125 190
106 119 181
110 123 183
111 125 177
110 124 174
111 126 168
114 130 168
114 131 171
115 131 166
112 128 164
113 130 165
112 128 163
116 134 166
113 129 164
110 126 161
117 135 167
116 133 166
115 132 166
114 131 165
117 134 168
121 139 171
123 141 172
117 135 168
120 138 170
121 139 171
118 135 169
127 146 175
121 139 170
124 143 173
125 144 174
126 146 175
126 146 175
127 146 175
124 143 174
128 148 177
125 145 173
128 147 176
130 149 177
130 150 178
131 151 179
129 150 178
128 147 176
129 148 178
129 148 177
130 150 177
130 150 178
131 152 179
131 151 179
130 150 178
129 149 177
129 149 178
129 148 176
131 152 179
131 151 178
132 152 179
131 151 179
131 150 178
131 151 178
133 153 180
133 153 180
131 152 179
132 152 179
133 153 180
130 151 179
133 154 180
133 153 180
129 149 177
132 153 180
132 153 180
131 152 179
133 154 180
134 154 180
132 152 179
132 152 179
131 151 179
131 152 180
133 153 180
131 152 179
133 153 180
133 154 180
135 155 181
134 154 180
132 153 179
132 153 180
133 154 180
133 154 180
134 154 180
133 154 180
132 152 179
133 154 180
134 154 181
133 154 180
133 154 181
133 153 180
134 155 181
134 154 181
133 154 181
133 154 181
134 154 180
134 154 180
134 154 181
134 154 181
134 154 181
132 153 180
133 154 181
134 154 181
132 153 180
134 154 181
134 154 180
134 154 181
133 154 181
134 154 181
133 154 181
133 154 181
134 154 181
133 153 180
134 154 180
133 154 181
134 154 181
133 153 180
133 153 180
134 154 181
133 154 180
134 154 181
134 154 181
134 154 181
134 154 181
134 154 181
134 154 181
133 154 181
135 155 181
133 154 181
133 154 181
134 154 181
133 153 180
133 154 181
133 154 181
134 154 181
134 155 181
133 154 181
134 154 180
133 154 180
134 154 181
134 154 181
133 154 181
133 154 181
134 154 181
134 154 181
134 154 181
134 154 181
134 154 181
134 154 181
135 155 181
133 154 180
133 154 181
134 154 181
134 154 181
134 154 180
134 154 180
134 154 181
134 154 181
134 154 181
134 154 181
134 154 180
133 154 181
133 154 181
134 154 181
133 154 181
133 154 181
133 154 181
133 154 181
134 154 181
134 154 181
133 154 181
133 154 181
134 154 181
134 154 181
134 154 181
134 154 181
134 154 181
133 154 181
133 154 180
134 154 181
134 154 181
134 154 181
133 154 181
135 155 181
134 154 181
134 154 181
133 154 181
134 154 181
134 154 181
133 154 181
133 154 181
133 154 181
134 154 181
134 154 181
134 154 181
134 154 180
134 154 181
133 154 181
133 154 181
133 154 181
133 154 181
134 154 181
133 154 181
134 154 180
133 154 181
133 154 181
134 154 181
133 154 181
134 154 181
133 154 181
133 154 181
134 154 181
133 154 181
135 155 181
134 154 181
133 154 181
134 154 181
134 154 181
134 155 181
134 154 181
134 154 181
134 154 181
134 154 181
133 154 181
133 154 181
135 155 181
133 154 181
134 154 181
135 155 181
134 154 181
134 154 181
133 154 181
134 154 181
134 154 181
132 153 180
132 153 179
131 151 178
132 152 179
131 151 179
131 151 179
132 151 179
134 154 180
132 152 179
130 149 177
130 150 179
131 151 179
130 150 178
130 151 178
130 150 177
130 150 178
130 149 177
127 147 176
128 149 177
128 147 176
129 149 177
129 149 177
129 148 177
125 145 174
127 147 176
128 147 176
125 145 175
123 141 171
121 139 170
128 148 176
125 144 174
125 144 174
127 147 175
127 147 175
123 142 172
122 141 172
120 138 169
125 144 174
120 137 170
124 142 173
121 139 171
124 142 172
122 141 172
120 137 169
118 136 170
117 135 167
114 131 164
120 138 169
118 135 168
115 132 167
111 127 164
113 130 164
114 131 166
114 130 166
110 125 162
111 127 162
109 124 167
107 121 173
109 122 184
110 121 194
108 120 194
104 116 189
111 122 198
102 114 187
103 115 187
105 117 191
105 116 190
107 118 193
106 119 193
112 124 200
108 120 195
113 125 202
109 121 196
111 124 199
107 119 193
110 122 197
114 126 203
109 121 197
109 121 197
112 124 199
109 122 197
112 124 200
110 123 198
111 123 198
114 126 202
113 125 200
114 126 203
112 124 199
108 120 193
110 123 197
112 124 199
106 118 191
114 126 202
110 122 197
117 128 205
114 126 202
109 121 196
108 119 193
111 123 199
106 118 191
110 122 196
108 121 196
112 123 198
106 119 193
110 122 196
114 126 202
109 121 196
113 125 201
113 125 201
113 125 202
111 123 198
110 122 197
109 121 196
112 124 199
108 120 194
108 120 195
112 124 199
107 119 194
110 122 198
108 121 196
110 122 198
110 122 198
109 121 197
109 121 195
109 121 196
108 120 195
105 116 191
109 121 195
107 119 194
110 122 198
108 120 195
104 116 190
111 123 200
107 119 195
115 127 204
104 116 190
111 123 198
106 118 192
113 125 202
110 121 196
109 121 196
110 122 199
112 123 199
112 124 201
107 119 194
103 115 189
107 118 192
104 116 190
108 119 194
107 118 192
107 118 195
111 122 198
109 121 197
107 118 193
105 116 190
106 117 191
104 116 186
109 121 192
107 119 187
107 119 185
99 112 169
112 126 178
108 121 176
111 126 167
108 123 167
115 131 169
104 118 161
114 130 164
116 133 167
113 130 164
113 129 162
111 128 164
116 133 166
118 135 167
120 137 171
114 131 167
120 138 170
111 128 163
119 136 170
120 138 171
119 137 169
123 142 173
120 138 170
120 137 169
123 142 173
123 142 173
121 139 169
120 138 170
122 140 171
125 144 175
126 145 175
127 146 176
123 142 172
127 146 176
126 146 176
125 144 173
124 144 173
127 147 175
129 149 177
128 147 176
128 147 176
130 149 177
129 149 177
128 148 176
127 147 175
129 149 177
131 151 179
130 150 178
129 148 176
130 150 177
132 152 179
130 150 178
130 150 179
130 150 179
131 151 179
133 154 180
131 151 179
134 154 180
134 154 180
130 151 179
129 149 177
132 152 179
133 153 180
131 151 179
133 153 180
131 151 179
132 153 180
132 152 179
133 154 180
133 153 180
133 153 180
133 154 180
132 152 179
132 152 179
133 154 181
133 153 180
133 153 180
132 152 180
134 154 180
134 153 180
133 153 180
132 152 180
133 154 180
133 154 180
134 154 181
133 154 181
133 153 180
132 153 180
133 153 180
132 152 179
133 153 179
133 153 180
133 153 180
133 154 181
134 154 181
134 154 181
133 153 180
133 154 180
133 153 180
133 154 181
134 154 181
133 154 180
133 154 181
134 154 181
134 154 181
133 153 180
133 154 181
134 154 180
133 154 181
134 154 181
133 154 180
133 154 181
133 154 181
134 154 181
133 154 181
133 154 180
134 154 181
134 154 181
133 154 181
133 154 180
134 154 181
134 154 181
134 154 181
133 154 181
133 154 181
133 154 181
134 154 181
133 154 181
133 154 181
133 153 180
134 154 181
133 153 180
133 154 181
134 154 181
134 154 181
134 154 181
134 154 181
133 154 181
133 154 180
133 154 181
133 154 180
133 154 181
134 154 181
133 153 180
133 154 180
134 154 181
133 153 180
134 154 181
133 154 181
134 154 181
133 154 181
134 154 181
134 154 181
134 154 181
133 154 180
134 154 181
134 154 181
134 154 180
134 154 181
134 154 180
133 154 181
134 154 181
134 154 180
133 154 181
134 154 181
134 154 180
133 154 181
134 154 181
133 154 181
133 154 181
133 154 181
134 154 181
134 154 181
134 155 181
133 154 181
135 155 181
133 154 181
134 154 181
134 154 181
133 154 181
134 154 181
134 154 181
134 154 180
134 154 181
133 154 181
134 154 181
134 154 181
133 154 180
133 154 181
134 154 181
134 154 181
134 154 181
134 154 181
133 154 181
133 154 181
134 155 181
134 154 181
134 154 181
134 154 181
134 154 181
134 154 181
134 154 181
134 154 181
133 154 181
133 154 181
133 154 181
134 154 181
134 154 181
134 154 181
133 154 181
134 154 181
134 154 181
134 154 181
135 155 181
133 154 181
134 154 181
134 154 181
133 154 181
134 154 181
134 154 181
134 154 180
135 155 181
133 154 181
133 154 180
134 154 181
134 154 181
134 154 181
133 154 181
133 154 181
134 154 181
133 154 181
133 154 181
134 154 181
134 154 181
134 154 181
135 155 181
134 154 181
135 155 181
133 154 180
133 154 181
130 150 178
131 151 178
132 152 179
132 152 179
131 152 179
130 150 179
131 151 179
131 152 179
130 150 178
132 153 180
128 148 177
130 150 178
131 151 178
132 152 179
129 149 178
128 148 177
128 147 176
131 151 179
130 150 178
128 147 176
129 149 177
129 149 177
126 146 175
125 144 174
125 144 173
126 145 174
126 146 175
121 140 172
123 141 171
126 145 174
124 143 173
125 143 173
124 143 173
120 138 170
127 145 175
123 142 173
125 144 174
123 141 173
123 141 173
120 137 170
120 138 170
118 136 168
119 137 168
119 137 168
116 134 168
118 135 168
117 134 167
122 140 170
116 133 168
114 131 166
116 132 165
116 132 166
119 137 171
114 131 166
112 128 163
109 125 163
114 131 165
109 125 165
111 126 169
116 132 180
107 121 180
105 118 187
101 113 187
109 121 196
102 114 188
108 120 195
113 125 202
108 120 195
105 117 190
108 119 194
112 125 201
106 118 193
108 120 194
109 121 195
108 120 195
110 122 197
112 125 201
109 122 196
112 123 198
110 123 198
109 121 195
109 121 195
110 122 196
106 118 192
112 123 198
114 126 202
111 123 199
112 124 200
106 118 192
106 119 193
109 122 196
114 126 203
110 122 196
106 118 191
111 123 199
110 122 198
114 126 201
114 126 203
111 123 199
112 124 199
107 120 195
110 122 195
106 117 190
110 123 199
111 123 198
108 119 193
106 118 191
112 124 200
112 124 200
111 123 200
111 123 197
110 122 197
109 121 195
111 123 197
108 120 195
110 122 196
111 124 199
110 122 197
109 121 197
111 123 199
107 118 193
110 122 197
110 122 199
105 116 190
114 126 203
111 122 198
106 118 193
109 121 197
112 124 200
109 121 194
108 120 197
107 119 193
108 119 193
110 122 198
109 121 197
111 123 200
113 125 201
112 124 200
108 120 195
113 125 202
103 114 187
101 112 186
111 123 199
102 114 186
108 119 195
107 118 193
105 117 191
108 120 195
105 117 190
104 115 190
109 120 196
104 115 190
107 118 190
103 115 182
109 122 184
113 126 191
107 121 175
108 121 176
111 125 176
113 127 173
113 129 169
111 127 165
108 123 160
115 132 166
111 127 161
115 132 164
113 129 163
114 131 163
112 129 162
115 132 166
118 135 168
117 133 166
118 136 169
117 135 169
116 133 167
115 133 166
125 144 175
121 139 171
118 135 167
118 136 168
121 139 170
122 139 170
125 144 174
127 147 176
120 139 170
123 142 172
123 141 172
127 146 176
121 140 171
125 144 174
120 139 170
122 140 171
128 147 176
127 147 176
123 142 170
125 144 174
127 146 175
124 143 173
127 147 176
129 148 177
129 149 178
129 148 176
128 147 176
132 152 179
129 149 177
128 148 177
129 149 177
131 151 178
131 150 178
131 151 179
131 151 179
131 151 179
130 150 178
131 152 179
130 151 178
131 151 179
132 152 179
130 151 178
132 152 180
130 150 177
132 152 180
131 151 178
129 149 178
133 153 180
132 152 179
134 153 179
132 152 179
132 152 180
131 151 179
132 153 179
133 153 180
133 153 179
133 153 180
133 153 180
132 152 179
132 153 180
132 152 179
133 153 180
133 154 181
132 152 179
133 153 180
134 154 180
134 154 180
132 152 179
132 153 180
133 154 180
133 154 181
133 154 181
134 154 181
131 152 179
134 154 181
132 153 180
133 153 180
133 153 180
133 154 181
133 153 180
134 154 181
134 154 181
133 154 181
133 154 180
133 153 180
133 154 180
133 154 180
134 154 181
134 154 181
133 154 181
134 154 180
133 154 180
133 154 181
132 153 179
132 153 180
135 155 181
133 154 180
133 154 181
134 154 181
134 154 181
134 154 180
133 154 180
133 154 180
133 154 181
133 154 181
134 154 181
132 153 180
133 154 180
134 154 181
132 153 180
133 154 181
133 154 180
134 154 181
134 154 181
133 154 180
133 153 180
133 154 181
134 154 181
133 154 180
133 153 180
134 154 181
133 154 181
134 154 181
134 154 181
134 154 181
134 154 181
134 154 181
133 154 181
133 154 181
133 154 180
134 154 181
133 154 181
134 154 181
133 153 180
133 154 180
135 155 181
133 154 181
134 154 181
133 154 181
134 154 181
133 154 181
133 154 181
134 154 181
133 154 181
134 154 181
134 154 181
134 154 180
133 153 180
133 154 180
133 154 181
134 154 181
133 154 181
133 154 181
134 154 181
133 154 181
134 154 180
133 154 181
133 154 181
134 154 180
133 154 181
133 154 181
133 154 181
134 154 181
134 154 181
133 154 181
133 154 181
133 154 181
134 154 181
135 155 181
133 154 181
134 154 181
134 155 181
133 154 181
133 154 181
134 154 181
133 154 181
133 154 181
133 154 181
135 155 181
134 154 181
134 154 181
133 154 181
133 154 181
133 154 181
134 154 181
133 153 180
134 154 180
134 154 181
134 154 181
134 154 181
134 154 181
133 154 181
134 154 181
134 154 181
134 154 181
133 154 181
134 154 181
133 154 181
133 154 181
133 154 181
134 154 181
133 154 181
134 154 181
134 154 181
134 154 181
133 154 181
134 154 181
134 154 181
134 155 181
134 154 181
133 154 181
134 154 181
134 154 181
135 155 181
134 154 181
133 154 181
133 154 181
134 154 181
134 154 181
133 154 180
134 154 181
134 154 181
135 155 181
134 154 181
132 153 179
133 153 180
131 151 179
131 150 178
130 149 177
131 151 178
130 150 178
130 149 177
132 152 180
130 150 178
130 150 178
129 150 178
133 153 180
128 148 176
127 147 176
131 150 178
129 149 178
128 148 176
129 149 177
130 149 177
128 148 177
129 149 178
129 149 177
126 145 174
127 146 174
128 148 177
127 146 176
126 145 175
127 146 174
127 146 176
126 145 174
128 148 176
122 141 173
124 143 174
125 143 173
124 143 172
120 139 170
121 139 170
122 140 172
122 140 171
124 143 173
120 138 170
119 137 170
122 140 171
120 138 169
122 140 172
118 135 170
117 135 167
115 133 166
118 135 168
119 137 171
115 132 166
116 133 167
113 129 164
112 128 162
118 135 168
117 135 169
110 126 161
113 129 164
109 124 162
113 128 173
105 118 172
106 119 184
110 122 189
111 123 200
113 125 202
106 118 192
107 119 193
104 115 189
111 123 199
108 120 195
113 125 202
106 118 193
116 128 205
107 120 194
109 121 195
105 116 189
109 122 198
106 118 192
112 124 199
104 116 189
111 123 199
110 123 198
111 124 200
110 121 196
115 127 203
108 121 195
110 122 196
110 122 198
112 124 200
108 120 194
113 125 201
108 120 194
108 120 195
113 125 202
114 126 202
112 124 200
115 127 203
108 120 195
107 119 193
110 122 196
114 126 202
105 117 190
111 123 199
106 119 193
105 117 191
111 124 199
111 123 199
109 121 197
110 122 196
113 125 201
109 121 196
106 119 194
107 119 193
109 121 196
115 127 204
111 123 198
109 121 196
108 121 196
108 121 196
108 120 196
113 125 202
104 115 189
108 120 194
107 119 193
110 121 196
110 122 198
106 118 192
107 119 194
101 113 185
110 121 197
109 121 196
107 119 193
105 117 192
106 118 193
105 116 191
109 121 197
111 122 198
104 116 189
105 117 191
108 119 194
106 118 193
103 114 187
104 116 190
100 110 182
102 112 186
108 121 197
98 110 182
106 118 188
107 119 188
106 119 181
109 123 179
107 120 175
110 125 172
113 129 175
112 128 170
109 125 163
112 128 165
113 130 164
113 130 164
112 127 163
118 135 168
113 130 165
114 130 166
119 136 168
117 135 167
117 134 166
119 136 167
112 129 164
118 136 167
119 136 169
122 140 171
121 139 173
122 140 171
118 137 168
122 140 171
123 142 173
124 142 173
122 141 172
118 137 168
123 142 173
120 139 171
123 141 173
122 141 172
126 145 175
124 143 174
127 146 175
124 143 173
127 146 175
124 142 172
125 145 174
127 147 176
128 147 176
126 146 175
130 149 177
128 148 176
127 147 177
131 151 179
129 148 176
132 152 179
129 148 177
132 152 179
132 152 180
128 147 176
128 148 177
130 150 177
129 149 177
129 148 177
130 150 178
129 149 177
131 151 179
131 151 179
129 149 177
133 153 180
132 152 179
132 153 180
133 153 180
132 152 179
132 152 180
131 151 178
132 152 179
132 152 179
132 153 179
132 153 179
133 154 181
132 152 179
132 153 179
133 154 180
133 153 179
132 153 180
133 153 180
132 152 180
132 152 179
132 152 179
133 153 180
133 153 180
133 153 180
134 154 181
132 153 180
134 154 181
134 154 180
133 154 181
134 154 181
133 153 180
133 153 180
134 155 181
132 153 179
133 153 179
134 154 180
134 154 181
133 153 180
133 154 180
133 153 180
134 154 181
133 154 180
133 153 180
133 154 181
134 154 180
133 153 180
134 154 181
134 154 181
133 154 181
133 154 181
133 153 180
132 153 180
133 153 180
134 154 181
133 154 181
134 154 181
133 153 180
134 154 181
134 154 181
134 154 181
133 154 181
133 154 181
133 154 181
133 154 181
134 154 181
134 154 181
133 153 180
134 154 181
134 154 181
133 154 180
133 153 180
134 154 180
133 154 181
134 154 181
133 154 181
134 154 180
133 154 180
133 154 180
133 153 180
134 154 180
134 154 181
133 154 181
133 154 180
133 154 181
134 154 181
134 154 181
134 155 181
133 154 181
132 153 180
134 154 181
134 154 181
134 154 181
134 154 181
134 154 181
134 154 181
134 155 181
134 154 181
134 154 181
134 154 181
134 154 181
133 154 181
133 154 181
133 154 181
134 154 181
133 154 181
134 154 181
134 154 181
134 154 180
134 154 181
134 154 181
134 154 181
134 154 181
134 154 181
134 154 181
134 154 181
134 154 181
134 154 181
134 154 181
135 155 181
133 154 180
134 154 181
134 155 181
134 154 181
134 154 180
134 154 181
134 154 181
134 154 181
133 154 181
135 155 181
134 155 181
133 154 180
134 154 181
133 154 181
133 154 181
134 154 181
134 154 181
134 154 181
133 154 181
133 154 181
133 154 180
134 154 181
133 154 181
133 154 181
133 154 181
134 155 181
134 154 181
133 154 181
133 154 181
134 154 181
134 154 181
134 154 181
133 154 181
134 154 181
134 155 181
134 154 181
134 154 181
134 154 181
133 154 180
134 154 181
134 154 181
133 153 180
134 154 181
134 154 181
134 154 181
134 154 181
133 154 181
133 154 181
134 154 180
134 154 181
134 154 181
134 154 181
134 154 181
135 155 181
134 154 181
134 154 181
134 154 181
134 154 181
134 154 181
134 154 181
134 154 181
134 154 181
133 154 181
133 154 181
134 154 181
134 154 181
134 154 181
133 154 181
133 153 180
131 151 179
131 151 179
132 152 180
132 152 179
132 152 179
132 152 179
133 153 180
132 153 180
131 151 179
130 151 179
131 150 178
130 150 178
130 150 179
127 146 175
130 149 177
130 150 178
130 150 178
130 150 178
129 149 178
129 148 176
130 150 178
128 148 177
127 146 176
127 146 175
129 148 177
127 147 176
127 147 175
129 148 177
130 151 178
125 144 174
127 146 176
128 147 176
126 145 175
124 142 174
123 142 173
129 149 177
126 146 175
123 142 173
122 140 172
119 136 168
119 137 168
122 141 172
121 139 172
118 136 168
120 138 170
117 134 167
116 134 165
113 130 163
116 133 167
121 139 170
117 134 167
112 129 163
114 132 166
116 132 166
116 132 166
113 129 165
111 126 161
115 132 165
109 125 160
108 124 159
110 125 163
105 119 167
108 122 179
111 124 191
107 119 191
107 118 192
108 119 193
105 116 191
108 121 197
105 116 190
106 117 191
109 121 196
113 125 202
108 119 193
111 123 199
112 123 199
104 116 189
112 124 200
109 121 195
113 125 202
111 122 197
111 124 199
113 125 201
108 120 194
112 124 200
112 124 199
113 125 202
115 128 204
109 121 196
107 120 194
109 121 196
113 125 201
109 121 196
108 120 195
114 126 202
114 125 201
108 120 193
107 119 193
114 126 202
109 121 196
110 122 198
111 124 200
106 118 192
104 116 189
113 125 202
110 123 200
113 125 201
113 125 200
113 125 200
109 121 195
110 122 199
104 116 190
110 122 197
107 119 194
108 121 196
106 118 191
113 125 201
108 119 193
109 121 197
107 118 192
107 119 194
110 122 199
105 117 191
109 121 196
105 117 191
108 120 195
110 121 197
108 120 195
105 117 191
110 122 198
105 116 190
105 117 191
106 117 192
107 119 194
110 122 198
105 117 192
110 121 197
103 114 187
99 110 183
112 123 200
105 116 192
108 120 195
110 122 190
107 119 183
106 118 187
113 126 189
106 120 175
111 126 174
110 124 173
112 127 169
114 129 170
114 131 168
111 127 163
113 128 165
111 127 163
113 129 165
115 132 166
116 134 167
116 133 166
114 132 166
115 131 166
117 135 168
118 136 168
113 130 163
114 131 165
122 141 171
117 135 169
124 142 173
120 138 170
116 133 166
118 136 168
117 134 167
123 141 172
118 136 168
113 130 163
122 140 171
126 145 174
126 144 174
123 142 173
125 144 173
126 145 175
126 145 174
122 141 172
124 142 172
127 146 176
126 146 175
128 147 176
125 145 174
125 143 174
126 146 175
126 145 174
129 149 177
125 144 174
128 147 177
128 148 176
125 145 174
129 149 178
131 150 178
128 147 175
129 149 177
130 149 177
131 151 179
131 152 179
131 151 179
132 152 179
129 149 177
133 152 178
130 150 177
130 150 178
131 152 179
130 150 178
132 152 180
131 151 179
133 153 180
132 152 179
131 151 178
131 152 179
132 152 179
133 153 180
132 153 180
132 152 179
132 152 179
133 153 180
131 151 179
133 153 180
131 151 179
132 152 180
133 153 180
132 153 180
133 153 180
133 153 180
134 154 180
132 152 178
133 154 181
133 153 180
134 154 181
132 152 180
133 154 181
133 153 180
134 154 181
133 153 180
134 154 181
131 152 179
134 154 181
134 154 181
131 151 179
133 153 180
134 154 180
134 154 180
132 153 179
134 155 181
133 154 181
134 154 181
133 153 180
133 153 180
132 153 181
133 154 180
134 155 181
133 154 181
132 153 180
133 154 180
134 154 180
134 154 180
134 154 181
134 154 181
133 153 180
134 154 180
134 154 181
132 153 180
134 154 181
133 153 180
133 154 180
133 154 181
134 154 181
133 154 180
134 154 181
133 153 180
135 155 181
133 154 181
134 154 181
133 154 180
134 154 181
133 153 180
134 154 181
134 154 181
133 154 180
133 154 180
134 154 181
134 155 181
133 154 181
133 154 180
133 154 181
135 155 181
133 154 180
134 154 181
133 154 180
133 153 180
134 154 181
134 154 181
133 154 181
133 153 180
134 154 181
134 154 181
134 154 181
133 154 181
133 154 181
134 155 181
133 154 181
133 154 181
134 154 181
134 154 181
134 154 180
133 154 180
134 154 181
134 154 180
133 153 180
133 154 181
134 154 181
134 154 181
134 154 181
134 155 181
133 154 180
134 154 181
134 155 181
134 154 181
134 154 181
134 154 181
134 154 181
133 154 181
133 154 181
133 154 181
133 154 181
133 154 181
133 154 181
134 154 181
133 154 181
135 155 181
133 154 181
133 154 181
134 154 181
134 154 181
134 154 181
133 154 181
134 154 181
133 153 180
133 153 180
133 154 181
134 154 181
134 154 181
133 154 181
132 153 180
134 154 181
133 154 181
133 154 181
134 154 181
134 154 181
133 154 181
134 154 181
133 153 180
134 154 181
133 154 180
133 154 181
134 154 181
134 154 180
134 154 181
134 154 181
133 154 181
133 154 181
133 154 181
134 154 181
133 154 180
133 154 181
134 154 181
134 154 181
133 154 181
134 154 181
133 154 181
134 154 181
134 154 180
134 154 181
133 154 181
134 154 181
135 155 181
134 154 181
134 154 181
134 154 181
134 154 181
134 154 181
133 154 181
134 154 181
133 154 181
133 154 181
134 154 181
134 154 181
133 154 181
134 154 181
135 155 181
134 154 181
133 154 181
133 153 180
132 152 180
129 149 178
132 152 179
131 151 178
130 150 178
133 153 180
130 150 178
131 151 179
130 150 178
131 151 179
132 153 180
130 150 178
129 149 178
130 150 177
129 149 176
128 148 177
129 149 177
129 149 177
129 149 176
126 146 175
129 149 177
126 146 175
125 143 173
128 148 176
123 142 172
127 147 176
125 145 175
124 144 174
124 143 173
128 147 176
127 146 176
127 146 175
126 146 176
126 145 175
125 144 174
124 143 172
123 141 172
123 142 172
124 143 173
123 142 174
122 140 172
122 140 171
125 143 174
126 145 174
124 142 173
123 142 172
121 139 171
121 140 171
116 133 167
113 129 164
116 133 168
111 127 161
114 131 163
113 130 165
117 134 166
111 126 162
114 131 167
111 127 161
113 129 165
113 130 163
110 126 164
110 125 163
109 124 166
114 129 175
112 125 186
110 122 192
101 112 184
107 120 195
107 119 194
105 117 190
105 117 193
111 123 198
108 120 195
108 120 194
108 120 194
113 126 204
107 119 194
107 119 194
110 123 198
111 123 199
109 121 195
112 125 202
111 123 198
112 124 199
114 127 205
112 124 199
107 120 193
113 125 200
112 124 200
108 120 194
109 121 196
108 120 194
103 115 188
110 123 198
111 123 199
109 121 196
107 119 193
108 120 193
112 124 201
113 125 201
110 122 197
109 121 197
111 123 199
105 117 191
110 122 196
113 125 201
107 118 192
109 121 195
107 119 194
112 124 201
106 118 192
105 117 191
103 115 189
112 124 199
103 115 188
108 120 195
107 119 193
103 115 188
109 121 196
106 118 192
108 120 194
106 118 193
108 120 196
106 118 193
108 119 194
107 119 194
111 122 198
111 122 198
109 120 195
105 117 191
104 115 189
111 123 199
103 114 187
111 123 199
103 115 190
108 119 193
109 120 197
107 119 191
105 117 189
103 115 182
107 119 184
108 121 181
113 128 187
111 125 178
108 122 166
114 131 168
113 128 167
111 127 163
116 132 167
109 126 160
112 128 163
109 124 162
111 127 162
112 128 164
116 133 165
114 131 164
117 135 168
115 132 165
112 128 163
111 127 162
118 135 170
114 130 165
116 134 166
118 135 169
121 139 171
120 139 170
119 137 170
124 142 173
121 139 172
122 141 172
124 143 173
121 140 171
122 140 171
123 141 172
121 139 171
123 142 172
126 145 174
121 140 172
122 141 172
127 146 175
123 142 173
124 143 173
124 143 172
128 147 176
128 148 176
123 141 173
128 148 177
123 141 172
126 145 175
127 147 176
126 146 175
129 149 176
127 146 176
129 149 177
130 151 179
128 147 175
131 151 179
131 151 179
131 152 179
128 148 177
129 149 177
131 151 179
130 150 179
129 150 177
128 148 176
132 152 179
131 151 179
131 152 179
131 150 178
130 150 178
133 153 179
130 150 178
131 150 179
133 153 180
130 150 178
131 150 179
130 150 179
132 153 180
130 150 178
133 153 180
132 152 179
132 152 179
131 151 179
132 153 180
132 152 180
133 153 180
133 153 180
133 153 180
132 152 178
134 154 180
133 154 181
133 153 180
134 154 180
132 152 180
132 153 180
134 154 181
133 154 180
135 155 181
132 152 179
131 152 178
134 154 181
132 153 179
133 153 180
133 154 181
134 154 181
134 154 180
133 153 180
133 154 181
133 154 181
134 154 181
134 154 181
134 154 180
133 153 180
133 153 179
133 153 180
133 153 180
133 154 180
133 154 181
133 153 180
134 154 181
134 154 181
133 154 181
133 154 180
134 154 180
133 154 181
133 154 181
134 154 181
133 154 181
133 154 181
133 153 180
134 154 180
133 154 181
132 152 179
134 154 181
133 154 180
134 154 180
133 154 181
134 154 180
133 154 181
134 154 181
133 153 180
134 154 181
133 154 181
134 154 181
134 154 181
132 152 179
135 155 181
134 155 181
134 154 181
134 154 181
133 154 181
133 154 181
132 153 180
134 154 181
134 154 181
134 154 181
133 154 180
134 154 181
134 154 181
134 154 181
134 154 181
134 154 181
134 154 180
134 154 181
134 154 181
134 154 181
134 154 181
134 154 181
134 154 181
134 154 181
134 154 181
134 155 181
134 155 181
134 154 181
133 154 181
133 154 181
134 154 181
134 154 181
134 154 181
133 154 181
134 154 181
135 155 181
133 154 181
133 154 181
133 154 181
133 154 181
134 154 181
133 154 181
134 154 180
133 154 181
135 155 181
134 154 181
133 154 180
134 154 181
134 154 181
134 154 180
134 154 181
133 153 180
134 154 181
135 155 181
134 154 181
134 155 181
134 155 181
133 154 181
134 154 181
134 154 181
134 154 181
133 154 181
134 154 181
134 154 181
134 154 181
134 154 181
133 154 181
134 154 181
133 154 181
134 154 181
133 154 181
133 154 181
134 154 181
134 154 181
133 154 181
134 154 181
134 154 181
133 154 181
134 154 181
134 154 181
134 155 181
134 154 181
134 154 181
134 154 181
134 154 181
135 155 181
134 154 181
134 154 181
135 155 181
133 154 181
134 155 181
134 154 181
134 155 181
134 154 181
134 154 181
134 154 181
133 154 181
134 154 181
133 154 181
134 154 181
133 154 181
134 154 181
134 154 181
134 154 181
133 154 180
134 154 181
134 154 181
134 154 181
134 154 181
134 154 181
133 154 181
134 154 181
133 154 181
133 153 180
131 152 180
131 152 179
132 152 179
132 153 179
131 152 180
133 152 179
132 153 179
132 152 180
131 151 179
131 151 178
129 150 177
132 152 179
132 152 179
130 151 179
130 150 178
129 149 177
131 151 179
129 149 177
127 146 175
129 149 177
128 147 176
128 147 176
130 149 178
128 148 177
130 151 179
125 144 173
126 145 175
126 145 174
126 145 175
127 146 175
126 145 174
127 146 176
124 143 174
124 142 173
122 142 172
125 144 174
121 140 170
126 145 176
125 144 175
121 139 169
121 140 172
122 141 171
119 137 171
123 142 172
120 139 170
122 140 171
123 141 172
116 134 167
117 134 168
119 137 171
119 136 168
118 136 169
122 140 171
119 137 169
119 137 170
115 131 166
114 131 166
113 130 164
116 132 167
110 126 161
112 128 164
107 122 159
115 132 165
110 126 161
112 127 169
103 117 165
106 119 183
109 122 190
107 118 193
104 116 190
108 120 195
105 116 189
105 116 190
110 122 197
109 121 198
109 121 196
107 119 194
108 120 193
112 124 200
112 123 199
107 118 191
111 123 198
110 122 197
109 121 196
110 123 198
104 117 189
115 127 204
111 124 200
110 122 196
110 122 197
109 121 196
104 116 189
110 123 199
109 122 197
105 117 191
109 121 196
108 120 193
110 123 198
110 122 197
108 120 196
107 119 194
106 118 192
106 118 192
108 120 196
110 122 198
108 121 196
110 121 196
109 121 196
109 121 196
106 118 191
109 121 196
110 122 198
109 120 195
108 120 194
107 119 193
113 125 201
114 126 202
107 119 193
105 117 192
106 117 190
109 120 195
103 115 190
110 121 197
107 119 194
108 120 194
106 118 192
109 121 196
107 118 194
103 115 189
105 116 189
105 116 189
109 120 196
108 120 195
108 119 191
108 120 188
107 119 184
112 126 185
110 124 180
104 118 167
110 124 169
107 123 165
109 123 164
110 125 163
110 126 162
108 123 161
115 132 165
113 130 165
119 137 169
113 130 165
115 131 166
114 130 166
118 136 170
121 138 171
116 133 166
117 134 167
115 133 166
120 138 169
119 137 169
121 139 171
116 134 167
118 136 169
119 136 169
117 134 167
122 141 172
119 137 169
120 137 170
121 139 169
123 141 172
124 143 173
121 139 170
122 140 171
124 142 173
123 141 171
123 141 172
123 142 172
125 145 174
121 140 171
122 141 172
127 146 176
125 144 174
125 145 175
125 144 173
126 145 175
128 148 177
127 146 175
127 147 176
124 143 172
128 148 177
129 149 177
130 149 177
127 147 176
128 148 176
129 149 177
129 149 177
130 151 178
128 148 177
130 150 177
130 150 178
130 150 178
131 151 179
129 149 176
130 150 177
128 147 176
130 150 178
131 152 179
130 150 178
132 152 179
132 152 180
133 153 180
130 150 178
131 152 180
132 153 180
130 150 177
133 153 180
132 153 179
131 151 178
132 153 180
132 153 180
132 152 179
133 153 180
133 153 180
130 151 178
132 153 180
132 152 178
134 154 181
132 152 179
133 154 180
133 153 180
133 154 181
133 154 180
132 153 180
133 153 180
133 153 180
132 153 180
133 153 180
133 153 179
133 154 180
134 154 181
133 154 181
131 152 178
134 154 181
133 153 179
134 154 180
133 154 181
134 154 181
133 153 180
134 154 180
133 153 180
133 154 181
134 154 181
134 154 180
133 154 180
134 154 181
133 154 181
133 154 180
134 154 180
134 154 180
135 155 181
133 153 180
133 154 181
135 155 181
135 155 181
134 154 181
134 154 181
133 154 181
132 152 179
132 153 180
134 154 181
133 154 181
133 154 180
134 154 181
134 154 181
135 155 181
134 154 181
133 154 181
134 154 181
134 155 181
133 154 181
133 154 181
134 154 180
133 154 181
134 154 181
134 154 181
134 154 181
133 154 181
134 154 181
134 154 181
134 154 181
133 154 181
134 154 180
133 154 181
134 154 181
133 154 181
134 154 181
133 154 181
134 154 181
134 154 181
134 154 181
133 154 181
134 154 181
133 154 181
134 154 181
133 154 180
134 154 180
133 154 180
133 154 181
134 154 181
133 154 180
134 154 181
134 154 181
134 154 181
134 154 181
134 154 181
133 154 181
134 154 181
133 154 181
134 154 181
134 154 180
134 154 181
135 155 181
133 154 181
134 154 181
134 154 180
134 154 181
134 154 181
134 154 181
133 154 181
134 154 181
134 154 181
133 154 181
132 152 179
133 154 181
134 154 181
134 154 181
134 154 181
134 154 181
134 154 181
134 154 181
135 155 181
134 154 181
134 154 181
133 154 181
134 154 181
133 154 181
134 154 181
134 154 181
133 154 181
134 154 180
134 154 181
133 154 181
134 154 181
133 154 181
134 154 181
134 154 181
134 154 181
134 154 181
133 154 181
134 154 181
134 154 181
134 154 181
133 154 181
134 154 181
133 154 181
134 154 181
134 154 181
134 154 181
133 154 181
134 154 181
133 153 180
133 154 181
134 154 181
134 154 181
134 154 181
133 154 181
134 154 181
133 154 181
134 154 180
134 154 181
133 154 181
134 154 181
133 154 181
135 155 181
134 154 181
135 155 181
134 154 181
134 154 181
133 154 181
134 154 181
133 154 181
134 154 181
134 154 181
134 154 181
134 154 181
133 154 181
134 154 181
134 154 181
134 154 181
134 154 181
133 154 181
130 150 177
131 152 179
130 150 178
130 151 179
131 151 179
130 150 177
132 153 180
131 151 179
132 152 180
128 147 176
131 151 179
129 149 177
131 151 179
130 150 177
130 150 178
130 149 177
131 151 178
131 151 179
130 150 178
126 146 175
132 152 179
128 147 176
129 149 178
132 152 179
128 148 176
124 144 172
129 149 177
127 147 176
129 148 176
124 143 174
125 145 174
127 147 176
128 148 177
124 143 173
126 146 176
123 141 171
125 144 174
125 144 173
121 139 171
124 142 173
124 143 174
121 139 171
125 144 174
120 138 170
128 147 176
121 139 171
119 138 170
122 140 171
117 134 168
121 139 172
121 140 171
119 137 168
116 133 167
118 136 168
116 133 167
118 136 168
120 138 169
112 128 163
115 132 168
109 125 160
113 129 165
114 131 163
115 132 167
119 136 168
113 129 164
112 128 163
111 127 165
103 117 161
111 125 178
113 125 192
108 120 193
102 114 187
113 125 201
103 114 187
105 117 191
110 122 197
105 117 191
111 123 197
111 122 198
107 119 194
109 121 195
107 120 194
108 120 195
112 125 201
112 124 200
109 120 194
111 123 199
108 120 194
114 127 203
110 122 196
109 121 195
112 124 201
106 118 191
108 120 195
107 119 193
105 117 191
110 122 197
114 126 202
111 123 198
111 123 199
113 125 202
106 118 193
112 124 200
108 119 195
112 124 200
106 118 192
110 122 198
111 123 199
110 123 198
108 120 194
110 122 197
110 122 198
104 116 190
108 120 196
102 114 187
110 122 197
111 123 199
107 119 194
105 117 192
109 121 196
107 119 194
109 121 197
102 114 188
111 123 199
103 115 189
108 120 195
104 115 188
109 121 198
105 117 190
107 118 191
109 121 191
102 114 179
106 118 183
106 119 178
103 116 173
107 122 167
110 126 169
112 127 170
110 126 163
106 122 159
111 127 164
113 129 163
113 131 165
115 132 166
107 122 160
117 134 167
115 132 166
117 134 166
116 132 167
119 136 169
116 133 166
118 136 168
115 132 164
119 137 169
118 136 170
123 143 173
120 138 170
126 145 175
119 137 169
118 136 169
120 138 170
123 141 171
120 139 171
122 140 172
122 140 171
118 136 167
119 137 169
125 144 175
119 136 168
125 143 172
123 141 173
128 148 176
125 144 175
125 143 173
121 139 169
125 144 174
126 145 174
126 145 175
126 146 174
125 145 174
129 148 177
126 145 175
128 147 176
128 147 176
126 145 174
128 147 176
127 146 175
129 149 177
128 147 175
129 149 177
128 148 176
125 144 174
131 151 179
128 148 177
129 148 176
125 144 175
128 148 177
128 148 176
129 149 177
128 148 176
130 150 178
132 152 180
130 151 179
129 149 177
130 150 178
130 151 179
132 152 179
132 152 179
132 153 179
133 154 180
132 152 179
131 151 178
131 152 179
132 152 179
132 152 180
133 153 179
131 151 179
132 153 180
131 151 178
132 152 179
132 152 179
133 153 180
132 152 178
132 153 180
132 152 179
131 152 179
133 153 180
133 153 180
134 154 181
132 152 180
134 154 180
132 152 179
132 153 179
132 152 179
133 154 181
133 154 180
132 153 180
132 153 180
132 153 180
133 153 180
134 154 181
134 154 181
134 154 180
133 153 180
133 154 180
133 153 180
132 152 179
133 154 181
133 154 180
133 154 181
133 153 180
133 154 181
133 154 181
134 154 181
134 154 181
133 154 180
134 154 181
133 153 179
134 154 181
133 154 180
133 154 181
134 154 180
133 154 180
133 154 181
133 154 180
133 154 181
134 154 181
133 154 180
132 153 180
134 154 181
133 154 180
134 154 181
134 154 181
134 154 181
134 154 181
134 154 181
135 155 181
133 154 180
134 154 181
133 154 180
133 154 180
133 153 180
134 154 181
133 154 181
135 155 181
134 154 181
134 154 181
133 153 180
134 154 181
133 153 180
134 154 181
134 154 181
134 154 181
133 154 181
133 154 180
133 154 181
134 154 181
134 154 180
134 154 181
134 154 181
134 154 181
134 154 180
135 155 181
133 154 181
134 154 181
134 154 181
133 154 181
134 154 181
134 154 181
133 154 181
134 154 181
133 154 181
133 154 181
133 154 181
134 154 181
134 154 181
134 154 181
134 154 180
133 154 181
133 154 181
133 154 181
133 154 180
134 154 181
133 153 180
134 154 181
134 154 181
134 154 181
133 154 181
133 154 181
134 154 181
133 154 181
133 154 181
134 154 181
134 154 181
133 154 181
133 154 181
134 154 181
133 154 181
133 154 181
134 154 181
133 154 181
133 154 181
133 154 181
134 154 181
134 154 181
135 155 181
133 154 181
135 154 180
133 154 181
133 154 181
134 154 181
134 154 181
134 155 181
134 154 181
134 154 181
134 155 181
134 154 181
134 154 181
134 154 181
134 154 181
134 154 180
133 153 180
134 154 181
133 154 181
134 154 181
134 154 181
133 154 181
134 154 181
134 154 181
134 154 181
133 154 181
134 154 181
133 154 181
134 154 181
132 153 181
134 154 181
134 154 181
134 154 181
134 154 181
134 154 181
133 154 181
134 154 181
133 154 181
134 154 181
135 155 181
133 154 181
134 154 181
134 154 181
134 154 181
134 154 181
133 154 181
134 154 181
134 154 181
133 154 181
134 154 181
134 154 181
134 154 181
134 154 181
134 154 181
134 154 181
133 153 180
130 150 178
133 154 181
131 151 179
131 151 178
132 152 179
132 153 180
133 153 180
131 151 178
130 150 178
134 154 180
129 149 178
131 151 179
131 151 179
132 152 179
131 150 178
130 150 178
132 153 180
129 149 178
131 151 179
127 147 176
128 148 176
131 151 179
128 148 176
125 145 174
125 144 174
127 146 175
126 146 175
126 145 175
126 146 175
127 146 176
131 152 179
127 147 177
129 148 176
127 146 175
125 145 176
124 143 175
125 144 174
125 144 175
127 146 176
123 142 171
124 143 172
121 140 171
124 143 173
122 141 172
124 142 173
123 141 173
119 137 168
123 142 173
124 142 173
117 135 168
117 135 167
118 136 168
122 140 172
119 137 169
119 137 168
116 134 168
117 134 166
119 137 169
118 136 168
119 136 167
119 137 169
114 131 165
116 132 165
119 136 169
112 128 163
114 130 166
109 125 160
110 125 165
108 123 170
108 120 175
106 118 185
111 123 198
109 120 196
110 122 198
105 116 189
107 118 193
110 122 197
108 120 196
110 121 195
110 122 198
107 118 192
111 123 199
107 120 195
113 125 201
108 120 195
109 121 196
108 120 195
110 122 197
110 122 197
110 122 197
110 122 198
106 119 193
113 125 202
110 122 198
114 126 202
114 127 204
106 118 192
110 122 198
107 119 194
109 121 197
106 118 193
108 120 194
107 119 193
110 122 199
107 120 194
111 123 200
111 122 198
108 120 195
110 122 198
103 115 188
108 119 194
110 121 196
106 118 193
110 121 196
101 112 186
104 115 189
110 122 198
108 120 196
103 115 188
106 118 192
107 118 194
110 122 197
102 113 186
109 121 195
109 121 193
105 117 185
105 118 179
106 119 181
108 121 180
108 122 174
114 128 181
108 122 166
110 126 165
112 129 166
113 129 163
114 130 166
111 127 163
117 135 168
109 125 161
117 135 168
118 135 168
110 126 161
113 129 164
113 129 165
116 133 167
117 134 168
120 137 170
115 132 164
119 137 170
122 139 172
117 135 168
118 135 169
117 134 167
118 135 167
123 141 174
120 139 171
123 141 173
122 139 171
122 140 172
121 140 172
124 142 173
121 140 171
122 141 172
121 139 170
124 143 174
125 144 174
124 144 173
126 146 174
122 141 171
124 143 172
125 144 173
125 144 174
124 144 174
128 147 176
126 145 174
123 141 172
127 146 176
124 143 173
124 143 173
129 148 176
128 147 176
131 151 179
128 148 176
126 145 174
126 146 175
129 148 177
128 148 176
127 146 176
130 150 178
129 148 177
130 150 177
130 150 178
129 149 177
131 151 179
130 149 177
132 152 179
133 153 180
132 152 179
129 149 178
129 149 177
131 151 179
132 152 179
130 150 178
131 152 179
130 149 177
131 151 178
131 151 179
131 152 180
132 152 179
132 152 179
132 153 180
131 151 179
131 152 179
133 154 180
131 152 179
130 150 178
133 152 179
131 151 179
132 152 179
133 153 180
130 150 178
132 153 180
131 152 179
133 153 179
133 153 180
132 152 179
133 153 180
132 152 179
133 153 179
133 154 180
132 153 180
134 154 180
133 153 180
134 154 181
132 152 179
133 153 180
133 153 180
133 152 179
133 154 180
134 154 180
132 153 180
133 153 180
133 154 180
134 154 181
133 153 180
133 153 179
134 154 181
133 154 181
133 154 181
134 154 181
133 153 180
133 153 180
133 153 180
134 154 180
134 154 181
133 153 180
133 153 180
133 153 180
133 153 180
133 154 181
134 154 181
134 154 180
134 154 181
133 154 180
132 153 180
134 154 180
133 154 181
134 155 181
134 154 181
133 154 181
133 153 180
133 153 180
133 154 180
133 154 180
134 154 181
135 155 181
132 153 180
135 155 181
134 154 181
133 154 181
134 154 181
135 155 181
133 154 181
133 154 181
134 154 180
134 154 181
133 154 181
134 154 181
134 154 181
134 154 181
134 154 181
133 154 181
134 154 180
134 154 180
134 154 180
133 154 181
133 154 181
134 154 181
134 154 181
133 154 181
135 155 181
134 154 181
134 154 181
134 154 181
134 154 181
134 154 181
134 154 181
134 154 181
134 154 181
135 154 180
134 154 181
133 154 181
134 154 181
134 154 181
134 154 181
134 154 181
134 154 180
134 154 181
134 154 181
134 154 181
134 154 181
134 154 181
134 154 181
134 154 181
134 154 181
133 154 181
134 154 181
133 154 180
133 154 181
134 154 181
135 155 181
134 154 181
134 154 180
133 154 181
134 154 181
134 154 181
133 154 181
133 154 181
134 155 181
133 154 181
134 154 181
134 155 181
134 154 181
134 154 181
134 154 181
133 154 181
133 154 181
134 154 181
134 154 181
133 154 181
134 154 181
134 155 181
135 155 181
134 154 181
135 155 181
134 155 181
134 154 181
133 154 181
132 153 180
134 155 181
134 154 181
134 154 181
134 154 181
134 154 181
133 154 181
134 154 181
134 154 181
133 154 181
134 154 181
133 154 181
133 154 181
133 154 181
133 154 181
134 154 181
133 154 181
134 154 181
133 154 181
135 155 181
134 154 181
133 154 181
134 154 181
135 155 181
134 154 181
133 154 181
134 154 180
134 154 181
134 154 181
134 154 181
134 154 181
134 154 181
135 155 181
135 155 181
134 154 181
134 154 181
133 154 181
134 154 181
134 154 180
133 154 180
134 154 181
132 152 179
133 153 180
132 152 179
132 152 179
132 153 180
131 152 179
132 152 179
130 150 178
131 151 179
131 151 178
131 152 180
130 151 179
130 150 178
130 150 178
131 151 178
129 149 178
130 151 179
129 150 177
128 148 176
130 150 178
129 149 178
130 149 177
128 148 176
128 148 178
127 147 175
127 147 176
127 146 176
127 146 177
126 145 175
127 147 176
130 150 178
128 148 176
129 149 177
127 146 176
124 143 172
129 149 178
125 144 174
126 145 174
126 144 174
127 147 176
125 144 175
124 143 174
121 140 171
122 140 170
124 143 174
124 144 175
118 137 169
121 140 172
120 138 170
121 140 171
123 142 172
120 138 172
121 138 170
119 137 169
118 135 169
118 136 169
112 129 163
124 143 173
120 138 170
119 136 168
117 135 168
114 130 165
114 131 166
118 136 169
112 128 163
115 133 167
115 132 165
114 129 166
114 130 164
113 130 165
107 121 161
113 129 175
112 126 182
104 116 185
102 113 184
104 115 189
105 116 191
109 121 196
110 121 197
109 120 195
108 120 194
111 123 198
111 123 200
110 122 198
112 124 200
112 124 199
110 123 197
114 126 204
108 121 195
111 123 199
110 122 197
105 117 189
110 122 197
117 129 207
112 124 201
111 123 198
107 119 194
108 120 195
105 117 191
113 125 202
112 124 200
110 122 197
111 123 199
103 114 187
106 117 191
109 121 196
113 125 201
111 123 199
105 117 192
108 120 195
102 114 186
106 118 193
111 122 198
110 121 196
106 117 191
109 120 195
104 115 188
104 115 188
112 123 199
99 111 184
108 119 191
106 118 189
108 121 186
103 116 173
111 124 184
110 125 175
106 120 171
110 125 170
113 128 168
115 132 169
109 125 160
107 123 159
114 131 165
114 130 165
118 135 168
115 132 166
111 128 162
114 131 164
114 130 167
118 135 168
114 132 167
120 138 170
111 128 163
113 130 165
121 140 171
118 135 169
122 141 173
119 137 169
122 140 172
122 140 171
121 139 170
119 137 168
118 136 169
119 136 170
115 132 164
119 137 168
125 143 174
122 141 172
122 141 172
122 140 172
121 140 172
124 142 174
123 142 173
125 144 174
126 146 175
125 144 175
121 140 171
122 140 172
126 146 174
125 144 175
125 144 174
125 144 174
122 140 172
127 146 176
123 142 172
127 146 175
128 148 176
125 144 174
129 149 177
128 148 177
126 146 176
129 149 178
128 147 176
126 146 175
131 151 179
129 149 178
128 148 176
128 147 176
130 150 177
131 151 179
131 151 179
128 148 176
129 148 177
130 150 178
129 149 177
130 150 178
129 149 177
133 153 180
131 151 179
128 148 177
131 152 179
130 150 177
130 150 178
131 151 179
132 152 179
134 153 179
129 149 176
132 152 179
132 152 179
130 150 178
132 152 179
131 152 180
133 153 180
133 154 181
132 153 180
133 154 180
132 153 180
133 153 180
133 153 180
132 153 180
132 152 179
133 153 179
133 153 180
135 155 181
131 152 179
131 152 179
133 153 180
132 152 180
133 153 180
134 154 180
134 154 180
134 154 180
133 153 180
133 154 180
133 154 180
132 152 179
133 153 179
133 154 181
133 154 180
133 154 181
134 154 181
133 153 180
133 153 180
132 153 180
133 154 181
132 152 179
134 154 180
133 154 180
133 154 181
134 154 181
133 153 180
134 154 180
134 154 181
134 154 181
134 154 181
133 153 180
134 154 180
134 154 181
134 154 180
133 153 180
134 154 181
134 154 181
133 154 181
133 154 180
132 153 180
134 154 181
133 154 180
133 153 180
134 154 181
134 155 181
134 154 180
134 154 181
134 154 181
132 152 179
133 154 181
133 154 181
133 154 180
134 154 181
133 154 181
133 154 180
134 154 181
135 155 181
133 154 181
134 154 181
133 153 180
134 154 181
134 154 181
133 154 181
134 154 181
134 154 181
133 154 180
133 154 180
134 154 181
135 155 181
134 154 181
133 154 181
134 154 180
134 154 180
133 154 181
134 154 181
134 154 181
134 154 181
134 154 181
135 155 181
134 154 181
134 154 181
134 154 181
134 154 181
134 154 181
134 154 181
134 154 181
133 154 181
134 154 181
133 154 181
134 154 180
134 154 181
134 154 181
134 154 181
133 154 181
133 154 181
134 154 181
133 154 181
134 154 181
134 154 181
135 155 181
133 154 181
134 154 181
133 154 181
133 154 181
134 154 181
133 154 181
134 154 181
134 154 181
134 154 181
134 154 181
134 154 181
134 154 181
134 154 181
133 154 181
134 154 181
135 155 181
133 154 181
134 154 181
134 154 181
133 153 180
134 154 181
134 154 181
134 154 181
134 154 181
133 154 181
133 154 181
133 154 181
133 154 181
134 154 181
134 154 181
132 153 181
134 154 181
134 154 181
134 154 181
134 154 181
133 154 181
134 154 181
134 154 181
134 154 181
134 154 181
134 154 180
134 154 181
134 154 181
134 154 181
134 154 181
134 154 180
133 154 181
134 154 181
133 154 181
134 154 181
133 154 181
134 154 181
133 154 181
134 154 181
134 154 181
133 154 181
134 154 181
134 154 181
134 154 181
133 154 181
134 154 181
134 154 181
133 154 181
134 154 181
134 154 181
134 155 181
134 154 181
133 154 181
133 154 181
134 154 181
134 154 181
134 154 181
133 154 181
135 155 181
134 154 181
130 150 177
132 152 179
133 154 180
129 149 177
133 153 180
130 150 178
131 152 179
129 149 177
132 153 180
130 151 178
129 149 178
132 151 179
131 151 179
131 151 178
129 149 177
130 150 178
129 149 177
130 149 177
130 150 178
129 148 177
129 148 177
131 151 179
130 150 178
129 148 176
126 145 175
127 146 174
128 147 175
128 148 176
126 146 175
130 150 177
125 144 174
127 147 176
126 145 175
129 149 177
129 148 176
128 148 177
129 149 177
127 146 176
123 142 172
126 145 174
125 145 176
126 146 174
126 145 175
124 143 173
122 140 170
124 143 174
124 142 175
123 142 172
120 138 171
123 141 173
121 139 170
120 138 169
124 142 173
122 140 171
120 139 169
120 138 169
118 135 167
116 134 168
120 138 169
117 135 167
117 134 167
116 134 167
116 133 167
113 129 164
116 133 167
114 131 166
113 129 164
116 133 167
116 134 167
110 125 162
108 123 160
109 125 162
111 127 167
112 126 179
106 119 179
104 116 184
101 113 185
108 119 195
114 125 203
112 124 201
110 122 197
113 125 201
108 120 196
113 126 203
106 119 192
111 123 199
108 121 196
107 119 193
108 120 195
111 123 199
110 122 198
110 123 199
112 124 200
108 120 194
109 121 195
108 121 195
115 127 203
109 121 195
109 121 197
102 114 187
110 122 198
109 120 195
102 114 187
107 119 194
113 125 202
103 115 188
104 116 190
106 117 192
102 114 189
109 120 197
101 112 187
105 116 190
106 118 193
109 120 195
108 119 194
102 113 186
106 118 188
109 121 187
110 123 189
107 120 180
112 126 185
110 124 176
108 124 168
111 126 165
106 120 161
114 131 168
112 129 163
116 132 167
117 134 168
115 131 164
113 128 163
120 137 170
115 131 166
113 129 164
115 132 166
116 134 166
120 138 169
115 133 165
119 137 169
116 134 167
116 133 166
119 137 169
122 140 172
116 133 167
117 135 168
122 141 172
120 138 171
123 141 172
122 140 171
121 139 171
121 139 172
123 143 173
124 143 173
124 143 174
126 145 175
122 141 173
123 142 173
120 139 171
124 143 173
122 141 172
125 145 174
128 147 176
120 137 169
126 146 176
126 144 175
127 147 176
128 147 176
123 142 172
127 147 176
124 143 173
127 146 176
125 144 174
129 149 178
128 148 177
128 149 177
128 148 177
128 147 176
132 152 179
129 149 177
129 149 177
130 150 179
129 149 177
128 148 176
128 147 176
130 150 178
128 148 176
130 149 177
129 149 177
130 149 177
131 152 179
131 151 179
130 150 178
130 150 178
133 153 180
131 152 179
128 148 176
129 149 177
128 148 177
134 154 180
131 151 179
132 152 179
132 152 179
132 152 179
134 154 180
133 153 180
132 153 179
132 152 180
131 151 179
131 151 177
131 152 179
132 152 179
131 151 178
132 153 180
133 154 180
132 152 179
132 153 179
133 154 180
131 151 179
132 153 180
133 154 180
132 152 179
133 153 180
134 154 181
132 153 180
132 152 179
133 154 181
133 153 179
133 153 180
132 152 179
132 152 179
134 154 180
133 153 180
133 153 180
134 154 181
133 153 180
132 153 180
131 152 180
133 153 180
133 154 180
133 153 180
133 154 181
133 153 180
133 154 181
134 154 181
132 153 179
134 154 181
134 154 181
134 154 181
133 154 180
134 154 180
134 154 181
134 153 179
133 153 180
135 155 181
134 154 180
133 154 181
132 153 180
133 154 181
134 154 181
133 153 180
133 154 181
134 154 181
134 154 181
134 154 181
133 154 180
134 154 181
133 154 181
134 154 181
133 154 181
133 154 180
133 154 181
133 154 181
133 154 180
134 154 180
134 154 181
133 154 180
134 154 181
134 154 181
133 154 181
134 154 181
134 154 180
133 153 180
134 154 181
134 154 181
134 154 181
134 154 181
132 154 181
133 154 180
133 153 180
133 154 181
133 154 181
132 153 180
133 154 180
133 154 181
134 154 180
134 154 181
133 154 181
133 154 181
133 154 181
134 154 181
134 154 181
134 154 180
133 154 181
134 154 181
134 154 180
133 154 181
134 155 181
133 154 181
134 154 181
133 154 181
135 155 181
134 154 181
134 154 181
133 154 181
134 154 181
133 154 181
134 154 181
132 153 180
134 154 181
134 154 181
134 154 181
134 154 181
134 154 181
133 154 181
134 155 181
133 154 181
134 154 181
133 153 180
134 154 181
133 154 181
134 154 181
133 154 180
133 154 181
134 154 180
133 154 181
134 154 181
133 154 181
133 154 181
134 154 181
133 153 180
134 154 181
133 154 181
133 153 180
134 154 181
134 154 181
134 154 181
134 154 180
134 154 181
134 154 180
133 154 181
134 154 181
133 154 181
134 154 181
133 154 181
134 154 181
133 154 181
134 154 181
134 154 181
134 154 181
134 154 181
134 155 181
133 154 181
134 154 181
133 154 181
134 154 181
134 154 181
134 154 181
133 154 181
134 154 181
134 154 181
134 154 181
134 155 181
133 154 181
134 154 181
134 154 181
134 154 181
134 154 181
133 154 181
134 154 181
134 154 181
134 154 181
134 154 181
134 154 181
134 154 181
134 154 181
134 154 181
134 154 181
134 154 181
134 154 181
134 154 181
135 155 181
134 154 181
132 153 181
134 154 180
134 154 181
133 154 181
133 154 181
133 154 181
135 155 181
133 153 180
132 153 180
131 151 179
132 152 179
129 150 178
132 152 179
128 148 176
131 151 179
132 152 179
132 152 180
131 150 177
131 151 179
131 150 177
132 152 179
132 152 179
130 149 177
130 149 177
132 152 180
130 150 178
132 152 179
132 152 179
129 150 177
129 148 177
132 151 179
130 150 178
129 149 177
130 150 178
130 149 178
129 150 178
129 150 178
128 148 175
128 147 176
129 148 176
126 145 173
125 144 174
126 145 175
127 146 175
128 149 177
125 144 173
125 144 174
129 148 177
127 147 176
122 140 172
125 144 174
125 144 174
122 141 171
125 145 174
123 142 173
121 140 171
125 144 175
124 142 173
121 139 171
124 143 173
124 143 173
121 140 171
123 141 171
123 141 173
122 139 171
121 140 171
120 138 170
121 139 171
122 140 172
118 136 169
116 134 166
118 136 170
116 133 166
116 132 167
113 130 165
115 132 166
115 132 165
111 128 161
112 128 164
108 124 159
111 127 163
108 123 160
111 126 169
105 119 172
104 117 178
107 119 189
105 117 191
107 119 194
110 122 197
114 126 202
109 121 198
110 122 197
112 124 201
110 122 198
111 123 198
109 121 196
109 121 196
108 120 195
113 125 200
111 123 199
112 124 200
103 115 189
107 118 192
112 123 199
108 121 196
114 126 203
109 121 197
107 120 195
106 117 191
108 120 196
111 123 199
109 121 196
107 119 193
106 117 191
109 121 196
110 122 197
105 117 191
109 121 197
105 116 190
110 122 198
103 114 185
105 117 186
107 120 182
112 125 182
107 121 172
110 124 172
113 129 169
113 128 169
114 130 166
108 124 162
107 122 159
115 132 166
112 129 164
109 125 159
113 129 163
110 126 162
111 127 163
119 137 168
115 132 166
116 133 167
116 133 167
117 134 166
118 136 168
116 134 167
114 131 165
122 140 171
120 138 171
116 133 167
119 136 169
119 137 170
121 140 172
122 141 171
119 138 169
119 137 169
121 139 171
122 141 172
123 142 173
122 142 172
123 142 172
124 143 173
124 143 173
124 143 172
125 144 174
124 144 175
122 141 171
127 146 175
126 145 175
127 146 175
122 141 172
126 146 175
127 146 175
125 144 174
122 141 170
128 148 177
123 142 172
124 143 174
128 148 176
128 147 176
127 146 176
128 148 177
126 146 174
125 145 175
130 150 178
128 148 176
132 152 179
131 151 179
129 149 177
131 151 178
130 150 178
128 148 177
129 148 176
128 148 177
130 149 177
129 149 177
127 148 176
128 147 176
128 148 176
133 153 180
129 150 178
130 150 178
132 152 180
131 151 178
132 152 179
132 153 180
132 152 179
129 150 178
132 152 179
130 149 177
131 152 179
131 152 179
132 152 179
130 150 178
130 150 178
131 151 179
133 153 180
132 153 179
133 153 180
132 152 179
131 151 179
132 152 179
131 151 179
133 153 180
132 153 179
133 152 179
133 153 180
131 151 178
133 153 180
131 151 179
133 153 180
131 151 179
133 153 180
135 155 181
133 153 180
132 152 179
132 153 180
133 153 180
133 153 180
133 153 179
133 154 180
132 152 179
133 153 180
133 152 179
133 154 181
133 154 180
132 152 180
134 154 180
133 153 180
133 154 181
133 153 180
132 153 180
133 153 180
133 153 180
134 154 180
133 154 180
133 154 180
132 152 179
133 154 180
133 153 179
133 154 181
133 154 180
133 154 181
133 154 181
134 154 181
133 154 181
133 154 181
134 154 180
133 154 180
134 154 181
134 154 181
132 153 180
133 154 181
133 154 181
134 154 181
133 154 181
133 154 181
134 154 181
134 154 181
133 153 180
133 154 181
132 153 180
134 154 181
133 153 180
133 154 181
134 154 181
134 154 181
134 154 181
134 154 180
134 154 181
134 154 181
133 154 181
133 154 181
134 154 181
134 154 181
133 154 180
133 154 181
134 154 181
134 155 181
133 154 181
134 154 181
134 154 181
133 154 180
133 154 181
134 154 181
134 154 181
133 154 181
133 154 181
135 155 181
134 154 181
134 155 181
133 154 181
134 154 181
134 154 181
134 154 181
134 154 181
134 154 181
134 154 181
133 154 181
133 154 181
134 154 181
134 154 181
134 154 181
133 154 181
134 154 181
134 154 181
132 153 180
134 154 181
134 154 181
133 153 180
134 154 181
134 154 181
134 154 181
134 154 181
134 154 181
133 153 179
133 154 181
133 154 181
134 154 181
134 154 181
134 155 181
134 154 181
134 154 181
134 155 181
134 154 181
134 154 181
134 154 181
133 154 181
135 155 181
133 154 181
134 154 181
133 154 181
133 154 181
134 154 181
133 154 181
133 154 181
134 154 181
134 154 181
133 154 181
133 154 181
134 154 181
133 154 180
134 154 181
133 154 180
134 154 181
134 154 181
133 154 181
134 154 181
134 154 181
135 155 181
134 154 181
134 154 181
135 155 181
133 154 181
134 154 181
134 154 181
133 154 181
135 155 181
135 155 181
133 154 181
132 153 180
133 154 181
134 154 181
133 154 181
133 154 181
133 154 181
134 154 181
134 154 181
134 154 181
133 154 181
134 154 181
134 154 181
134 154 181
134 155 181
133 154 181
134 154 181
133 154 181
133 154 181
135 155 181
134 155 181
134 154 181
133 153 180
134 154 181
134 154 181
134 154 181
134 154 181
134 155 181
135 155 181
134 154 181
134 154 181
132 153 180
132 152 179
130 151 178
133 153 180
131 152 179
132 152 179
131 151 178
133 153 180
131 151 179
132 152 179
132 152 179
133 153 180
131 151 179
130 150 179
130 150 178
132 153 179
131 151 179
128 148 176
129 149 177
132 152 180
129 149 177
131 151 179
128 148 175
128 147 176
131 151 178
131 152 179
126 145 175
130 149 176
130 150 178
127 146 176
129 149 176
130 150 178
128 147 176
128 148 177
130 150 178
127 146 176
128 148 177
128 148 176
125 144 174
128 148 177
129 149 178
127 147 176
125 144 174
127 147 176
126 145 175
124 142 173
122 141 172
123 141 172
123 142 174
127 146 176
125 145 174
121 140 172
120 138 170
122 141 172
122 140 173
118 136 169
121 139 172
121 140 171
120 138 169
121 139 171
116 133 167
119 137 169
115 132 166
119 136 168
118 136 169
119 136 168
115 133 166
118 135 168
114 131 166
118 135 168
116 133 167
114 130 166
110 127 162
112 128 164
113 130 165
109 125 160
111 126 167
108 123 177
105 117 184
107 120 191
109 121 197
105 116 190
107 119 193
110 122 198
110 122 197
110 122 196
111 123 198
111 123 199
110 122 197
112 124 200
104 115 188
107 119 193
109 121 196
115 127 203
108 119 193
104 116 190
106 117 191
107 119 194
107 119 194
110 121 197
105 116 191
100 111 184
111 123 200
107 118 192
107 118 194
106 118 192
106 118 192
108 120 191
104 116 185
108 121 184
111 124 186
107 120 175
108 123 172
109 124 168
113 128 167
106 121 159
113 129 167
117 134 167
113 130 164
111 127 163
119 136 168
111 127 163
114 131 165
116 133 166
112 129 163
113 130 165
114 130 162
116 132 165
119 137 169
117 135 168
114 132 166
118 135 168
118 136 169
118 136 169
119 137 170
121 139 171
121 139 171
117 135 169
120 138 169
117 134 169
120 138 170
120 139 170
120 137 169
121 140 172
122 140 172
123 142 173
124 143 175
124 143 173
119 137 169
126 146 175
121 139 171
125 144 174
125 144 173
123 143 172
123 142 174
124 144 174
127 145 175
127 146 175
129 149 178
127 146 175
125 144 174
127 146 175
126 145 175
127 147 176
129 148 177
129 149 177
126 145 174
127 146 176
128 148 177
129 149 177
131 151 178
128 148 177
126 145 175
130 150 178
129 149 177
131 151 178
128 147 176
130 150 178
130 150 178
128 148 177
129 149 177
128 148 176
131 151 179
131 151 179
130 151 179
131 151 178
131 151 179
132 153 179
130 150 178
131 151 179
129 150 178
131 151 178
131 151 179
132 152 179
131 152 179
133 153 180
132 152 179
130 150 177
132 152 179
132 151 178
130 150 178
131 150 178
130 150 178
129 149 176
131 151 179
131 152 179
131 152 179
133 154 180
133 153 180
132 153 180
132 153 180
133 153 180
131 152 179
132 152 180
134 154 181
133 153 180
133 154 180
133 154 180
132 152 179
134 154 180
134 154 180
132 152 179
133 154 181
134 154 181
133 153 180
133 153 180
133 153 180
133 153 180
133 153 180
133 153 180
134 154 181
132 153 180
133 153 180
132 152 180
133 153 180
133 154 181
132 153 180
133 154 180
133 154 180
133 153 180
133 153 180
134 154 181
132 153 180
133 154 181
134 154 181
133 153 180
132 153 180
133 154 181
134 154 181
132 152 180
134 154 181
134 154 181
133 154 181
134 155 181
133 154 181
135 155 181
134 154 181
132 153 180
134 154 181
134 154 181
133 154 181
133 154 180
134 154 181
134 154 181
133 154 181
134 154 181
134 154 181
134 154 180
134 154 181
133 154 181
133 153 180
134 154 181
134 154 181
134 154 181
133 153 180
134 154 181
134 154 181
133 154 181
134 154 181
134 154 181
133 153 180
134 154 181
133 154 181
134 154 181
134 154 181
134 154 180
134 154 181
134 154 181
134 154 181
135 155 181
134 154 181
134 154 181
134 154 181
134 154 181
134 154 181
133 154 181
134 154 181
134 154 181
133 153 180
134 154 181
134 154 180
133 154 180
134 154 181
133 154 180
133 154 181
134 154 181
133 154 181
134 154 181
134 154 181
134 154 181
133 154 181
133 154 181
133 154 181
134 154 181
133 154 180
133 154 181
135 155 181
133 154 180
134 154 180
133 154 181
133 154 181
134 154 181
133 154 181
134 154 181
134 154 181
134 154 181
135 155 181
133 154 181
134 154 181
133 154 181
134 154 181
134 154 181
134 154 181
134 154 181
134 154 181
134 154 181
134 154 181
133 154 181
133 154 181
134 154 181
133 154 181
134 154 181
134 154 181
134 154 181
134 154 181
133 153 180
134 154 181
133 154 181
134 154 181
134 154 181
134 154 181
133 154 181
135 155 181
134 154 181
134 154 181
133 154 181
135 155 181
134 154 181
134 154 181
134 154 181
133 154 181
134 154 181
134 154 181
133 154 181
133 154 181
134 154 181
133 154 181
135 155 181
133 154 181
134 154 181
134 155 181
134 154 181
133 154 181
133 153 180
134 154 181
134 154 181
134 154 181
134 154 181
133 154 181
134 154 181
134 154 181
134 154 181
134 154 181
134 155 181
135 155 181
133 154 181
132 153 181
134 154 181
134 154 181
133 154 181
133 154 181
134 154 181
134 154 181
133 154 181
134 154 181
135 155 181
135 155 181
134 154 181
134 154 181
134 154 181
133 154 181
133 153 180
132 153 180
131 151 179
132 152 179
131 151 179
131 151 179
130 151 179
131 151 178
131 152 180
131 151 178
129 149 176
130 150 179
132 152 179
131 152 179
131 151 179
131 151 179
130 151 178
131 151 179
131 151 179
130 150 178
131 151 178
129 149 178
130 150 177
129 149 177
130 150 178
130 150 178
129 149 177
131 151 179
129 150 178
128 148 176
127 147 176
129 148 177
127 147 176
125 144 173
129 150 178
126 145 175
128 147 176
128 148 177
123 142 172
126 145 175
125 145 175
129 150 178
123 143 173
127 147 176
127 146 176
124 143 174
127 147 175
127 147 175
128 147 176
126 146 175
125 144 174
121 140 171
122 141 171
123 143 173
121 139 170
120 138 170
124 143 172
124 143 173
125 144 174
121 139 172
121 139 171
120 137 171
120 138 169
120 138 171
122 140 172
118 135 167
116 134 166
118 136 169
117 134 168
111 127 165
113 130 165
113 130 164
113 130 164
112 129 163
111 127 163
114 131 166
109 124 160
111 126 172
109 122 180
111 124 190
105 116 191
103 115 187
108 120 195
108 120 195
107 118 192
113 125 201
107 119 194
107 119 194
111 123 200
104 116 189
112 124 200
108 120 195
107 119 194
109 120 196
108 120 196
106 118 193
105 116 190
108 119 193
106 118 193
106 118 194
109 121 196
106 118 189
111 123 194
109 121 189
105 118 180
112 126 184
107 122 172
109 123 168
108 124 163
112 128 167
110 125 165
110 125 162
112 129 162
113 129 163
106 122 158
114 131 167
116 133 167
113 131 166
118 135 168
111 127 161
115 132 166
114 132 164
114 131 165
120 138 169
118 136 169
120 137 170
120 139 170
120 137 170
119 137 171
121 140 173
118 136 169
121 140 171
123 142 172
121 139 171
119 138 170
119 137 169
120 138 170
122 140 172
123 142 173
120 138 171
118 137 169
120 138 170
121 139 171
121 140 171
123 142 172
126 145 175
122 141 173
125 144 174
123 142 173
123 141 173
128 147 176
126 146 175
127 146 175
128 147 176
125 145 174
128 148 177
126 145 174
122 141 171
126 145 175
128 147 176
130 150 178
128 148 176
126 145 175
129 148 177
127 146 175
129 149 178
125 145 174
129 149 177
133 153 180
129 149 178
130 150 178
129 149 177
128 148 176
130 150 177
129 149 177
130 150 178
131 151 179
129 149 177
131 151 178
130 150 178
128 148 176
129 149 177
130 150 177
130 151 179
132 153 180
131 151 179
130 150 177
132 153 180
131 151 178
129 149 178
130 150 178
130 150 177
133 153 180
131 151 178
132 152 179
132 152 179
132 153 180
132 153 180
131 151 179
131 152 179
132 152 179
131 151 178
131 151 179
132 153 180
132 153 180
132 152 179
132 152 179
133 153 180
132 152 179
133 153 180
133 153 180
131 152 179
132 152 179
133 153 179
133 152 179
132 152 180
131 152 179
132 152 179
133 153 180
133 154 180
133 153 180
133 153 180
133 153 180
133 154 181
133 153 180
134 154 181
133 153 180
133 154 181
134 154 180
133 154 180
132 152 179
133 153 179
133 154 181
134 154 181
133 154 181
134 154 181
133 154 181
134 154 181
133 154 180
134 154 180
132 152 180
133 154 180
132 153 181
133 154 180
132 153 180
132 153 180
134 154 181
132 153 180
134 154 181
134 154 181
133 153 180
132 153 180
134 154 181
134 154 181
134 154 181
133 154 181
134 154 180
133 154 180
134 154 180
134 154 181
133 154 181
133 154 181
133 154 181
134 154 181
133 153 180
134 154 181
134 154 181
134 155 181
134 154 180
133 154 181
134 154 181
133 154 180
133 154 180
134 154 181
134 154 181
135 155 181
133 154 180
134 154 180
134 154 181
134 154 181
133 153 180
133 154 181
133 154 181
133 154 181
133 153 180
133 154 181
134 154 181
134 154 181
135 155 181
134 154 181
133 154 181
134 154 181
132 153 180
133 154 181
134 154 181
134 154 181
135 155 181
132 153 180
133 154 181
135 155 181
133 154 181
134 154 181
133 154 181
134 154 181
134 154 181
134 154 180
133 154 181
134 154 181
134 154 181
133 154 181
133 154 181
134 154 181
134 154 181
134 154 181
133 154 181
134 154 181
133 154 181
133 154 181
133 154 181
133 154 181
133 154 181
134 154 181
133 153 180
134 154 181
134 154 180
133 153 180
134 154 181
133 154 181
133 154 180
134 154 181
134 154 181
134 154 181
133 154 181
133 154 181
134 155 181
134 154 180
133 154 181
134 154 181
133 154 181
133 154 180
133 154 181
134 154 181
133 154 181
133 154 181
132 153 181
135 155 181
135 155 181
133 153 180
133 154 181
134 154 181
134 154 181
133 154 181
134 154 181
134 154 181
134 154 181
133 154 181
134 154 181
134 155 181
134 154 181
133 154 181
133 154 181
134 154 180
134 154 181
133 154 181
135 155 181
134 154 181
134 154 181
134 154 181
133 154 181
134 154 181
134 154 181
134 154 181
134 154 181
134 154 181
134 154 181
134 155 181
134 154 181
134 154 181
133 154 181
133 154 181
133 154 181
135 155 181
134 154 181
133 154 181
135 155 181
134 154 181
134 154 181
134 154 181
134 154 181
133 154 181
134 154 181
133 154 181
134 154 181
134 154 181
134 154 181
134 154 181
134 154 181
133 154 181
135 155 181
133 153 180
133 153 180
132 152 180
130 150 178
134 154 180
132 152 179
131 152 179
132 152 179
133 153 180
132 152 179
130 150 178
130 151 178
132 152 178
132 153 180
130 151 178
132 152 180
133 153 179
130 150 178
132 152 179
129 149 177
132 153 180
130 150 177
130 150 178
131 150 178
131 151 179
131 151 179
130 150 178
129 149 177
128 147 176
131 151 178
127 146 176
128 148 177
130 150 177
130 151 179
129 149 177
130 150 178
131 150 179
126 146 176
130 150 178
125 144 175
129 149 178
127 147 176
129 149 178
125 145 175
128 148 176
126 145 175
126 145 173
123 142 172
125 144 175
125 144 174
126 145 175
124 143 173
122 141 171
128 148 177
124 143 173
121 139 170
126 144 174
121 139 170
118 136 169
122 141 172
120 138 171
121 139 171
121 139 171
124 143 173
120 137 171
122 140 172
120 139 170
115 132 166
118 135 168
116 133 165
120 138 170
116 133 166
115 131 167
116 134 167
117 135 168
114 131 166
111 127 163
115 131 166
110 126 161
112 127 167
111 126 173
108 122 179
111 125 194
106 118 192
109 121 196
109 121 196
106 118 192
112 125 201
115 127 205
111 123 200
111 122 198
106 118 192
107 118 191
107 119 194
109 121 197
107 119 194
109 120 196
108 119 193
107 119 190
105 117 185
106 119 184
103 115 180
112 126 180
105 119 171
113 129 172
112 127 168
111 128 164
111 126 162
115 131 164
105 120 158
113 130 164
112 128 163
110 127 163
118 135 169
116 134 167
119 136 169
117 135 169
116 133 167
112 129 164
120 138 170
119 137 169
120 138 170
120 137 170
118 136 168
122 140 171
113 130 163
120 138 172
121 140 171
118 136 168
121 139 170
115 132 166
117 135 167
117 134 168
123 142 172
125 145 174
122 141 171
124 144 173
125 144 173
121 139 171
124 143 174
124 142 174
124 142 172
125 145 175
124 143 173
129 149 177
126 145 175
127 146 176
125 144 174
125 145 175
128 148 176
126 146 176
126 145 176
126 146 175
128 147 176
126 146 175
126 145 174
123 141 173
126 146 175
126 145 175
129 149 178
126 146 174
129 150 178
126 146 174
127 147 175
130 150 178
128 147 176
130 150 179
131 151 178
127 147 176
129 149 177
129 149 178
128 147 176
129 149 177
126 145 175
128 148 176
131 151 179
130 150 178
129 150 178
131 151 178
130 151 179
131 151 178
131 151 178
130 150 178
130 150 179
131 151 179
131 151 179
131 151 179
131 151 178
132 153 180
131 150 177
132 152 180
133 153 180
131 152 180
130 150 178
132 152 179
130 151 179
131 151 178
133 153 179
132 152 179
131 151 179
132 152 179
132 153 180
132 153 179
131 151 178
132 153 180
131 151 178
132 152 179
132 153 180
133 153 180
131 152 180
133 154 180
133 153 180
133 154 181
132 153 180
132 151 179
133 153 180
132 153 180
133 153 179
133 154 181
133 154 180
132 153 180
133 154 181
133 154 180
133 154 181
133 154 181
133 153 180
132 153 180
133 154 181
134 154 181
134 154 181
132 153 180
133 154 180
133 153 179
134 154 181
133 153 180
133 154 180
133 153 180
133 153 180
133 153 180
133 154 181
134 154 181
133 153 180
134 154 181
134 154 180
132 153 180
134 154 180
134 154 181
133 154 180
134 154 181
134 154 181
133 154 181
133 154 180
134 154 181
134 154 180
134 154 181
134 154 181
134 154 181
134 153 180
134 154 180
134 154 181
134 154 180
133 154 181
134 154 181
135 155 181
134 154 181
134 154 181
133 154 181
134 154 181
132 153 180
134 154 181
134 154 181
134 154 181
132 153 180
133 154 181
133 154 180
135 155 181
134 154 181
134 155 181
134 154 181
134 154 181
133 154 181
133 153 180
133 154 181
134 154 181
134 154 181
134 154 181
134 154 181
133 154 181
134 154 180
134 154 181
134 154 181
134 154 181
134 154 181
133 154 181
133 154 181
134 154 181
134 154 181
134 154 181
134 154 181
132 153 179
134 154 181
134 154 181
133 154 181
133 154 181
134 154 181
133 154 181
133 154 181
134 154 181
134 154 181
134 154 181
134 155 181
133 154 181
134 154 181
133 154 181
134 154 181
134 154 181
133 154 181
133 154 181
133 154 181
134 154 181
133 154 181
134 154 181
134 154 181
134 154 181
133 154 181
134 154 181
135 155 181
134 154 181
133 154 181
134 154 181
133 154 181
134 154 181
133 154 181
133 154 180
133 154 181
134 154 181
134 154 181
135 155 181
134 154 181
134 154 181
133 154 181
134 154 181
135 155 181
133 154 181
133 154 181
134 154 181
133 154 181
134 154 181
134 154 180
134 154 181
134 154 181
133 154 181
134 154 181
133 154 180
133 154 181
133 154 181
134 154 181
133 154 181
134 154 181
133 154 181
133 153 180
135 155 181
134 154 181
134 154 181
134 154 181
134 154 181
134 154 181
135 155 181
134 154 181
135 155 181
134 154 181
134 154 181
134 154 181
134 154 181
134 154 181
133 154 181
133 154 181
134 154 181
134 154 181
133 154 181
133 154 181
134 154 181
133 154 181
135 155 181
133 154 181
134 154 181
133 154 181
134 154 181
133 154 181
133 154 181
133 154 181
134 155 181
134 154 181
133 154 181
133 154 181
134 154 181
134 154 181
133 154 181
134 154 181
134 155 181
133 153 180
134 154 180
133 153 180
132 153 179
133 153 180
131 151 179
131 151 178
131 151 179
132 152 179
132 152 179
131 152 179
132 152 179
132 153 179
132 152 179
132 152 180
129 149 177
130 150 178
130 150 177
129 149 177
131 151 179
129 148 176
130 150 178
130 151 179
132 152 179
131 151 179
130 150 178
130 149 177
128 148 177
131 150 178
129 150 179
131 151 179
130 150 178
128 148 176
132 151 179
130 151 178
128 148 177
128 148 176
130 150 179
128 147 176
127 147 175
130 149 177
125 145 174
130 150 179
126 145 173
126 146 176
125 144 173
126 145 176
125 144 174
122 140 171
128 147 177
129 148 177
129 148 176
123 142 172
125 144 175
121 139 169
127 146 175
119 138 170
120 138 170
125 143 173
123 142 172
125 143 174
121 140 172
120 139 169
123 141 172
121 138 171
122 140 173
118 136 169
122 140 171
120 137 170
120 137 170
120 138 171
117 134 167
117 134 167
117 134 166
111 127 163
115 132 167
113 130 163
116 133 167
115 132 165
110 126 164
108 123 161
109 125 162
106 120 166
107 120 180
106 118 187
102 114 187
107 119 194
110 122 197
107 119 194
104 116 190
105 116 190
104 115 190
102 114 187
108 120 194
104 116 187
107 119 186
105 117 174
112 125 181
108 122 175
113 128 171
109 123 165
112 128 165
107 122 161
115 131 166
113 130 165
115 132 166
112 128 164
116 133 166
113 129 164
115 131 167
117 134 168
115 132 166
111 127 161
117 135 168
114 131 165
121 139 171
120 138 171
121 139 171
117 135 167
121 140 171
121 140 170
122 141 172
122 140 172
116 134 167
122 140 172
123 142 172
122 140 171
122 140 171
123 142 173
120 138 169
123 141 171
120 138 170
120 139 170
126 145 174
124 144 173
125 144 174
126 145 174
122 141 171
128 148 177
126 145 175
127 146 175
128 147 177
122 141 172
125 145 174
127 146 175
128 147 175
129 149 177
126 146 175
124 143 173
128 148 177
128 148 177
127 147 176
127 146 175
128 148 176
127 147 175
128 148 176
128 148 176
128 148 177
127 147 175
128 148 177
128 148 177
130 150 178
126 146 176
130 151 179
128 148 176
129 149 177
128 147 176
129 149 178
127 147 176
125 144 174
127 147 176
130 151 178
128 148 177
131 152 179
130 150 178
129 150 178
131 151 179
130 150 178
131 151 179
129 150 178
130 150 178
130 150 178
131 151 178
130 150 178
129 149 178
132 152 179
131 151 178
132 152 178
130 150 178
132 152 179
131 151 178
131 150 178
133 153 180
131 151 179
132 152 179
132 152 180
132 152 179
131 151 179
133 153 180
133 154 180
130 150 178
133 154 181
133 153 180
131 152 179
133 153 180
132 153 180
132 152 179
130 151 178
131 151 179
132 153 180
134 154 180
133 153 180
131 151 178
133 154 181
132 152 178
132 152 180
133 153 180
134 154 180
134 154 181
133 153 180
133 153 180
133 153 180
134 154 181
134 154 180
134 154 181
131 152 179
133 154 181
134 154 180
133 154 180
134 154 180
134 154 181
134 154 180
133 154 180
133 153 180
133 153 180
133 154 180
133 154 181
134 154 180
134 154 181
133 154 180
133 154 181
135 155 181
132 152 179
133 153 180
133 154 180
133 153 180
134 154 181
134 154 181
134 154 181
133 153 180
133 153 180
134 155 181
134 154 180
133 153 180
134 154 180
133 153 180
133 154 181
135 155 181
134 154 180
134 154 180
133 154 181
135 155 181
134 154 181
134 154 181
133 154 181
133 154 181
134 154 181
133 154 181
134 154 181
134 154 180
133 154 181
134 154 181
134 154 180
134 154 180
134 154 180
134 154 181
135 155 181
133 154 181
133 154 181
133 153 180
134 154 181
134 154 181
133 154 181
134 154 180
133 154 180
134 154 181
134 154 180
134 154 181
134 154 181
134 154 181
134 154 181
133 154 181
133 154 181
134 154 181
133 154 181
134 154 181
133 154 180
134 154 181
133 154 180
133 154 181
134 154 181
135 155 181
134 154 181
134 154 181
134 154 181
133 154 180
133 154 181
133 153 180
133 153 180
134 154 181
134 155 181
135 155 181
133 154 181
134 154 181
134 154 181
133 154 181
133 154 181
135 155 181
135 155 181
133 154 181
133 154 180
134 154 181
134 154 181
134 154 181
133 154 181
133 154 181
133 154 181
133 154 181
133 154 180
135 155 181
133 154 181
132 152 179
134 154 181
134 154 181
134 154 181
133 154 180
134 154 180
134 154 181
133 154 181
135 155 181
133 154 181
134 154 181
135 155 181
134 154 181
135 155 181
133 154 181
134 154 181
134 154 181
134 154 181
133 154 181
133 154 181
134 154 181
133 154 181
134 154 181
133 154 181
134 154 181
133 154 181
133 154 181
134 154 180
134 154 181
133 154 181
134 154 181
134 154 181
134 154 181
133 154 181
134 154 181
133 154 181
134 154 181
133 154 181
134 154 181
134 154 181
134 154 181
133 154 181
133 154 181
133 154 181
133 154 181
134 154 181
134 154 181
134 154 181
133 154 181
134 154 181
134 154 181
134 154 181
134 154 181
134 154 181
133 154 181
134 154 181
134 154 181
134 154 181
134 155 181
134 154 181
134 154 181
134 154 181
134 154 181
134 154 181
133 154 181
134 154 181
134 154 181
133 154 181
134 154 181
133 153 180
133 152 179
132 152 179
132 152 179
130 151 178
132 153 180
131 151 179
133 153 180
132 152 180
131 152 179
129 148 176
132 152 179
132 153 180
131 151 179
129 149 177
131 151 179
131 151 178
132 153 180
131 151 178
132 152 180
132 152 179
131 152 179
131 151 178
130 150 177
132 152 179
130 150 178
131 151 179
132 152 180
132 152 179
131 150 178
130 150 178
129 149 177
130 149 178
129 150 177
129 149 176
129 149 177
130 150 178
127 147 175
129 148 177
127 147 175
128 147 175
127 146 175
127 146 176
126 146 175
126 145 174
128 148 177
128 148 176
127 147 177
127 147 175
127 146 175
126 146 175
127 147 176
124 143 172
127 146 175
121 140 171
123 142 174
124 143 173
125 145 176
123 142 172
122 141 171
120 138 170
124 143 173
122 141 171
119 136 169
121 139 169
125 144 175
123 142 171
117 134 167
123 142 173
122 141 171
117 134 167
120 138 169
119 137 169
119 137 169
117 134 168
117 134 168
113 129 164
114 131 165
119 137 170
114 130 165
113 130 164
111 127 162
109 124 161
110 125 167
106 120 169
107 119 181
108 121 192
109 121 195
104 116 188
111 123 197
110 122 191
102 115 175
108 121 182
106 119 173
112 127 175
109 123 168
114 130 169
107 122 162
120 138 170
115 132 167
117 134 167
115 132 166
116 132 167
113 130 163
119 136 169
118 136 169
121 139 170
117 134 169
117 134 166
115 132 166
121 139 171
123 142 173
120 138 170
117 134 167
117 134 168
119 138 169
118 136 169
115 133 166
122 140 172
122 141 171
122 140 170
117 135 167
121 140 171
122 141 172
123 142 173
122 140 171
121 139 171
122 141 173
125 144 175
123 142 173
126 145 174
125 145 175
122 141 172
126 145 175
124 143 174
123 142 172
123 142 173
127 146 176
126 145 174
128 148 176
126 145 175
124 143 174
126 146 176
125 143 174
128 148 177
129 149 177
126 146 174
126 146 176
127 147 176
125 145 174
127 147 176
130 150 177
126 146 175
128 147 176
130 150 178
128 148 177
129 148 177
129 149 177
128 148 177
125 145 175
127 147 176
126 145 175
129 149 177
129 149 178
129 149 177
134 154 180
130 151 179
130 150 178
130 150 179
128 148 176
129 149 177
127 147 175
132 152 179
131 152 180
131 151 179
131 151 179
132 152 179
130 151 178
129 150 177
131 151 179
131 151 179
133 153 180
131 152 179
131 151 178
132 151 179
130 150 177
131 151 179
132 152 179
132 152 179
131 151 179
132 152 179
131 151 178
133 153 180
131 152 179
129 149 179
134 154 180
132 153 179
131 152 179
130 150 177
132 152 180
131 152 179
132 152 179
132 152 180
133 153 180
132 152 179
134 154 180
133 154 180
132 152 179
133 153 180
132 152 179
132 152 179
134 154 181
132 153 180
132 152 179
132 153 180
133 153 179
133 153 180
134 154 180
133 153 180
133 153 180
132 152 180
134 154 181
133 153 180
133 154 180
132 152 179
133 153 180
132 153 180
134 154 181
134 154 181
133 153 180
134 154 181
134 154 181
133 154 180
133 154 181
134 154 181
134 154 181
133 153 180
135 155 181
132 153 180
133 153 179
133 153 180
134 154 180
134 154 181
133 153 180
133 153 180
133 154 180
133 154 181
134 154 180
133 153 180
134 154 180
134 154 181
133 153 180
134 154 181
134 154 181
133 154 180
133 154 180
134 154 181
133 154 180
134 154 181
133 153 180
135 155 181
134 154 181
134 154 180
134 154 181
134 154 181
133 153 179
134 154 180
134 154 181
134 154 180
134 154 180
133 153 180
133 154 181
133 154 181
134 154 181
134 154 181
134 154 180
133 153 180
133 153 180
135 155 181
134 154 180
132 154 181
134 154 181
134 154 180
134 154 181
134 154 181
133 154 181
133 154 181
133 154 181
134 154 181
134 154 181
134 154 181
134 154 181
133 154 181
133 154 181
134 154 181
133 154 180
133 154 181
132 153 180
135 155 181
133 154 181
134 154 181
134 154 181
133 154 180
133 154 181
134 154 181
134 154 181
134 154 181
134 154 181
133 154 181
134 154 181
134 154 181
134 154 181
134 154 181
134 154 181
134 154 181
134 154 181
134 154 181
133 154 181
133 154 181
134 154 180
133 154 181
133 154 181
133 154 181
133 154 181
133 154 181
134 154 181
135 155 181
134 154 180
133 154 181
133 154 181
133 154 181
134 154 181
134 154 181
133 154 181
133 154 180
134 154 181
134 154 181
134 154 181
134 154 181
134 154 181
133 154 181
134 154 181
134 154 181
133 154 181
133 154 181
133 154 181
133 154 181
134 154 181
133 154 181
134 154 181
133 154 181
134 154 181
133 153 180
134 154 181
134 154 181
133 154 181
134 154 181
134 154 181
134 154 181
134 154 181
133 154 181
134 154 181
134 154 181
134 155 181
133 154 181
133 154 181
133 154 181
134 154 181
134 154 181
134 154 181
133 154 181
134 154 181
134 154 181
134 154 181
134 155 181
133 154 181
134 154 181
133 154 181
134 154 181
134 154 181
133 154 181
134 154 181
133 154 181
134 154 181
134 154 181
134 154 181
133 154 181
133 154 181
133 154 181
134 154 181
134 154 180
133 154 181
134 154 181
133 154 180
134 154 181
133 154 181
133 154 181
133 154 181
133 154 181
134 154 181
132 152 179
132 152 179
132 152 179
131 151 179
132 152 179
133 153 180
132 152 179
131 152 179
131 152 179
131 151 179
131 151 179
132 152 179
131 151 179
132 152 179
131 152 179
132 153 179
132 152 179
132 152 179
131 152 179
130 151 179
132 152 179
132 153 179
131 151 178
132 152 180
133 153 180
130 149 177
130 150 178
130 151 179
132 152 179
130 150 177
129 148 177
129 149 178
130 150 178
130 150 178
130 149 177
132 152 179
128 148 176
130 150 177
126 145 175
126 146 175
127 147 176
129 149 178
129 148 177
126 146 175
129 148 176
129 149 177
128 147 176
129 149 178
128 148 177
127 146 175
126 145 174
127 147 176
122 140 171
123 143 173
125 144 174
128 147 176
126 145 174
126 145 173
126 144 174
123 142 172
123 142 172
123 142 171
123 142 171
125 144 173
124 143 173
124 143 173
119 136 168
115 132 166
123 141 172
119 137 170
121 139 170
117 135 168
122 140 170
116 133 165
122 140 170
118 136 168
123 141 172
119 137 169
121 138 169
114 131 165
116 133 167
117 134 169
116 133 168
116 133 165
121 139 172
120 136 177
114 129 175
113 127 182
117 132 184
113 128 177
110 125 172
110 126 168
115 132 167
112 128 165
120 138 170
117 134 167
113 129 163
119 137 168
116 133 168
116 133 167
115 132 165
117 134 168
120 137 170
118 136 169
115 131 166
116 133 168
119 137 170
118 135 168
122 140 171
120 138 170
121 139 169
124 143 173
117 135 168
123 141 173
122 140 172
121 139 170
123 141 171
120 138 170
116 133 166
125 144 173
121 139 170
119 137 169
119 137 169
124 143 173
123 142 172
121 140 171
123 142 172
127 146 176
122 140 173
121 140 170
125 144 174
127 147 176
126 145 175
128 148 176
123 142 173
126 145 173
127 147 176
128 148 176
128 147 176
126 146 175
127 147 176
125 145 175
127 147 176
129 149 177
128 148 176
128 147 176
127 146 176
127 146 176
128 148 177
128 147 176
126 146 175
130 150 178
128 149 178
129 149 178
129 149 178
132 152 179
129 149 178
132 152 179
128 148 177
128 148 177
128 149 177
128 148 177
130 150 179
129 149 177
129 150 178
130 150 178
130 150 177
131 151 179
129 149 178
129 149 177
127 147 176
129 149 178
133 153 180
130 149 178
131 150 178
131 150 178
132 152 180
131 152 179
130 150 178
131 151 179
131 152 179
133 154 181
132 153 180
130 150 178
129 149 176
133 153 180
131 152 179
131 152 180
132 153 180
131 151 179
132 153 179
132 152 180
133 153 180
131 151 179
132 153 180
132 153 180
131 152 179
131 152 180
133 153 180
133 153 180
132 153 180
131 150 177
131 151 178
133 153 180
134 154 180
134 154 181
132 152 179
133 153 179
133 153 180
134 154 181
133 153 180
132 152 179
131 152 179
133 154 180
133 153 180
133 153 179
131 151 178
134 154 180
134 154 180
133 153 180
131 152 179
133 153 180
133 153 180
134 154 181
134 154 181
133 153 180
134 154 180
134 154 181
132 153 180
133 154 181
133 154 181
133 153 180
132 153 180
132 153 180
133 154 181
134 154 180
133 154 180
134 154 181
133 154 181
134 154 180
133 154 181
134 154 181
134 154 181
134 154 181
134 154 181
134 154 181
134 154 181
133 154 180
133 154 180
133 153 180
133 153 180
133 154 181
133 153 180
133 154 181
133 153 180
133 154 181
135 155 181
132 153 180
134 154 181
134 154 181
134 154 181
133 154 181
134 154 181
134 154 181
133 154 181
134 154 181
134 154 181
134 154 180
134 154 180
133 154 181
133 153 180
133 154 180
134 154 181
134 154 181
133 154 181
133 154 181
134 155 181
134 154 181
133 154 181
133 154 181
134 154 180
134 154 181
134 154 181
134 154 180
134 154 181
133 154 181
134 154 181
133 154 181
133 154 180
134 154 181
134 154 181
134 154 181
134 154 181
134 154 181
133 154 180
134 154 181
134 154 181
133 154 181
133 154 181
134 154 181
134 154 181
134 154 181
133 154 181
133 154 181
135 155 181
133 153 180
134 154 181
134 154 181
134 154 181
134 154 181
134 154 181
133 154 181
133 154 181
133 154 181
133 154 181
133 154 181
133 154 181
135 155 181
134 154 181
134 154 181
133 153 180
134 154 181
134 154 180
135 155 181
134 154 181
134 154 181
134 154 181
134 154 181
133 154 181
133 154 181
133 154 181
134 154 181
134 154 181
133 153 180
134 154 181
134 154 181
134 154 181
133 154 181
133 154 181
133 154 181
134 154 181
135 155 181
134 154 181
135 155 181
133 154 181
134 154 181
134 155 181
133 154 181
134 154 181
134 154 181
134 154 181
133 154 180
133 154 181
134 154 180
133 154 181
133 154 181
134 154 181
134 154 181
134 154 181
134 154 181
134 154 181
134 154 181
133 154 181
133 154 181
133 154 181
134 154 181
135 155 181
133 154 181
134 154 181
134 154 181
133 154 181
134 154 181
133 154 181
134 155 181
133 154 181
134 154 181
133 154 181
134 154 181
134 154 181
134 154 181
134 154 181
133 154 181
134 154 181
133 154 181
134 154 181
134 154 181
134 154 181
134 154 181
134 154 181
134 154 181
134 154 181
134 155 181
135 155 181
133 154 181
134 154 181
134 154 181
133 154 181
133 154 181
133 154 181
134 154 181
132 152 180
132 152 179
132 152 180
133 154 181
132 152 179
132 152 179
132 152 179
131 152 179
133 153 180
131 151 179
132 153 180
133 153 179
132 152 180
130 151 178
133 153 179
132 152 179
131 152 179
131 150 178
129 149 177
130 150 177
128 148 176
131 151 179
133 153 179
130 150 177
132 153 180
131 152 180
131 150 178
131 151 179
131 151 179
131 151 179
129 149 177
132 152 180
130 150 178
128 147 176
130 150 178
129 149 176
132 152 179
130 150 178
126 145 175
126 144 173
131 151 179
126 145 175
131 151 179
128 147 177
129 149 177
131 151 179
129 149 177
129 149 177
128 148 176
128 148 176
127 147 175
126 146 175
128 148 177
126 145 175
129 149 177
129 149 177
127 146 175
126 145 175
126 145 175
128 147 176
125 144 174
122 141 172
124 143 173
127 146 175
121 139 170
125 144 173
124 143 173
123 142 172
122 141 171
126 146 175
126 145 174
125 144 174
124 142 173
122 140 171
124 142 172
122 140 171
124 142 174
125 144 173
123 141 172
127 147 175
120 138 170
119 137 168
119 137 169
124 143 172
122 140 170
120 138 169
121 138 170
121 139 172
119 137 170
122 140 172
119 136 169
121 139 168
116 133 167
118 136 168
118 135 170
119 136 168
120 139 170
116 134 166
118 135 168
119 137 169
120 138 170
116 133 167
116 133 167
120 137 170
121 138 170
123 142 173
123 141 173
121 138 171
123 141 172
117 135 167
121 139 170
124 143 174
123 141 172
122 140 171
126 145 175
124 143 172
120 138 169
122 140 171
121 139 171
128 147 176
127 146 176
124 143 173
127 146 176
123 142 172
124 144 173
127 146 175
123 142 174
125 143 173
125 144 174
127 146 175
127 147 176
125 144 175
126 145 174
128 148 176
129 149 177
126 145 175
127 147 176
126 146 176
127 147 176
128 148 177
125 145 173
128 148 177
126 145 174
127 147 176
130 151 179
128 148 176
128 147 176
128 148 177
129 149 177
130 150 178
130 150 178
128 148 176
129 148 177
129 149 177
128 148 176
130 150 178
129 149 177
130 149 177
130 150 177
129 149 178
132 153 180
133 153 179
131 151 179
129 149 178
131 151 179
130 150 178
132 152 179
127 147 175
130 150 179
128 149 177
129 149 177
130 150 177
130 150 178
130 151 178
131 151 179
131 151 179
132 152 179
133 153 180
130 150 178
131 151 178
131 151 179
131 150 178
131 151 179
131 151 178
133 154 180
131 151 179
132 152 180
132 152 179
132 153 180
132 152 179
132 152 179
131 151 178
132 152 179
132 153 180
133 153 180
132 153 180
131 152 179
131 151 179
132 153 180
131 151 178
132 152 180
133 153 180
132 153 180
133 153 180
134 154 181
133 153 180
133 154 180
132 153 180
133 153 180
133 154 180
133 153 180
133 154 181
132 153 180
134 154 181
132 152 180
132 153 180
132 152 179
133 153 180
133 154 180
133 153 180
133 153 180
133 154 180
133 154 180
133 154 181
134 154 181
132 152 179
133 153 180
133 154 180
134 154 181
133 153 180
133 153 180
132 152 179
133 154 181
133 153 180
132 152 180
134 154 181
134 154 180
134 154 181
134 154 181
133 153 180
134 154 181
134 154 181
133 153 180
133 153 180
134 154 180
135 155 181
134 154 180
133 154 181
134 154 181
132 153 180
134 154 181
134 154 181
133 154 180
135 155 181
133 154 180
134 154 181
133 154 181
133 153 180
134 154 180
134 154 181
133 154 180
134 154 181
134 154 181
133 153 180
133 154 180
133 154 180
134 154 181
133 153 180
134 154 180
134 154 181
134 154 181
134 154 181
134 155 181
134 154 181
134 154 181
133 154 181
133 153 180
134 154 181
134 154 181
134 154 181
133 154 181
135 155 181
134 154 181
133 153 180
134 154 181
134 155 181
134 154 181
133 154 181
133 154 181
134 154 181
134 154 181
135 155 181
134 155 181
134 154 181
133 154 180
134 154 181
133 154 181
134 154 181
134 154 181
134 154 181
134 154 181
133 154 180
133 154 181
134 154 181
134 154 181
134 154 181
134 154 181
133 153 180
133 154 181
132 153 180
134 154 181
134 154 181
135 155 181
133 154 181
134 154 181
134 154 181
134 154 181
133 154 181
134 154 181
134 154 181
134 154 181
134 154 181
133 153 180
134 154 181
134 154 181
134 154 181
133 154 181
133 154 181
135 155 181
134 154 181
134 154 181
134 154 181
134 154 181
134 154 181
133 154 180
134 155 181
133 154 181
133 153 180
133 153 180
135 155 181
134 154 181
133 154 181
135 155 181
134 154 181
134 154 181
135 155 181
134 154 181
134 154 181
133 154 181
134 154 181
133 154 181
133 154 180
134 154 181
134 154 180
133 154 181
134 154 181
135 155 181
133 153 180
133 154 180
134 154 181
133 154 181
133 154 181
133 154 181
133 154 181
134 155 181
133 154 181
134 154 181
134 154 181
134 154 181
134 154 181
134 154 181
134 154 181
134 154 180
134 154 181
133 154 181
133 154 181
134 154 181
134 154 181
132 153 181
134 154 181
134 154 181
134 154 181
134 155 181
134 154 181
134 154 181
134 154 181
134 154 181
133 154 181
134 154 181
133 154 180
135 155 181
134 154 181
135 155 181
133 154 181
133 154 180
134 154 181
133 154 181
134 154 181
134 154 181
135 155 181
132 153 180
132 152 179
135 155 181
131 151 179
132 152 179
131 152 179
132 152 179
132 152 179
131 151 179
132 152 179
131 151 179
132 153 180
131 151 178
132 153 180
131 151 179
132 153 180
131 151 179
133 153 180
133 153 180
132 152 179
131 150 178
132 152 179
129 149 178
131 151 178
131 151 179
129 149 177
130 150 178
128 148 176
131 151 179
129 149 177
128 148 176
129 150 177
131 151 178
129 149 177
129 149 178
128 148 176
128 147 176
128 148 176
130 150 178
128 147 176
130 151 178
131 151 179
126 145 175
128 148 177
130 150 178
127 147 176
130 150 178
127 147 176
128 148 176
126 146 175
127 147 176
130 150 178
129 148 177
128 147 176
125 144 173
128 147 174
124 143 173
129 149 177
127 146 175
127 146 175
125 144 174
125 144 174
127 145 174
125 144 173
125 144 173
127 146 175
125 144 174
128 147 176
121 139 170
127 146 176
122 140 171
125 144 173
123 143 173
128 147 175
123 141 171
125 144 174
123 141 172
125 144 175
126 145 174
125 143 173
123 142 172
120 139 169
124 143 173
126 144 174
122 141 170
123 143 172
123 142 172
124 143 173
125 144 175
128 147 176
123 142 172
122 140 171
122 140 172
124 143 173
126 144 174
126 145 174
121 139 171
124 142 172
117 135 168
121 139 170
121 140 170
125 143 174
123 141 172
124 143 173
124 143 174
121 139 170
123 142 174
122 140 171
123 141 172
122 140 171
128 147 176
123 142 172
123 141 172
123 142 173
122 140 171
124 143 173
124 143 173
126 145 175
123 141 173
126 145 174
126 146 175
125 143 174
127 146 175
125 145 175
123 142 171
125 144 175
126 145 175
127 146 175
127 147 175
127 147 176
125 145 175
125 144 173
124 142 172
128 148 177
129 149 177
128 147 176
126 146 175
126 146 175
128 148 177
127 146 175
126 146 175
126 145 175
131 151 178
130 149 177
130 149 177
128 148 177
129 148 177
129 149 177
130 150 177
130 150 179
129 149 177
132 152 179
130 150 178
130 150 178
131 151 178
131 151 179
129 149 177
130 150 178
130 150 178
130 151 179
129 148 176
130 150 179
128 148 177
131 151 178
128 148 176
130 151 178
129 148 177
131 150 177
131 151 179
133 153 180
132 152 179
130 150 179
129 150 178
131 151 179
131 151 179
131 151 179
130 150 179
132 153 180
132 152 179
130 150 178
130 150 178
132 152 179
133 153 179
132 152 179
132 152 179
132 152 179
131 151 179
132 152 180
132 153 180
131 151 178
132 153 180
133 153 180
132 152 180
131 152 179
131 152 179
132 153 180
130 151 179
133 153 180
134 154 180
133 154 180
133 153 180
133 153 180
133 154 180
134 154 181
134 154 180
131 152 180
132 153 180
132 152 179
133 153 180
133 153 180
131 152 179
134 155 181
132 153 180
134 154 181
133 153 180
132 153 179
133 153 180
134 154 181
134 154 180
132 152 179
133 153 180
133 154 180
133 154 180
134 154 181
133 153 180
134 154 181
133 154 180
132 153 180
134 154 180
134 154 180
134 154 180
134 153 180
134 154 181
133 153 180
133 154 181
134 154 181
134 154 181
133 153 180
134 154 181
132 153 180
134 154 180
134 154 181
133 154 181
133 154 181
133 154 180
134 154 180
133 154 180
133 154 180
133 153 180
134 154 181
133 154 180
133 154 181
133 154 181
133 154 181
133 154 180
134 154 181
134 154 181
134 154 181
132 153 180
134 154 181
133 154 180
133 153 180
133 153 180
134 154 181
134 154 181
134 154 181
134 154 180
134 154 181
133 154 181
134 154 181
133 154 180
133 154 180
133 154 181
134 154 181
134 155 181
133 154 181
133 154 180
134 154 181
134 154 181
134 154 181
134 154 181
133 154 181
134 154 181
133 154 181
133 154 180
134 155 181
134 154 181
134 154 181
133 154 181
134 154 180
134 154 181
133 154 181
133 154 181
134 154 181
134 155 181
133 154 181
133 153 180
133 154 181
132 153 181
134 154 181
135 155 181
133 154 181
134 154 181
134 154 181
133 154 181
134 154 181
133 153 180
134 154 181
133 154 181
133 154 181
134 154 181
133 154 181
133 154 181
134 154 181
134 154 181
134 154 181
134 154 181
134 154 181
133 154 181
134 154 181
134 154 181
135 155 181
133 154 181
134 154 181
134 154 181
133 154 181
134 154 181
134 154 181
134 154 181
134 154 181
133 154 181
133 154 180
134 154 181
135 155 181
134 154 181
134 154 181
134 154 181
134 154 181
133 154 181
134 154 181
134 154 181
133 154 181
134 154 181
134 154 180
133 153 180
134 154 181
135 155 181
134 154 181
134 154 181
135 155 181
135 155 181
133 154 180
134 155 181
134 154 181
134 154 181
134 154 181
133 154 181
133 154 181
134 154 180
134 154 181
133 154 181
134 154 181
133 154 181
134 154 181
134 154 181
133 154 181
134 155 181
134 154 181
134 154 181
133 154 181
133 154 181
134 154 181
134 154 181
134 154 181
133 154 181
134 154 181
134 154 181
134 154 181
133 153 180
133 154 181
134 154 181
133 154 181
133 154 181
133 154 181
134 154 181
133 154 181
133 154 181
134 154 180
134 154 181
134 154 181
134 154 181
133 154 181
134 154 181
134 154 181
134 154 181
134 154 181
134 154 181
133 154 181
133 154 181
134 154 181
132 152 180
132 153 180
133 153 180
133 153 180
132 153 180
132 152 179
133 153 180
132 152 179
133 154 180
133 153 180
132 152 179
130 151 179
133 154 180
130 150 178
131 151 178
132 152 179
131 151 179
131 151 178
130 150 177
130 150 178
131 151 179
132 152 180
131 151 178
132 152 178
131 151 178
132 152 179
132 152 178
130 150 178
129 149 177
132 152 179
132 152 179
131 151 179
131 151 178
131 151 179
128 149 177
129 149 177
132 153 180
130 150 179
131 151 179
128 147 176
125 144 174
129 149 178
127 147 176
129 148 176
128 148 176
128 148 176
130 150 178
129 149 178
128 148 176
131 151 179
129 149 178
127 147 176
128 147 176
128 148 176
129 148 176
129 149 178
129 149 177
128 147 177
131 151 179
128 148 176
126 145 175
126 145 174
127 145 175
125 145 175
126 145 175
126 144 175
127 147 176
124 142 173
124 143 174
124 144 173
124 143 173
126 145 175
124 143 173
122 141 172
125 144 173
126 144 174
127 146 176
126 145 174
125 144 173
123 142 173
124 143 173
127 146 175
122 141 171
124 142 172
124 142 173
123 142 173
125 144 174
128 147 177
124 143 172
126 145 174
128 148 176
126 145 175
127 146 175
126 145 175
123 142 171
123 141 173
125 144 174
123 142 172
124 143 173
125 143 173
121 140 171
125 143 174
126 145 175
128 147 176
125 144 174
123 142 172
123 142 173
124 143 174
125 144 174
120 138 169
126 145 175
122 140 170
127 146 176
125 145 175
124 144 173
127 146 176
127 147 176
129 150 178
128 147 176
129 148 177
128 148 176
127 147 176
128 147 176
126 146 175
127 147 176
126 145 175
127 146 175
128 147 175
127 146 175
129 149 177
127 147 176
127 147 176
129 149 177
129 148 177
126 145 176
129 149 177
128 148 176
126 144 172
126 146 175
126 146 174
130 150 178
128 148 176
130 150 178
128 148 177
129 149 177
129 148 177
130 150 178
129 149 178
130 150 178
129 149 177
128 148 177
130 150 178
131 152 179
131 151 178
130 151 178
130 150 178
132 153 180
132 152 179
128 148 176
130 149 178
129 150 178
132 152 180
131 151 179
131 152 179
132 153 180
133 152 179
131 151 178
130 151 178
132 152 178
129 148 177
132 153 180
132 152 179
133 153 180
131 151 179
132 152 180
133 153 179
132 153 180
133 153 180
132 153 180
133 154 181
132 152 180
131 150 178
132 152 179
130 151 178
132 152 180
133 153 179
132 153 180
131 151 179
134 154 180
133 153 180
132 152 179
132 153 180
133 153 179
132 153 180
132 152 179
133 153 180
134 154 180
133 153 180
134 154 181
132 151 179
133 153 180
132 153 180
132 153 180
133 153 180
131 152 179
132 153 180
132 152 180
134 154 180
132 152 180
132 153 180
134 154 181
133 154 180
132 153 179
132 152 180
133 154 181
135 155 181
132 153 180
133 154 180
134 153 180
133 154 180
133 154 180
134 154 181
133 154 180
133 153 180
133 153 180
134 154 180
133 153 180
134 154 180
132 153 180
132 153 180
134 154 180
134 154 181
133 154 181
134 154 181
133 154 180
133 153 180
133 154 181
133 154 181
134 154 181
132 153 180
134 154 181
133 153 180
133 154 181
134 154 181
133 154 180
134 154 181
134 154 181
133 154 181
132 153 180
133 154 181
133 154 180
133 154 181
132 153 180
133 154 181
133 154 180
133 154 181
134 154 181
133 154 180
134 154 181
134 154 181
133 154 181
134 154 181
134 155 181
132 153 180
134 154 180
134 154 181
133 154 181
135 155 181
134 154 181
132 153 179
134 154 181
134 154 180
133 153 180
133 154 181
132 153 180
134 154 181
134 154 181
134 154 181
133 154 181
133 154 181
133 154 180
134 154 181
134 154 181
134 154 181
133 153 180
134 154 181
132 153 180
132 153 181
133 154 181
134 154 181
134 154 181
134 154 181
134 154 181
134 154 181
134 154 181
132 153 181
134 154 181
134 154 181
134 154 180
133 154 180
135 155 181
134 154 181
133 153 180
133 154 181
134 154 181
134 154 181
133 154 181
134 154 181
133 154 181
134 154 181
134 154 181
134 154 180
133 154 180
134 154 181
133 153 179
133 154 181
134 154 181
134 154 181
133 154 181
132 153 181
134 154 181
134 154 181
134 154 181
134 154 181
133 154 181
134 154 181
134 154 181
134 154 181
133 154 181
135 155 181
133 154 181
133 154 181
134 154 181
134 154 181
133 154 181
134 154 181
134 154 181
135 155 181
133 154 181
133 153 180
134 154 181
134 154 181
134 154 181
134 154 181
134 154 181
133 154 181
134 154 181
134 154 181
134 154 181
134 154 181
134 154 181
133 154 181
134 154 181
134 154 181
133 154 181
134 154 181
134 154 181
133 154 181
133 154 181
133 154 181
133 154 181
133 154 181
134 154 181
134 154 181
134 154 181
134 154 181
134 154 181
134 154 181
134 154 181
135 155 181
134 154 181
134 154 181
134 154 181
133 154 181
134 154 181
134 154 181
133 154 181
133 154 181
133 154 181
134 154 181
134 154 180
134 155 181
134 154 181
133 154 181
135 155 181
133 154 181
134 154 181
134 154 181
133 154 181
133 154 181
134 154 181
134 154 181
133 154 181
133 154 180
134 154 181
134 154 181
134 154 181
134 154 181
133 154 181
134 154 181
133 154 181
132 152 180
133 153 180
134 155 181
133 153 179
132 152 179
133 153 180
132 153 180
132 152 179
131 152 180
133 152 179
130 150 177
133 153 179
131 152 179
132 153 180
134 154 181
133 154 180
133 153 180
133 152 179
133 153 179
131 151 179
131 152 179
132 152 179
133 153 179
127 146 175
131 152 179
132 152 180
131 151 178
130 150 178
131 151 178
130 151 178
132 152 180
130 149 177
132 152 180
130 151 179
131 150 178
128 148 177
131 151 179
132 151 179
129 148 177
130 150 177
128 148 176
129 150 178
131 151 178
129 149 178
129 148 177
131 151 178
131 150 179
128 147 176
130 150 178
128 147 177
129 149 177
128 148 177
126 145 174
128 147 176
129 149 177
125 145 175
127 147 175
130 150 177
126 146 174
126 146 174
125 143 173
127 147 176
129 148 177
128 147 176
129 148 176
126 145 174
130 150 178
129 149 177
130 149 177
128 147 176
126 145 174
128 147 175
126 145 174
126 144 174
126 146 175
129 149 177
129 148 176
129 149 178
128 148 176
127 147 176
127 146 175
123 142 172
127 146 176
126 145 174
122 141 172
124 144 172
125 144 174
127 146 175
127 146 176
126 145 173
121 139 170
126 144 174
129 148 177
126 145 176
130 150 178
126 145 173
122 141 172
127 145 174
125 143 172
127 146 175
124 142 173
125 144 174
128 148 176
127 147 176
127 147 175
128 148 177
127 146 176
126 146 175
128 147 176
129 148 176
124 143 174
126 146 175
125 145 174
127 147 175
125 144 175
129 148 177
129 149 177
127 147 176
130 149 177
129 149 176
128 148 177
128 148 176
128 148 177
129 149 177
128 148 176
127 147 176
129 148 177
127 147 176
129 150 178
129 149 177
126 146 175
130 150 178
130 150 177
129 150 178
128 148 177
131 151 179
130 151 179
128 148 176
129 149 178
130 150 178
129 150 178
128 148 176
128 148 176
131 151 179
131 151 179
129 148 176
129 149 177
130 151 179
130 150 177
130 150 178
130 150 178
129 149 178
131 151 178
132 152 180
130 150 177
130 150 178
131 151 179
132 152 179
132 152 180
132 152 180
133 154 180
133 153 180
131 151 179
129 149 177
132 151 179
133 153 180
132 152 180
128 148 177
133 153 180
132 153 180
131 151 179
132 151 178
131 152 179
131 152 179
131 151 178
132 153 179
132 153 179
132 152 179
132 153 180
132 153 180
133 153 180
132 152 179
133 153 180
131 151 178
133 153 180
132 152 179
131 151 179
131 152 179
132 153 180
133 154 180
133 153 180
132 152 179
133 153 179
133 153 179
133 153 179
133 153 180
133 153 180
133 153 180
132 153 180
133 153 180
133 153 180
133 153 180
133 154 180
132 153 179
134 154 181
134 154 181
133 153 180
131 151 179
134 154 181
132 152 179
132 153 180
133 154 180
133 154 180
133 153 180
134 154 181
134 154 180
134 154 181
133 153 180
133 153 180
134 154 181
133 154 181
132 153 180
133 154 180
133 154 180
134 154 181
133 154 180
133 154 180
132 153 180
134 154 180
135 154 180
133 154 180
133 153 180
134 154 180
134 154 180
134 154 181
133 153 180
132 153 180
133 153 180
133 154 181
133 154 181
133 153 179
134 154 180
134 154 181
133 154 181
133 154 180
134 154 181
132 153 179
133 154 180
135 155 180
134 154 181
133 154 180
133 154 180
134 154 181
134 154 181
133 154 181
134 154 180
135 155 181
133 154 180
134 154 181
134 154 181
133 154 181
133 154 180
133 154 180
133 154 181
132 153 180
133 154 181
134 154 181
134 154 181
134 154 181
134 154 181
133 154 181
133 153 180
134 154 181
132 153 180
133 154 181
134 154 181
133 154 181
133 154 181
133 154 181
134 154 180
134 154 181
134 154 180
134 154 181
133 154 181
132 153 179
134 154 181
135 155 181
134 154 181
134 154 180
134 154 181
133 154 180
134 154 181
133 154 181
134 154 181
133 154 181
134 154 181
133 154 181
132 153 180
134 154 181
134 154 181
133 154 181
133 154 181
134 154 181
134 154 181
133 154 181
133 154 181
135 155 181
133 154 180
133 154 181
134 154 181
135 155 181
134 154 181
134 154 181
134 154 181
134 154 181
134 154 181
133 154 180
134 154 181
133 154 181
134 154 181
134 154 181
133 154 181
134 154 181
134 155 181
133 154 180
134 154 181
134 154 181
134 154 181
133 154 181
133 153 180
135 155 181
134 154 181
134 154 180
133 154 181
134 154 181
134 154 181
134 154 181
134 154 181
134 154 181
134 154 181
133 154 181
133 154 181
134 154 181
133 154 181
134 154 181
134 154 181
134 154 181
134 154 181
134 154 181
132 153 181
134 154 181
134 154 181
133 154 181
134 154 181
133 154 181
134 154 181
134 154 181
133 154 181
133 154 181
135 155 181
133 154 181
134 154 181
133 154 181
134 154 181
133 154 180
133 154 181
134 154 181
134 154 181
133 154 181
134 154 181
134 154 181
135 155 181
133 154 181
134 154 181
133 154 181
133 154 181
134 154 181
135 155 181
133 154 181
132 153 180
134 154 181
133 154 181
133 154 181
134 154 181
134 154 181
133 154 181
134 154 180
134 154 181
133 154 180
135 155 181
134 154 181
134 154 181
133 154 181
134 154 181
133 154 181
133 154 181
133 154 181
134 154 181
134 154 181
132 152 180
133 153 180
132 152 179
134 154 181
133 153 180
132 153 180
132 153 180
133 153 180
133 153 180
132 153 180
133 153 180
131 151 179
131 151 178
131 152 179
133 153 180
131 151 178
133 154 180
132 153 180
133 153 180
131 151 178
132 153 179
132 151 179
130 150 178
133 153 180
131 151 179
132 152 179
130 150 177
132 152 179
131 151 179
129 149 178
130 150 177
133 153 180
129 150 178
128 148 176
129 149 177
131 152 179
131 151 178
131 152 179
130 150 178
130 150 179
126 146 176
131 151 179
128 148 177
131 151 179
133 153 180
131 151 178
128 148 176
131 150 178
132 152 179
130 150 178
131 150 178
127 147 176
129 149 177
128 148 177
130 150 178
129 150 178
129 148 176
130 149 177
128 148 176
131 152 179
130 149 178
128 148 177
130 149 178
129 150 178
131 151 179
130 150 177
128 147 176
129 148 176
127 147 176
131 151 179
127 147 176
129 149 177
129 148 177
128 147 176
128 148 177
128 147 176
127 147 176
127 145 174
127 146 175
127 146 175
129 148 177
125 145 174
125 144 173
124 143 174
129 148 176
127 147 176
129 148 176
129 148 176
126 144 174
127 146 175
129 148 177
126 145 175
127 147 176
129 149 176
127 146 175
129 148 176
127 145 174
125 144 174
126 145 175
128 148 177
128 147 176
128 147 176
126 144 174
125 145 175
124 143 173
128 148 177
127 147 176
126 146 174
128 148 176
128 147 176
128 147 177
126 145 174
130 150 178
128 147 176
125 144 173
125 144 173
129 148 176
127 146 175
129 148 176
129 149 177
129 149 177
130 149 177
128 147 176
127 146 175
130 151 178
129 149 178
130 150 178
131 151 178
128 147 176
128 148 177
128 148 176
130 150 178
131 151 178
128 148 178
129 149 177
130 150 178
129 149 176
128 148 176
130 150 178
129 149 177
131 152 179
132 152 179
128 148 177
129 149 177
132 152 180
130 150 178
129 148 176
131 151 178
130 150 178
131 151 179
132 152 179
131 151 178
128 148 176
131 152 179
132 152 179
133 153 180
130 150 179
131 151 179
133 154 180
130 150 178
133 154 180
132 151 178
132 153 180
131 152 179
130 150 178
132 152 179
130 150 178
131 152 179
131 152 179
133 153 179
131 151 179
133 153 179
132 152 180
132 153 180
133 153 180
132 152 179
130 149 177
133 153 179
131 152 179
133 153 180
133 153 179
132 152 179
132 153 180
132 152 179
134 154 180
133 153 180
130 151 179
133 153 180
132 153 179
133 154 180
133 154 181
132 152 179
134 154 180
133 153 180
133 153 180
132 152 179
134 154 180
132 153 180
133 153 180
133 154 180
133 154 181
132 153 180
134 154 180
132 152 180
133 153 180
134 154 180
134 154 180
133 154 180
132 153 179
133 154 180
133 153 180
132 153 180
133 153 180
133 154 180
133 153 180
133 154 181
131 152 179
134 154 180
133 154 181
132 152 179
133 154 181
133 153 180
133 154 180
132 153 180
133 154 181
133 154 180
133 153 180
133 154 180
132 153 180
134 154 181
133 154 181
134 154 181
133 154 180
133 154 180
134 154 181
134 154 181
133 153 180
134 154 181
134 154 181
133 153 180
134 154 180
133 153 180
133 154 180
134 154 181
133 154 181
133 153 180
134 154 181
133 153 180
133 153 180
133 154 181
133 153 180
133 154 181
133 153 180
134 154 181
133 154 181
134 155 181
135 155 181
133 154 180
134 154 181
133 154 180
134 154 181
134 154 181
133 153 180
134 154 181
134 154 181
134 154 181
134 154 181
133 154 180
133 154 180
133 153 180
134 154 181
134 154 181
133 154 180
134 154 181
134 154 181
134 154 180
133 153 180
134 154 180
134 154 181
133 154 181
134 155 181
133 154 181
133 154 180
135 155 181
134 154 181
133 154 181
134 154 181
134 154 181
134 154 181
133 154 181
134 154 181
134 154 181
133 154 180
134 154 181
134 154 181
134 154 181
133 154 181
132 153 181
133 154 181
132 154 181
134 154 181
134 154 181
134 154 181
133 154 181
134 154 181
133 154 181
134 154 181
133 154 181
134 154 181
134 154 181
133 154 181
133 154 181
134 154 181
134 154 181
133 154 180
133 154 180
133 153 180
134 154 181
134 154 181
134 154 181
133 154 181
135 155 181
134 154 181
134 154 181
134 155 181
134 154 181
134 154 181
134 154 181
134 154 181
133 154 181
134 154 181
134 154 181
134 154 181
133 154 181
134 154 181
134 154 181
133 154 181
133 154 180
133 154 181
134 154 181
134 154 181
134 154 181
133 154 181
134 154 181
135 155 181
133 154 181
133 154 181
133 154 181
134 154 181
133 154 181
134 154 181
133 154 181
133 154 181
134 154 181
133 154 181
133 154 181
133 154 181
134 154 181
133 154 181
134 154 181
134 154 181
134 154 181
133 154 181
134 154 180
134 154 181
133 154 181
134 154 180
135 155 181
135 155 181
134 154 181
134 154 181
135 155 181
134 154 181
134 154 181
134 154 181
134 154 181
133 154 181
134 154 181
134 154 181
133 154 181
134 154 181
134 154 181
133 154 181
133 154 181
133 154 181
134 154 181
134 154 181
133 154 181
134 154 181
133 153 180
133 154 181
134 154 181
134 154 181
134 154 181
134 154 181
134 154 181
133 154 181
133 154 181
134 154 181
134 154 181
132 152 179
132 152 179
133 153 180
133 153 180
132 152 179
133 153 180
132 152 179
132 152 179
132 152 179
132 153 180
133 154 180
133 153 180
131 152 179
132 152 179
132 152 179
131 151 179
132 152 179
132 152 179
132 152 178
133 153 180
130 150 178
131 151 178
131 152 179
129 149 177
131 151 179
131 152 179
132 152 179
131 151 179
132 153 180
132 152 179
133 153 180
132 152 179
129 149 177
132 152 179
132 153 180
131 151 179
131 151 179
131 151 179
130 150 177
132 152 179
129 149 178
132 152 179
130 150 177
130 150 178
131 151 179
131 151 178
131 151 179
130 151 179
130 150 178
131 151 178
130 149 177
129 149 177
126 146 174
131 151 179
131 150 178
129 149 177
132 152 179
130 149 178
130 150 178
128 148 176
132 152 179
130 150 178
128 148 177
129 149 177
132 152 179
132 152 179
128 147 175
129 149 177
129 149 177
128 148 176
128 147 176
129 149 176
130 150 179
128 147 176
132 152 179
129 148 177
128 148 176
128 148 177
127 147 176
130 150 179
128 148 176
128 148 176
128 148 177
128 147 176
129 149 178
127 146 176
131 152 179
127 146 174
129 149 176
125 145 175
129 149 177
131 151 179
131 150 178
127 147 177
128 149 177
127 146 175
126 146 175
130 149 177
126 145 175
128 147 176
125 144 175
127 146 175
128 147 176
128 148 176
124 144 173
126 146 175
128 147 176
128 147 176
126 145 175
129 149 177
128 148 176
128 148 177
131 152 179
129 149 177
128 147 175
130 150 178
130 150 178
127 146 175
126 146 176
128 147 176
128 148 177
129 149 178
129 149 178
131 151 179
130 150 178
129 149 178
132 152 179
130 150 178
131 152 179
128 148 177
130 149 177
128 147 176
132 153 180
129 149 177
129 149 177
127 147 175
129 149 177
132 152 179
129 148 176
131 151 179
132 152 179
131 151 178
132 152 179
131 152 179
132 153 179
130 150 178
131 151 178
131 152 179
131 151 179
131 151 179
131 152 179
131 151 178
131 152 179
130 150 178
130 150 177
130 151 178
131 151 179
131 151 179
132 152 179
131 151 179
132 152 180
131 151 179
132 152 179
131 151 179
131 151 179
130 151 179
132 152 180
132 152 179
133 153 180
131 152 179
134 154 180
131 151 179
133 154 180
132 152 179
133 153 180
133 154 180
133 153 180
130 150 178
132 152 180
133 153 179
132 153 180
132 152 179
133 154 181
132 152 180
133 154 181
133 153 180
133 153 180
132 152 180
133 154 181
132 152 179
132 153 179
132 152 180
133 153 180
132 153 180
133 153 180
134 154 181
134 154 181
132 153 180
133 154 181
132 152 180
134 154 181
134 154 181
134 154 180
133 153 180
134 154 180
133 154 181
132 153 180
131 152 179
133 154 181
132 153 180
133 153 180
132 153 179
134 154 181
134 154 180
134 154 181
134 154 181
133 154 181
133 153 180
132 152 179
134 154 181
134 154 181
133 154 180
133 153 180
133 153 180
133 153 180
133 154 181
133 153 180
133 153 180
133 154 180
134 154 181
133 154 180
133 154 181
133 153 180
132 153 180
133 153 179
133 153 180
135 155 181
133 153 180
134 154 181
133 153 180
134 154 181
133 153 180
134 155 181
133 154 181
133 154 181
134 154 181
133 154 181
133 154 180
134 154 181
134 154 181
134 154 181
135 155 181
134 154 180
131 152 180
134 154 180
134 154 181
135 155 181
133 154 181
133 154 181
133 154 180
135 155 181
133 154 181
133 154 180
133 154 181
133 154 181
132 153 180
133 154 181
135 155 181
134 154 181
135 155 181
134 154 180
134 154 181
134 154 181
134 154 181
134 154 181
133 154 181
133 154 181
133 154 181
133 154 181
134 155 181
134 154 181
134 154 181
134 155 181
134 154 180
134 154 181
133 154 181
134 154 181
133 153 180
133 154 181
135 155 181
133 154 180
133 154 181
134 154 181
134 154 181
134 154 180
134 154 181
133 154 181
135 155 181
134 154 180
134 154 181
135 155 181
134 154 181
133 154 181
134 154 181
134 154 181
134 154 181
133 154 181
134 154 181
134 154 181
134 154 180
134 154 181
133 154 181
133 154 181
133 154 181
134 154 181
134 154 181
132 153 181
133 154 181
133 154 181
134 154 181
134 154 181
134 154 181
134 154 181
133 154 181
133 154 181
134 154 181
134 154 181
133 154 180
135 154 180
134 154 181
133 154 181
134 154 181
134 154 181
134 154 181
134 154 181
134 154 181
134 154 181
135 155 181
134 154 181
134 154 181
134 154 181
134 154 180
133 154 181
133 154 181
134 154 181
134 154 181
134 154 181
134 154 181
133 154 181
134 154 181
133 153 180
133 154 181
133 154 181
134 155 181
133 154 181
133 154 181
134 154 181
133 154 181
135 155 181
133 154 181
134 154 181
133 154 181
135 155 181
134 154 181
134 154 181
134 154 181
134 154 181
134 154 180
134 154 181
134 154 180
134 154 181
134 154 181
133 154 181
134 154 181
133 154 181
134 154 181
133 154 181
133 154 181
134 154 181
133 153 180
133 154 181
134 154 181
134 154 181
133 154 181
134 154 181
134 154 181
133 154 181
134 154 181
133 154 181
134 154 181
134 154 181
134 154 181
134 154 181
132 154 181
133 154 181
134 154 181
133 154 181
134 154 181
135 155 181
134 154 180
133 153 180
131 152 179
133 154 180
132 152 180
132 152 179
132 152 179
133 153 180
133 154 180
133 154 180
132 152 180
133 153 180
132 152 179
132 152 179
131 151 179
133 153 180
131 151 179
133 154 181
131 151 179
132 152 180
133 153 180
131 151 179
133 153 180
132 152 180
133 153 180
130 150 177
133 153 180
133 152 180
132 152 179
131 151 179
131 151 179
132 152 180
132 152 179
132 152 179
132 153 179
132 152 179
131 152 179
131 151 179
133 153 180
130 150 177
130 150 178
131 151 178
132 152 179
133 153 180
128 148 176
127 148 176
131 151 178
131 152 179
130 149 177
132 153 180
128 147 176
131 151 178
130 150 177
128 148 177
130 150 178
131 151 179
129 148 177
132 153 180
131 151 179
128 148 177
130 149 178
132 152 179
129 150 178
130 150 178
129 149 178
128 147 175
127 146 175
129 150 177
132 152 179
129 149 177
128 148 176
130 149 178
130 150 177
129 149 177
130 150 178
128 148 177
130 150 178
128 147 176
130 149 178
131 151 179
129 148 177
128 148 176
127 146 175
127 147 176
128 148 177
130 149 178
130 150 178
128 147 176
128 147 176
127 146 174
130 149 177
129 149 177
130 150 177
132 153 180
128 148 176
128 148 176
129 148 177
130 150 177
130 150 178
128 147 176
130 150 178
128 148 177
129 149 177
129 149 176
129 149 177
129 149 178
128 147 175
128 148 177
129 149 177
128 148 176
128 148 176
130 149 178
127 147 175
128 148 176
129 148 177
130 150 178
129 149 177
129 148 177
129 148 177
129 149 178
129 149 177
127 147 177
131 151 179
130 151 179
129 149 177
128 147 176
132 152 179
127 147 176
132 152 179
128 149 177
130 150 178
130 150 178
131 151 179
129 148 176
130 150 178
132 152 179
131 151 178
129 149 178
131 151 178
131 151 179
130 150 178
131 150 178
128 148 177
132 152 179
132 152 179
132 152 178
130 150 178
129 149 177
130 150 178
131 151 178
131 151 180
132 152 180
131 152 179
129 149 178
131 152 180
131 151 179
131 152 180
132 152 179
134 154 181
133 153 179
132 152 179
132 152 180
133 153 180
132 152 179
131 152 179
131 152 179
131 151 178
131 151 179
133 153 180
132 152 179
132 153 180
133 153 180
134 154 181
132 152 179
133 154 180
131 151 179
132 153 180
132 152 180
132 153 180
131 152 179
132 153 180
133 153 180
133 153 180
133 153 180
132 153 180
133 153 180
133 153 180
133 153 180
133 153 180
134 154 181
133 153 180
132 152 179
133 153 180
132 153 180
133 153 180
133 153 180
133 154 181
132 153 179
133 153 180
131 151 179
132 152 179
134 154 181
132 153 180
134 154 181
134 154 180
132 153 180
133 153 180
133 153 180
133 153 180
133 153 180
134 154 181
133 154 180
133 154 180
134 154 181
133 153 180
132 153 180
132 153 180
133 154 181
133 154 180
134 154 181
133 154 180
134 154 180
133 153 180
133 153 180
132 153 181
132 153 180
133 154 180
133 154 181
133 154 181
134 154 181
133 153 180
133 154 180
133 154 180
133 154 180
134 154 181
133 154 181
133 154 181
133 154 181
134 154 180
134 154 181
133 154 180
134 154 181
133 153 180
134 154 181
134 154 180
134 154 181
133 153 180
133 154 181
134 154 181
133 154 181
133 154 180
133 153 180
133 154 180
133 154 181
134 154 181
133 154 180
133 154 181
134 154 181
134 154 181
134 154 181
134 154 181
134 154 180
132 153 180
133 154 181
133 154 180
133 154 181
133 154 181
134 154 181
134 154 181
134 154 181
134 154 181
133 153 180
134 154 181
134 154 181
134 155 181
133 153 180
134 154 181
134 154 181
134 154 181
134 154 181
134 154 180
135 155 181
134 154 181
133 154 181
134 154 181
134 154 181
134 154 181
133 154 181
134 154 181
133 153 180
133 153 180
134 154 181
134 154 181
134 154 181
134 154 181
133 154 181
133 154 181
134 154 181
133 154 181
134 155 181
133 154 181
135 155 181
134 154 181
135 155 181
134 154 181
133 154 181
134 154 181
133 154 181
133 154 181
134 154 181
135 155 181
134 154 181
134 154 181
133 154 181
134 154 181
134 154 181
133 154 181
134 154 181
134 154 181
134 154 180
134 154 180
133 154 181
134 154 181
134 154 181
133 154 181
134 154 181
134 155 181
133 154 181
134 154 181
134 154 181
133 154 181
134 154 181
134 154 181
134 154 181
133 153 180
133 154 181
134 154 181
134 154 181
134 154 181
134 154 181
133 154 181
134 154 181
134 154 181
134 154 181
133 154 181
133 154 181
135 155 181
134 154 181
133 154 181
134 154 181
133 154 180
133 154 181
135 155 181
133 154 181
134 154 181
134 154 181
133 154 181
134 154 181
133 154 181
134 154 181
134 154 181
134 154 181
134 154 181
133 154 181
134 154 181
134 154 181
133 154 181
134 154 181
133 154 181
133 154 181
134 154 181
134 154 181
134 154 181
133 154 181
134 154 181
133 154 180
133 154 181
133 154 181
134 155 181
134 154 181
134 154 181
134 154 181
133 154 181
133 154 181
135 155 181
134 154 181
133 153 180
134 155 181
133 154 180
134 154 180
134 154 181
133 154 181
134 155 181
134 154 181
134 154 181
134 154 181
134 154 181
134 154 181
134 154 180
134 154 181
133 154 181
132 152 179
133 153 180
133 153 180
132 153 180
132 152 179
133 153 180
133 154 181
132 152 179
131 152 179
132 152 179
132 152 179
131 151 178
132 153 180
133 153 180
131 151 178
132 153 180
131 152 179
132 152 179
132 152 179
133 153 180
132 152 179
132 153 180
133 153 180
132 152 180
132 153 180
130 150 178
133 154 180
132 152 179
131 152 179
132 152 179
133 153 180
130 150 179
131 152 179
130 150 178
131 151 178
133 153 180
132 152 179
131 151 179
132 152 179
132 152 179
132 152 180
129 148 177
131 151 178
130 150 178
131 151 179
131 151 179
132 153 180
130 151 179
129 149 177
131 151 178
132 152 179
130 150 178
131 151 178
132 152 179
130 150 178
131 150 178
130 150 178
132 152 179
128 148 177
127 146 175
131 151 179
131 152 179
130 151 179
132 152 179
129 148 176
129 148 176
129 149 177
131 151 179
129 150 178
131 151 179
130 150 178
129 149 177
130 150 179
130 149 177
129 148 178
131 151 178
128 147 175
128 148 177
130 150 178
129 148 176
129 149 177
129 148 178
128 147 176
132 152 179
129 149 177
130 150 179
130 149 177
127 147 175
131 151 179
131 150 178
128 148 176
130 150 178
131 151 178
129 150 178
129 149 178
129 148 176
128 148 176
131 150 178
132 152 179
128 147 175
131 151 179
129 149 177
131 151 179
129 150 177
132 153 180
128 148 176
130 150 178
131 151 179
128 148 176
132 152 180
129 149 177
129 148 177
131 151 178
130 150 178
131 151 179
130 150 179
128 148 176
127 146 175
129 150 177
129 148 177
131 151 178
131 152 179
132 152 179
130 150 178
131 151 179
129 149 177
129 149 177
129 150 178
132 152 179
129 149 177
131 151 178
128 147 175
131 151 179
132 152 179
131 151 179
131 152 179
131 152 179
131 151 179
132 152 179
130 150 178
130 151 178
131 151 179
130 150 178
133 153 180
132 152 179
132 151 179
130 150 178
131 151 179
132 153 180
134 154 180
131 151 179
130 150 177
132 152 179
131 152 179
131 152 179
130 151 178
132 153 180
133 153 180
132 152 179
132 152 179
133 153 180
133 153 180
131 152 179
131 151 178
132 152 179
132 152 179
130 150 178
133 153 180
133 153 180
132 152 179
133 153 180
133 153 180
133 153 180
133 153 180
131 152 179
132 153 180
133 153 180
132 152 179
133 154 180
133 154 180
130 150 178
132 153 180
133 154 181
133 153 180
132 152 179
133 153 180
132 152 179
134 154 181
133 153 180
134 154 180
134 154 181
132 152 180
133 153 180
134 154 180
134 154 180
132 153 180
132 153 180
133 153 180
134 154 180
134 154 180
133 154 180
134 154 180
133 153 180
133 154 181
133 154 180
133 153 180
134 154 180
133 153 180
133 154 181
133 154 180
134 154 181
133 154 180
133 153 180
134 154 181
133 154 181
133 154 180
133 153 180
134 154 181
133 154 181
133 154 180
133 153 180
133 154 181
133 154 181
134 154 180
133 154 181
134 154 181
134 154 181
134 154 181
133 154 180
133 154 181
134 154 180
133 154 180
132 153 180
133 154 180
133 154 181
133 153 180
133 154 181
135 155 181
134 154 180
134 154 181
134 154 181
135 155 181
132 153 180
134 154 181
134 154 181
134 154 181
133 154 181
134 154 181
134 154 180
133 154 181
134 154 180
134 154 181
134 154 181
134 154 181
134 154 181
134 154 180
134 154 181
133 154 181
133 154 180
134 154 181
134 154 181
133 154 181
133 154 181
134 154 181
133 154 180
134 154 181
133 154 180
133 154 181
133 154 180
134 154 181
134 154 181
135 155 181
134 154 181
134 154 180
133 154 180
133 154 181
133 154 180
133 154 181
134 154 181
134 154 181
133 154 181
134 154 180
134 154 181
133 154 181
134 154 181
134 154 181
133 154 181
134 154 181
135 155 181
133 154 181
135 155 181
133 154 180
133 154 181
134 154 181
134 154 181
134 154 181
133 154 181
133 154 181
133 154 181
134 154 181
134 154 181
134 154 181
133 154 181
133 153 180
134 154 181
132 153 180
133 154 181
134 154 181
134 154 181
134 154 181
133 154 181
134 154 181
133 154 181
133 154 181
134 154 181
134 154 181
134 154 181
133 154 181
133 154 181
133 153 180
134 154 181
135 155 181
134 154 181
134 154 181
133 154 180
134 154 181
134 154 181
134 154 181
134 155 181
133 154 181
133 154 181
134 154 181
134 154 181
134 154 180
134 154 181
134 154 181
133 154 181
133 154 181
133 154 181
134 154 181
134 154 181
134 154 180
134 154 181
134 154 181
134 154 181
133 154 181
133 154 181
134 154 181
134 154 181
135 155 181
134 154 181
134 154 181
134 154 181
133 154 180
135 155 181
134 154 180
134 154 181
134 154 181
134 154 181
133 154 181
134 154 181
133 154 181
133 154 181
134 154 181
134 154 181
134 154 181
134 155 181
134 154 181
134 154 181
134 154 181
134 154 181
134 154 181
134 154 181
133 153 180
133 154 181
133 154 181
134 154 181
134 155 181
134 154 181
134 154 180
134 154 181
133 154 181
134 154 181
133 154 181
134 154 181
135 155 181
133 154 181
134 154 181
135 155 181
134 154 181
134 154 181
134 154 181
134 154 181
134 154 181
133 154 181
133 154 181
134 154 181
134 154 181
134 154 181
135 155 181
134 154 180
132 152 179
132 153 180
132 152 180
133 153 180
133 153 180
131 152 179
133 153 180
133 153 180
134 154 180
132 153 180
134 153 179
133 153 180
131 152 179
131 151 178
132 153 179
132 152 179
132 152 179
132 152 179
132 152 180
134 154 180
133 154 180
131 151 179
132 152 179
132 153 180
133 153 180
133 153 180
133 153 180
132 152 179
132 152 179
130 151 178
133 152 179
133 153 180
132 152 180
132 152 179
132 152 179
132 152 179
134 154 181
131 152 179
133 153 180
131 152 179
130 150 178
131 151 179
131 151 178
133 153 180
130 150 179
131 151 179
132 152 179
131 151 178
131 151 179
132 152 179
130 150 178
131 152 179
129 149 176
132 153 179
130 151 178
131 151 178
131 150 178
130 150 177
132 152 179
130 151 178
130 150 178
131 151 179
131 151 178
129 149 177
130 150 178
132 152 179
131 151 179
131 151 179
131 151 178
130 150 178
128 148 176
129 149 177
129 149 177
129 148 177
129 148 177
130 150 178
130 150 177
131 151 179
132 152 179
132 152 179
129 148 177
131 151 179
131 151 179
130 150 178
128 148 176
129 149 177
127 147 176
130 150 177
130 150 177
131 150 178
129 149 178
131 151 178
129 149 176
127 147 176
128 147 175
131 151 179
130 149 178
130 151 179
130 150 177
129 148 177
129 149 177
130 150 177
131 151 180
130 149 178
131 152 179
132 152 180
129 149 177
127 146 175
129 149 177
130 150 178
131 151 178
129 148 176
131 151 179
130 151 179
131 151 178
131 151 179
132 152 180
131 151 179
129 149 176
128 148 177
128 148 177
131 152 179
133 153 180
130 150 178
132 152 179
130 150 178
132 152 179
132 152 180
132 152 179
131 152 179
129 150 178
131 150 178
129 149 178
132 152 180
131 151 179
132 152 179
133 153 180
131 151 178
130 151 178
131 152 180
131 152 179
131 151 178
132 152 179
132 152 179
131 152 179
131 151 179
133 153 180
130 150 177
131 151 178
132 152 179
132 152 179
133 152 179
131 151 178
132 153 180
131 151 178
132 152 179
133 154 180
132 152 179
132 152 179
132 153 180
132 152 179
133 153 180
132 152 180
133 153 180
134 154 181
133 154 180
131 151 178
132 153 180
133 153 180
132 152 179
131 151 179
133 153 180
133 154 181
133 154 180
132 153 180
130 150 179
130 151 179
134 154 180
133 153 179
133 153 180
133 153 180
133 154 180
132 153 180
131 152 179
134 154 180
133 153 180
131 152 179
133 153 180
133 153 180
133 153 180
133 153 180
133 153 180
134 154 180
133 154 181
132 152 179
134 154 180
133 154 180
133 154 180
133 153 180
132 152 179
134 154 181
133 153 180
134 154 180
133 153 179
134 154 181
133 154 180
134 154 181
134 154 181
132 152 179
133 154 181
133 153 180
132 152 179
132 153 180
133 153 180
134 154 180
134 154 181
135 155 181
133 153 180
133 154 181
132 153 180
134 154 181
133 153 179
133 154 181
133 154 181
133 154 181
133 154 181
133 153 180
134 154 181
134 154 181
135 155 181
133 154 180
132 153 180
133 153 180
132 153 180
134 154 181
134 154 181
133 154 180
133 154 181
134 154 181
134 154 181
134 154 180
134 154 181
134 154 181
133 154 181
133 153 180
134 154 181
134 154 181
134 154 181
134 154 180
133 154 181
133 153 180
133 154 180
134 154 181
134 154 181
133 154 181
134 154 181
133 154 181
134 154 181
134 154 181
133 154 181
134 154 181
134 154 181
134 154 181
134 154 181
134 154 180
133 154 181
133 153 180
134 154 181
133 154 181
134 154 181
134 154 181
134 154 181
134 154 181
134 154 181
134 154 181
133 154 181
134 154 181
133 154 181
134 154 181
134 154 180
134 154 181
134 154 181
133 154 181
133 154 181
134 154 180
134 154 181
133 153 180
134 154 181
134 154 181
134 154 181
134 154 181
134 154 181
134 154 181
133 153 180
133 154 181
134 154 181
134 154 181
134 154 181
135 155 181
133 154 181
133 154 181
133 154 181
133 154 181
133 154 181
133 154 181
133 154 181
133 154 181
133 154 181
134 155 181
134 154 181
134 154 181
134 154 181
133 154 181
134 154 181
133 154 181
134 154 181
135 155 181
134 154 181
134 154 181
133 154 181
134 154 181
133 154 181
133 154 181
134 154 181
134 154 181
134 154 181
134 154 181
134 154 181
134 154 181
134 154 181
134 154 181
134 154 181
133 154 181
133 154 181
135 155 181
134 154 181
134 154 180
134 154 181
133 154 180
133 154 181
133 154 181
134 154 181
134 154 181
134 155 181
133 154 181
134 154 181
134 154 181
132 153 180
134 154 181
133 154 181
134 154 181
134 154 181
133 154 181
134 155 181
134 154 181
133 154 181
133 154 181
133 154 181
133 154 181
135 155 181
134 154 181
133 154 181
134 154 181
134 154 181
133 154 181
134 154 181
134 154 180
134 154 181
134 154 181
133 154 181
133 154 181
134 154 181
134 154 181
133 154 181
134 154 181
134 154 181
134 154 181
135 155 181
134 154 180
133 154 181
134 154 181
133 154 181
134 154 181
133 154 181
134 154 181
134 154 181
134 154 181
135 155 181
134 154 181
134 154 181
134 154 181
134 154 181
133 154 181
133 154 181
135 155 181
133 154 181
134 154 180
134 154 181
134 154 181
134 154 180
131 152 179
133 154 180
133 153 180
133 154 180
133 153 179
132 152 180
133 154 180
133 154 181
133 153 180
132 152 180
133 153 180
133 153 179
132 153 180
133 154 180
132 152 179
133 154 180
133 154 181
133 153 180
134 154 181
131 152 179
133 153 180
132 152 180
131 151 179
133 154 180
131 151 179
133 153 179
131 152 179
133 152 179
133 153 180
133 153 180
132 153 179
131 152 179
132 153 180
132 152 180
131 150 178
131 151 178
131 152 179
130 149 177
131 150 178
132 152 179
131 152 179
133 153 179
132 152 180
133 153 180
132 152 180
131 151 179
132 152 179
133 153 180
133 153 180
132 152 180
130 150 178
132 152 179
131 151 179
130 150 178
131 151 179
131 151 179
131 151 179
131 151 179
131 152 179
132 152 180
132 152 179
130 149 178
130 149 177
129 149 177
129 148 176
129 149 177
130 151 179
132 152 179
131 152 179
131 151 179
131 151 179
131 150 178
129 148 177
132 152 179
129 149 176
130 150 178
130 150 178
130 149 177
131 151 178
131 151 178
130 150 178
127 147 176
132 152 180
131 152 179
132 152 180
128 148 176
131 150 178
130 150 178
133 153 180
131 151 179
130 151 179
131 150 178
133 153 180
128 148 177
129 148 177
132 151 179
128 148 176
132 152 179
130 150 177
130 151 178
132 152 179
131 151 179
132 153 180
131 151 179
130 150 178
131 151 178
131 152 179
130 150 178
130 150 178
131 151 179
131 151 179
129 149 177
130 149 177
131 151 179
129 149 178
128 148 176
131 151 179
131 151 179
131 151 179
131 151 179
131 152 179
132 152 179
130 150 178
129 149 177
128 148 176
131 152 180
131 151 179
131 152 179
132 152 180
131 151 179
130 150 178
132 152 179
129 149 177
130 150 178
131 151 179
132 152 179
131 152 179
131 151 179
132 152 179
133 153 179
131 152 179
131 151 179
132 152 179
131 151 179
134 154 181
131 151 179
131 151 179
133 153 180
131 151 179
132 152 179
131 151 178
130 150 177
133 153 180
132 152 179
132 152 179
132 152 179
131 152 179
133 153 180
133 153 180
131 151 179
133 153 180
131 152 179
133 153 180
132 152 179
131 152 179
132 152 180
133 154 180
131 151 179
132 153 180
131 151 179
134 154 180
132 152 180
133 153 180
134 154 180
133 154 180
133 153 180
132 152 179
132 152 180
132 152 180
132 152 179
134 154 180
133 154 181
133 153 180
132 153 180
133 153 179
133 154 180
132 152 180
133 154 181
134 154 181
133 153 180
132 153 180
133 154 181
134 154 180
134 154 181
134 154 180
133 153 180
134 154 180
133 153 180
133 153 179
133 153 180
134 154 181
133 153 180
134 154 180
133 154 181
133 154 181
134 154 181
133 154 181
133 154 181
135 155 181
134 154 181
133 153 180
133 154 181
134 154 180
134 154 181
133 154 181
134 154 180
133 153 180
133 154 181
134 155 181
133 153 179
134 154 180
133 154 180
134 155 181
134 154 181
134 154 181
134 154 180
134 154 181
134 154 180
133 154 181
133 154 181
134 154 181
134 154 181
133 153 180
133 154 180
133 154 181
133 153 180
134 154 180
134 154 181
133 154 181
134 154 180
133 154 181
133 153 180
134 155 181
134 154 181
133 153 180
133 154 180
134 154 181
134 154 181
133 154 181
134 154 180
133 154 181
134 154 181
134 154 181
134 154 181
134 154 181
134 154 180
134 154 181
134 154 181
132 153 180
134 154 181
133 154 181
133 154 180
134 154 181
133 154 181
133 154 181
133 154 181
134 154 181
134 154 181
134 154 181
133 154 181
133 154 181
132 153 180
134 154 181
133 154 181
135 155 181
135 155 181
134 154 181
133 153 180
134 154 181
134 154 181
134 154 181
133 154 180
134 154 181
134 154 181
133 154 181
135 155 181
133 154 181
133 154 181
133 154 181
134 154 181
133 154 181
134 154 181
134 154 181
134 154 181
134 154 181
134 154 181
134 154 181
134 154 181
134 154 181
134 154 181
133 154 181
133 154 181
134 154 181
134 154 181
134 154 181
134 155 181
134 154 181
135 155 181
134 154 181
134 154 181
134 154 181
134 154 181
133 154 181
133 154 181
134 154 181
133 154 181
135 155 181
134 154 181
134 154 181
134 154 181
133 154 181
134 154 181
134 154 181
135 155 181
133 154 181
133 154 181
134 154 181
134 154 181
133 154 180
134 154 181
134 154 181
134 154 180
134 154 181
134 154 181
134 154 181
134 154 181
134 154 181
133 154 181
134 154 181
134 154 181
134 154 181
134 154 181
134 154 181
133 154 181
134 155 181
134 154 181
133 154 181
134 154 181
133 154 180
133 154 181
133 154 180
134 155 181
134 154 181
134 154 181
134 154 181
134 154 181
133 154 181
134 154 181
133 154 181
134 154 181
134 154 181
133 154 181
133 154 181
134 155 181
134 154 181
134 154 181
134 155 181
134 154 181
134 155 181
134 154 181
134 154 181
134 154 181
134 154 181
134 154 181
134 154 181
134 154 181
133 154 181
134 154 181
135 155 181
133 154 181
135 155 181
134 154 181
135 155 181
134 154 181
134 154 181
133 154 181
134 154 181
133 154 181
133 154 181
133 154 181
134 154 181
133 154 181
134 154 181
133 154 181
133 153 180
134 154 181
134 154 181
133 154 181
134 154 181
133 153 179
132 152 179
133 154 181
133 154 180
134 154 181
131 152 180
133 153 180
133 154 180
132 152 179
132 153 180
133 153 180
132 153 181
134 154 180
132 153 180
133 153 180
132 152 180
134 154 181
133 153 180
133 153 180
133 153 180
131 152 179
132 152 180
130 150 178
131 151 179
134 154 180
132 152 179
132 153 179
132 153 180
133 153 180
133 153 180
131 151 178
133 153 180
133 153 179
132 153 180
132 152 179
133 153 180
132 152 179
133 153 180
130 150 178
132 153 180
130 150 177
132 151 179
130 150 178
131 152 179
133 153 180
133 153 180
130 150 178
132 152 179
131 151 179
130 150 179
132 152 179
130 151 178
132 153 180
130 150 178
131 151 179
129 149 177
131 151 178
131 151 179
132 152 179
132 152 179
132 152 179
133 153 180
131 152 179
130 150 178
132 152 179
132 153 179
131 151 178
128 148 176
130 150 178
131 151 179
132 152 180
129 149 178
131 151 179
129 148 177
131 151 179
132 152 179
131 151 179
131 151 178
131 151 179
130 150 178
131 151 179
132 152 179
132 153 180
132 152 179
132 152 179
129 149 178
132 152 179
132 153 180
131 151 179
128 148 177
132 151 178
131 151 178
131 151 178
130 149 176
131 151 178
131 151 179
132 152 179
131 151 179
132 153 180
133 153 179
130 151 179
131 151 178
132 152 179
130 150 179
129 150 177
133 153 179
132 152 180
131 151 179
131 152 179
131 151 179
132 153 179
132 152 179
132 152 179
130 150 178
131 150 178
130 149 178
131 151 179
132 152 179
133 153 180
130 150 178
131 151 177
132 152 180
132 152 179
131 151 179
131 151 178
132 152 179
129 149 178
131 151 179
133 153 180
131 151 178
130 150 178
131 151 179
131 151 178
133 153 179
132 152 179
132 152 180
131 151 179
131 151 178
131 150 178
132 152 179
132 152 180
133 153 180
132 152 179
133 153 180
132 152 179
132 152 179
131 151 178
131 151 178
132 152 180
133 153 180
131 152 179
132 153 180
133 153 179
133 154 180
132 153 179
132 153 180
133 153 180
133 154 181
133 154 181
132 153 179
133 154 181
131 152 179
133 154 180
132 152 180
131 152 180
131 151 178
131 151 179
134 154 180
133 154 180
131 151 179
133 153 180
132 153 179
133 154 180
133 154 180
131 151 179
133 154 181
133 154 181
133 153 180
134 154 181
133 153 180
132 153 180
134 154 180
134 154 181
133 153 179
133 154 181
133 154 181
132 153 179
132 152 180
134 154 181
133 153 180
133 153 180
134 154 180
134 154 181
133 153 180
133 153 180
134 154 181
133 153 180
133 154 181
132 152 179
133 153 180
133 154 181
132 153 180
133 153 180
134 154 181
131 152 179
134 154 181
133 153 180
133 153 180
134 154 181
133 154 180
133 154 181
134 154 181
134 154 180
133 154 181
133 154 180
134 154 181
134 154 180
134 154 181
133 154 181
134 154 181
134 154 181
134 154 181
134 154 181
133 154 181
134 155 181
133 153 180
134 154 180
133 154 180
132 152 179
134 154 180
133 154 180
133 154 181
133 153 180
133 154 181
134 154 181
133 153 180
134 154 181
133 154 180
133 154 181
133 154 181
134 154 180
134 154 181
135 155 181
134 154 181
133 154 181
133 154 180
133 154 181
134 154 181
134 154 181
133 154 180
134 154 181
132 153 180
133 153 180
133 154 181
134 154 181
133 153 180
133 154 180
133 153 180
134 154 181
134 154 181
134 154 181
134 154 181
135 154 180
133 154 181
134 154 180
134 154 181
133 154 180
134 154 181
133 154 181
133 154 181
133 154 181
134 154 181
134 154 181
133 154 181
134 154 181
133 154 181
135 155 181
134 154 181
134 154 181
134 154 181
133 154 180
134 154 181
134 154 181
134 154 181
134 154 181
134 154 181
133 154 181
133 154 181
134 154 181
135 155 181
135 155 181
134 154 181
134 154 181
134 154 181
133 154 181
134 154 181
135 155 181
134 154 181
133 154 181
134 154 181
133 154 181
134 154 181
134 155 181
134 154 181
134 154 180
134 154 181
134 154 181
134 154 181
135 155 181
133 154 181
134 154 181
134 154 181
134 154 181
133 154 181
133 154 181
133 154 180
133 154 180
134 154 181
134 154 181
133 154 181
134 154 181
134 154 181
134 154 181
133 154 181
134 154 180
134 154 181
134 154 181
134 154 181
134 154 180
133 153 180
133 154 181
134 154 181
135 155 181
134 154 181
133 154 181
134 154 181
133 154 181
134 154 181
133 154 181
133 153 180
134 154 181
134 154 181
134 154 181
134 154 181
134 154 180
134 154 181
134 154 181
134 154 181
134 154 181
134 154 181
133 154 181
133 154 181
133 154 181
134 154 181
134 155 181
134 154 181
134 154 181
133 154 181
134 154 181
134 154 181
133 154 181
134 154 181
133 154 181
134 154 181
134 154 180
134 154 181
134 154 181
133 154 181
133 154 181
133 154 181
134 154 181
133 154 181
135 155 181
134 154 181
133 154 181
134 154 181
133 154 181
134 154 181
134 154 181
133 154 181
133 154 181
134 154 181
133 154 181
134 154 181
134 154 181
134 154 181
134 154 181
133 154 181
135 155 181
134 154 181
134 154 181
134 154 181
134 154 181
134 154 181
133 154 181
134 155 181
133 154 181
133 154 181
134 154 181
135 155 181
133 154 180
131 152 179
132 152 180
133 154 181
133 154 181
134 154 180
134 154 181
134 154 181
133 154 181
133 153 180
134 154 181
133 154 181
132 152 179
131 151 179
133 153 180
133 153 180
132 152 179
131 152 179
134 154 181
132 153 180
133 153 180
133 154 180
131 152 179
132 153 180
132 152 179
131 152 179
132 152 179
133 154 181
133 154 180
133 153 180
133 153 180
132 153 180
132 153 180
132 152 179
131 151 178
132 152 179
132 152 180
132 152 179
132 153 180
133 153 180
132 152 179
133 154 180
132 151 178
132 153 180
132 152 179
132 153 180
130 151 179
132 152 179
132 152 179
133 153 180
133 153 180
132 152 179
133 153 180
132 152 179
132 153 180
131 151 178
131 150 178
131 151 179
130 151 178
130 150 178
133 153 180
130 150 178
132 153 180
131 151 179
133 153 180
133 154 180
131 152 179
131 150 178
131 152 179
131 151 179
131 151 178
131 151 179
130 150 178
130 150 178
131 151 179
130 151 178
131 151 178
132 152 179
130 150 178
131 152 179
131 151 178
132 152 180
129 149 177
132 152 179
131 151 179
130 151 179
129 149 177
131 152 179
133 153 180
132 152 179
131 151 179
130 150 178
132 152 179
132 153 180
129 149 177
130 150 178
131 151 178
132 153 180
133 153 180
131 151 178
131 151 179
130 150 178
130 150 179
132 153 179
131 151 179
130 150 178
133 153 179
133 152 179
132 152 180
131 152 179
133 153 180
133 153 180
131 151 178
131 151 179
131 151 179
131 152 179
131 151 179
132 152 179
131 152 179
133 154 180
132 152 179
129 150 178
131 151 178
130 150 178
133 154 180
134 154 180
132 152 179
133 153 180
131 151 179
131 151 179
133 153 180
133 153 180
133 154 180
132 153 180
131 152 179
132 152 179
133 153 180
130 150 178
131 152 179
132 152 179
132 153 179
133 154 180
132 153 179
130 151 179
131 151 179
131 151 179
133 153 180
130 150 177
134 154 181
133 153 180
133 154 180
133 153 180
133 153 180
132 152 179
130 151 179
132 152 179
132 152 179
134 154 181
132 152 179
133 153 180
133 153 180
133 154 181
130 150 178
133 154 181
131 152 179
133 153 180
132 153 179
133 153 180
133 154 180
133 153 180
133 154 181
133 154 181
133 153 180
131 151 179
132 153 180
133 153 179
133 153 180
133 153 180
133 154 181
132 152 180
132 153 180
133 154 180
133 153 180
132 152 179
134 154 181
133 153 180
133 154 181
135 155 181
133 154 180
133 154 180
134 154 181
133 153 180
133 154 181
133 154 181
133 154 180
134 154 180
134 154 181
133 153 179
134 154 180
132 153 180
133 153 179
134 154 181
133 153 180
134 154 181
133 153 180
134 154 181
133 154 180
133 154 181
133 153 180
134 154 181
133 154 180
134 154 180
134 154 181
133 154 181
133 153 180
133 153 180
133 154 181
133 154 181
134 154 181
134 154 180
133 154 181
133 154 181
133 154 180
133 154 181
134 154 180
133 154 181
133 154 181
134 154 181
134 154 181
133 153 180
133 154 180
133 153 180
133 154 181
134 154 180
133 154 180
133 154 181
133 154 181
133 154 181
134 154 181
133 154 181
134 154 180
134 154 181
133 154 181
134 154 181
133 154 181
134 154 180
134 154 180
133 153 180
133 153 180
133 154 181
133 154 180
134 154 180
134 154 181
133 154 181
133 154 181
134 154 181
134 154 181
133 154 181
133 153 180
133 153 180
133 153 180
133 154 181
134 154 181
134 154 181
133 154 180
134 154 181
133 154 181
134 154 180
134 154 181
133 154 181
134 154 181
133 154 180
134 154 181
134 154 181
134 154 181
133 154 181
134 154 181
134 154 181
134 154 181
134 154 181
134 154 181
134 154 181
133 154 181
133 154 181
134 154 181
134 154 180
134 154 181
134 154 181
134 154 181
134 155 181
134 154 181
134 154 181
135 155 181
133 154 181
133 154 181
135 155 181
134 154 181
135 155 181
134 154 181
134 154 181
133 154 181
134 154 181
134 154 181
135 155 181
133 154 181
134 155 181
134 154 181
134 154 181
133 154 181
134 154 181
134 155 181
133 153 180
133 154 181
134 154 181
134 155 181
134 154 181
132 153 181
134 154 181
134 154 181
134 154 181
134 154 181
134 154 180
134 155 181
134 155 181
134 154 181
133 154 181
133 154 180
134 154 181
133 154 181
134 154 181
134 154 181
134 154 181
134 154 181
134 154 181
134 154 181
134 154 181
134 154 181
133 154 181
135 155 181
134 154 181
134 154 181
135 155 181
134 154 181
133 154 181
134 154 181
132 153 181
133 154 181
133 153 180
134 154 181
134 154 181
133 154 181
134 154 181
134 154 181
134 154 181
133 154 181
134 154 181
134 154 181
133 154 181
134 154 181
133 154 181
133 154 181
134 154 181
133 154 181
133 154 181
134 154 181
134 154 181
134 154 181
134 154 181
133 154 181
134 154 181
134 154 181
134 154 181
134 154 180
134 155 181
135 155 181
134 154 181
134 154 181
133 154 181
134 154 181
133 154 181
133 154 181
135 155 181
134 154 181
134 154 181
134 154 181
133 154 181
133 154 181
133 154 181
134 154 181
134 154 181
134 154 180
134 154 181
134 154 181
134 154 181
134 154 181
133 154 181
133 154 181
134 154 181
134 154 181
134 154 181
132 153 180
133 154 181
134 154 181
132 152 179
134 154 180
133 154 181
132 153 180
133 153 179
133 154 180
134 154 180
133 153 180
133 154 181
134 154 181
132 152 179
133 153 180
132 152 179
133 153 180
133 153 180
134 154 181
134 154 180
132 153 180
132 152 179
133 154 180
132 153 180
135 155 181
133 154 180
134 154 180
133 154 181
134 154 181
133 154 180
133 154 180
133 154 180
132 153 181
130 151 178
132 152 179
131 151 179
132 152 179
133 153 180
130 150 178
132 152 179
132 152 179
133 153 180
130 151 178
132 153 179
131 152 179
131 151 178
132 152 179
132 152 180
132 152 179
133 152 179
132 152 179
131 152 179
131 152 180
131 151 179
130 151 179
133 154 181
132 153 180
132 152 179
132 152 179
132 152 180
133 153 180
129 149 178
134 154 180
132 153 180
132 152 180
129 149 178
132 151 178
132 152 179
131 150 178
130 150 178
130 151 179
131 152 180
132 153 180
132 152 180
133 153 180
132 153 180
132 153 179
129 149 177
131 151 179
130 150 177
132 152 179
131 151 179
132 152 179
131 151 179
133 153 180
130 150 179
133 153 179
133 153 179
130 150 178
130 150 179
132 152 179
133 153 180
132 151 178
131 151 179
133 153 180
132 152 179
131 151 178
132 152 179
132 152 179
132 152 179
130 149 178
130 150 179
131 151 179
131 152 179
132 152 179
130 149 177
132 153 180
129 149 176
133 153 179
131 151 179
133 154 180
132 153 180
131 151 178
132 152 179
132 153 180
128 149 177
130 151 178
132 152 179
132 152 179
132 152 179
132 152 179
132 153 180
131 151 179
132 153 180
132 151 178
132 152 180
132 152 179
133 153 179
131 151 179
132 152 179
133 153 180
130 151 179
131 152 179
132 153 180
133 153 180
132 153 180
132 153 179
132 152 179
133 153 180
132 152 180
133 153 180
133 153 180
132 152 179
133 154 181
132 153 179
132 152 180
130 151 178
132 152 179
131 152 179
134 154 180
133 153 179
132 153 180
132 153 180
133 154 180
133 153 180
132 152 180
134 154 180
133 153 180
132 152 180
132 152 180
134 154 181
133 153 180
133 153 180
134 154 180
133 154 180
133 153 180
132 153 179
132 153 180
134 154 180
134 154 180
132 153 180
134 154 180
134 154 181
133 154 180
134 154 181
134 154 181
131 152 179
132 153 179
133 154 180
134 154 180
132 153 180
133 153 179
132 153 180
133 154 180
132 153 180
134 154 181
132 153 180
133 154 180
134 154 181
134 154 181
133 153 180
133 153 180
133 153 180
132 153 180
134 154 180
133 153 180
133 154 180
133 153 180
133 154 180
134 154 181
134 154 181
133 154 181
133 153 180
132 153 179
133 154 180
134 154 181
133 154 180
133 154 180
133 154 181
133 154 180
133 153 180
134 154 181
134 154 181
134 154 180
133 153 179
133 153 180
133 154 181
134 154 181
133 153 180
133 154 181
133 153 180
133 153 180
134 154 180
133 153 180
134 155 181
134 155 181
134 154 181
134 154 181
133 154 181
132 153 179
134 154 181
134 154 181
133 154 181
133 154 181
133 153 180
132 153 180
133 154 181
133 154 181
134 154 181
134 154 181
133 154 181
134 154 181
133 154 181
134 154 181
133 154 181
134 154 181
133 154 181
134 154 181
133 154 181
133 154 181
134 154 181
134 154 181
132 153 179
134 154 181
134 154 181
133 153 180
134 154 181
134 154 181
134 154 181
134 154 181
134 154 181
134 154 181
133 153 180
134 154 181
133 153 180
134 154 181
134 154 181
134 154 181
133 154 180
132 153 180
133 153 180
133 154 180
134 154 181
134 154 181
133 154 181
134 154 181
134 154 181
133 154 181
134 154 181
133 154 181
133 154 181
134 154 181
134 154 181
134 154 181
134 154 181
134 154 181
134 154 181
133 154 181
134 154 181
134 154 181
134 154 181
133 154 181
134 154 181
133 154 181
135 155 181
134 154 181
133 154 181
133 154 181
134 154 181
133 154 181
133 154 181
134 154 181
134 154 181
134 154 181
134 154 181
133 154 181
133 154 181
133 154 180
134 154 181
135 155 181
133 154 181
134 154 181
134 154 181
135 155 181
134 154 181
134 154 181
134 154 181
134 154 181
134 154 181
134 154 181
133 154 180
134 154 181
133 154 181
134 154 181
133 154 181
133 154 181
134 154 181
133 154 181
134 154 181
133 154 181
134 154 181
134 154 181
134 154 181
133 154 181
133 154 181
134 154 181
133 154 181
135 155 181
133 154 181
134 154 181
134 155 181
134 154 181
133 154 181
134 154 181
133 154 181
134 154 181
135 155 181
134 154 180
134 154 181
133 154 181
134 154 181
134 154 181
134 154 181
134 154 181
134 154 181
134 154 181
134 154 181
134 154 181
133 154 180
133 154 181
134 154 181
133 153 180
134 154 181
133 154 181
134 154 181
134 154 181
134 154 181
133 154 181
134 154 181
134 154 181
133 154 181
134 154 181
134 154 181
133 154 181
134 155 181
135 155 181
134 154 181
134 154 181
134 154 181
134 154 181
133 154 181
133 154 181
134 154 181
134 154 181
133 154 181
134 154 181
133 154 181
134 154 181
133 154 181
134 154 181
134 154 181
134 155 181
134 154 181
133 154 181
134 154 181
135 155 181
134 154 181
134 154 181
134 154 181
134 154 181
132 152 179
132 152 180
134 154 181
132 152 180
133 153 180
132 153 179
132 152 179
132 152 179
134 154 180
133 153 180
133 153 180
133 154 181
132 153 180
131 151 179
133 154 180
133 153 180
133 153 180
131 152 179
134 154 180
133 153 180
131 152 178
134 154 181
133 154 180
132 153 179
132 153 181
133 154 181
132 153 180
133 153 180
131 151 178
132 152 179
133 153 180
133 153 180
132 152 179
132 153 180
133 153 180
134 154 180
133 154 180
132 152 180
133 154 180
133 152 179
132 153 180
132 153 180
133 153 180
132 152 180
133 153 180
133 153 179
133 153 180
130 151 178
132 153 180
132 152 180
133 152 179
132 153 180
132 153 180
132 153 180
132 152 179
133 153 180
132 152 179
132 152 179
133 153 180
131 151 179
132 152 180
132 153 179
131 151 179
131 152 180
130 150 179
131 151 179
132 152 179
130 150 178
132 153 180
130 151 178
132 152 179
133 153 180
132 153 179
131 152 179
132 152 179
132 152 179
131 151 178
130 150 177
131 151 179
133 153 180
132 152 179
130 150 177
133 153 180
129 150 177
133 153 180
131 152 179
133 153 179
132 152 179
132 152 180
132 152 179
131 151 178
131 151 179
131 152 179
132 152 179
131 151 179
130 150 178
131 151 179
130 150 178
130 150 178
131 151 179
132 152 179
131 151 178
132 152 179
132 152 179
132 153 179
132 152 180
130 151 179
133 153 180
133 153 179
133 153 179
131 151 178
132 152 179
131 151 179
133 153 179
129 149 178
133 153 180
131 151 178
132 152 179
131 152 180
130 151 178
130 151 178
132 152 178
133 153 179
130 150 178
133 153 179
132 152 179
131 151 178
134 154 180
132 153 180
131 152 179
132 153 180
132 152 179
131 152 180
133 153 180
133 153 180
132 153 180
131 152 179
132 152 179
134 154 181
131 152 179
133 154 180
133 154 180
132 153 180
132 153 180
131 151 180
133 153 180
132 153 180
134 154 180
134 154 181
133 154 181
133 153 180
133 153 179
131 152 180
132 152 179
132 153 180
133 154 180
133 153 180
133 153 180
133 153 180
132 152 179
133 154 180
133 154 180
133 153 180
133 153 180
133 154 181
133 153 180
133 154 181
133 154 180
132 152 179
134 154 181
133 153 180
133 153 180
133 153 180
133 153 180
133 153 179
133 153 180
133 153 179
134 154 181
134 154 180
133 154 181
134 154 180
134 154 180
134 154 181
133 153 180
134 154 180
134 154 181
134 154 181
133 153 180
134 154 180
134 154 181
133 154 180
134 154 181
132 153 179
134 154 180
133 153 180
133 153 180
134 154 180
132 153 179
132 153 180
134 154 181
133 154 180
133 154 181
134 154 181
134 154 181
133 154 181
133 153 179
133 154 180
134 154 180
133 153 180
133 154 180
133 154 180
133 154 180
133 153 180
134 154 181
133 154 181
134 154 181
133 154 181
134 154 181
133 154 181
133 153 180
134 154 180
133 154 180
134 154 181
133 153 180
134 154 181
134 154 181
134 154 181
134 154 180
134 154 181
135 155 181
134 154 181
134 154 181
134 154 180
134 154 181
134 154 181
133 154 181
133 154 181
133 154 180
133 154 181
134 154 181
134 154 181
133 154 181
134 154 181
134 154 181
133 153 180
134 154 180
134 154 181
134 154 181
133 154 181
134 154 180
134 154 181
133 154 180
134 154 181
133 153 180
134 154 180
134 154 181
133 154 180
133 154 181
133 154 181
134 154 181
134 154 181
133 154 181
133 153 180
133 154 181
135 155 181
134 154 180
134 154 181
133 154 181
134 154 181
133 154 181
133 153 180
135 155 181
133 154 181
134 154 181
134 154 180
134 154 180
134 154 181
134 154 181
133 154 180
134 154 181
133 154 181
133 154 181
133 154 181
134 154 181
134 154 181
134 154 181
134 154 181
134 154 181
134 154 181
135 155 181
133 154 181
134 154 181
134 154 181
133 153 180
133 154 181
134 154 181
134 154 181
133 154 180
134 154 181
134 154 181
134 154 181
135 155 181
133 154 181
134 154 181
134 154 181
134 154 181
135 155 181
133 154 181
134 154 181
134 154 181
133 154 181
134 154 181
134 154 181
133 154 181
133 154 181
133 154 181
135 155 181
134 155 181
134 154 181
133 154 181
135 155 181
134 154 181
134 154 181
134 154 181
133 154 181
134 154 181
135 155 181
132 153 180
134 154 181
134 154 181
134 154 181
134 154 181
133 154 181
135 155 181
134 154 181
134 154 181
133 154 181
134 154 181
135 155 181
134 154 181
134 154 181
134 154 181
134 154 180
133 154 180
133 154 181
134 154 181
135 155 181
134 154 181
134 154 181
134 154 181
134 154 181
134 154 181
133 154 181
135 155 181
133 154 181
134 154 181
134 154 181
134 154 181
135 155 181
133 154 181
134 154 181
134 154 181
134 154 181
134 154 181
133 154 181
133 154 181
134 154 181
133 154 181
134 154 181
133 154 181
134 154 181
133 154 181
134 154 181
134 154 181
133 154 181
133 154 181
133 154 181
133 154 181
133 154 181
134 154 181
134 154 181
134 154 181
134 154 181
133 154 181
133 154 181
134 154 181
133 154 181
134 154 181
133 154 181
134 154 181
133 153 180
134 154 181
132 153 181
134 154 181
134 154 181
133 154 181
133 154 181
133 154 181
133 154 181
134 154 181
133 154 180
134 154 180
133 154 181
133 153 180
133 154 180
133 154 181
134 154 181
132 153 179
133 153 180
133 154 181
132 153 180
131 151 179
132 152 179
134 154 181
133 153 180
134 154 181
131 152 179
132 153 180
134 154 180
133 154 180
132 151 179
134 154 181
133 153 179
133 154 181
134 154 180
133 153 180
133 154 180
132 153 180
133 153 180
132 153 179
133 154 180
132 153 179
132 153 180
132 152 179
132 152 180
132 152 180
132 152 179
133 152 179
132 152 179
131 152 180
132 152 180
132 152 180
133 153 180
132 152 179
134 154 180
133 152 180
133 152 179
132 152 180
132 152 179
132 153 179
133 153 180
132 152 180
131 151 179
133 153 180
133 153 180
132 153 180
133 153 180
131 152 179
130 150 178
133 153 179
133 153 180
131 151 179
132 152 179
130 150 177
131 152 179
131 152 179
132 153 180
133 153 180
132 153 179
132 152 179
131 151 178
131 152 180
131 152 179
131 151 178
132 152 179
132 152 179
131 151 178
132 153 180
132 152 179
132 152 179
129 149 178
131 151 178
131 151 178
132 151 178
132 153 179
131 152 179
130 150 177
132 153 180
131 152 180
131 152 179
132 152 179
133 153 180
133 153 180
129 149 177
133 153 180
133 152 179
132 152 179
132 152 179
134 154 180
132 153 180
130 150 179
133 153 180
130 150 178
133 153 179
133 153 180
131 152 179
134 154 181
131 151 178
133 153 180
132 152 180
131 151 179
131 151 178
131 151 179
132 153 179
132 152 180
133 153 180
132 152 180
133 154 180
132 152 180
133 153 180
134 153 180
133 154 181
132 152 179
133 153 179
134 154 180
130 150 179
132 152 180
133 153 180
133 153 180
131 152 179
133 153 180
132 153 180
133 154 180
134 154 180
132 152 179
132 153 180
132 153 180
134 154 180
131 152 179
133 154 180
133 154 181
131 151 179
131 152 179
132 153 180
132 152 179
134 154 181
133 153 180
134 154 181
134 154 180
133 153 180
134 154 181
132 153 179
134 154 181
132 153 180
134 154 181
134 154 181
134 154 180
133 154 181
133 153 180
134 154 180
132 153 180
133 154 181
132 152 179
132 152 179
133 154 181
133 153 180
133 153 180
132 152 179
133 153 180
132 153 180
133 153 180
133 154 180
134 154 180
134 154 181
133 154 180
133 153 180
133 153 180
132 153 180
133 153 180
134 154 181
132 153 180
133 154 180
134 154 180
134 154 181
135 155 181
132 153 180
134 154 181
132 153 180
134 154 180
133 154 180
133 153 180
134 154 181
133 154 180
132 153 180
133 154 181
133 153 180
133 154 181
134 154 180
133 154 181
133 154 181
132 152 180
133 154 181
133 154 181
133 153 180
132 152 179
133 154 180
134 154 181
134 154 181
134 154 181
133 153 180
133 154 181
132 153 180
134 154 181
133 153 180
134 154 181
134 154 181
134 154 181
133 154 180
133 153 180
134 154 181
133 154 181
133 154 181
134 154 181
134 154 181
133 154 181
133 153 180
133 154 181
134 154 180
134 154 181
133 154 181
134 154 181
133 153 180
134 154 181
134 154 181
133 154 180
133 154 181
133 154 180
133 154 180
133 154 181
133 154 180
134 154 181
134 154 181
134 154 181
133 154 181
133 153 180
133 154 180
133 154 181
134 154 181
134 154 181
134 154 181
133 154 181
134 154 181
134 154 181
133 153 180
134 154 181
133 153 180
134 154 180
134 154 181
134 154 181
134 154 181
133 153 180
133 154 181
133 154 180
133 154 181
133 154 181
134 154 181
134 154 181
133 154 181
133 154 180
134 154 181
134 154 180
134 154 181
133 153 180
134 154 181
135 155 181
134 154 181
134 154 181
134 154 181
134 154 181
135 155 181
134 154 180
134 154 181
134 154 181
133 154 181
133 153 180
134 154 181
133 154 181
132 153 180
134 154 180
134 154 181
134 154 180
134 154 181
134 154 180
132 153 181
134 154 181
133 154 180
133 154 181
134 154 181
133 154 181
133 153 180
134 154 181
134 154 181
134 154 181
132 153 180
133 154 181
133 154 181
133 154 181
134 154 181
134 154 181
134 154 181
134 154 181
134 154 181
133 154 181
133 154 180
134 155 181
134 154 181
134 154 181
134 154 181
134 154 181
135 155 181
133 154 181
135 155 181
134 154 181
134 154 181
134 154 181
134 154 181
135 155 181
133 154 181
134 154 179
134 154 181
134 154 181
133 154 180
133 153 180
134 154 181
134 154 181
133 154 181
134 154 181
134 154 181
133 154 180
134 154 181
133 154 181
134 154 181
134 154 181
134 154 181
133 154 181
134 154 180
134 154 181
134 154 181
134 154 181
134 154 181
134 154 181
134 154 181
133 154 181
133 154 181
134 154 180
134 155 181
133 154 180
134 154 181
133 154 181
134 154 181
133 154 181
134 154 181
134 154 181
133 154 180
134 154 181
133 154 181
134 154 181
135 155 181
134 154 181
135 155 181
133 154 181
134 155 181
133 154 181
133 153 180
134 154 181
134 154 181
134 154 181
134 154 181
134 154 181
133 154 181
134 154 181
134 154 181
134 154 181
133 154 181
134 154 181
134 154 180
134 154 181
133 154 181
134 154 181
134 154 181
134 154 181
133 153 180
133 154 181
134 154 181
133 154 181
134 154 181
134 154 181
134 155 181
134 154 181
134 154 181
134 154 181
134 154 180
133 153 180
133 154 180
134 154 181
133 153 180
133 154 181
133 154 181
135 155 181
135 155 181
134 154 180
132 153 180
132 152 179
133 154 181
131 152 179
131 152 179
132 153 180
134 154 180
133 153 180
133 154 180
132 152 179
133 153 180
133 154 181
133 153 180
133 153 180
132 153 180
133 153 180
131 152 179
132 153 179
133 154 180
132 153 180
134 154 180
134 154 180
133 153 180
132 153 180
132 152 179
133 153 180
133 154 180
132 153 180
132 153 179
132 153 180
132 152 179
132 152 179
134 154 181
133 153 180
132 152 179
132 152 180
133 153 179
132 153 180
132 152 179
132 153 180
132 153 180
133 153 180
130 151 178
134 154 180
132 153 180
132 152 180
132 152 179
132 153 180
133 154 180
133 152 179
132 153 180
132 153 180
130 151 179
131 151 179
134 154 181
131 150 177
133 153 180
132 153 180
132 152 179
133 154 181
132 152 178
132 151 178
132 153 180
133 153 180
133 153 179
132 152 179
133 154 181
132 153 179
133 153 180
133 153 180
133 152 179
132 152 179
130 150 178
133 153 180
131 152 179
134 154 180
132 152 179
134 154 180
131 152 180
133 153 179
133 152 179
132 152 179
133 154 180
130 151 178
133 154 180
133 153 180
132 152 179
132 153 180
132 152 180
131 151 178
131 152 179
133 153 179
132 153 180
132 152 180
134 154 181
131 151 178
133 153 180
132 152 179
130 150 178
133 153 180
132 152 179
132 152 180
132 152 179
133 153 180
132 152 179
132 153 180
132 152 179
133 154 180
133 153 180
132 153 180
132 153 180
132 152 179
132 153 179
133 154 180
133 153 180
132 152 180
131 151 178
133 154 180
131 151 178
134 154 180
133 153 180
132 153 180
133 154 180
132 152 179
133 153 180
133 153 180
131 152 179
133 153 180
133 154 180
132 152 179
131 151 179
132 152 180
133 153 179
132 153 180
132 153 180
133 153 180
132 153 180
134 154 181
134 154 180
134 154 180
132 153 180
134 154 180
133 153 180
133 154 180
132 152 180
133 154 180
133 153 180
131 152 179
132 152 179
133 154 180
132 153 180
133 153 179
134 154 180
133 154 180
134 154 181
133 154 181
132 153 180
133 153 179
132 152 179
134 154 180
131 151 179
132 152 180
132 153 179
133 153 180
133 153 180
133 154 180
133 154 181
133 154 180
133 153 180
133 153 180
134 154 181
134 154 180
133 153 180
131 152 179
132 153 180
132 152 179
133 154 181
133 153 180
133 153 180
133 153 180
133 154 180
133 154 181
133 154 181
133 154 181
134 154 181
133 154 180
134 155 181
133 153 180
133 154 180
135 155 181
133 154 181
133 153 180
134 154 181
133 154 181
133 154 180
133 154 181
133 154 180
133 154 181
132 153 179
134 154 181
134 154 181
134 154 180
134 154 181
135 155 181
133 154 181
134 154 181
133 153 179
134 154 181
133 153 180
133 153 180
134 154 181
134 154 181
133 154 181
134 154 181
133 154 181
133 154 180
134 154 180
134 154 181
134 155 181
134 154 181
134 154 181
134 154 181
133 154 181
134 154 181
134 154 181
133 154 181
133 154 181
134 154 181
133 154 181
134 154 180
133 154 181
133 153 180
133 153 180
134 154 181
133 154 180
134 154 181
134 154 181
134 154 181
134 154 181
134 154 180
133 153 180
133 154 180
133 154 181
133 154 181
133 153 180
134 154 181
134 154 180
134 154 181
133 153 180
134 154 181
135 154 180
134 154 181
133 154 181
134 154 180
133 154 181
134 154 181
134 154 180
134 154 181
133 153 180
133 154 181
134 154 181
133 153 180
134 154 181
133 154 181
134 154 181
134 154 181
133 153 180
133 154 181
133 154 181
133 154 181
134 154 181
133 154 181
133 154 181
134 154 181
134 154 181
134 154 181
133 153 180
134 154 181
134 154 181
133 154 181
134 154 181
134 154 181
134 154 181
133 154 181
134 154 180
134 154 181
134 154 181
134 155 181
134 154 181
134 154 181
134 154 181
134 154 180
133 154 180
134 154 181
132 153 180
133 154 181
134 154 181
134 154 181
133 154 181
133 154 181
134 154 181
133 154 181
135 155 181
134 154 181
134 154 181
133 154 180
134 154 181
134 154 181
134 154 181
133 154 181
134 154 181
133 154 181
134 154 181
134 154 181
134 154 181
135 155 181
134 154 181
133 154 181
135 155 181
134 154 181
133 154 181
133 154 180
134 154 181
134 154 181
133 154 181
134 154 181
133 154 181
133 154 180
134 154 181
133 154 181
134 154 181
134 154 180
134 154 181
134 154 181
134 154 181
134 155 181
133 154 181
134 154 181
134 154 181
134 154 181
134 154 181
133 154 181
133 154 181
135 155 181
133 154 180
133 154 181
133 154 181
135 155 181
133 154 181
134 154 181
134 154 181
135 155 181
134 154 181
134 155 181
133 154 181
133 154 181
134 154 181
134 154 181
135 155 181
134 154 181
134 154 181
134 154 181
134 154 181
133 154 181
133 154 181
134 154 181
134 154 181
133 154 181
133 154 181
133 154 181
134 154 181
133 154 181
134 154 181
134 154 181
133 154 181
134 154 181
133 154 181
133 154 181
134 154 181
134 154 181
133 154 181
133 154 181
134 154 181
134 154 181
133 154 181
134 154 181
133 154 181
134 154 181
134 154 181
133 154 181
134 154 180
133 153 180
132 152 179
134 154 181
134 154 181
133 153 180
133 153 180
132 153 180
133 153 180
132 152 180
132 153 180
134 153 180
134 154 181
132 152 180
133 153 180
132 152 179
133 154 181
133 153 180
133 153 180
131 151 178
134 154 181
133 153 180
133 153 180
131 152 179
131 152 179
132 153 180
134 154 180
134 154 181
133 154 180
133 153 180
133 153 180
133 154 181
132 152 180
133 153 180
134 154 181
133 153 180
132 153 180
132 152 180
132 153 180
132 152 179
131 152 179
133 153 180
133 154 181
133 154 180
132 153 179
132 152 179
134 154 181
132 152 179
132 153 180
133 153 180
132 153 179
133 153 180
133 154 180
133 153 180
133 154 181
133 153 180
133 153 180
131 151 179
133 153 180
132 152 180
133 154 180
133 152 179
133 154 181
134 154 181
134 154 180
133 154 180
132 152 179
131 151 178
132 152 179
132 153 180
133 153 180
134 154 180
131 151 179
132 151 179
133 153 180
133 154 180
132 152 179
131 151 179
133 153 180
132 152 179
132 152 179
132 152 179
132 153 180
132 152 180
133 154 180
131 152 179
131 151 179
132 152 179
133 153 179
133 153 179
133 153 180
132 153 180
132 152 179
132 152 179
133 153 180
134 154 180
131 152 179
134 154 181
133 153 179
134 154 180
133 153 180
133 153 180
132 152 180
132 153 180
129 150 178
131 152 179
133 154 181
132 152 180
132 152 180
133 154 180
133 153 180
133 154 180
131 151 179
133 153 180
133 153 180
132 153 180
133 153 179
132 152 179
133 153 180
133 153 180
133 153 180
133 154 180
133 154 181
133 154 180
132 153 180
133 154 180
132 152 179
132 153 179
134 154 180
133 154 180
133 154 181
133 153 179
131 152 179
133 153 180
132 153 180
133 153 180
133 154 180
132 153 180
132 153 180
133 154 180
132 152 180
133 153 180
132 153 180
133 153 179
133 154 180
131 152 179
133 154 180
133 154 181
132 153 180
132 154 181
133 154 180
134 154 181
133 154 181
133 154 180
132 152 178
132 152 180
133 154 180
132 152 179
133 154 181
133 154 181
132 153 180
132 153 180
132 153 180
134 154 181
134 155 181
133 154 181
134 154 180
132 153 179
133 153 180
134 154 180
132 153 181
133 154 181
132 153 181
134 154 181
134 154 181
134 154 180
133 154 180
133 154 180
134 154 181
133 154 181
134 154 180
133 153 180
133 154 181
134 154 180
134 154 181
134 154 181
133 153 180
134 154 181
133 153 180
134 154 181
133 153 180
132 153 180
133 153 180
133 154 180
134 154 180
133 153 180
133 154 180
133 154 180
133 154 180
133 153 179
133 154 180
133 154 181
133 154 181
134 154 181
133 154 181
133 154 180
133 154 181
134 154 180
133 153 180
133 154 181
133 153 180
134 154 181
133 154 180
134 154 181
134 154 180
133 154 181
133 153 180
134 154 181
134 154 181
133 154 181
133 154 181
134 154 181
133 154 181
134 154 181
133 154 180
134 154 181
134 154 181
134 155 181
134 154 181
134 154 181
133 153 180
134 154 181
133 154 180
134 154 181
132 153 179
133 154 181
134 154 180
133 153 180
132 153 180
133 154 181
134 154 181
134 154 181
134 154 180
134 154 180
134 154 181
133 154 181
135 155 181
134 154 181
134 154 181
134 154 181
133 154 181
134 154 181
133 154 180
134 154 181
134 154 181
133 154 181
135 155 181
133 154 181
134 154 181
134 154 181
133 154 181
132 153 180
133 154 181
133 153 180
133 154 181
134 154 181
133 154 181
134 154 180
134 154 181
134 154 181
133 154 181
133 154 181
133 154 181
134 154 181
134 154 181
133 154 181
134 154 181
134 154 181
133 154 181
133 154 181
134 154 181
134 154 180
133 154 181
134 154 180
134 154 181
133 154 181
135 155 181
133 154 181
134 154 181
135 155 181
134 154 181
133 154 181
135 154 180
135 155 181
133 154 180
133 154 180
133 154 181
135 155 181
134 154 181
134 154 181
133 154 181
134 154 180
134 154 181
134 154 181
134 154 181
133 154 181
133 154 181
134 154 181
134 154 181
133 154 181
134 155 181
134 154 181
134 154 181
134 154 181
134 154 181
133 154 181
134 154 181
133 154 181
135 155 181
133 154 181
134 154 181
134 154 181
134 154 180
133 154 181
133 154 181
133 154 181
134 154 181
133 154 181
134 154 181
134 154 181
134 154 181
133 154 181
134 154 181
134 154 181
133 153 180
134 154 181
134 154 181
134 154 181
133 154 181
133 154 181
134 154 181
133 154 181
133 154 180
134 154 181
133 153 180
134 154 181
135 155 181
134 154 181
134 154 181
134 154 181
133 154 181
134 154 181
134 154 181
134 154 181
133 154 181
134 154 181
133 154 181
133 154 181
133 154 181
133 154 181
135 155 181
133 154 181
134 154 181
134 154 181
134 154 181
133 154 181
134 154 181
133 154 181
134 154 181
134 154 181
133 154 181
133 154 180
133 154 181
133 154 181
133 154 181
135 155 181
134 154 180
135 155 181
134 154 181
134 154 181
133 154 181
133 154 181
134 154 181
133 154 181
133 154 181
133 154 181
134 154 181
134 154 181
134 154 181
134 154 181
133 154 181
133 153 180
134 154 181
134 154 181
134 154 181
135 155 181
134 154 181
134 154 181
134 154 181
134 154 180
133 153 180
133 154 181
133 154 180
133 154 181
133 154 181
133 154 180
133 153 180
133 153 180
133 153 180
133 153 180
133 154 180
133 153 180
133 154 180
133 154 180
132 153 180
134 154 181
133 153 180
133 154 181
133 154 181
133 154 180
134 154 181
133 153 179
132 152 179
133 154 181
133 154 180
134 154 180
133 153 180
131 151 178
133 154 181
133 154 180
134 154 180
132 152 180
132 152 179
134 154 180
134 154 180
134 154 180
134 154 181
133 153 180
134 154 181
133 153 180
133 154 181
134 154 181
133 154 181
134 154 180
132 153 180
132 153 180
133 154 180
133 153 180
133 154 181
132 152 179
131 151 179
133 154 180
132 152 179
132 153 180
133 153 180
132 152 179
132 153 180
132 153 180
134 154 180
131 151 179
133 153 180
132 152 180
133 154 181
132 153 180
133 153 180
132 153 180
134 154 181
132 152 180
131 152 179
130 150 178
132 152 180
134 155 181
132 152 180
133 153 180
134 155 181
133 153 180
132 152 179
131 151 179
133 153 180
132 152 179
132 152 179
134 154 180
132 153 179
131 151 178
132 153 180
133 154 180
132 153 179
131 151 178
133 154 180
133 153 180
132 153 179
132 152 179
133 153 180
133 153 180
132 152 179
132 154 181
131 152 179
132 152 179
132 153 179
130 151 178
133 153 180
134 154 180
132 153 180
134 154 180
132 153 180
132 152 179
133 154 180
133 153 180
133 153 180
133 154 181
134 154 180
133 153 180
132 153 179
132 152 179
131 151 179
132 153 180
133 154 181
132 152 180
132 153 180
132 152 179
132 153 180
133 153 180
133 153 180
134 154 180
133 154 180
134 154 181
133 153 180
134 154 181
132 152 179
134 154 180
133 154 181
132 152 180
133 154 180
133 153 180
133 153 179
134 154 180
133 153 179
132 153 180
133 154 180
134 154 181
132 153 180
132 152 179
135 155 181
135 155 181
131 152 179
132 152 179
134 154 181
133 154 180
133 154 181
133 153 179
132 153 180
133 153 180
133 153 180
133 153 180
131 152 179
132 153 180
132 153 180
132 152 180
134 154 181
134 154 181
133 154 181
134 154 181
134 154 181
134 154 180
133 154 181
132 153 179
133 154 180
134 154 181
133 153 180
133 153 180
134 155 181
133 153 180
133 153 180
133 153 180
134 154 181
132 153 180
135 155 181
134 154 180
134 154 181
133 153 180
133 153 179
132 153 179
133 154 180
133 154 181
132 152 180
134 154 181
133 153 180
132 152 179
133 153 180
133 154 181
133 154 180
134 154 181
134 154 180
134 154 181
134 154 180
133 153 180
133 154 181
134 154 181
134 154 181
134 154 181
134 154 181
133 154 181
134 154 181
134 154 180
134 154 180
134 154 181
134 154 181
133 154 181
134 154 181
134 154 181
133 154 181
134 154 181
133 153 180
135 155 181
134 154 180
133 154 180
133 154 181
134 154 181
133 154 181
134 154 181
133 154 181
133 154 181
133 154 181
133 154 181
132 153 180
133 153 180
133 153 180
134 154 181
134 154 181
134 154 181
134 154 181
133 153 180
133 154 181
133 154 180
133 154 181
134 154 181
133 154 181
134 154 180
133 154 181
134 154 181
133 154 181
133 154 181
133 154 181
134 154 181
133 154 181
134 154 181
133 154 181
134 154 181
134 154 181
134 154 181
134 154 181
134 154 180
134 154 181
133 154 181
134 154 180
133 154 181
133 154 181
134 154 181
133 154 180
134 154 181
133 154 180
134 154 181
134 154 181
134 154 181
134 154 181
132 153 180
134 154 180
135 155 181
133 154 180
133 154 181
133 154 181
135 155 181
134 154 181
133 154 180
133 154 181
132 153 180
135 155 181
133 154 181
134 154 181
133 154 181
134 154 181
134 154 181
134 154 181
133 154 181
134 154 181
134 154 181
133 153 180
134 154 181
134 154 181
133 154 181
134 154 181
133 154 181
134 154 181
134 154 181
134 154 181
134 154 181
135 155 181
133 154 181
133 154 181
134 154 181
133 154 181
134 154 181
134 154 181
134 154 181
133 154 181
134 154 181
134 154 181
134 154 181
135 155 181
134 154 181
133 154 181
134 154 180
134 154 181
134 154 181
134 154 181
133 154 181
134 154 181
134 154 181
133 154 181
134 154 181
133 153 180
134 154 181
133 154 181
134 154 181
133 154 181
134 154 181
134 154 181
134 154 181
134 154 181
134 155 181
133 154 181
132 153 181
133 154 181
134 154 181
134 154 181
134 155 181
134 154 181
134 155 181
134 154 181
133 154 181
135 155 181
133 154 180
134 154 181
134 154 181
134 154 181
133 154 181
134 154 181
134 154 181
134 154 181
134 154 181
135 155 181
134 154 181
134 154 180
134 154 180
134 154 181
134 154 181
134 154 181
134 154 181
135 155 181
134 154 181
134 154 181
133 154 181
133 154 181
134 154 181
133 154 181
134 154 181
134 154 181
134 154 181
133 154 181
134 154 181
134 154 181
134 154 181
134 154 181
134 154 181
133 154 181
133 154 181
134 154 181
133 154 181
134 154 181
134 154 181
133 154 181
133 154 181
134 154 181
134 154 181
134 154 181
133 154 181
135 155 181
134 154 181
133 154 181
134 154 181
134 154 180
135 155 181
134 154 181
134 154 181
134 154 181
134 154 181
134 154 181
134 154 181
134 154 181
134 154 180
133 153 180
133 153 180
132 153 180
133 153 180
133 154 181
134 154 181
133 153 180
132 153 180
133 153 180
133 154 180
134 154 181
132 153 180
133 154 180
132 153 180
133 153 180
133 153 180
133 153 179
133 153 180
132 153 180
133 153 180
132 153 180
133 153 180
133 154 181
133 154 180
132 152 179
134 154 181
133 153 180
133 154 181
133 153 180
133 154 180
134 154 181
133 154 180
132 153 180
132 153 180
133 153 180
132 152 179
134 154 181
134 154 180
132 153 180
132 153 180
133 153 180
133 154 180
133 153 180
133 154 180
133 153 180
133 154 180
132 153 180
132 152 179
132 153 179
133 153 179
135 155 181
133 153 180
133 153 180
133 153 180
131 151 178
133 154 180
132 152 179
134 154 181
132 153 180
132 153 180
133 153 180
133 153 180
133 153 180
133 154 180
133 153 180
133 153 180
133 154 181
132 153 180
133 153 180
133 153 180
132 152 179
132 152 179
133 153 180
133 153 180
133 154 180
133 154 180
132 153 180
131 151 179
132 152 180
131 152 179
130 151 179
133 153 180
133 153 179
132 152 179
133 154 180
133 154 180
131 151 179
133 154 180
133 153 180
133 153 180
132 152 179
133 153 180
132 152 179
132 152 179
132 153 180
133 153 179
132 153 180
133 153 180
133 153 179
134 154 181
132 153 180
132 152 180
133 154 181
133 153 180
132 152 180
133 153 179
133 153 180
134 154 181
133 153 180
133 154 180
131 152 179
132 153 180
134 154 181
133 153 179
133 153 180
133 153 180
132 153 180
132 153 180
133 153 180
134 154 180
133 154 180
133 153 180
134 154 181
133 153 180
134 154 180
133 154 181
133 153 180
132 153 179
133 154 181
134 154 181
133 154 181
133 154 180
133 154 180
134 154 181
133 153 180
134 154 181
134 154 180
133 154 181
133 154 180
132 152 179
131 151 179
133 154 181
132 153 179
134 154 181
133 154 180
133 153 179
133 154 180
134 154 181
134 154 181
132 153 180
132 153 180
134 154 180
133 154 180
133 154 181
132 153 180
132 153 180
133 153 180
132 152 179
132 153 180
132 152 180
133 154 180
133 153 179
133 154 181
134 153 179
132 153 179
133 153 180
133 154 181
133 153 180
133 154 180
133 153 180
134 154 180
133 154 180
133 153 179
133 153 180
133 154 180
132 152 179
133 154 180
134 154 181
134 154 181
133 154 181
133 153 180
134 154 181
133 153 179
133 154 180
134 154 181
132 153 180
132 153 180
133 154 181
134 154 181
134 154 181
133 154 181
133 154 181
133 154 181
134 154 181
132 153 180
133 153 180
133 154 181
133 153 180
134 154 180
134 154 181
134 154 181
134 154 181
133 154 181
132 152 179
133 153 180
133 153 180
133 154 181
134 154 180
134 154 181
134 154 181
133 153 180
134 154 180
134 154 181
133 153 180
133 154 181
133 154 181
134 154 181
133 154 180
133 153 180
133 154 181
133 154 181
134 154 181
133 154 181
134 154 181
134 154 181
134 154 181
133 154 181
134 154 181
134 154 181
133 154 181
134 154 181
133 154 180
133 154 181
134 154 181
134 154 181
134 154 181
134 154 181
135 155 181
133 154 181
133 154 181
134 154 181
133 153 180
134 154 180
133 154 181
134 154 181
133 154 181
133 154 181
134 154 181
133 154 181
134 154 181
133 153 180
135 155 181
134 154 181
133 154 180
135 155 181
133 154 181
134 154 181
133 154 181
134 154 181
134 154 181
133 154 181
134 154 181
134 154 181
135 155 181
134 154 181
133 154 181
134 154 181
134 154 181
133 154 181
134 154 181
134 154 181
134 154 181
134 154 181
134 155 181
133 153 180
134 154 181
133 153 180
134 154 181
134 154 181
134 154 181
133 154 180
134 154 181
133 154 181
134 154 181
134 154 181
135 155 181
135 155 181
133 153 180
134 154 180
134 154 181
133 154 181
133 153 180
134 154 181
133 154 181
134 154 181
133 154 181
134 154 181
134 154 181
134 154 181
134 154 181
134 154 181
134 154 181
134 154 181
134 154 181
133 154 181
133 154 181
133 154 181
132 153 181
133 154 181
133 154 181
134 154 181
134 154 181
134 154 181
134 154 181
134 154 181
133 154 181
133 153 180
133 154 181
134 154 181
134 154 181
134 154 181
133 154 181
134 154 181
134 154 181
133 154 181
134 154 181
133 154 181
134 154 181
134 154 181
135 155 181
133 154 181
133 154 181
133 153 180
133 153 180
134 154 181
134 154 181
134 154 181
134 154 181
133 154 181
134 154 181
133 154 181
134 154 181
134 154 181
134 154 181
134 154 181
133 153 180
134 154 181
134 154 181
134 154 181
133 154 181
134 154 180
132 153 181
133 154 181
134 154 180
134 154 181
133 154 181
134 154 180
134 154 181
133 154 181
134 154 181
134 154 181
134 154 181
134 154 181
134 154 181
133 154 181
134 154 181
134 154 181
134 154 180
134 154 181
134 154 181
133 154 181
133 154 181
134 154 181
133 154 181
133 153 180
134 154 181
134 154 181
133 154 181
133 154 181
133 154 181
133 154 181
133 153 180
134 154 181
133 154 181
133 154 181
134 154 181
134 154 181
134 154 181
133 154 181
134 154 181
134 154 181
135 154 180
133 154 181
134 154 181
134 154 181
134 154 181
133 154 181
134 154 181
134 154 181
133 154 180
133 154 181
134 154 181
133 154 181
133 153 180
132 153 180
132 154 181
135 155 181
133 153 180
133 154 181
133 154 180
134 154 181
133 153 180
132 153 180
134 154 180
133 153 180
134 154 181
133 153 180
133 153 180
133 153 180
134 154 181
134 154 181
133 153 180
133 153 180
134 154 181
132 153 180
133 154 181
133 153 180
134 154 181
134 155 181
133 153 180
134 154 181
134 154 181
133 153 180
133 154 181
134 154 180
133 154 181
132 153 180
133 154 181
133 153 180
133 153 180
132 152 179
132 153 180
133 153 179
133 153 180
133 153 179
131 152 179
133 154 180
133 153 180
133 153 180
133 154 181
132 152 179
133 154 181
133 153 180
130 150 178
132 153 180
131 152 179
134 154 181
133 153 180
133 153 180
133 153 180
133 153 180
133 153 180
132 152 179
133 153 180
133 153 180
133 153 180
133 153 180
133 153 180
131 152 179
132 152 179
133 154 181
131 152 179
132 153 180
134 154 181
132 153 180
132 152 179
133 153 180
134 153 180
132 152 178
131 152 179
132 153 180
132 153 180
133 153 179
132 152 179
133 153 180
133 153 179
132 152 179
132 153 180
132 152 179
133 153 179
133 154 180
134 154 181
133 153 180
132 152 180
133 154 181
133 153 180
134 154 181
132 152 179
132 153 180
132 151 179
134 154 181
133 154 181
134 154 180
134 154 181
132 153 180
133 153 180
133 153 180
133 153 180
133 153 180
132 153 180
131 151 178
132 152 179
133 154 180
133 154 180
133 154 180
133 153 180
133 153 180
133 154 181
134 154 181
134 153 179
132 152 180
133 153 180
133 154 180
133 154 180
134 154 180
134 154 181
134 154 180
131 151 179
130 150 178
131 152 179
133 153 180
132 153 180
131 151 179
131 152 179
133 153 180
132 152 179
132 153 180
133 153 180
133 154 180
133 153 179
132 152 179
133 153 180
133 153 180
133 154 180
135 155 181
133 154 181
132 153 180
133 153 179
132 153 180
133 153 180
133 153 180
134 154 181
133 154 181
134 154 181
133 153 180
134 154 180
134 154 180
132 152 179
133 153 180
132 153 180
134 154 181
133 153 180
133 154 181
133 153 180
133 154 180
133 154 180
134 154 181
134 154 181
134 154 181
132 153 180
133 154 181
134 154 180
133 154 180
133 154 180
132 153 180
134 154 179
134 154 181
133 153 179
133 154 180
133 154 180
134 154 181
133 153 180
134 154 180
132 152 179
134 154 180
132 153 180
134 154 180
133 153 180
134 154 180
133 154 181
134 154 181
133 153 180
134 154 181
134 154 181
133 154 181
134 154 180
132 153 180
133 154 180
134 154 180
133 153 180
134 154 181
133 154 181
134 155 181
133 154 180
133 154 180
133 153 180
134 154 181
134 154 181
134 154 180
133 154 180
133 154 181
134 154 180
133 153 180
133 154 181
134 154 181
134 154 181
133 154 180
133 154 181
133 153 180
133 154 181
133 153 180
133 154 181
133 154 180
133 154 181
133 154 181
133 154 181
133 153 180
133 154 180
134 154 181
134 154 181
134 154 181
134 154 180
133 154 181
133 154 180
134 154 181
134 154 181
132 153 180
134 154 181
134 154 181
133 154 181
133 154 180
133 153 180
134 154 181
133 154 181
134 154 181
134 154 181
133 153 180
134 154 181
133 154 181
133 154 181
133 154 180
133 154 181
134 154 181
134 154 181
134 154 181
134 154 181
134 154 181
134 155 181
134 154 181
133 154 180
135 155 181
134 154 181
134 154 181
134 154 181
133 153 180
133 153 180
134 154 181
134 154 181
133 154 181
134 154 181
134 154 181
133 154 181
133 154 181
133 154 181
134 154 181
135 155 181
134 155 181
133 154 181
134 154 181
134 154 181
135 155 181
133 154 180
134 154 181
134 154 181
134 154 181
133 154 181
134 154 181
134 154 181
134 154 180
133 154 181
135 155 181
134 154 181
134 154 181
134 154 181
134 154 181
134 154 181
133 154 181
134 154 181
134 154 181
134 154 181
134 154 181
134 154 181
134 154 181
135 155 181
134 154 181
134 154 181
134 154 181
133 154 181
133 154 181
134 154 181
134 154 181
134 154 181
134 154 181
134 154 180
134 154 181
133 154 181
133 154 181
133 154 181
134 154 181
133 154 181
134 154 181
134 154 181
133 154 180
134 154 181
134 154 181
134 154 181
135 155 181
134 154 181
134 154 181
133 154 181
134 154 181
134 154 181
134 154 181
135 155 181
134 154 181
135 155 181
134 154 181
134 154 181
134 154 181
133 154 181
134 154 181
133 154 181
133 154 181
133 153 180
133 154 181
133 154 180
133 154 181
133 154 181
134 154 181
133 154 181
134 154 180
134 154 180
133 154 181
134 154 181
134 154 181
134 154 181
133 154 181
134 154 181
133 154 181
134 154 181
134 154 181
135 155 181
133 154 181
134 154 181
134 154 181
134 154 181
133 154 181
135 155 181
133 154 181
134 154 181
133 154 181
134 154 181
133 154 181
134 154 181
133 154 181
133 154 181
134 154 181
134 154 180
134 154 181
133 154 181
134 154 181
133 154 181
134 154 181
134 154 181
134 154 181
134 154 181
133 154 181
134 154 181
134 154 181
134 154 181
134 154 181
133 154 181
133 154 181
134 154 181
134 154 181
134 154 181
134 154 181
134 154 181
134 154 181
134 154 181
134 154 181
134 154 181
134 154 181
134 154 181
134 154 181
134 154 180
132 153 180
133 153 180
133 154 181
133 154 181
134 154 181
133 154 181
134 154 180
134 154 181
134 154 181
134 154 181
133 153 180
134 154 181
134 154 181
133 154 181
133 154 181
134 154 181
132 153 180
135 155 181
134 154 181
133 153 180
134 154 181
134 154 181
133 154 180
132 153 180
133 154 181
132 152 179
133 154 180
133 153 180
133 154 180
133 153 180
134 154 180
133 153 179
134 154 181
133 153 180
133 153 180
132 153 180
133 153 180
133 153 180
133 153 180
132 153 180
132 153 180
134 154 181
132 152 179
132 153 180
134 154 181
132 152 179
134 154 181
132 153 180
132 152 179
134 154 180
131 151 179
133 153 180
133 153 179
133 154 180
133 153 180
132 153 180
132 152 180
135 155 181
133 153 180
132 153 180
134 154 180
133 154 181
132 152 180
134 154 180
133 153 180
133 153 180
134 154 180
133 153 180
134 154 181
133 153 180
134 154 180
131 151 179
133 154 181
134 154 181
132 153 180
133 153 180
132 153 180
133 154 180
131 151 179
132 152 179
133 153 179
133 153 180
132 152 179
133 154 180
133 153 180
131 151 179
132 152 179
132 152 179
133 154 180
133 153 180
133 153 180
133 153 180
134 154 181
134 154 180
132 152 179
133 153 180
132 153 181
132 153 180
133 154 180
132 152 179
132 153 179
131 152 179
133 154 180
133 154 180
134 154 181
133 154 181
133 153 180
132 153 180
134 154 181
133 153 180
133 153 180
134 154 180
133 153 180
133 153 180
132 153 180
134 154 180
134 154 180
133 153 180
133 154 181
133 153 180
134 154 180
133 153 180
133 154 181
133 153 180
133 154 181
133 154 180
132 153 180
134 154 181
133 154 181
133 154 181
132 153 180
134 154 181
132 153 180
134 154 181
132 153 180
135 155 181
134 154 181
133 153 180
133 153 180
133 154 181
133 153 180
134 154 181
133 153 180
133 153 180
134 154 180
133 153 180
133 153 180
133 154 180
134 154 181
133 153 180
132 153 180
134 155 181
133 154 180
134 154 181
134 154 181
134 154 181
133 154 180
133 154 180
132 152 179
133 153 180
135 155 181
134 154 181
133 153 180
134 154 180
133 154 181
133 154 180
133 153 180
134 154 180
133 154 181
134 154 181
133 154 180
133 153 180
134 154 180
134 154 181
134 154 181
133 154 180
134 154 180
133 154 181
134 154 181
133 154 181
133 154 180
133 154 180
133 153 180
133 154 181
133 153 180
135 154 180
133 154 181
133 153 180
132 154 181
133 154 181
133 154 181
134 154 181
134 154 181
134 154 181
133 154 181
134 154 181
133 154 181
133 154 181
133 153 179
133 154 181
132 152 179
133 153 180
133 153 180
134 154 181
134 154 180
133 153 180
133 154 181
134 154 181
134 154 181
133 154 181
133 154 181
134 154 180
133 153 180
133 153 180
134 154 181
134 154 181
134 154 181
133 154 181
134 154 181
134 154 180
133 154 181
133 154 181
133 154 180
134 154 181
133 154 181
133 154 181
133 154 181
134 154 181
134 154 181
133 154 181
134 154 181
134 154 181
134 154 180
134 154 181
133 154 180
134 154 181
133 154 180
134 154 181
134 154 181
134 154 181
134 154 181
133 154 181
134 154 181
135 155 181
134 154 181
134 154 181
134 154 181
134 154 181
134 154 181
134 154 181
133 154 181
133 154 181
134 154 181
134 154 181
134 154 181
134 154 181
134 154 181
135 155 181
133 154 181
133 154 180
134 154 181
133 154 181
133 154 181
134 154 181
134 154 181
133 154 181
134 154 181
133 154 181
134 154 181
133 154 181
134 154 181
134 154 181
134 154 181
133 154 181
134 154 181
133 154 181
134 154 181
134 154 181
134 154 180
135 155 181
134 154 181
134 154 181
134 154 181
134 155 181
133 154 181
134 154 181
133 154 181
134 154 180
133 153 180
133 154 181
134 154 181
133 154 181
133 153 180
134 154 181
134 154 180
134 154 181
134 154 181
134 154 180
134 154 181
134 154 181
133 154 181
134 154 181
133 154 181
134 154 181
134 154 181
133 154 181
134 154 181
134 154 181
133 154 181
133 154 181
134 154 181
133 154 181
135 155 181
134 154 181
134 154 181
133 154 181
134 154 180
133 154 181
133 154 181
133 154 181
135 155 181
134 154 181
134 154 181
134 154 181
134 154 181
134 154 181
134 154 181
134 154 181
134 154 181
133 154 181
134 154 181
134 154 181
133 154 181
134 154 181
134 154 181
134 154 181
134 154 181
134 154 181
134 155 181
134 154 181
133 154 181
134 154 181
134 154 181
133 154 181
135 155 181
134 154 181
133 154 181
134 154 181
133 154 181
134 154 181
134 154 181
134 154 181
133 154 181
134 154 181
133 154 181
134 154 180
133 154 181
135 155 181
134 154 181
134 154 181
134 154 181
134 154 181
134 154 181
133 154 181
134 154 181
133 154 181
134 154 181
134 154 181
133 154 181
133 154 181
134 154 181
134 154 181
133 154 181
134 154 181
134 154 181
135 155 181
134 154 181
134 154 181
134 154 181
134 154 181
134 154 181
134 154 181
134 154 181
134 154 181
133 154 181
133 154 181
133 154 181
134 154 181
134 154 181
134 155 181
135 155 181
134 154 181
133 154 181
133 153 180
133 154 180
135 155 181
133 153 180
133 154 180
133 153 180
132 152 180
134 154 180
133 154 181
133 154 180
133 154 180
134 154 181
133 153 180
133 154 180
134 154 181
133 154 181
133 154 181
134 154 181
133 153 179
132 153 180
133 153 180
133 153 180
134 154 181
134 154 180
133 153 180
134 154 180
133 153 180
133 153 180
134 154 180
133 153 179
134 154 181
131 151 178
133 153 180
134 154 180
133 154 181
134 154 181
130 151 178
133 154 180
134 154 181
133 153 180
134 154 181
133 154 181
133 153 180
133 153 180
133 153 180
132 152 179
134 154 180
133 153 180
133 153 180
133 153 180
132 152 180
133 153 180
133 153 180
133 154 181
134 154 180
133 153 179
132 152 179
133 154 180
134 154 181
132 153 180
133 153 180
132 152 179
133 153 180
133 153 180
132 153 180
133 153 180
133 153 180
133 153 179
133 154 180
132 153 180
134 154 181
134 154 181
133 153 180
131 152 179
133 153 180
132 152 179
133 153 180
133 153 180
133 153 180
134 154 181
133 153 180
134 154 180
134 154 180
131 151 178
134 154 181
132 153 180
134 154 181
133 153 180
134 154 180
132 153 179
134 154 181
134 154 181
133 153 179
132 152 179
134 154 180
133 153 180
133 154 181
133 154 180
133 153 180
133 153 180
134 154 180
132 153 180
133 154 180
133 153 180
133 153 180
132 153 180
134 154 181
133 153 180
133 153 180
133 154 181
132 153 179
134 154 180
133 153 179
133 153 180
134 154 181
132 152 179
132 153 180
133 154 181
133 153 180
133 154 181
133 154 181
134 154 180
132 153 180
132 153 179
133 153 180
134 154 181
133 154 180
132 153 179
132 153 180
133 153 180
133 154 181
132 153 180
133 153 180
133 154 180
132 153 180
133 154 180
134 154 181
132 153 180
133 153 180
133 153 179
133 153 180
133 153 180
133 153 180
133 153 179
133 153 180
133 154 180
134 154 180
134 154 180
133 154 181
132 152 179
134 154 180
133 154 180
133 153 180
132 153 180
134 154 181
134 154 180
132 152 179
133 154 181
133 154 181
133 154 181
132 153 180
133 153 180
134 154 180
134 154 180
133 153 179
133 154 180
134 154 181
134 154 181
133 153 180
134 154 181
134 154 181
132 152 180
134 154 181
134 154 180
134 154 181
132 153 179
133 154 180
134 154 181
133 154 181
133 154 181
134 154 181
133 154 181
134 154 181
132 153 180
134 154 180
134 154 180
133 154 181
133 154 181
133 154 181
135 155 181
134 154 181
133 154 181
133 154 180
133 153 180
134 154 181
133 154 181
134 154 181
134 154 181
134 154 181
134 154 181
134 154 181
134 154 180
133 154 181
133 154 180
134 154 181
134 154 181
133 153 180
133 154 180
133 154 181
134 154 181
135 155 181
134 154 181
133 153 180
133 154 180
133 153 180
134 154 181
133 153 180
133 154 180
133 154 181
134 154 181
134 154 181
133 153 180
134 154 181
133 154 181
134 154 181
135 155 181
133 154 181
134 154 181
134 154 181
134 154 180
134 154 181
134 154 181
134 154 181
133 154 181
134 154 180
133 154 180
133 154 181
134 154 181
134 154 181
134 154 181
133 154 181
134 154 181
134 154 180
134 154 181
133 154 181
135 155 181
133 154 181
134 154 181
133 153 180
133 154 181
134 154 181
134 154 181
134 154 181
133 154 181
133 154 181
134 154 181
133 154 181
134 154 181
133 153 180
134 154 181
133 154 181
133 154 181
134 154 181
134 154 181
135 155 181
133 154 181
134 154 181
134 154 181
134 154 181
133 154 181
134 154 181
134 154 180
133 153 180
133 153 180
134 154 181
134 154 181
133 154 181
135 155 181
132 153 180
134 154 180
133 154 181
134 154 181
134 154 181
133 154 181
134 154 181
133 154 181
134 154 181
133 154 181
134 154 181
134 154 181
134 154 181
134 154 180
133 154 181
134 154 181
133 154 180
134 154 181
133 154 181
134 154 181
133 154 181
134 154 180
134 154 181
134 154 181
134 155 181
133 154 181
134 154 181
134 154 181
134 155 181
134 154 181
133 153 180
134 154 181
134 154 181
134 155 181
135 155 181
134 154 181
134 154 181
134 154 181
135 155 181
133 154 181
134 154 181
134 154 181
134 154 181
134 154 181
134 154 181
133 154 181
133 154 180
134 154 181
134 154 181
134 154 181
134 154 181
134 154 181
134 154 181
134 154 181
134 154 181
134 154 181
133 154 181
134 154 180
134 154 181
135 155 181
133 154 181
134 154 181
134 154 181
134 154 181
134 154 181
134 154 181
133 154 181
134 154 181
133 154 181
133 154 181
134 154 181
134 154 181
133 154 180
133 154 181
133 154 181
133 154 181
134 154 181
134 154 181
134 154 181
134 154 181
135 155 181
134 154 181
134 154 181
133 154 180
134 154 181
135 155 181
134 154 181
134 154 181
134 154 181
133 154 181
134 154 180
134 154 181
133 154 181
133 154 181
134 154 181
134 154 181
135 155 181
134 154 181
134 154 181
133 154 181
133 154 181
133 154 181
133 154 181
134 154 181
134 154 181
134 154 181
133 154 181
134 154 181
134 154 181
133 154 181
133 154 181
134 154 181
134 154 181
134 154 181
135 155 181
133 154 181
133 154 181
134 154 181
133 154 181
133 154 181
134 154 181
135 155 181
133 153 180
133 153 180
133 154 181
133 154 180
134 154 181
134 154 180
133 153 180
134 154 181
134 154 180
134 154 180
133 154 181
133 153 180
133 154 181
133 154 180
134 154 181
133 154 180
133 154 181
134 154 181
135 155 181
133 154 181
132 153 180
132 153 180
133 153 180
132 152 179
133 153 180
134 154 181
133 153 180
133 154 180
134 154 181
133 154 181
134 154 181
133 153 180
134 154 181
134 154 181
134 154 181
133 154 180
133 154 180
133 153 180
134 154 181
133 153 180
132 153 180
133 153 180
132 153 180
134 154 181
132 153 180
133 154 180
134 154 181
134 154 181
133 153 180
132 152 179
133 153 180
134 154 180
134 154 180
133 153 180
134 154 181
133 154 180
134 154 180
133 153 180
133 154 180
132 152 179
133 154 181
132 153 179
133 153 180
133 154 181
134 154 180
132 152 179
133 153 180
131 151 178
132 153 180
133 154 181
132 152 179
133 154 180
133 154 180
133 153 180
132 153 179
134 154 180
134 154 180
133 153 180
132 153 180
133 153 180
132 152 179
134 154 181
133 154 180
134 154 181
134 154 181
133 153 180
133 154 180
134 154 181
134 154 180
133 153 180
133 153 180
133 154 180
134 154 181
133 153 180
133 153 180
132 153 180
133 154 180
134 154 181
132 153 180
133 153 179
133 154 181
133 154 181
132 153 180
132 153 180
132 152 179
135 155 181
133 153 180
134 154 181
133 153 180
133 154 181
133 154 180
132 152 179
134 154 181
132 152 180
133 153 180
132 153 180
132 153 180
133 153 180
133 153 180
132 152 179
133 153 179
134 154 181
133 153 180
132 153 180
133 153 180
134 154 181
134 154 180
134 154 181
134 154 181
133 153 180
133 153 180
134 154 181
133 154 180
133 154 181
134 154 181
133 153 180
133 153 180
133 153 180
133 154 181
133 154 181
134 154 180
134 154 180
134 154 180
134 155 181
132 153 180
133 154 180
134 154 181
132 153 180
135 155 181
132 153 179
133 153 180
133 153 180
132 153 180
134 154 181
134 154 181
134 154 181
134 154 181
133 154 180
134 154 180
133 153 180
133 154 181
133 153 180
134 154 181
134 154 181
134 154 180
132 153 179
133 154 181
134 154 180
133 153 180
133 154 181
133 154 180
132 153 180
133 153 180
133 153 180
133 154 181
134 154 180
134 154 181
133 154 180
132 153 180
133 154 181
133 154 181
134 154 180
132 153 180
134 154 181
134 154 181
133 154 181
133 154 181
133 154 181
132 153 180
133 154 181
133 154 180
133 154 181
134 155 181
134 154 181
133 153 180
134 154 181
134 154 181
133 154 181
133 153 180
133 154 180
133 154 180
134 154 181
133 154 181
134 154 180
135 155 181
134 154 181
134 154 181
133 153 179
133 154 181
133 154 181
135 155 181
134 154 181
134 154 181
133 154 181
134 154 181
134 154 181
134 154 181
134 154 181
134 154 181
132 153 180
133 154 181
134 154 181
134 154 180
133 154 181
133 154 181
133 154 181
133 154 181
133 154 180
134 154 181
134 154 181
134 154 181
133 154 181
134 154 180
133 154 181
134 154 181
133 154 181
133 154 181
134 154 181
134 154 181
133 154 180
134 154 181
133 154 181
135 155 181
133 154 181
135 155 181
133 154 181
133 154 181
134 154 181
134 154 181
134 154 181
134 155 181
133 154 181
133 154 181
134 154 181
134 154 180
132 153 181
134 154 181
134 154 180
134 154 181
133 154 181
133 154 180
133 154 181
134 154 181
134 154 181
134 154 181
134 154 181
134 155 181
134 154 181
134 154 181
133 153 180
134 154 181
134 154 181
134 154 181
134 154 181
133 154 180
133 154 181
134 154 181
134 154 180
133 154 181
134 154 181
134 154 181
135 155 181
134 154 181
134 154 181
134 154 181
134 154 181
134 154 181
134 154 181
133 154 181
134 154 181
134 155 181
134 154 181
133 154 181
134 155 181
135 155 181
134 154 181
133 153 180
133 154 180
134 155 181
133 154 181
133 154 181
134 154 181
133 153 180
134 154 181
133 153 180
133 154 181
134 154 181
133 154 181
133 154 180
134 154 181
133 154 181
133 154 181
133 154 181
134 154 181
134 154 181
134 154 181
134 154 181
134 154 181
134 154 181
133 154 181
134 155 181
134 154 181
132 153 181
133 154 180
133 154 181
134 154 181
135 155 181
134 154 181
134 154 181
133 154 181
134 154 181
133 154 181
134 154 181
134 154 181
133 154 181
134 154 181
133 154 181
134 154 181
134 154 181
133 154 181
134 154 181
134 154 181
133 154 180
133 154 181
133 154 181
133 154 181
134 154 181
134 154 181
133 154 181
134 154 181
133 154 181
134 154 181
134 154 181
134 154 180
134 154 181
134 154 181
135 155 181
133 154 181
134 154 181
133 154 181
134 154 181
134 155 181
134 154 181
134 154 181
133 154 181
134 154 181
133 154 181
133 154 181
134 154 181
134 154 181
133 154 181
134 154 181
133 154 180
134 154 181
134 154 181
133 154 181
134 154 181
134 154 181
134 155 181
134 154 181
133 154 181
134 154 181
134 154 181
134 154 181
134 154 181
134 154 181
133 154 181
134 154 181
133 154 181
134 154 181
134 154 181
134 154 181
134 154 180
134 154 181
134 154 181
134 154 180
133 154 180
135 155 181
134 154 181
134 154 181
134 154 181
134 154 181
133 154 180
134 154 181
133 154 181
133 154 181
134 154 180
133 154 180
133 154 181
133 154 181
133 153 180
133 154 181
134 154 181
133 154 181
133 153 180
133 153 180
133 154 181
134 154 181
133 154 180
133 153 180
132 153 180
133 154 181
134 154 181
134 154 181
133 154 180
134 154 181
133 154 181
134 154 181
133 154 180
134 154 180
135 155 181
134 153 180
133 153 180
133 153 179
132 153 180
133 153 180
132 153 179
133 154 181
133 154 180
133 154 181
133 153 180
134 154 180
134 154 180
133 154 180
134 153 180
133 153 180
132 153 179
134 154 181
134 154 180
132 153 180
133 153 179
133 153 180
133 153 179
133 154 180
133 154 181
133 153 180
133 153 180
133 153 180
134 154 180
133 154 180
133 154 180
133 154 180
134 154 181
132 152 180
133 154 181
133 154 181
133 153 179
133 154 181
133 153 180
134 154 181
132 153 180
133 153 180
133 153 180
133 153 180
133 153 180
134 154 181
132 152 179
133 153 180
132 153 180
133 154 181
133 153 180
134 154 181
133 153 180
132 153 180
133 153 180
133 154 181
133 154 181
133 153 180
134 154 180
134 154 180
134 154 180
133 154 180
132 153 179
134 154 180
132 153 180
133 153 180
134 154 181
132 152 180
135 154 180
133 153 180
133 154 181
133 154 181
133 154 180
132 153 180
133 154 181
133 153 180
134 154 180
133 154 180
134 154 180
134 154 180
133 154 181
133 153 180
133 153 180
133 154 180
132 153 180
131 151 179
133 153 180
132 153 180
134 154 181
133 153 180
133 154 181
134 154 181
133 153 180
134 154 181
133 154 181
133 154 180
134 154 180
134 154 181
133 154 181
133 154 180
133 154 181
133 153 180
135 154 180
132 153 180
134 154 180
134 154 181
133 154 180
134 154 180
133 154 181
133 153 180
133 154 181
133 154 180
133 154 180
132 153 180
133 153 180
133 154 180
134 154 181
133 153 180
132 152 179
133 154 181
134 154 181
133 153 179
134 154 181
134 154 181
134 154 181
133 154 181
132 153 180
133 154 180
133 154 180
133 153 179
134 154 181
133 153 180
134 154 181
133 154 181
133 153 180
133 154 180
134 154 181
134 154 181
134 154 181
133 154 180
133 154 180
133 154 180
133 153 180
134 154 180
134 154 180
134 154 181
134 154 181
133 153 180
134 154 181
133 153 180
133 153 180
134 154 181
133 153 180
133 153 180
134 154 180
133 153 180
133 154 180
133 153 180
133 154 181
134 154 181
132 153 179
134 154 180
134 154 181
134 154 181
134 154 181
135 155 181
134 154 181
133 154 181
133 154 181
133 154 181
133 154 180
133 154 181
133 154 181
134 154 181
132 153 180
134 154 180
133 153 180
133 154 181
134 154 181
134 154 181
133 154 181
133 154 181
134 154 181
133 154 181
133 154 180
134 154 181
133 154 181
134 154 181
133 154 180
134 155 181
134 154 181
133 154 180
135 155 181
134 154 181
134 154 181
133 154 180
133 154 181
134 154 181
134 154 180
134 154 181
134 154 181
134 154 181
134 154 181
133 154 181
134 154 181
133 154 181
134 154 181
134 154 181
134 155 181
134 154 181
133 153 180
134 154 181
134 155 181
133 154 181
134 154 181
133 154 180
133 154 181
133 154 181
134 154 181
134 154 181
134 154 181
134 154 181
134 154 180
134 154 181
134 154 180
134 154 181
133 154 181
133 154 181
133 154 181
134 154 181
134 154 180
133 154 181
134 154 180
133 154 181
133 154 181
134 154 181
133 154 181
133 154 181
133 154 181
133 153 180
135 155 181
134 154 181
135 155 181
133 153 180
133 154 181
133 154 181
133 154 180
134 154 181
133 154 181
133 154 181
135 155 181
133 154 181
134 154 181
133 154 181
134 154 180
133 154 181
133 154 181
133 154 180
133 154 181
134 154 181
134 154 181
134 154 181
134 154 181
135 155 181
133 154 181
135 155 181
134 154 181
133 154 181
133 154 181
133 154 181
133 154 180
133 154 181
135 155 181
134 154 181
134 154 181
134 154 181
135 155 181
134 154 181
133 154 181
133 154 181
134 154 181
134 155 181
134 154 181
133 154 181
134 154 180
133 154 181
133 154 181
133 154 181
134 155 181
133 154 181
134 154 181
133 154 181
134 154 181
133 154 181
134 154 181
133 154 181
134 154 181
134 154 181
134 154 181
133 154 181
134 154 181
134 154 181
134 154 181
135 155 181
134 154 181
133 154 181
134 154 181
134 154 181
134 154 181
133 154 180
134 154 181
134 154 181
133 154 181
135 155 181
133 154 181
133 154 180
134 154 181
134 154 181
133 154 181
134 154 181
134 154 181
133 154 181
133 154 181
134 154 181
133 154 181
133 154 181
134 154 181
134 154 181
134 154 181
134 154 181
134 154 181
134 154 181
134 154 180
133 154 181
135 155 181
135 155 181
134 154 181
134 154 181
134 154 181
135 155 181
134 154 181
133 154 181
133 154 181
133 154 181
133 154 181
134 154 181
134 154 181
133 154 181
134 154 181
134 154 181
133 154 181
134 154 181
134 154 181
133 154 181
133 154 181
134 154 181
133 154 181
133 154 181
134 154 181
134 154 181
134 154 181
134 154 181
134 154 181
133 154 181
134 154 181
133 154 181
133 154 181
133 154 181
134 154 181
134 154 181
134 154 181
134 154 181
134 154 181
133 154 180
134 154 181
133 153 180
132 153 180
133 154 181
134 154 181
132 153 179
134 154 181
133 154 180
134 154 180
134 154 181
133 153 180
132 152 179
134 154 181
133 154 181
133 154 180
134 154 180
132 153 179
132 153 180
133 154 180
135 155 181
133 154 181
134 154 181
134 154 181
134 154 181
133 154 181
133 154 181
132 153 180
133 153 180
133 153 180
134 154 181
133 154 180
134 154 181
134 154 181
133 154 180
134 154 180
133 153 180
134 154 180
133 154 180
133 154 180
134 154 181
133 153 180
132 152 180
133 154 181
133 153 180
134 154 180
134 154 181
132 152 179
132 152 179
133 153 180
133 154 181
133 153 180
132 153 180
133 154 181
132 152 180
133 153 180
133 154 181
133 154 180
132 153 180
133 154 180
134 154 181
133 153 179
133 154 180
133 154 181
134 154 181
134 154 181
132 152 179
133 153 179
134 154 181
134 154 180
133 153 180
134 154 181
132 153 180
132 153 180
132 153 179
134 154 181
133 153 180
134 154 180
134 154 181
133 153 180
134 154 180
134 154 180
134 154 181
133 154 180
134 154 181
132 153 180
134 154 180
134 154 181
133 154 181
133 154 181
133 153 180
133 154 180
133 154 180
134 154 180
134 154 181
133 154 181
134 154 180
133 154 181
132 153 180
133 153 180
133 153 180
134 154 180
133 153 180
133 153 180
134 154 181
133 153 180
134 154 180
133 154 180
134 154 180
133 154 181
134 154 180
134 154 180
133 153 180
133 153 180
134 154 180
133 154 181
133 154 181
134 154 180
134 154 180
133 154 181
132 152 180
134 154 180
133 154 181
133 153 180
133 153 180
134 154 181
133 154 180
133 154 181
133 154 180
134 154 180
134 154 180
132 152 179
133 153 180
134 154 181
134 154 181
134 154 181
132 153 180
134 154 181
134 154 181
134 154 180
133 153 180
134 154 180
133 153 179
134 154 181
135 155 181
134 154 181
134 154 181
133 154 180
133 154 180
133 153 180
135 155 181
132 153 180
132 153 180
134 154 181
134 154 181
133 153 180
133 153 180
134 154 180
134 154 181
134 154 181
134 154 181
133 153 179
134 154 181
133 154 181
134 154 181
134 154 180
133 154 181
133 154 181
134 154 180
134 154 180
134 154 181
134 154 181
133 153 180
132 153 180
133 154 180
134 154 181
134 154 181
133 153 180
133 154 180
133 153 180
134 154 180
133 154 181
133 154 180
134 154 181
134 154 181
132 153 180
133 153 180
133 154 181
133 154 180
134 154 181
133 154 180
134 154 181
134 154 181
133 154 180
134 154 181
134 154 181
134 154 180
134 154 181
133 154 180
134 154 180
133 153 180
134 154 181
134 154 181
133 153 180
134 154 181
133 153 180
134 154 181
134 154 181
133 154 181
134 154 181
133 154 181
134 154 181
133 154 180
134 154 181
134 154 180
133 154 181
133 154 181
133 154 180
134 154 181
133 154 181
133 154 181
134 154 181
134 154 181
133 154 180
134 154 181
133 154 180
134 154 181
133 154 181
134 154 180
134 154 181
133 154 181
134 154 181
133 154 181
133 154 181
134 154 181
134 154 181
133 153 180
134 154 181
134 154 181
134 154 181
133 154 181
133 154 181
134 154 181
133 154 181
133 154 181
134 154 181
133 154 181
135 155 181
133 154 181
133 153 180
134 154 181
134 154 181
134 154 180
135 155 181
134 154 181
133 154 181
134 155 181
133 154 180
134 154 181
134 154 180
133 154 181
134 154 181
134 154 180
134 154 181
132 153 180
134 154 181
132 153 181
133 154 180
133 154 181
134 154 181
133 154 181
134 154 181
134 154 181
133 154 181
134 154 181
133 154 181
133 154 181
133 154 181
134 154 181
133 154 181
134 154 181
134 154 181
134 155 181
133 154 181
134 154 181
134 154 181
134 154 181
134 154 180
133 154 181
134 154 180
133 154 180
134 154 181
134 154 180
134 154 181
134 154 181
134 154 181
134 154 181
134 154 181
134 154 180
134 154 181
134 154 181
134 154 181
134 154 181
133 153 180
134 154 181
133 154 181
133 154 181
134 154 181
134 154 181
135 155 181
134 154 181
133 154 180
134 154 181
134 154 181
134 154 181
133 154 181
135 155 181
134 154 181
134 154 181
133 154 181
135 155 181
134 154 181
134 154 181
133 154 181
133 154 181
132 153 180
134 154 181
133 153 180
133 154 181
134 154 181
133 154 181
133 154 181
134 154 181
133 154 181
134 155 181
135 155 181
133 154 180
134 154 181
134 154 181
133 154 181
133 154 180
133 154 181
134 154 181
134 154 181
134 154 181
134 154 181
134 154 181
134 154 181
134 154 181
134 154 181
134 154 181
133 154 181
134 154 181
134 154 181
135 155 181
134 154 181
133 154 180
134 154 181
134 154 181
133 154 181
134 154 181
134 154 181
134 154 181
134 154 181
135 155 181
134 154 181
133 154 181
134 154 181
134 154 181
134 154 181
134 154 181
134 154 181
134 154 181
134 154 181
134 154 181
134 154 181
134 154 181
134 154 181
133 154 181
134 154 181
134 154 181
135 155 181
134 154 181
135 155 181
134 154 181
134 154 181
133 154 181
134 154 181
134 154 181
135 155 181
134 154 181
133 154 181
134 154 181
133 154 181
134 154 181
133 154 181
133 154 180
132 153 180
133 154 180
134 154 181
134 154 180
134 154 181
134 154 181
134 154 180
133 154 181
133 153 180
132 153 180
134 154 180
134 155 181
134 154 181
134 154 180
134 154 180
134 155 181
134 154 180
134 154 181
133 153 180
133 154 180
134 154 181
134 154 180
134 154 181
133 154 180
134 154 180
133 154 180
133 153 180
134 154 181
134 154 180
133 153 180
134 154 181
133 153 180
133 154 181
134 154 181
134 154 180
132 152 179
134 154 181
133 154 181
134 154 181
134 154 180
134 154 181
133 154 181
134 154 180
132 153 180
133 154 180
133 153 180
132 152 179
134 154 180
134 154 181
134 154 181
133 153 180
132 153 179
133 153 180
133 154 180
133 154 181
133 153 180
134 154 181
133 154 181
134 154 181
135 155 181
135 155 181
133 153 180
133 153 180
133 154 181
133 153 180
134 154 181
133 154 180
133 153 180
134 154 180
133 154 180
135 155 181
133 153 180
133 154 180
132 152 179
132 153 180
132 153 180
132 153 180
133 153 179
133 153 180
133 154 180
134 154 180
133 153 180
133 153 180
134 154 181
133 154 181
134 154 180
132 152 179
133 153 180
132 153 180
135 155 181
133 154 180
132 153 180
134 154 181
133 153 180
133 154 181
133 154 181
132 153 180
132 153 180
134 154 181
133 153 180
132 152 179
133 153 180
134 154 181
133 153 180
133 154 181
132 152 179
133 154 181
133 153 180
133 153 180
133 153 180
133 154 181
133 154 181
133 154 181
133 154 181
133 154 181
134 154 180
132 153 180
133 153 180
133 154 180
132 153 180
133 154 181
134 154 180
132 153 179
134 154 180
133 154 181
134 154 181
133 153 180
133 153 180
133 154 181
134 154 181
134 154 181
134 154 181
133 153 180
133 153 180
134 154 180
133 154 181
134 154 180
133 153 180
133 154 180
133 154 181
134 154 181
133 154 181
134 154 181
134 154 181
134 154 181
133 154 180
133 153 180
133 154 181
133 154 181
134 154 180
134 154 181
134 154 180
133 153 180
133 153 180
133 154 180
133 153 180
134 154 180
131 152 179
134 154 180
134 154 181
133 154 181
134 154 181
133 154 181
133 154 181
134 154 181
133 154 181
134 154 181
133 153 180
133 154 181
133 154 180
133 154 180
133 154 181
134 154 180
134 154 180
133 154 180
134 154 181
132 153 180
133 154 180
133 154 181
134 154 181
134 154 181
134 154 181
134 154 181
134 154 180
133 154 181
133 154 180
134 154 181
133 154 180
134 154 180
134 154 181
133 154 180
134 154 181
133 154 180
133 154 180
133 153 180
134 154 181
134 154 181
133 153 180
134 154 181
133 154 181
134 154 181
132 153 180
134 154 181
134 154 181
133 154 181
134 154 181
134 154 181
133 153 180
133 154 181
134 154 181
133 154 181
133 154 181
134 154 181
134 154 181
134 154 181
134 154 180
134 154 180
134 154 181
134 154 181
133 154 180
133 153 180
135 155 181
134 154 180
134 154 181
134 154 181
134 154 181
134 154 181
134 154 180
134 154 181
133 153 180
134 154 181
134 154 181
133 154 181
134 154 181
134 154 180
134 154 180
133 154 181
133 154 181
134 154 181
134 154 181
133 154 181
134 154 181
134 154 180
135 155 181
133 154 181
134 154 181
134 154 181
134 154 181
133 154 181
134 154 181
134 154 181
133 154 181
134 154 181
133 154 181
133 154 181
134 154 180
134 154 181
133 154 181
134 154 180
133 154 181
133 154 181
133 154 181
134 154 181
134 154 181
132 153 181
133 154 181
134 154 180
133 154 181
133 154 181
134 154 181
134 154 181
134 154 181
133 154 181
134 154 181
134 154 180
134 155 181
134 154 181
134 154 181
134 154 181
133 154 181
134 154 181
134 154 181
135 155 181
132 153 180
135 154 180
134 154 181
134 154 181
133 154 180
133 154 181
133 154 181
135 155 181
133 153 180
134 154 181
134 154 181
134 154 181
134 154 181
134 154 181
133 154 181
134 154 181
133 154 180
133 154 181
134 154 181
134 154 181
133 154 180
133 154 181
134 154 181
134 154 181
134 154 181
134 154 181
133 154 181
134 154 181
133 154 181
133 154 181
134 154 181
134 154 181
132 153 181
133 154 181
134 154 181
134 154 181
133 154 181
134 154 181
134 154 181
134 154 181
135 155 181
134 154 181
133 154 181
134 154 181
134 154 181
133 154 181
134 154 181
133 154 181
134 154 181
134 154 181
133 154 181
133 154 181
134 154 181
134 154 181
133 154 181
134 154 180
135 155 181
133 154 181
134 154 181
134 154 181
133 153 180
134 154 181
134 154 181
135 155 181
135 155 181
134 154 181
135 155 181
134 154 181
133 154 181
133 154 181
135 155 181
134 154 180
134 154 181
134 154 181
134 154 181
133 154 181
135 155 180
134 154 181
134 154 181
134 154 181
133 154 181
134 154 181
134 154 181
134 154 181
134 155 181
134 154 181
134 154 181
133 154 181
135 155 181
133 154 181
134 154 181
134 154 180
134 154 181
134 154 181
134 155 181
133 154 181
134 154 180
133 154 181
134 154 181
134 154 181
135 155 181
135 155 181
134 154 181
133 154 181
134 154 181
134 154 181
133 154 181
132 153 180
134 154 181
134 154 181
134 154 181
133 154 181
133 154 181
133 154 181
134 154 181
134 154 181
133 154 181
134 154 180
133 154 181
133 154 180
134 154 181
134 154 181
134 154 181
134 154 180
133 153 180
133 154 180
133 153 180
134 154 181
132 153 180
134 154 181
133 153 180
134 154 181
133 153 180
132 153 180
134 154 181
133 154 180
132 153 180
134 154 181
132 153 180
134 154 180
133 154 181
133 153 180
133 153 180
133 154 181
134 154 181
134 154 181
133 153 180
133 153 180
133 154 181
134 154 181
134 154 181
134 154 181
133 153 180
132 153 180
132 153 180
134 154 180
132 153 179
133 153 180
134 154 181
134 154 181
134 154 181
134 154 181
132 153 180
133 153 180
133 154 180
134 154 180
134 154 181
133 154 180
133 154 181
134 154 180
133 154 181
133 153 180
134 154 181
134 154 180
133 153 180
133 154 180
133 153 180
133 153 180
132 153 180
134 154 180
133 154 181
133 153 179
133 154 180
133 154 180
132 153 180
134 154 181
132 153 180
133 153 180
131 151 179
132 153 180
133 154 180
133 153 180
134 154 181
134 154 180
134 154 181
134 154 181
133 153 180
133 153 180
133 154 180
134 154 181
133 154 180
134 154 181
134 154 180
134 154 180
133 153 180
133 153 180
134 154 181
133 153 180
133 154 181
132 153 180
134 154 180
132 153 180
133 153 180
134 154 181
133 154 180
134 154 180
132 153 180
133 153 180
133 154 180
133 153 180
132 153 180
134 154 181
133 154 181
132 153 180
133 154 180
132 152 179
133 154 181
134 154 180
135 155 181
134 154 180
133 154 180
134 154 181
133 154 180
133 154 181
135 155 181
133 154 181
133 154 180
133 154 180
133 154 180
134 154 181
132 152 179
132 152 179
133 154 181
133 153 179
133 154 181
133 153 180
133 154 181
134 154 181
134 154 181
133 154 181
132 153 179
134 154 180
133 154 180
134 154 181
133 154 180
132 153 180
132 153 180
133 154 181
134 154 181
133 153 180
134 154 181
133 153 179
133 154 181
134 154 180
134 154 181
134 154 181
134 154 181
134 154 181
134 154 181
132 153 180
133 153 179
134 154 180
133 154 180
132 153 180
134 154 181
133 154 181
133 154 180
134 154 181
133 154 180
134 154 180
134 154 181
134 155 181
133 154 180
133 153 180
134 154 181
134 154 181
133 153 180
134 154 180
133 154 181
134 154 181
133 153 180
132 153 180
134 154 180
132 154 181
133 153 180
134 154 181
133 154 180
134 154 181
133 154 181
134 154 181
133 154 180
133 154 181
133 154 181
134 154 181
133 154 181
134 154 181
133 154 181
134 154 181
133 153 180
133 153 180
133 154 180
133 154 181
134 154 181
133 154 181
134 154 180
133 154 181
134 154 181
134 154 181
134 154 181
133 154 181
133 154 181
133 153 180
134 154 181
134 154 181
134 154 181
134 154 180
133 154 181
134 154 181
134 155 181
134 154 181
135 154 180
134 154 180
134 154 181
133 153 180
134 154 181
134 155 181
133 154 181
134 154 181
133 153 180
133 154 181
133 154 181
134 154 181
134 154 181
133 154 181
134 154 181
133 154 181
134 154 181
135 155 181
133 154 180
133 154 181
133 154 181
135 155 181
134 154 181
133 154 181
134 154 181
133 154 180
133 154 181
133 154 181
134 154 181
133 154 181
134 154 180
134 154 181
134 154 181
132 153 181
134 154 181
134 154 181
133 154 181
134 155 181
133 154 181
134 154 181
134 154 181
134 154 181
134 154 181
134 154 181
133 154 181
133 154 181
133 154 181
134 154 181
134 154 181
133 154 181
133 154 181
134 154 181
135 155 181
134 155 181
134 154 181
132 153 180
133 153 180
134 154 181
133 154 180
133 154 180
133 154 181
134 154 181
133 154 181
133 154 181
134 154 181
133 154 180
133 154 181
133 154 180
133 154 181
134 154 181
133 154 181
135 155 181
134 154 181
134 154 181
134 154 181
133 154 181
134 154 180
134 154 181
133 154 181
133 154 181
134 154 181
133 154 181
135 155 181
135 155 181
134 154 180
133 154 181
133 154 181
134 154 181
134 154 181
134 154 181
134 154 181
134 154 181
133 154 181
135 155 181
134 154 180
135 155 181
133 154 181
134 154 181
134 154 181
133 154 181
135 155 181
134 154 181
134 154 181
134 154 181
133 154 181
134 154 181
133 154 180
134 154 181
134 154 181
133 154 181
133 154 181
134 154 181
134 154 181
134 154 181
134 154 181
133 154 181
135 155 181
134 154 181
134 154 180
134 154 181
133 154 181
134 154 181
133 154 181
135 155 181
134 154 181
134 154 181
134 154 180
133 154 181
134 154 181
134 154 181
133 154 181
132 153 181
133 154 180
133 154 181
133 154 181
134 154 181
134 154 181
134 154 181
134 154 181
134 155 181
134 154 181
134 154 181
134 154 181
134 154 180
133 154 181
134 154 181
134 154 181
134 154 181
135 155 181
134 154 181
133 154 181
133 154 180
134 154 181
134 154 181
134 154 181
134 154 181
133 154 181
134 154 181
134 154 181
134 154 181
134 154 181
133 154 181
134 154 181
133 154 181
133 154 181
133 154 181
134 154 181
133 154 180
135 155 181
135 155 181
134 154 181
135 155 181
134 154 181
134 154 181
134 154 181
134 154 181
134 154 181
134 154 181
134 154 181
134 154 181
135 155 181
133 154 181
135 155 181
134 154 181
134 154 181
134 154 181
133 154 181
133 153 180
133 154 181
134 154 180
133 153 180
133 153 180
133 153 180
133 154 181
133 154 181
133 154 181
133 154 180
133 153 180
134 154 180
133 154 180
134 154 180
134 154 180
133 154 180
134 154 181
134 154 181
133 153 180
133 154 181
134 154 181
133 153 180
134 154 181
133 154 181
133 153 179
133 153 180
134 154 180
133 154 180
134 154 181
134 154 181
133 153 180
134 154 180
133 154 181
133 153 180
133 154 181
133 153 179
134 154 180
133 154 181
133 154 180
133 153 180
133 153 180
132 152 179
134 154 181
134 154 181
133 154 181
134 154 180
133 153 180
134 154 181
134 154 181
133 154 180
132 153 180
133 153 180
133 154 180
134 154 180
134 154 180
134 154 181
134 154 181
133 153 180
134 154 180
133 153 179
134 154 180
134 154 180
133 153 180
134 154 181
133 153 179
133 154 181
133 154 180
135 155 181
133 153 180
134 155 181
133 154 180
133 154 181
134 154 181
133 154 180
133 153 180
134 154 180
134 155 181
133 154 181
133 154 181
132 153 180
134 154 181
134 154 181
133 153 180
134 154 180
133 153 180
133 153 180
134 154 180
132 153 179
134 154 181
133 154 180
133 153 180
132 153 180
133 154 181
134 154 180
134 154 181
133 154 181
133 154 180
134 154 181
133 154 180
133 154 181
133 154 181
134 154 181
133 153 180
132 153 180
133 153 179
134 154 180
134 154 180
133 153 180
133 153 180
133 154 181
133 153 180
133 154 180
134 154 181
133 153 179
133 154 180
135 155 181
133 154 181
134 154 181
134 154 181
133 154 181
134 154 180
133 154 180
133 154 181
133 154 180
133 153 180
133 154 181
133 153 180
134 154 181
134 154 181
133 153 180
134 154 181
133 154 181
133 154 181
133 154 181
134 154 181
132 153 180
134 154 180
134 154 181
133 154 180
133 154 180
134 155 181
132 153 181
133 154 181
133 154 180
132 152 179
134 154 181
134 154 181
133 154 180
134 154 181
133 153 180
134 154 181
134 154 181
133 153 180
134 154 181
133 154 180
131 152 179
133 153 180
134 154 181
134 154 181
133 154 180
133 154 180
134 155 181
132 153 180
134 154 181
132 153 180
134 154 181
134 154 181
133 154 181
133 153 180
133 154 180
134 154 181
133 153 180
135 155 181
133 153 180
134 154 180
134 154 181
134 154 181
133 153 180
134 154 181
133 154 180
134 154 181
134 154 181
134 154 181
133 154 181
133 154 181
134 154 180
134 154 180
135 155 181
134 154 181
133 154 181
133 154 181
133 154 181
133 154 181
133 154 181
134 154 181
134 155 181
134 154 180
134 154 181
133 154 181
133 153 180
133 154 181
134 154 180
133 154 180
134 154 181
133 154 181
133 154 181
134 154 181
133 153 179
133 154 181
134 154 181
133 153 180
133 154 181
134 154 181
133 154 181
134 154 180
132 153 180
135 155 181
134 154 181
134 154 181
133 154 181
134 154 181
133 154 180
134 155 181
134 154 181
134 154 181
133 153 180
133 153 180
133 154 180
134 154 181
134 154 181
133 154 181
134 155 181
133 154 181
133 154 181
134 154 181
134 154 181
134 155 181
133 154 181
133 154 180
134 154 180
133 154 181
134 154 181
134 154 181
134 154 181
134 154 181
134 154 181
134 154 181
134 154 180
133 153 180
133 154 181
134 154 181
133 154 181
134 154 181
133 153 180
134 155 181
134 154 181
135 155 180
134 154 181
133 154 180
133 154 181
134 154 181
133 153 180
134 154 181
134 154 180
134 154 181
133 154 181
134 154 181
134 154 181
133 154 181
133 154 180
134 154 181
134 154 181
134 154 181
134 154 181
134 154 181
133 154 181
134 154 181
133 154 181
134 154 181
134 154 181
134 154 181
134 155 181
134 154 180
134 154 181
134 154 180
133 154 180
133 154 181
135 155 181
134 154 181
134 154 181
134 154 181
134 155 181
134 154 181
135 155 181
134 155 181
134 154 181
134 154 181
134 154 181
134 155 181
134 154 181
135 155 181
133 154 181
133 154 181
134 154 181
134 154 181
133 154 181
133 154 181
134 154 181
134 154 181
133 153 180
135 155 181
134 154 181
133 154 181
134 154 181
134 154 181
133 154 181
134 154 180
134 154 181
135 155 181
135 155 181
133 154 181
133 154 181
133 154 181
134 154 181
134 154 181
134 154 181
133 154 181
134 154 180
134 154 181
134 154 181
134 154 181
133 154 181
134 154 181
134 154 181
134 154 181
133 154 181
134 154 181
133 154 181
134 154 181
134 154 181
133 154 181
133 154 181
134 154 181
134 154 181
133 154 181
133 154 181
133 154 181
134 154 181
134 154 181
133 154 181
134 154 181
134 154 181
134 154 181
133 154 181
134 154 181
133 154 181
134 154 181
134 154 181
133 154 181
134 154 181
134 154 181
134 154 181
133 154 181
134 154 181
134 154 181
133 154 181
134 154 181
135 155 181
133 154 181
133 154 181
133 154 181
134 154 181
134 154 181
134 154 181
133 154 181
134 154 181
133 154 181
134 154 181
133 153 180
133 154 181
133 154 181
134 154 181
133 154 181
133 154 181
134 154 181
135 155 181
133 154 181
133 154 181
134 154 181
133 154 181
134 154 181
134 154 181
135 155 181
134 154 181
134 154 180
134 154 181
134 155 181
134 154 181
134 154 181
133 154 180
134 154 181
134 154 180
133 153 180
134 154 181
134 154 181
134 154 181
134 154 180
133 154 181
134 154 181
134 154 180
135 155 181
133 154 181
133 153 180
133 154 180
134 154 181
133 153 180
134 154 181
133 153 180
133 154 180
134 154 181
133 153 179
133 153 180
133 154 181
133 154 180
134 154 180
133 154 181
132 152 180
133 154 181
132 152 179
135 155 181
133 154 180
134 154 181
134 154 181
134 154 181
133 154 180
133 153 180
133 154 181
133 153 180
133 154 180
133 153 180
133 154 181
134 154 181
132 154 181
133 153 180
134 154 181
133 153 180
134 154 181
133 154 180
132 153 180
133 153 180
133 153 180
133 154 180
133 153 180
133 154 180
133 153 180
133 154 180
133 154 181
133 154 180
133 154 181
133 153 179
133 154 181
134 154 180
132 153 180
134 154 181
133 154 180
134 154 180
134 154 180
133 153 180
133 154 181
133 154 180
134 154 181
133 154 181
133 154 181
134 154 180
133 153 180
134 154 181
133 153 180
133 154 180
133 154 181
133 153 180
134 154 181
134 154 181
133 154 180
132 153 180
133 153 180
133 153 180
133 154 181
133 153 180
133 154 181
133 154 181
133 153 180
134 154 181
134 154 181
133 154 180
133 154 181
133 153 180
132 153 180
133 153 180
133 153 180
134 154 181
134 154 181
134 154 181
133 153 180
134 154 180
134 154 180
132 153 180
133 153 180
133 153 180
134 154 181
132 153 179
134 154 181
134 154 181
134 154 180
133 153 180
133 154 181
133 153 180
133 154 181
132 153 180
134 154 180
133 153 180
134 154 181
133 154 181
133 153 180
133 154 181
134 154 181
135 155 181
132 153 179
134 154 180
133 154 180
132 152 179
133 154 181
133 153 180
133 154 181
133 154 181
133 154 180
133 154 180
133 153 180
134 154 181
133 153 180
133 154 181
134 154 181
134 154 181
133 154 180
132 153 180
133 154 181
134 154 181
131 152 180
134 154 181
134 154 181
133 153 180
135 155 181
133 153 180
132 153 180
134 154 181
134 154 181
134 154 181
132 153 180
134 154 180
133 153 180
133 154 181
133 153 180
133 154 181
133 154 181
133 153 180
134 154 181
134 154 181
134 154 180
133 154 180
132 153 180
131 152 179
134 154 181
134 154 181
133 154 181
134 155 181
134 154 181
134 154 181
134 154 181
134 154 181
133 154 181
133 154 181
135 155 181
133 154 181
133 154 181
134 154 180
134 154 181
134 154 181
133 154 181
134 154 181
134 154 181
134 154 181
134 154 181
133 154 181
134 154 181
134 154 181
134 154 180
134 154 181
133 154 181
133 154 181
134 154 181
134 155 181
134 154 181
134 154 181
133 154 180
134 154 181
132 153 180
134 154 181
134 154 181
133 154 181
133 154 181
134 154 181
134 154 181
132 153 179
133 154 181
134 154 180
134 154 181
134 154 181
135 155 181
134 154 181
134 154 181
134 154 181
134 155 181
133 154 181
134 154 181
133 154 181
134 155 181
134 154 181
133 154 181
134 154 181
135 155 181
134 154 181
133 154 181
134 154 181
134 154 181
134 154 181
134 154 181
133 153 180
134 154 181
134 154 181
134 154 180
133 154 181
135 155 181
134 154 180
133 154 181
133 154 181
134 154 181
133 154 181
134 154 181
134 154 181
134 154 180
133 153 180
133 154 180
134 154 181
134 154 181
133 154 181
134 154 181
134 154 180
133 154 181
134 154 181
134 154 181
133 154 181
133 154 181
134 154 181
134 154 181
134 154 181
134 154 181
133 154 181
134 154 181
133 154 181
134 154 181
133 154 181
134 154 181
133 153 180
133 154 181
133 154 181
134 154 181
133 154 181
135 155 181
134 154 181
135 155 181
133 154 180
134 154 181
134 154 181
134 154 181
134 154 181
133 154 181
134 154 180
134 154 181
134 154 181
133 154 180
134 154 181
133 154 181
133 154 181
133 154 181
133 154 180
134 154 181
133 154 181
132 153 180
134 154 181
134 154 181
134 154 180
134 154 181
134 154 181
134 154 181
134 154 181
134 154 181
134 154 181
135 155 181
134 154 181
133 154 181
133 154 181
134 154 181
134 154 181
134 154 181
133 154 181
133 154 180
134 154 181
134 154 181
133 154 181
134 154 181
135 155 181
133 154 181
134 154 181
133 154 181
133 154 181
133 154 181
134 154 181
134 154 181
134 154 181
133 154 181
134 154 181
134 154 181
133 154 181
133 154 181
134 154 181
134 154 181
134 154 181
134 154 181
134 154 181
134 154 181
133 154 181
133 153 180
134 155 181
134 154 181
134 154 181
134 154 180
133 154 181
134 154 181
134 154 181
134 154 181
134 154 181
134 154 181
134 154 181
133 154 181
134 154 181
133 154 181
134 154 181
134 154 181
133 154 181
134 154 181
133 153 180
133 154 181
134 154 181
134 154 181
134 154 180
135 155 181
133 154 181
134 154 181
134 154 181
134 154 181
135 155 181
134 154 181
134 154 181
134 154 181
134 154 181
134 154 181
133 154 181
135 155 181
133 154 181
133 154 180
134 154 181
133 154 181
134 154 181
133 154 181
134 154 181
134 154 181
133 154 181
135 155 181
134 154 181
134 154 180
134 154 181
133 154 181
133 154 181
134 154 181
133 154 181
134 154 181
133 154 180
134 154 181
134 154 181
134 154 181
134 154 181
134 154 181
135 155 181
134 154 181
133 153 180
134 154 181
132 153 180
134 154 181
133 154 180
133 154 181
133 154 181
134 154 181
133 154 181
134 154 181
133 154 180
133 154 181
134 154 181
134 154 181
133 153 179
133 154 181
134 154 181
133 153 180
133 154 181
134 154 181
134 154 181
134 154 181
132 153 181
134 154 180
134 154 180
133 154 180
133 154 181
133 154 180
134 154 181
134 154 181
134 154 180
133 153 180
133 154 181
133 153 180
133 154 181
133 153 180
132 153 180
132 153 180
133 153 180
133 154 180
133 154 181
134 154 180
134 154 181
133 154 181
134 154 181
134 154 180
133 154 181
133 154 181
135 155 181
132 153 179
133 153 180
132 153 180
133 154 180
133 153 180
133 154 181
134 154 181
133 154 180
131 152 179
132 153 180
133 153 180
133 153 179
134 154 181
133 154 181
133 153 180
134 154 181
133 154 181
134 154 181
134 154 180
134 154 181
133 153 180
133 153 180
134 154 181
133 153 180
134 154 181
134 154 180
134 154 180
133 153 180
134 154 180
134 154 181
133 153 180
133 153 180
133 153 180
135 155 181
133 154 181
133 153 180
133 153 180
134 154 181
134 154 181
133 153 180
134 154 180
133 153 180
133 154 181
134 154 181
133 153 180
133 154 181
133 154 181
133 153 179
134 154 181
135 155 181
133 154 181
133 154 181
133 154 180
134 154 180
133 154 181
132 153 179
133 153 180
134 154 181
134 154 180
134 154 181
133 153 180
134 154 181
133 154 181
133 154 181
134 154 180
133 154 180
133 153 180
133 153 180
133 154 180
134 154 180
133 153 180
133 153 180
134 154 181
134 154 181
132 152 179
134 154 181
133 154 180
134 154 181
134 154 181
134 154 181
134 154 180
134 154 181
133 153 180
134 154 181
134 154 181
132 153 179
134 154 181
134 154 181
133 154 180
133 153 180
134 154 181
134 154 180
133 154 180
134 155 181
134 155 181
133 154 181
133 154 181
133 153 180
134 154 180
133 154 181
133 153 180
133 153 180
133 154 181
133 154 180
134 154 181
133 154 180
133 154 181
134 154 180
134 154 181
134 154 181
134 154 181
133 153 180
134 154 181
134 154 181
134 154 181
133 154 181
134 154 180
134 154 181
133 154 181
133 154 181
133 154 181
134 154 181
133 153 180
133 154 181
134 154 181
133 154 180
134 154 181
133 154 180
133 154 181
134 154 181
133 154 181
134 154 181
135 155 181
133 154 181
134 154 181
134 154 180
134 154 181
135 155 181
133 154 181
133 154 181
134 154 181
134 154 181
133 154 181
133 154 181
133 154 181
134 154 181
134 154 181
133 154 181
134 154 181
134 154 181
134 154 181
134 154 180
133 154 180
134 154 181
133 154 180
134 154 181
134 154 181
134 154 181
133 153 180
134 154 181
134 154 181
132 153 181
134 154 181
134 154 181
133 154 181
132 153 180
133 154 181
133 153 180
134 154 181
134 154 181
133 154 181
134 154 181
133 154 181
134 154 181
133 154 181
134 154 181
134 154 181
133 154 180
134 155 181
133 154 181
134 154 180
133 154 180
134 154 181
133 154 181
134 154 181
133 154 181
134 154 181
133 154 181
134 154 181
134 154 181
134 154 181
133 154 181
134 154 181
133 154 181
133 154 181
134 154 181
133 154 181
133 154 181
134 154 181
134 154 181
133 154 181
134 154 181
133 154 180
134 154 181
133 153 180
133 154 181
134 154 181
134 154 181
134 155 181
134 154 181
134 154 181
133 154 181
134 154 181
134 154 181
135 155 181
134 154 181
134 154 181
133 154 181
133 154 181
133 154 181
133 154 181
134 154 180
134 154 181
134 154 180
133 154 181
134 154 181
134 154 181
134 154 181
134 154 181
134 154 181
134 154 181
133 154 180
133 154 181
134 154 181
134 154 181
133 154 181
133 154 181
134 154 180
134 154 181
133 154 181
133 154 181
134 154 181
133 154 181
133 154 181
133 154 181
134 154 181
133 154 181
133 154 181
134 155 181
133 154 181
134 154 181
134 154 181
134 154 180
133 154 181
134 154 181
134 154 181
132 153 181
134 154 181
133 154 181
134 154 181
134 154 181
134 155 181
133 154 181
133 154 181
134 154 181
134 154 181
134 154 181
134 154 181
134 154 181
134 154 181
133 154 181
134 154 181
133 154 181
133 154 181
134 154 181
134 154 181
133 154 181
133 154 181
133 154 181
134 154 181
134 154 181
134 154 181
134 154 181
133 154 180
134 154 181
134 154 181
134 154 181
134 154 181
133 154 181
134 154 181
132 154 181
134 154 181
133 154 181
133 153 180
134 154 181
133 154 181
134 154 181
134 155 181
134 154 181
133 154 181
134 154 181
134 154 181
134 154 181
134 154 181
135 155 181
134 154 181
134 154 181
133 154 181
134 154 181
133 154 181
134 154 181
133 154 181
134 154 181
134 154 181
134 154 181
134 154 181
134 155 181
134 154 181
134 154 181
133 153 180
134 154 181
134 154 181
134 154 181
133 154 181
134 154 181
134 154 181
132 153 181
135 155 181
133 154 181
133 154 181
135 155 181
134 154 181
133 154 180
134 154 181
133 154 181
133 154 181
134 154 181
135 155 181
134 154 181
134 154 181
134 154 181
134 154 181
133 154 181
134 154 181
133 154 181
133 154 181
134 154 181
133 154 181
134 154 180
134 154 181
133 154 181
132 153 180
134 154 181
134 154 181
134 154 181
133 154 180
134 154 181
134 154 180
133 154 180
133 154 180
133 154 181
134 154 181
134 154 181
133 153 180
134 154 181
134 154 180
133 154 181
133 154 180
133 154 181
132 152 180
134 155 181
133 154 181
134 154 181
133 153 180
134 154 181
134 154 181
133 154 181
134 154 181
133 154 181
134 154 181
133 154 180
134 154 181
134 154 181
134 154 181
134 154 180
133 154 181
134 154 181
133 154 181
133 154 180
133 154 181
132 153 180
133 154 180
134 154 181
133 153 180
132 153 180
133 154 181
133 154 181
134 154 181
134 154 181
134 154 181
134 154 181
134 154 181
133 153 180
133 154 181
134 154 181
134 154 180
133 154 180
133 154 180
134 154 180
133 154 181
134 154 181
133 154 181
134 154 180
133 153 180
133 154 181
133 153 180
134 154 181
133 153 180
133 153 180
132 153 180
134 154 180
133 154 180
133 154 181
134 154 180
133 154 181
132 153 181
133 154 180
133 154 180
134 154 181
133 154 181
134 154 181
133 153 180
134 154 180
132 153 180
132 153 180
133 154 180
133 153 180
134 154 180
134 154 181
133 154 180
134 155 181
134 154 181
134 154 180
134 154 181
133 153 180
134 154 181
134 154 180
135 154 180
133 153 180
134 154 181
133 153 180
134 154 181
134 154 180
133 153 180
133 154 180
134 154 181
133 154 180
132 153 180
134 154 180
132 153 180
133 154 180
132 152 179
134 154 181
133 153 180
135 154 180
134 154 181
132 153 180
134 154 181
134 154 181
133 153 180
134 154 181
134 154 180
134 154 181
133 153 180
133 153 180
134 154 181
135 155 180
135 155 181
134 154 181
133 154 181
134 154 181
133 154 180
132 153 180
133 154 181
133 154 180
132 153 180
135 155 181
135 155 181
133 154 181
133 154 181
134 154 181
134 154 181
134 154 180
134 154 180
133 153 180
134 154 181
132 153 179
134 155 181
132 152 179
134 154 180
133 153 180
134 154 181
132 152 179
134 154 181
133 154 181
134 154 180
134 154 180
134 154 180
133 154 181
134 154 180
133 154 181
133 154 181
133 154 181
133 153 180
134 154 181
133 153 180
133 154 181
134 154 181
134 154 181
134 154 181
133 154 180
133 154 181
134 154 181
134 154 180
134 154 181
133 154 181
133 154 181
135 155 181
134 154 181
134 154 181
134 153 180
135 155 181
134 154 181
135 155 181
134 154 180
133 154 181
133 154 180
133 154 180
134 154 181
133 154 180
134 154 181
134 154 181
133 154 181
134 154 181
134 154 180
133 154 181
134 155 181
134 154 181
134 154 180
134 154 181
134 154 181
134 154 181
134 154 181
133 153 180
134 154 181
134 154 181
134 154 180
134 154 181
134 154 181
134 154 181
134 154 181
134 154 181
134 154 181
133 154 181
134 154 181
133 154 181
133 154 181
134 154 181
134 154 180
133 154 181
133 154 181
133 154 181
134 154 181
134 154 181
133 154 181
133 154 181
134 154 181
134 154 181
134 154 181
133 154 181
133 154 181
133 154 181
134 154 181
133 154 181
134 154 181
134 154 181
133 154 181
134 155 181
133 154 180
133 154 180
133 153 180
134 154 181
134 154 181
134 154 181
134 154 181
134 154 181
133 154 181
134 154 181
133 154 181
133 154 181
134 154 181
134 154 181
133 154 180
133 154 181
133 154 181
134 154 181
133 154 181
133 154 180
133 154 181
134 154 181
134 154 181
133 154 181
134 154 181
135 155 181
134 154 181
134 154 181
134 154 181
133 154 181
134 154 181
134 154 181
133 154 181
133 154 180
133 154 181
133 154 181
133 153 180
133 153 180
133 154 180
133 154 181
133 154 181
134 154 181
134 154 181
134 154 180
133 154 181
134 154 181
134 154 181
134 154 181
133 154 181
134 154 181
133 154 181
134 154 181
134 154 181
133 153 180
133 154 181
134 154 181
133 153 180
134 154 181
134 154 181
134 154 181
133 154 181
134 154 181
134 154 181
133 153 180
134 154 181
134 154 181
133 154 181
133 154 181
133 154 181
134 154 181
133 154 181
134 154 181
134 154 181
133 154 181
134 154 181
134 154 181
134 154 181
133 154 181
134 154 181
133 154 181
134 154 181
134 154 181
133 154 181
133 153 180
134 154 181
134 154 181
135 155 181
134 155 181
133 153 180
134 154 181
134 154 181
134 154 181
134 154 181
134 154 181
133 154 181
133 154 181
134 154 181
134 154 181
135 155 181
134 154 181
134 154 181
134 154 181
133 154 181
134 154 181
133 154 181
133 154 181
133 154 181
133 154 181
133 154 181
133 154 181
134 154 181
134 154 181
134 154 180
133 154 181
135 155 181
133 154 180
134 154 181
134 154 181
133 154 181
134 154 181
134 154 181
134 154 181
134 154 181
133 154 181
133 154 181
134 154 181
134 154 181
135 155 181
134 154 180
135 155 181
134 155 181
134 154 181
133 154 181
133 154 181
133 154 181
134 154 181
133 154 181
134 154 181
134 154 181
134 154 181
134 154 181
134 154 181
134 154 181
134 154 181
134 154 181
134 154 181
133 154 181
133 154 181
134 154 181
134 154 181
134 154 181
134 155 181
134 154 181
133 154 181
134 154 181
134 154 181
134 154 181
134 154 181
133 154 181
133 154 180
133 154 181
134 154 181
133 154 181
133 154 181
133 154 181
133 154 181
133 154 181
133 154 181
134 154 181
134 154 181
134 155 181
133 153 180
132 153 180
134 154 180
133 153 180
134 154 181
133 154 181
134 154 181
133 154 181
133 154 181
134 154 181
134 154 181
133 154 181
135 155 181
133 154 181
133 153 180
133 154 181
132 153 180
134 154 181
134 154 181
133 153 180
132 152 179
134 154 181
133 154 181
133 154 180
135 155 181
134 154 181
134 154 180
134 154 181
134 154 180
133 154 181
133 153 180
134 154 181
134 154 180
133 153 179
134 154 180
134 154 181
134 154 181
132 153 180
132 153 181
133 154 180
134 154 181
133 153 180
134 154 181
134 154 181
134 154 181
134 154 181
133 154 181
133 154 180
134 154 180
132 152 178
134 154 181
133 154 181
134 154 181
133 153 180
134 154 181
133 154 181
134 154 181
132 153 179
134 155 181
133 154 181
134 154 181
133 154 181
133 153 180
134 154 181
133 154 181
134 154 180
133 154 181
133 154 180
133 154 180
134 154 181
132 152 179
133 153 180
133 154 181
135 155 181
134 154 181
133 154 180
133 153 179
132 153 180
132 153 180
133 153 180
133 154 180
134 154 181
134 154 181
134 154 181
134 154 181
134 154 181
134 154 180
134 154 181
134 154 181
133 154 181
133 154 181
134 154 181
134 154 181
134 154 181
133 153 180
134 154 181
133 153 180
134 154 181
133 154 181
133 154 180
133 154 180
134 154 181
133 153 180
134 154 181
134 154 181
134 154 181
132 153 181
134 154 181
134 154 181
133 154 180
133 154 181
133 153 180
133 153 180
133 154 181
133 153 180
133 153 180
133 154 181
133 154 181
134 154 181
134 154 181
133 153 180
134 155 181
134 154 181
134 154 180
134 154 181
134 154 181
134 154 181
134 154 180
133 154 181
133 154 181
133 153 180
133 153 180
134 154 181
134 154 180
134 154 181
134 155 181
134 154 181
133 154 180
133 154 181
133 153 180
132 153 180
134 154 181
133 154 180
135 155 181
133 154 180
133 154 181
135 155 181
133 154 181
134 155 181
132 152 179
134 154 181
133 154 180
133 154 181
134 154 181
134 154 180
133 154 181
134 154 181
134 154 181
134 155 181
134 154 181
133 154 181
134 154 181
133 153 180
133 154 181
133 154 181
134 154 181
134 154 181
133 153 180
133 154 181
133 154 181
134 154 181
133 154 180
133 153 180
133 153 180
134 154 181
134 154 181
133 154 181
132 153 180
133 154 181
134 154 181
134 154 181
133 154 181
134 154 181
133 154 181
134 154 181
134 154 180
134 154 181
135 155 181
134 154 181
132 153 180
134 154 181
134 154 181
134 154 181
134 154 181
134 154 181
134 154 181
133 154 181
134 154 180
134 154 181
133 154 181
135 155 180
133 154 181
133 154 181
134 154 181
133 154 180
134 154 181
133 154 180
134 154 181
133 153 180
133 154 181
133 154 181
134 154 181
133 154 181
134 154 180
133 154 181
133 154 181
133 154 180
135 155 181
134 154 181
133 154 180
134 154 181
134 154 181
134 154 181
134 154 181
134 154 181
134 154 181
134 154 181
133 154 181
133 154 181
133 154 181
134 154 181
133 154 181
134 154 181
134 154 181
133 154 181
134 154 181
134 154 181
134 154 181
134 154 181
134 154 181
133 154 181
134 154 181
134 154 181
134 154 181
134 154 181
133 154 180
133 154 181
134 154 181
133 154 181
133 154 181
134 154 181
134 154 181
134 154 181
134 154 181
134 154 180
135 155 181
133 154 181
134 154 180
132 153 180
134 154 181
133 154 181
133 154 181
133 154 181
132 153 181
134 154 181
133 154 181
134 154 181
134 154 181
134 154 181
134 154 180
134 154 181
135 155 181
134 154 181
133 154 181
134 154 181
134 154 181
134 154 181
134 154 181
134 154 181
133 154 180
135 155 181
135 155 181
134 154 181
133 154 181
133 154 181
134 154 181
133 154 181
135 155 181
134 154 181
133 154 181
134 154 181
135 155 181
133 154 181
134 154 181
133 154 181
133 154 180
133 154 181
134 155 181
134 154 181
134 154 181
134 154 181
133 154 181
134 154 181
134 154 181
134 154 181
134 154 181
133 154 181
134 154 181
133 154 181
134 154 181
135 155 181
133 154 180
134 154 181
134 154 181
134 154 181
134 154 181
133 154 181
133 153 180
133 154 181
134 154 181
134 154 181
134 154 181
134 154 181
134 154 181
134 154 181
133 154 181
134 154 181
134 154 181
133 154 181
133 154 181
135 155 181
133 154 181
134 154 181
134 154 181
134 154 181
133 154 181
134 154 181
134 154 181
134 154 181
134 154 181
134 154 181
133 154 181
134 154 181
134 154 181
133 154 181
134 154 181
134 154 181
134 154 181
133 154 181
133 154 181
133 154 181
134 154 181
134 154 181
134 154 181
133 154 181
133 154 181
135 155 181
134 154 181
134 154 181
134 154 180
134 154 181
134 154 181
134 154 181
134 154 181
135 155 181
133 154 181
134 154 181
134 154 181
134 154 181
134 154 181
134 154 181
133 153 180
134 154 181
133 154 181
134 154 181
133 154 181
133 154 181
134 154 181
133 154 181
134 154 181
134 155 181
133 154 181
133 154 181
133 154 181
134 154 181
134 154 181
134 154 181
134 154 181
135 155 181
134 154 181
134 154 181
133 154 180
133 154 181
133 154 180
133 154 181
132 152 179
133 154 181
133 153 180
133 154 180
134 154 181
134 154 181
133 153 180
134 154 181
135 155 181
134 154 181
134 154 181
133 154 181
134 154 181
133 154 181
133 153 180
134 154 181
134 154 181
133 153 180
134 154 181
134 154 181
133 154 180
135 155 181
134 154 181
134 154 181
133 153 180
135 155 181
134 154 181
133 154 181
134 154 181
133 153 180
134 154 180
134 154 181
134 154 180
134 154 180
134 154 180
133 154 181
133 154 181
133 154 181
133 154 181
134 154 180
134 154 181
134 155 181
133 154 181
133 153 180
133 153 180
133 154 181
134 154 181
134 154 181
133 154 180
133 154 180
134 154 181
133 154 181
134 155 181
133 154 181
134 154 181
133 154 181
133 154 181
133 154 180
133 153 180
133 154 181
134 154 180
132 152 179
133 154 181
134 154 181
134 154 181
132 153 180
134 154 180
133 154 181
133 153 180
133 153 180
132 152 179
133 153 180
134 154 181
133 154 180
134 154 180
135 155 181
134 154 181
135 155 181
133 154 181
134 154 181
134 154 180
134 154 181
134 154 181
134 154 181
134 154 181
134 154 181
134 154 181
134 154 181
134 154 181
133 154 181
133 154 180
132 153 180
133 154 181
133 154 180
134 154 180
134 154 180
133 154 181
133 154 181
133 153 180
134 154 180
133 154 180
134 154 181
134 154 181
132 153 180
133 154 180
134 154 181
132 153 180
134 154 181
134 154 181
134 154 181
133 154 180
133 153 180
133 153 180
133 154 181
132 153 180
134 154 181
133 153 180
134 154 181
133 153 180
133 154 181
135 155 181
134 154 180
134 154 181
133 153 180
133 153 180
133 154 181
134 154 181
132 153 180
133 154 180
133 154 181
133 154 181
134 154 181
133 154 180
133 154 180
134 154 181
134 154 181
134 154 181
134 154 181
134 154 180
133 153 180
133 154 181
133 153 180
134 154 181
134 154 181
134 154 181
133 153 180
133 154 181
134 154 181
133 154 181
134 154 181
134 154 181
134 154 181
134 154 181
133 153 180
133 154 180
133 153 180
134 154 181
134 154 181
133 154 181
133 153 180
134 154 180
133 154 181
133 154 181
133 154 181
133 154 181
134 154 181
134 154 181
133 154 180
133 153 179
133 154 180
133 154 181
134 154 181
134 154 181
134 154 181
134 154 181
133 154 181
134 154 181
135 155 181
133 154 181
133 154 180
134 154 181
133 154 180
134 154 181
133 153 180
134 154 181
134 154 181
133 153 180
134 154 181
133 153 180
133 154 181
134 154 180
132 153 180
133 154 181
133 153 180
133 154 181
133 154 181
134 154 181
133 154 180
133 154 181
133 154 181
134 154 181
134 154 181
134 154 181
133 153 180
134 154 181
133 154 181
133 154 181
134 154 181
134 154 181
134 154 181
134 154 181
134 154 181
134 154 181
133 153 180
134 154 181
133 154 181
134 154 181
134 154 181
134 154 181
134 154 181
134 154 181
134 154 181
134 154 181
134 154 181
134 154 181
133 154 181
134 154 181
134 154 181
134 154 181
134 154 181
134 154 181
134 154 181
134 154 181
133 154 181
134 154 181
134 154 181
134 154 181
133 154 181
134 154 181
134 154 181
134 154 181
133 154 181
135 155 181
133 154 181
133 153 180
134 154 181
134 154 181
134 154 181
134 154 181
133 153 180
134 154 181
134 154 181
134 154 181
133 154 181
134 154 181
133 154 181
134 154 181
134 154 181
133 154 181
134 154 181
133 154 180
133 154 180
134 154 181
134 154 181
134 154 181
134 154 181
132 153 180
133 154 181
134 154 181
134 154 181
135 155 181
134 154 181
134 154 181
134 154 181
134 154 181
134 154 181
134 154 180
134 154 181
134 154 181
134 154 181
133 154 181
134 154 181
134 154 181
134 154 181
134 154 181
134 154 181
134 154 181
134 154 181
133 154 181
134 154 181
133 154 181
133 154 181
134 154 181
133 154 181
133 154 181
133 154 181
133 154 181
133 154 180
135 155 181
134 154 181
133 154 181
134 154 181
133 154 181
134 154 181
133 154 181
134 154 181
133 154 181
133 154 181
134 154 181
134 154 181
134 154 181
133 154 181
133 154 181
134 154 181
133 154 181
133 154 181
134 154 181
135 155 181
134 154 181
134 154 181
133 154 180
134 154 181
133 154 181
135 155 181
133 154 181
134 154 181
134 154 181
133 154 181
134 154 181
134 154 181
134 154 181
134 154 181
133 154 180
134 155 181
134 155 181
134 154 181
133 154 181
134 154 181
134 154 181
134 154 181
134 154 181
133 154 181
134 154 181
134 154 181
134 154 181
135 155 181
134 154 181
134 154 181
134 154 180
134 154 181
134 154 181
134 154 181
134 154 181
133 153 180
134 154 181
134 154 181
134 154 181
133 154 181
133 154 181
134 154 181
134 154 181
133 154 181
133 154 181
134 154 181
133 154 181
134 155 181
133 154 181
134 154 181
134 154 181
135 155 181
133 154 181
134 154 181
134 154 181
133 154 181
134 155 181
134 154 181
132 153 180
134 154 181
133 154 180
134 154 181
133 154 181
133 154 181
133 154 181
134 154 181
134 154 181
134 154 181
134 155 181
134 154 181
134 154 181
133 154 181
134 155 181
134 154 181
134 154 181
133 154 181
133 154 181
133 153 180
133 153 180
135 155 181
134 154 181
134 154 181
134 154 180
133 154 180
134 154 180
134 154 181
133 154 181
133 154 181
133 154 181
134 154 181
134 154 180
134 155 181
133 154 181
134 154 181
134 154 181
135 155 181
133 154 181
133 153 180
134 154 181
133 154 180
134 154 181
133 153 180
134 154 181
133 154 180
134 154 180
134 154 180
134 154 180
133 153 180
134 154 181
133 154 181
134 154 181
134 154 181
133 153 179
133 154 181
134 155 181
134 154 181
133 154 180
134 154 181
134 154 181
133 154 180
132 152 179
134 154 181
134 154 181
134 154 181
133 154 181
133 153 179
134 154 181
133 153 179
133 153 180
132 153 180
133 154 181
134 154 180
134 154 181
133 154 180
133 154 181
133 154 181
133 154 181
134 154 181
132 153 179
134 154 181
134 154 181
134 154 181
133 154 181
133 154 180
133 153 179
134 154 181
133 154 181
133 153 180
134 154 181
133 154 180
133 154 181
133 153 180
133 154 181
133 154 180
133 154 181
134 154 181
135 155 181
133 154 180
134 154 181
133 154 181
133 154 180
133 153 180
133 154 180
134 154 181
134 154 181
133 154 181
135 155 181
133 154 181
133 154 181
133 153 180
133 153 179
133 154 181
134 154 181
133 153 180
134 154 180
134 154 181
133 153 179
133 153 180
132 153 180
133 154 180
134 154 181
133 154 180
133 153 180
133 154 181
133 154 181
134 154 181
134 154 181
133 154 181
134 154 181
134 154 181
133 154 180
134 154 181
133 153 180
134 154 180
134 154 180
135 155 181
133 154 181
133 154 180
135 155 181
133 153 180
133 154 181
134 154 181
133 154 181
133 154 181
133 153 180
133 153 180
133 154 180
133 154 180
134 154 181
134 154 181
134 154 181
134 154 181
133 154 180
133 154 181
133 154 181
133 154 180
134 154 181
134 154 180
134 154 181
134 154 181
135 155 181
133 154 180
134 154 181
135 155 181
134 154 181
134 154 181
132 153 180
134 154 181
134 154 181
133 154 181
133 154 181
134 154 181
133 154 181
133 154 180
133 154 181
133 154 180
134 154 181
133 154 181
135 155 181
133 154 180
134 154 181
134 154 181
134 154 181
133 153 180
133 153 180
134 154 181
133 154 181
134 154 181
133 154 181
133 154 181
133 154 181
134 153 179
134 154 180
134 154 181
134 154 181
134 154 181
133 153 180
134 154 181
133 153 180
134 154 181
134 154 180
133 153 180
134 154 180
134 154 181
134 154 181
134 154 181
134 154 181
133 154 181
133 153 180
134 154 181
133 154 181
134 154 181
134 154 180
132 152 179
134 154 181
133 154 181
134 154 181
133 153 180
133 154 181
134 154 181
133 153 180
134 154 181
134 154 181
133 153 180
134 154 181
133 154 181
134 154 181
133 154 181
133 154 181
134 154 180
134 154 181
134 154 181
133 154 180
134 154 181
133 153 180
132 153 180
134 154 180
134 154 181
135 155 181
134 154 181
134 154 181
133 154 181
134 154 181
134 154 181
133 154 181
134 154 181
134 154 181
133 154 180
134 154 180
134 154 181
133 154 181
134 154 180
135 155 181
135 155 181
133 154 181
134 154 181
134 154 181
134 154 181
133 154 180
134 154 180
133 154 181
133 154 181
134 154 181
133 153 180
134 154 181
135 155 181
134 154 181
134 154 181
134 154 181
134 154 181
134 154 181
134 154 181
134 154 181
134 154 181
134 154 181
134 154 181
133 153 180
134 154 180
134 154 181
134 154 181
134 154 181
133 154 181
135 155 181
134 154 180
133 154 181
133 154 181
133 154 181
134 154 181
133 154 181
133 154 181
134 154 181
134 154 181
134 154 181
134 154 181
133 154 181
133 154 181
133 153 180
133 154 181
133 154 181
135 155 181
133 154 181
133 154 181
134 154 181
133 154 181
134 154 181
134 154 181
134 154 181
133 154 181
134 154 181
134 155 181
133 154 180
133 154 181
134 154 181
134 154 181
133 154 181
133 154 181
134 154 181
133 154 181
135 155 181
134 155 181
134 154 181
134 154 181
135 155 181
134 154 181
133 154 181
133 154 181
135 155 181
134 154 181
133 154 181
134 154 181
133 154 181
134 154 181
133 154 181
134 154 180
134 154 181
134 154 181
134 154 181
135 155 181
133 154 181
134 154 181
134 154 181
134 154 181
134 154 181
133 154 180
134 154 181
134 154 181
134 154 181
134 154 181
135 155 181
133 154 181
135 155 181
133 154 181
134 154 181
135 155 181
135 155 181
133 154 181
134 154 181
133 154 181
133 153 180
134 154 181
134 154 181
133 154 181
134 154 181
133 154 181
134 154 181
133 154 181
134 154 181
134 154 181
134 154 181
134 154 181
133 154 181
134 154 181
133 154 181
134 154 181
134 154 181
133 154 181
134 154 181
133 154 181
134 154 181
134 154 180
135 155 181
134 154 181
134 154 181
133 154 181
134 154 181
135 155 181
133 154 181
134 154 181
134 154 181
134 154 181
134 154 181
134 154 181
134 154 181
135 155 181
133 154 181
133 154 181
133 154 181
133 154 180
134 154 181
134 154 181
134 154 181
134 154 181
134 154 181
133 154 181
134 154 181
134 154 181
134 154 180
133 154 181
134 154 181
134 155 181
134 154 181
134 154 181
133 154 181
134 154 181
133 154 181
134 154 181
133 154 181
134 154 181
133 154 181
134 154 181
133 154 181
135 155 181
134 154 181
133 154 180
134 154 181
134 155 181
133 153 180
133 154 180
133 154 181
133 154 181
134 154 181
133 154 180
133 153 180
134 154 181
133 154 181
134 154 180
133 154 181
133 154 180
134 154 181
134 154 181
133 153 180
134 154 181
133 153 180
133 154 181
133 154 181
133 154 181
134 154 181
132 153 180
134 154 181
133 154 181
134 154 181
135 155 181
134 154 181
133 153 180
133 154 180
134 154 180
134 154 181
134 154 180
134 154 181
134 154 181
133 153 180
133 154 181
134 154 181
135 155 181
134 154 180
133 153 180
133 153 180
134 154 180
133 154 181
134 154 181
133 154 180
134 154 181
133 154 181
133 153 180
134 154 181
134 154 181
133 154 181
133 154 181
133 154 181
134 154 181
134 154 181
134 154 181
133 154 181
134 154 181
134 154 180
134 154 181
133 154 181
133 154 181
133 154 181
134 154 181
133 154 180
131 152 179
133 153 179
133 153 180
133 154 181
134 154 181
133 154 181
134 154 181
134 154 181
134 154 181
134 154 181
134 154 181
134 154 181
134 154 180
133 154 181
133 154 180
133 154 180
134 154 180
134 154 181
133 154 181
134 154 180
134 154 180
133 154 180
134 154 181
134 154 180
133 154 180
133 153 179
133 153 180
134 154 181
134 154 181
133 154 181
134 154 181
134 154 181
134 154 181
134 154 181
134 154 181
133 154 181
135 155 181
133 154 181
134 154 181
133 153 180
132 153 179
134 154 181
134 154 181
134 154 181
134 154 181
133 153 180
134 154 180
133 154 181
133 154 181
133 154 180
133 154 181
134 154 181
133 154 180
134 154 180
133 154 180
133 154 181
133 153 180
134 154 180
133 154 181
135 155 181
133 154 180
134 154 181
133 154 181
134 154 181
134 154 181
133 154 181
134 154 181
134 154 181
134 154 181
134 154 181
134 154 181
134 154 180
133 154 181
134 154 181
133 153 180
133 154 181
133 154 180
134 154 181
133 154 181
133 154 181
134 154 181
134 154 180
134 154 181
134 154 181
133 154 181
135 155 181
134 154 180
132 153 180
133 154 181
133 153 180
135 155 181
134 154 180
134 154 181
134 155 181
134 154 181
134 154 181
134 154 181
134 154 181
134 154 181
133 154 181
134 154 181
134 154 181
135 155 181
134 154 181
134 154 181
134 154 181
133 153 180
133 154 181
133 154 180
134 154 181
134 154 181
133 154 181
133 153 180
134 154 180
133 154 180
134 154 181
133 154 181
134 154 181
134 154 181
133 153 180
134 154 181
134 154 181
134 154 181
133 153 180
133 154 181
133 154 180
133 153 180
133 154 181
133 154 181
134 154 181
134 154 180
134 154 181
134 154 181
133 154 181
134 154 181
134 155 181
133 154 181
134 154 181
135 155 181
133 154 181
134 154 181
132 153 180
133 153 180
133 154 181
134 155 181
133 154 181
134 154 181
134 154 181
134 154 181
134 154 181
134 154 181
135 155 181
134 154 181
133 154 181
134 154 180
133 154 181
134 154 181
133 153 180
134 154 181
133 153 180
134 154 181
133 154 181
134 154 181
134 154 181
133 154 180
134 154 181
134 154 181
133 154 181
134 154 181
132 153 180
134 154 181
134 154 181
133 154 181
134 154 181
134 154 181
134 154 181
134 154 181
134 154 181
134 154 180
134 154 181
133 154 180
134 154 181
133 154 181
134 154 180
133 154 181
134 154 181
133 154 181
133 154 181
134 154 181
133 154 181
133 153 180
134 154 181
134 154 181
133 154 181
133 154 181
134 155 181
134 155 181
134 154 181
133 154 181
134 154 181
134 154 181
134 154 181
133 154 181
133 154 181
134 154 181
134 154 181
134 154 181
133 154 181
133 154 181
133 153 180
133 154 181
134 154 181
133 154 181
134 155 181
134 154 181
133 154 181
134 154 181
134 154 181
135 155 181
133 154 181
134 154 181
133 154 181
133 154 181
134 154 181
134 154 180
134 154 181
134 154 181
133 154 181
134 154 181
134 154 181
134 154 181
134 154 181
134 154 181
135 154 180
133 154 181
133 154 181
133 154 181
134 154 181
134 154 181
134 154 181
135 155 181
134 154 181
133 154 181
134 154 181
133 154 181
134 154 181
133 154 181
133 154 181
133 154 181
134 154 181
133 154 181
133 154 181
134 154 181
135 155 181
133 154 181
134 154 181
133 154 181
135 155 181
134 154 181
134 154 181
134 154 181
134 154 181
135 155 181
134 154 181
134 154 181
135 155 181
134 154 181
134 154 181
134 154 181
134 154 181
133 154 181
133 154 181
134 154 181
134 154 181
133 154 181
134 154 181
134 154 181
134 154 181
133 154 181
134 154 181
134 154 181
134 154 181
134 154 181
133 154 181
134 154 181
134 154 181
135 155 181
133 154 181
133 154 180
134 154 181
133 154 181
134 154 181
134 154 181
134 154 181
135 155 181
133 154 181
133 154 181
135 155 181
134 154 181
134 154 181
133 154 181
133 154 181
134 154 181
135 155 181
133 154 181
134 154 181
135 155 181
135 155 181
134 154 181
133 154 181
133 154 181
134 154 181
133 154 181
134 154 181
134 154 181
133 154 181
133 154 181
134 154 181
135 155 181
133 154 181
133 154 181
135 155 181
133 154 181
133 154 181
135 155 181
134 154 181
134 154 180
134 154 181
133 154 181
135 154 180
135 155 181
134 154 181
133 154 181
133 154 181
133 154 181
133 154 181
134 154 181
133 154 180
134 154 181
134 155 181
132 153 180
133 154 181
134 154 181
134 154 181
133 154 180
134 154 181
133 154 181
133 153 180
133 153 180
134 154 181
133 154 180
135 155 181
134 154 181
134 154 180
133 153 180
133 154 181
133 154 181
133 154 180
133 154 181
134 154 181
133 154 181
133 154 181
133 153 180
134 154 181
134 155 181
134 154 181
133 154 180
134 154 180
134 154 180
133 154 180
134 154 181
132 153 180
134 154 181
134 154 181
134 154 181
133 154 180
134 154 180
134 154 181
134 154 181
134 154 181
134 154 181
132 153 180
133 153 179
134 154 181
134 154 181
134 154 180
134 154 180
132 153 181
133 153 179
132 153 180
134 154 181
133 154 181
133 154 180
133 153 179
133 153 180
133 154 181
133 154 180
134 154 180
133 154 181
135 154 180
134 154 181
134 154 181
132 153 181
133 154 181
134 154 181
132 153 180
134 154 181
133 153 180
134 154 181
133 154 180
133 153 180
134 154 181
134 154 181
133 153 180
133 153 180
133 154 180
133 154 181
133 154 181
135 155 181
134 154 181
132 153 179
133 154 180
134 154 181
134 154 181
134 154 181
134 154 180
134 154 180
134 154 181
134 154 180
133 154 181
133 154 181
133 154 180
133 153 180
133 153 180
133 154 181
133 154 181
134 154 181
134 154 181
133 154 180
134 154 181
133 154 181
133 154 181
133 154 180
133 154 181
133 154 180
133 154 181
134 154 181
133 153 180
133 154 181
134 154 181
134 154 180
134 154 181
134 154 181
133 154 180
134 154 181
134 154 181
134 154 181
134 154 181
133 154 181
134 154 181
133 154 180
133 154 181
134 154 181
133 154 181
132 153 181
134 154 181
133 154 180
133 153 180
134 154 181
133 153 180
134 154 180
134 154 181
133 154 180
133 154 181
134 154 181
134 154 181
133 154 181
134 154 181
134 154 180
134 154 181
133 153 180
132 153 180
134 154 181
133 154 181
133 154 181
132 153 180
134 154 180
134 154 181
133 154 181
133 154 181
134 154 181
133 154 181
134 154 181
133 154 181
133 154 180
134 155 181
134 154 181
133 154 181
133 153 180
134 154 181
133 154 181
133 154 181
134 154 181
132 153 181
133 154 181
133 154 180
134 154 181
134 154 181
134 154 181
134 154 181
134 154 181
133 153 180
134 154 181
133 154 181
133 154 180
134 154 181
134 154 181
134 154 181
134 154 181
133 154 181
134 154 181
134 154 181
134 154 181
133 154 180
133 154 181
133 154 180
133 154 180
133 153 180
134 154 180
134 154 181
134 154 181
135 155 181
133 153 180
135 155 181
134 154 181
134 154 181
134 154 181
134 154 181
134 154 181
134 154 181
134 154 181
133 154 180
134 154 181
133 154 181
133 153 180
133 154 181
134 154 181
134 154 181
133 154 181
133 154 181
133 154 181
134 154 181
134 154 180
133 154 181
134 154 181
134 154 181
134 154 181
133 154 181
133 154 180
134 154 181
133 154 181
134 154 181
133 154 180
134 154 181
134 154 180
135 155 181
134 154 181
133 154 181
134 154 181
134 154 181
133 154 181
133 154 181
134 154 181
134 154 181
134 154 181
133 154 181
134 154 181
134 154 181
133 154 180
134 154 181
133 154 181
134 155 181
134 154 181
134 154 181
133 154 181
134 154 181
134 155 181
133 154 180
132 153 180
134 154 181
133 154 181
135 155 181
134 154 181
134 154 181
133 154 181
134 154 181
134 154 181
134 154 181
134 154 181
134 154 181
133 154 180
134 154 181
134 154 181
134 154 181
134 154 181
133 154 181
134 154 181
134 154 181
134 154 181
133 154 181
133 154 181
134 154 181
134 154 181
134 154 181
134 154 181
133 154 181
133 154 181
133 154 181
134 154 181
133 154 181
134 154 181
134 154 181
134 154 181
134 154 181
134 154 181
133 154 180
134 154 181
134 154 181
133 154 181
135 155 181
133 154 180
134 154 181
134 154 181
134 154 181
133 154 181
133 154 181
134 154 181
134 154 181
133 154 181
134 154 181
134 154 181
134 154 181
133 154 181
134 154 181
134 154 181
134 154 181
133 154 181
134 154 181
134 154 181
134 154 181
134 154 181
133 154 180
134 154 181
134 154 181
134 154 181
134 154 181
134 154 181
133 154 181
134 154 180
134 154 181
134 154 181
133 154 181
134 154 181
134 154 181
133 154 181
134 154 181
134 154 181
134 154 181
135 155 181
133 154 181
134 154 181
134 154 181
134 154 181
134 154 181
134 154 181
134 154 181
134 154 181
133 154 181
134 154 181
134 154 181
134 154 181
134 154 181
134 154 181
134 154 181
134 154 181
134 154 181
134 154 181
133 154 181
133 154 180
133 154 181
134 154 181
134 155 181
133 154 181
134 155 181
134 154 181
134 154 181
133 153 180
134 154 181
134 154 181
134 154 181
134 154 181
133 154 181
134 154 181
132 154 181
134 155 181
133 154 181
134 154 181
134 154 181
134 154 181
134 154 181
133 154 181
134 154 181
133 154 181
134 154 181
133 154 181
135 155 181
133 154 181
134 154 181
133 154 181
133 154 181
133 154 181
134 154 181
133 154 181
134 154 181
134 154 181
134 154 181
134 154 181
134 154 181
133 154 181
135 155 181
134 154 181
133 154 181
133 153 180
134 154 181
134 154 180
134 154 181
134 154 181
133 154 180
133 154 181
133 154 181
133 154 181
133 153 180
134 154 181
134 154 181
133 154 181
133 154 181
134 154 180
134 154 181
134 154 180
135 155 181
134 154 181
134 154 181
133 154 181
134 154 181
133 154 181
133 153 180
133 154 180
133 154 181
133 154 181
133 153 180
133 154 181
134 154 181
134 154 181
134 154 180
134 154 181
134 154 181
134 154 181
133 154 181
133 154 181
133 153 180
134 154 181
134 154 181
133 154 180
132 153 181
134 154 180
133 153 180
134 154 180
134 154 181
133 154 181
134 154 181
133 154 180
133 154 181
135 155 181
133 153 180
134 154 181
133 153 180
134 154 180
132 153 180
133 153 180
134 154 180
135 155 181
133 154 181
133 154 181
133 153 180
133 154 181
134 154 181
134 154 181
134 154 181
132 153 181
135 155 181
134 154 181
134 154 181
134 154 181
134 154 181
134 154 180
134 154 181
134 154 181
133 154 180
134 154 181
134 154 180
134 154 181
133 154 181
133 153 180
134 154 181
134 154 180
134 154 181
133 154 181
133 153 179
135 155 181
133 154 180
134 154 181
133 153 180
134 154 181
134 154 181
133 154 181
133 153 180
133 154 180
135 155 181
133 153 180
134 154 181
134 154 180
133 154 181
134 154 181
133 154 180
133 154 180
134 154 180
134 154 181
133 154 181
133 154 181
134 154 180
134 154 180
132 153 180
133 154 181
134 154 181
135 155 181
134 154 181
133 153 180
134 154 181
133 154 181
134 154 180
134 154 181
133 154 181
133 153 180
134 154 181
133 154 180
134 154 181
133 153 180
134 154 181
134 154 181
134 154 181
134 154 181
134 154 181
133 154 181
133 154 181
134 154 180
134 154 181
133 154 181
134 154 181
134 154 181
133 153 180
133 154 181
132 153 180
134 154 181
133 154 181
134 154 180
133 153 179
134 154 181
135 155 181
134 154 180
133 154 181
134 154 181
134 154 181
133 153 180
134 154 181
135 155 181
134 154 181
135 155 181
133 154 180
134 154 181
134 154 181
134 154 181
134 154 181
133 154 181
134 154 181
134 154 180
134 154 181
133 154 180
134 154 181
133 154 181
133 154 180
133 154 181
133 153 180
133 154 180
133 154 180
133 153 180
134 154 181
134 154 181
134 154 181
134 154 181
134 154 181
134 154 181
134 154 181
133 154 181
133 154 181
133 154 181
133 154 181
133 154 181
134 154 181
134 154 180
133 154 181
133 154 181
134 154 180
133 154 181
134 154 181
134 154 181
134 154 181
133 154 180
133 154 181
134 154 181
134 154 181
133 154 181
133 154 181
134 154 181
133 154 181
133 154 181
134 154 181
133 154 181
135 155 181
134 154 180
135 155 181
134 154 181
133 154 181
134 154 181
133 154 181
134 154 181
134 154 181
134 154 181
134 155 181
134 154 181
134 154 181
133 154 181
134 154 180
133 154 180
133 154 180
134 154 181
134 154 181
133 153 180
134 154 181
133 154 181
133 154 181
134 154 181
134 155 181
134 154 181
135 155 181
133 154 181
135 155 181
134 154 181
132 153 181
133 154 181
133 154 181
134 154 181
134 154 181
134 154 181
133 154 181
133 154 181
133 154 181
134 154 181
134 154 181
132 152 179
133 154 181
134 154 181
134 154 181
133 154 181
133 154 181
134 154 181
134 154 181
133 154 181
133 154 181
134 154 181
135 155 181
133 154 181
134 154 181
132 153 180
134 154 181
134 154 181
134 154 181
134 154 181
134 154 180
134 154 181
134 154 181
134 154 181
133 154 180
134 154 181
133 154 181
134 154 181
134 154 181
134 154 181
134 154 181
133 154 181
133 154 181
134 154 181
134 154 181
134 154 180
134 154 181
134 154 181
134 154 181
133 154 181
134 154 181
133 154 181
134 154 181
134 154 181
134 154 181
134 154 181
133 153 180
134 154 181
134 154 181
134 154 181
134 154 181
134 154 181
133 154 180
134 154 181
135 155 181
133 154 181
134 154 181
134 154 181
134 155 181
133 154 181
135 155 181
134 154 181
134 154 181
134 154 181
133 154 181
133 154 180
133 154 181
133 154 181
134 154 181
133 154 181
134 154 181
134 154 181
134 154 181
135 155 181
133 154 180
133 154 181
134 154 181
135 155 181
133 154 181
134 154 181
134 154 181
134 154 181
134 154 181
133 154 181
134 154 181
133 154 181
134 154 181
134 154 181
133 154 181
133 154 181
134 154 180
134 154 181
134 154 181
134 154 181
133 154 181
133 153 180
132 154 181
133 154 181
134 154 181
134 154 181
134 154 181
134 154 180
134 154 181
134 154 181
134 154 181
133 154 181
134 154 181
134 154 181
134 154 180
134 154 181
134 154 181
133 154 181
134 154 181
133 154 181
134 154 181
135 155 181
134 154 181
134 154 181
134 154 181
133 154 181
134 154 181
135 155 181
133 154 181
134 154 181
134 154 181
133 154 181
134 154 181
133 154 181
134 154 181
134 154 181
134 154 181
133 154 181
134 154 181
134 154 181
133 154 181
134 154 181
134 154 181
135 155 181
134 154 181
134 154 181
133 154 181
134 154 181
134 154 181
133 154 181
134 155 181
134 154 181
134 154 181
134 154 181
134 154 181
134 154 181
134 154 181
133 154 181
134 155 181
135 155 181
134 154 181
135 155 181
133 154 181
134 154 181
133 153 180
134 154 181
134 154 181
134 154 180
134 154 181
133 154 181
133 153 180
134 154 181
133 154 181
134 154 181
133 153 180
132 153 180
132 153 179
132 153 180
134 154 180
134 154 181
133 154 181
134 154 181
133 154 181
133 153 179
134 154 181
134 154 181
133 154 181
135 155 181
133 154 181
134 154 181
134 154 180
133 154 181
133 154 181
134 154 180
133 154 181
135 155 181
134 154 181
133 153 180
133 154 181
134 154 181
133 154 181
133 153 180
133 153 180
133 154 180
134 154 181
134 154 181
132 153 180
133 154 181
135 155 181
133 154 181
134 154 181
133 154 181
133 154 180
134 154 181
134 154 181
134 154 181
134 154 181
133 154 181
134 154 180
134 154 181
133 154 181
133 154 180
134 154 181
134 154 181
134 153 180
133 153 180
132 153 180
134 154 180
133 153 180
134 154 181
133 154 181
133 153 180
133 154 180
134 154 181
133 154 181
134 154 181
134 154 181
133 154 181
134 154 180
134 154 181
134 154 181
133 154 181
133 154 181
134 154 181
134 154 180
134 154 180
134 154 180
134 154 181
133 154 180
133 153 180
134 154 181
134 154 181
134 154 181
133 153 180
134 154 181
134 154 181
134 154 181
133 154 180
134 154 181
132 153 180
133 154 181
133 154 181
134 154 180
133 154 181
133 154 181
134 154 181
134 154 181
134 154 181
133 153 180
134 154 181
133 154 181
134 154 181
134 154 181
133 153 180
134 154 180
134 154 180
134 154 181
135 155 181
134 154 181
134 154 180
134 154 181
134 154 181
134 154 181
134 154 181
134 154 181
134 154 181
133 154 181
133 154 180
132 152 180
134 154 180
134 154 181
134 154 180
135 154 180
134 154 181
134 155 181
134 154 181
133 154 181
134 154 181
133 154 181
134 154 181
134 154 181
133 154 181
133 154 181
134 154 181
134 154 181
133 154 180
133 154 181
134 154 181
134 154 181
133 153 180
134 154 181
134 154 181
135 155 181
134 154 181
133 154 181
133 154 180
134 154 181
134 154 181
134 154 181
134 154 181
133 154 181
134 154 180
134 154 181
134 154 181
134 154 181
134 154 181
134 154 181
134 154 181
134 154 181
134 154 181
134 154 181
133 153 180
135 155 181
134 154 180
134 154 181
134 154 181
134 154 181
134 154 180
133 154 181
133 154 180
134 155 181
134 154 181
134 154 180
134 154 180
134 154 181
133 154 181
135 155 181
134 154 181
133 154 181
133 154 181
133 154 181
133 154 181
134 155 181
133 154 181
134 154 181
134 154 181
134 154 181
133 154 181
134 154 181
134 154 180
133 154 181
134 154 181
133 154 180
133 153 180
135 155 181
134 154 181
133 154 181
134 154 181
134 154 181
134 154 181
134 154 181
135 155 181
133 154 181
134 154 181
135 155 181
133 154 181
134 154 181
134 154 181
134 154 181
134 154 181
135 155 181
133 154 181
132 154 181
134 154 181
135 155 181
134 154 181
134 154 181
134 154 181
133 154 181
134 154 181
134 154 181
134 154 181
134 154 181
133 154 181
133 154 181
133 154 181
134 154 181
134 154 181
134 154 181
134 154 181
134 154 181
134 154 181
133 154 181
134 154 181
134 154 181
134 154 181
133 154 181
132 153 180
133 154 181
134 154 181
134 154 181
135 155 181
134 154 180
133 154 181
133 154 181
133 154 181
134 154 180
134 154 181
133 154 181
134 154 181
134 154 181
134 154 181
134 154 181
134 154 181
133 154 181
134 154 181
133 154 181
133 154 180
134 154 181
133 154 181
134 154 181
135 155 181
134 154 181
134 154 181
134 154 180
134 154 181
134 154 181
134 154 181
134 154 181
133 154 181
134 154 181
134 154 181
134 154 181
134 154 181
133 154 181
133 154 181
134 155 181
134 154 181
134 154 181
134 154 181
134 154 181
134 154 181
134 154 181
134 154 181
133 154 180
133 154 181
133 153 180
134 154 181
133 154 181
134 154 181
134 154 181
134 154 181
133 154 181
134 154 181
134 154 181
134 155 181
133 154 181
134 154 181
133 154 181
134 154 181
134 154 181
134 154 181
134 154 181
133 154 181
134 154 181
134 154 181
134 154 181
134 154 181
133 154 181
134 154 181
134 154 181
133 153 180
133 154 181
133 154 180
134 154 181
134 154 181
134 154 181
134 154 181
134 154 181
134 154 181
134 154 181
135 155 181
133 154 180
134 155 181
135 155 181
134 154 181
134 154 181
134 155 181
134 154 180
133 154 181
134 154 181
134 154 181
134 154 181
135 155 181
134 154 181
134 154 181
134 154 181
134 154 181
135 155 181
134 154 181
134 154 181
133 154 181
133 154 181
134 154 181
134 154 181
133 154 181
134 154 181
134 154 181
134 154 180
134 154 181
134 154 181
134 154 181
134 154 181
133 154 181
135 155 181
133 153 180
133 154 181
134 154 181
134 154 181
134 155 181
134 154 181
134 154 181
134 154 180
134 154 181
133 153 180
134 154 181
133 154 181
134 154 181
133 154 181
133 154 180
134 154 181
134 154 181
135 155 181
133 154 181
134 154 181
133 154 180
133 154 181
135 155 181
133 154 181
133 154 181
133 154 181
133 154 181
134 154 181
134 154 181
134 154 181
133 153 180
133 154 181
132 153 180
134 154 181
134 154 181
134 154 181
134 154 180
134 154 181
133 154 181
134 154 181
132 153 180
133 154 180
134 154 181
133 154 180
133 153 180
135 155 181
134 154 181
134 154 181
134 154 180
134 154 181
134 154 181
134 154 180
133 154 181
134 154 181
135 155 181
133 154 181
133 154 180
133 154 181
134 154 181
134 155 181
133 153 180
133 154 181
134 154 181
134 154 181
134 154 180
133 153 180
134 154 181
133 154 180
134 155 181
134 154 181
134 154 181
134 154 181
133 153 180
133 153 179
133 153 180
134 154 181
133 154 181
133 153 180
133 154 181
133 153 180
133 154 181
134 154 181
133 154 181
133 154 181
133 154 181
134 154 181
133 153 180
133 154 181
134 154 181
133 154 180
134 154 181
133 153 179
133 154 181
134 154 180
134 154 180
133 154 181
133 154 180
134 154 181
134 154 181
135 155 181
134 154 181
134 154 180
134 154 181
133 153 180
133 153 180
132 153 181
133 154 181
133 153 180
134 154 180
133 154 180
134 154 180
134 154 181
133 154 181
133 154 180
134 154 181
132 153 180
133 154 181
133 154 181
134 154 181
133 154 181
133 154 181
133 154 181
133 154 181
133 153 180
133 154 181
133 154 181
134 154 181
134 154 181
133 153 179
134 154 180
133 154 180
134 154 180
133 154 181
134 154 181
133 154 181
134 154 181
134 154 181
134 154 180
133 154 180
135 155 181
133 154 181
133 154 180
133 154 181
134 154 181
132 153 180
135 155 181
134 154 181
133 154 181
133 154 181
133 154 180
133 154 181
133 154 180
133 154 181
134 154 181
134 154 181
135 155 181
134 154 181
134 154 181
134 154 181
133 153 180
133 154 181
133 154 181
134 154 181
133 153 180
134 154 180
134 154 180
134 155 181
133 154 181
134 154 181
133 154 181
134 154 181
133 154 181
134 155 181
134 154 181
133 153 180
134 154 181
133 154 181
134 155 181
133 154 181
134 154 180
133 154 181
134 154 181
133 154 181
133 154 181
134 154 180
133 154 181
133 153 180
133 154 181
133 154 180
133 154 181
133 154 180
133 154 181
134 154 181
132 153 180
134 154 181
134 154 181
133 154 181
134 154 181
133 154 181
133 154 180
134 154 181
134 154 181
132 153 180
134 154 181
133 154 181
133 154 181
135 155 181
133 153 180
134 154 181
134 154 181
134 154 181
134 154 181
134 154 180
133 154 181
133 154 181
134 154 181
133 153 180
134 154 181
133 154 181
134 154 181
133 154 181
134 154 181
133 154 181
134 154 181
135 155 181
133 154 180
134 154 181
133 154 181
134 154 181
134 154 181
133 154 181
134 155 181
134 154 181
133 154 181
135 155 181
133 154 181
134 155 181
134 154 180
133 154 181
134 155 181
133 154 181
134 154 181
134 154 181
133 153 180
134 154 181
134 154 181
134 154 181
133 154 181
134 154 181
133 154 181
133 154 181
134 154 181
134 154 181
134 154 181
134 154 181
134 155 181
134 154 181
134 154 181
134 154 181
134 154 181
134 154 181
135 155 181
134 154 181
133 154 181
134 154 181
134 154 181
133 154 181
135 155 181
134 154 181
134 154 181
134 154 181
134 154 181
134 154 181
133 154 181
135 155 181
133 154 181
133 154 181
134 154 181
133 154 181
133 153 179
134 154 180
134 154 181
133 154 181
134 154 181
134 154 181
135 155 181
134 154 181
134 154 180
133 154 181
134 155 181
134 154 181
134 154 181
133 154 180
134 154 181
134 154 181
134 154 181
133 154 181
133 154 181
134 154 181
134 154 181
134 154 181
134 154 181
134 154 181
134 154 181
133 154 181
133 154 181
134 154 181
134 154 181
133 154 181
133 154 181
134 154 181
133 154 180
134 154 181
134 154 180
133 154 181
134 154 181
134 154 181
133 154 181
134 154 181
135 155 181
134 154 181
133 154 181
133 154 181
133 154 181
133 154 181
132 153 180
133 154 181
133 154 181
133 154 181
134 154 181
134 154 181
133 154 181
134 154 181
135 155 181
133 154 181
134 154 181
133 154 181
134 154 181
133 154 181
133 154 181
134 154 181
134 154 181
133 154 181
135 155 181
134 154 181
133 154 181
133 154 181
133 154 181
134 154 181
133 154 181
133 154 181
134 154 181
134 154 181
134 154 181
134 154 181
133 153 180
135 155 181
134 154 181
133 154 181
134 154 181
133 154 180
133 154 181
134 154 181
134 154 181
134 154 181
134 154 181
134 154 181
135 155 181
134 154 181
134 155 181
133 154 181
135 155 181
134 154 181
134 154 181
133 154 181
134 154 181
132 153 181
134 154 181
133 154 180
133 154 181
134 154 180
133 154 181
133 154 181
134 154 181
133 154 181
134 154 181
134 154 181
133 154 181
134 154 180
134 155 181
135 155 181
134 154 181
134 154 181
133 154 181
134 154 181
133 154 180
134 154 181
133 154 181
133 154 181
135 155 181
134 154 181
133 154 181
134 154 181
134 154 181
134 154 181
134 154 181
134 154 181
134 154 181
134 154 181
133 153 180
134 154 181
134 154 181
134 154 181
134 154 181
135 155 181
134 154 181
134 154 181
134 154 181
134 154 181
133 154 181
133 154 181
133 154 181
134 154 181
133 153 180
134 154 181
134 154 181
133 154 181
134 154 181
134 154 181
133 154 181
134 154 181
133 154 181
133 153 180
133 154 180
133 154 181
134 154 181
133 154 181
134 154 181
134 154 181
134 154 181
133 154 181
133 154 180
133 154 181
134 154 180
134 154 181
133 154 180
134 154 181
135 155 181
133 153 180
134 154 181
134 154 181
135 155 181
133 154 181
133 154 181
133 154 181
133 153 180
134 154 181
134 154 181
134 154 181
134 154 181
134 154 181
134 154 181
134 154 181
134 154 181
133 154 180
134 154 181
134 155 181
133 154 181
133 154 181
134 154 181
133 153 180
133 154 181
133 153 180
133 154 180
133 154 181
134 154 181
132 153 181
134 154 181
133 153 180
133 154 181
133 154 181
133 154 180
134 154 180
134 154 181
134 154 181
134 154 181
134 154 181
134 154 181
135 155 181
134 154 181
134 154 181
135 155 181
133 153 180
134 154 180
134 154 181
135 155 181
133 154 180
134 154 181
133 153 180
134 154 181
134 153 180
134 154 181
132 153 180
134 154 181
134 154 181
133 154 181
132 153 180
132 153 180
133 154 180
133 154 180
135 154 180
134 154 181
134 154 181
134 154 181
133 153 180
133 153 180
133 153 180
133 154 181
133 154 181
134 154 181
134 154 180
134 154 181
134 154 181
133 153 180
133 154 181
133 153 180
134 154 181
133 154 180
134 154 181
134 154 181
133 154 181
134 154 181
132 153 180
134 154 181
133 154 181
135 155 181
135 155 181
134 154 181
134 154 181
132 153 180
133 154 181
134 154 181
133 154 181
134 154 180
133 154 180
134 154 180
133 154 180
134 154 181
133 154 181
134 154 181
133 153 180
134 154 181
133 153 180
134 154 181
133 154 181
134 154 181
133 154 180
133 154 181
132 153 180
134 154 180
134 154 181
134 154 181
134 154 181
133 154 180
135 155 181
134 154 181
134 154 180
134 154 181
133 153 180
133 154 180
134 154 180
134 154 181
134 154 181
133 154 181
134 154 181
133 154 181
133 154 181
133 154 181
134 154 181
133 154 181
133 154 181
132 153 180
134 154 181
134 154 181
134 154 181
133 154 181
133 154 180
134 154 181
134 154 181
133 154 181
134 154 181
134 154 181
133 154 181
133 153 179
134 154 180
134 154 181
134 154 181
133 153 180
133 154 181
134 154 181
134 154 181
133 154 181
134 154 181
133 154 180
133 154 181
134 154 181
134 154 181
133 154 181
133 154 181
133 154 180
134 154 181
135 155 181
132 153 179
133 154 180
133 154 181
133 154 181
134 154 181
134 154 181
133 154 181
134 154 181
134 154 181
134 154 181
133 154 181
134 154 181
134 154 181
134 154 181
134 154 181
134 154 181
135 155 181
133 154 181
133 154 180
133 154 180
134 154 181
133 154 181
134 154 181
134 154 181
134 154 181
133 154 181
134 154 180
134 154 181
132 153 180
133 154 181
134 154 180
134 154 181
134 154 181
133 153 180
135 155 181
133 154 181
133 154 180
134 154 181
133 154 181
134 154 181
135 155 181
133 154 181
134 154 180
133 154 181
134 154 181
132 153 180
133 154 181
134 154 180
133 154 180
134 154 181
134 154 181
134 154 181
134 155 181
133 154 180
134 154 181
134 154 181
134 154 181
133 154 181
134 154 181
133 154 181
133 154 181
134 154 181
134 154 181
134 154 181
133 154 181
133 154 181
135 155 181
135 155 181
133 154 181
133 154 180
134 154 180
134 154 181
134 154 181
133 154 181
134 154 181
133 154 181
134 154 181
134 154 181
134 154 181
133 154 181
134 154 181
133 154 181
134 154 181
133 154 181
134 154 181
133 154 181
134 154 181
134 154 181
134 154 181
134 154 181
133 154 181
133 154 181
134 154 181
134 154 181
133 154 181
134 154 181
134 154 181
134 155 181
134 154 181
133 154 181
134 155 181
134 154 181
134 154 181
133 154 180
133 154 181
134 154 181
134 154 181
133 154 181
133 154 181
133 154 181
133 153 180
134 154 181
134 154 181
134 154 181
133 154 180
134 154 181
134 154 181
133 154 181
133 154 181
134 155 181
134 154 181
134 154 181
133 154 181
134 154 181
134 154 181
133 154 181
135 155 181
134 154 181
133 154 181
133 154 181
134 154 181
134 154 181
133 154 181
133 154 181
134 154 181
135 155 181
134 154 181
134 154 181
133 154 181
134 154 181
134 154 181
134 154 181
134 154 181
134 154 181
134 154 181
134 154 181
134 154 181
134 154 181
134 154 181
134 154 181
134 154 181
134 154 181
133 154 180
134 154 181
133 154 181
135 155 181
135 155 181
134 154 181
133 154 181
133 154 181
133 154 181
133 154 181
134 154 181
135 155 181
133 154 181
134 154 181
134 154 181
134 154 181
134 154 181
134 154 180
133 154 181
133 154 181
134 155 181
134 154 181
133 154 181
133 154 181
133 154 181
135 155 181
134 154 181
133 154 181
134 154 181
133 154 181
134 154 181
133 154 181
133 154 181
133 154 181
133 154 181
134 154 181
134 154 181
134 154 181
134 154 181
134 154 181
133 154 181
134 154 181
134 154 181
133 154 181
134 154 181
134 154 181
134 154 181
134 154 181
134 154 181
134 154 181
133 154 181
135 155 181
134 154 181
134 154 181
133 154 181
133 154 181
133 154 181
134 154 181
133 154 181
133 154 181
134 154 181
134 154 181
133 153 180
133 153 180
133 154 181
134 154 181
134 154 181
133 154 181
133 153 180
134 154 181
133 154 181
134 154 181
133 154 181
134 154 181
134 154 181
134 154 180
133 154 181
133 154 181
133 154 180
135 155 181
134 154 181
134 154 181
132 153 180
133 153 180
133 153 180
134 154 181
134 154 181
133 153 180
134 154 181
134 154 181
135 155 181
133 154 181
133 154 181
134 154 181
133 154 181
133 154 180
133 153 180
133 154 181
133 154 180
133 154 181
134 154 181
133 153 180
133 154 181
133 154 181
133 154 181
132 153 180
134 154 181
133 154 181
134 154 181
133 154 181
133 154 181
134 154 181
134 154 181
133 154 180
134 154 180
133 153 180
132 152 179
133 154 181
134 154 181
134 154 181
135 155 181
134 154 181
134 154 180
134 154 181
134 154 181
133 153 180
134 154 180
133 154 181
134 154 181
133 154 181
134 154 180
133 154 180
134 154 181
133 154 181
134 154 181
134 154 181
134 154 181
134 154 181
133 154 181
133 154 180
134 154 180
134 154 181
133 154 181
133 153 180
133 154 181
134 154 180
134 154 181
133 154 181
133 154 181
133 153 180
133 154 180
133 154 180
133 154 180
134 154 181
134 155 181
133 153 180
135 155 181
134 154 181
133 153 180
133 154 181
133 153 180
133 154 181
134 154 181
133 154 180
133 154 181
133 153 180
134 154 180
133 153 180
134 154 181
133 154 181
134 154 180
135 155 181
134 154 181
135 155 181
134 154 181
134 154 181
134 154 181
133 154 181
134 154 181
133 154 181
133 154 181
133 154 180
134 154 181
133 154 181
133 154 181
134 154 181
134 154 181
134 154 181
133 154 181
133 153 180
133 154 181
135 155 181
134 155 181
134 154 181
133 154 181
133 153 180
134 154 181
133 154 181
133 154 181
135 155 181
133 154 181
133 154 181
134 154 181
134 154 181
134 154 181
134 154 181
133 154 180
134 154 181
133 154 181
133 154 181
134 154 181
134 154 181
134 154 181
133 153 180
133 154 180
134 154 181
134 154 181
134 154 181
134 154 181
135 155 181
133 153 180
134 154 181
135 155 181
134 154 181
134 154 181
134 154 181
133 154 180
133 154 180
134 154 181
134 154 181
134 154 181
133 154 181
134 154 181
134 154 181
133 154 181
135 155 181
134 154 181
135 155 181
133 154 181
133 153 180
134 155 181
133 153 180
133 154 181
135 155 181
133 154 181
134 154 181
134 154 181
133 154 181
135 154 180
134 154 181
133 154 181
134 155 181
133 154 180
134 154 181
133 154 181
134 154 181
133 154 180
134 154 181
134 154 181
134 154 181
133 154 181
133 154 181
133 154 181
134 154 181
133 153 180
134 154 181
134 154 181
133 154 181
133 154 181
133 154 181
133 154 181
133 154 181
134 154 181
134 154 181
135 155 181
134 154 181
135 155 181
133 154 181
134 154 181
134 154 181
132 153 180
134 154 181
133 154 181
135 155 181
133 154 181
134 154 181
134 154 181
134 154 181
134 154 180
134 154 181
134 154 181
135 155 181
134 154 181
134 154 180
134 154 181
134 154 181
134 154 181
134 154 181
134 154 181
134 154 181
133 154 181
133 154 181
134 154 181
133 154 181
133 154 181
134 154 181
133 154 181
134 154 181
133 154 181
134 154 181
134 154 180
133 154 181
134 154 181
133 154 181
133 154 181
133 154 181
133 153 180
134 154 181
134 154 181
134 154 180
133 154 181
135 155 181
134 154 181
133 154 181
134 154 181
134 154 181
133 153 180
134 154 180
133 154 181
133 154 181
134 154 181
134 154 181
133 154 181
134 154 181
134 154 181
133 154 181
134 154 181
133 154 181
133 154 180
134 154 181
134 154 181
134 154 181
133 154 181
133 154 181
133 154 181
133 154 181
134 154 181
134 154 181
134 154 181
134 154 181
133 154 181
134 154 181
133 154 181
134 154 181
134 154 181
134 154 181
134 154 181
133 154 181
134 154 181
134 154 181
134 154 181
134 154 181
133 154 181
134 154 181
133 154 181
134 154 181
134 154 180
134 154 181
133 154 181
134 154 181
134 154 181
134 154 181
133 154 181
133 154 181
134 154 181
134 154 181
134 154 181
133 154 181
134 154 180
134 154 181
134 154 181
133 154 181
133 154 181
133 154 180
134 154 181
133 154 181
133 154 181
133 154 181
133 154 181
134 154 181
133 154 181
134 154 181
133 154 181
133 154 181
133 154 180
134 154 181
133 153 180
134 154 181
133 153 180
134 154 181
133 154 181
133 154 181
134 154 181
133 154 181
134 154 181
133 154 181
134 155 181
133 154 181
133 154 181
133 154 181
134 154 181
134 154 181
133 154 181
134 154 181
133 154 181
133 154 180
133 154 181
134 154 181
133 154 181
135 155 181
134 154 181
133 154 181
135 155 181
134 154 181
134 154 181
134 154 181
134 154 181
134 154 180
133 154 180
133 154 181
134 154 181
133 154 181
134 154 181
134 154 181
135 155 181
134 154 181
133 154 181
134 154 180
134 154 181
133 154 181
134 154 181
133 154 181
134 154 181
134 154 181
133 154 181
133 154 181
132 153 180
133 154 181
134 154 181
134 154 181
134 154 181
134 154 181
133 154 181
134 154 181
134 154 181
133 154 180
134 155 181
134 154 181
134 154 181
133 154 181
134 154 181
135 155 181
134 154 181
134 154 181
134 154 181
133 154 181
133 153 179
134 154 181
134 154 181
134 154 181
134 154 181
133 154 181
134 154 181
133 154 180
133 154 181
134 154 181
135 155 181
134 154 181
134 154 181
134 154 181
134 154 181
133 154 181
133 154 180
133 154 181
133 154 181
133 154 181
133 154 181
133 154 180
134 154 181
133 154 181
133 154 180
134 154 181
133 154 181
133 154 181
135 155 181
134 154 181
134 154 181
134 154 181
132 153 180
133 154 181
134 154 181
133 153 180
134 154 181
134 154 181
134 154 181
134 154 181
133 154 181
133 154 180
134 154 181
134 154 180
133 154 181
134 154 181
134 154 180
134 154 181
134 154 181
134 154 181
133 153 180
134 154 181
134 154 181
134 154 181
134 155 181
133 154 181
134 154 181
134 154 180
133 154 181
132 153 180
133 154 181
134 154 181
133 154 180
133 153 180
134 154 181
133 154 180
133 154 181
135 155 181
133 154 181
133 154 181
134 154 181
134 154 181
134 154 181
134 154 181
133 154 181
135 154 180
134 154 181
134 154 181
132 153 181
133 154 180
134 154 181
134 155 181
134 155 181
134 154 181
133 153 180
134 154 181
133 153 180
134 154 181
133 153 180
133 154 181
133 154 180
133 154 181
133 154 180
135 155 181
133 154 180
134 154 181
133 154 181
134 154 180
133 153 180
134 154 180
134 154 180
134 154 180
133 153 180
134 154 181
133 154 181
133 154 181
133 154 181
135 155 181
134 154 180
133 153 180
134 154 181
134 154 180
133 154 181
133 153 180
134 154 181
133 153 180
134 154 181
134 154 181
134 154 181
133 154 180
135 155 181
133 154 181
134 154 181
134 154 181
134 154 181
133 154 181
134 154 180
134 154 181
134 154 180
134 155 181
135 155 181
133 154 180
133 154 181
134 154 181
133 153 180
134 154 181
134 155 181
134 154 180
133 154 180
133 154 180
134 154 181
134 154 181
134 154 181
133 153 180
134 154 181
133 153 180
134 154 181
134 154 180
134 154 181
133 154 181
134 154 181
133 154 181
134 155 181
133 154 181
134 154 181
134 154 181
135 155 181
133 154 181
133 154 181
134 154 180
133 154 180
135 155 181
132 153 180
134 154 181
133 154 180
133 153 180
134 154 181
133 154 180
134 154 181
134 154 181
134 154 181
133 154 181
135 155 181
134 154 181
134 154 181
133 153 180
133 154 181
133 154 181
133 154 181
133 154 180
134 154 181
133 153 180
134 154 181
132 153 180
133 154 181
134 154 181
134 154 181
134 154 181
132 153 180
133 153 180
133 154 181
134 154 181
133 154 180
134 154 181
134 154 181
134 154 181
133 154 181
133 153 180
134 154 181
134 154 181
134 154 181
134 154 181
134 154 181
134 154 181
133 154 181
134 154 181
134 154 181
135 155 181
133 154 181
133 154 181
134 154 181
132 153 181
134 154 181
134 154 180
134 154 181
134 154 181
135 155 181
134 154 181
133 154 181
134 154 181
133 154 181
133 153 180
135 155 181
134 154 181
134 154 181
134 154 181
134 154 181
133 153 180
134 154 180
134 154 181
134 154 181
134 154 181
134 154 181
133 154 181
133 154 181
134 154 181
133 154 181
134 154 181
134 154 181
133 154 181
134 154 181
133 153 180
134 154 181
133 154 181
133 154 181
133 154 181
133 154 181
133 153 180
134 154 181
134 154 181
134 154 181
134 154 181
134 154 181
134 154 181
133 154 181
134 154 181
134 154 181
133 154 181
135 155 181
133 154 181
134 154 180
134 154 181
134 154 181
134 154 181
134 154 181
134 154 181
134 154 181
134 154 181
133 154 181
132 153 180
134 154 181
134 154 181
134 154 181
133 154 180
134 154 181
133 154 180
134 154 181
132 153 180
133 153 180
134 154 181
134 154 181
135 155 181
133 154 181
134 154 181
133 154 181
134 154 181
134 154 181
135 155 181
134 154 181
134 154 181
134 154 181
133 154 181
133 153 180
134 154 181
135 155 181
133 154 181
133 154 181
134 154 181
133 154 181
133 154 181
134 154 181
133 154 181
135 155 181
134 154 181
134 154 181
134 154 181
134 154 181
133 154 181
135 155 181
134 154 181
134 154 181
134 154 181
133 154 181
134 154 181
134 154 181
134 154 181
134 154 181
133 154 181
134 154 181
134 154 180
133 154 181
133 154 181
134 154 181
133 154 181
133 154 181
134 154 181
134 154 181
133 154 181
134 154 181
134 154 181
134 154 181
134 154 181
134 154 181
134 154 181
135 155 181
134 154 181
135 155 181
134 154 181
133 154 181
135 155 181
134 154 181
135 155 181
133 154 181
134 154 181
133 154 181
133 154 181
133 154 181
133 154 181
133 154 181
134 154 181
133 154 181
134 154 181
133 154 181
135 155 181
133 154 181
134 154 181
134 154 181
134 154 181
133 154 181
134 154 181
134 154 181
135 155 181
134 155 181
135 155 181
133 154 181
134 154 181
133 154 181
133 154 180
133 154 181
134 154 181
134 154 181
133 154 180
134 154 181
134 154 181
134 154 181
134 154 181
133 154 181
134 154 181
134 154 181
135 155 181
134 154 181
134 154 181
134 154 181
134 154 180
133 154 181
133 154 181
134 154 181
134 154 181
133 154 181
133 154 181
134 155 181
134 154 181
134 154 181
133 154 181
133 154 181
134 154 181
134 154 181
134 154 181
134 154 181
134 154 181
133 154 181
133 154 181
133 154 181
134 154 181
133 154 181
133 153 180
133 154 181
133 153 180
133 154 181
133 153 180
134 154 181
134 154 181
134 154 181
134 154 181
133 154 181
134 154 181
133 153 180
133 154 181
134 154 181
134 154 181
134 154 181
134 154 181
133 153 180
135 155 181
133 153 180
133 154 181
134 154 181
133 153 180
133 154 181
133 154 181
133 154 181
133 154 181
133 154 181
134 154 181
133 153 180
134 154 181
134 154 181
134 154 181
134 154 181
133 154 181
133 154 181
134 154 181
133 154 181
133 154 181
133 154 180
133 153 180
133 153 180
133 154 181
133 154 181
133 154 181
134 154 181
134 154 181
134 154 181
133 153 180
134 154 181
134 154 181
132 153 180
134 154 181
134 154 181
133 154 180
133 154 180
134 154 181
134 154 180
134 154 181
133 154 181
133 154 181
134 154 181
134 154 181
134 154 181
133 154 181
133 154 181
133 153 180
135 155 181
134 154 181
133 154 181
134 154 181
134 154 181
134 154 181
134 154 181
133 154 181
134 154 180
133 153 180
133 153 180
133 154 181
133 153 180
134 154 180
134 154 181
133 154 181
134 154 180
134 154 181
134 154 181
134 154 181
134 154 181
134 154 181
134 154 181
134 154 181
134 155 181
132 153 180
134 154 181
133 154 181
134 154 181
134 154 181
135 155 181
134 154 181
133 154 181
132 153 180
133 154 181
134 154 181
134 154 181
134 154 181
134 154 181
133 154 181
134 154 181
135 155 181
134 154 181
134 154 181
133 154 181
133 153 180
134 154 181
134 154 181
133 154 180
134 154 181
134 154 181
135 155 181
133 154 181
134 154 181
134 154 181
133 154 180
134 154 181
133 154 180
134 154 181
134 154 181
133 154 180
133 154 181
134 154 181
134 154 181
134 154 180
135 155 181
133 154 181
133 154 181
134 154 181
134 154 181
134 154 181
133 154 181
134 154 180
133 154 181
133 154 181
133 154 180
134 154 181
133 154 180
133 154 181
133 154 181
133 154 181
133 153 180
133 154 181
133 154 180
134 154 181
135 155 181
134 154 181
134 154 181
134 154 181
134 155 181
133 154 181
134 154 181
134 154 181
134 154 181
133 154 181
134 154 180
134 154 181
134 154 181
133 153 180
134 154 181
134 154 181
134 154 181
134 154 181
134 154 181
134 154 180
133 154 181
134 154 181
134 154 180
134 154 181
134 154 181
134 154 181
134 154 181
134 154 181
134 154 181
133 154 180
134 154 181
133 154 181
133 154 181
134 154 180
134 154 181
134 154 181
133 154 181
133 153 180
133 153 180
133 154 181
134 154 181
134 155 181
133 154 181
134 154 181
133 154 181
133 154 181
133 154 181
133 154 181
133 154 181
134 154 180
133 154 181
134 154 181
133 154 181
133 154 181
134 154 181
133 154 181
134 155 181
134 155 181
134 154 180
134 154 181
134 154 181
134 154 181
134 154 181
134 154 180
134 154 181
132 153 181
134 154 181
135 155 181
133 154 181
134 154 181
133 154 180
134 154 181
134 154 181
134 154 181
134 154 181
134 154 181
134 154 181
134 154 181
132 153 180
134 154 181
134 154 180
134 154 181
134 154 181
133 154 181
133 154 181
135 155 181
133 154 181
133 154 181
133 154 181
133 154 181
134 155 181
134 154 181
134 154 181
134 154 181
134 154 181
134 154 181
133 154 181
133 154 181
134 154 181
134 154 181
134 154 181
134 154 181
134 154 181
134 154 181
133 154 181
134 154 181
133 154 180
134 154 181
134 154 181
134 154 181
133 154 181
133 153 180
134 154 181
133 154 180
135 155 181
133 153 180
133 154 181
133 154 181
134 154 180
134 154 181
134 154 181
133 154 181
134 154 181
134 154 181
135 155 181
134 154 181
134 154 181
134 154 181
134 154 181
135 155 181
134 154 181
134 154 181
134 154 181
134 154 181
133 154 181
133 154 181
134 154 181
134 154 180
134 154 181
134 154 181
133 154 181
133 154 181
133 154 180
134 154 180
133 154 181
134 154 181
134 154 181
134 154 181
133 154 181
134 154 181
134 154 181
133 154 181
134 154 181
134 154 181
134 154 181
133 154 181
133 154 181
133 154 181
135 155 181
133 154 181
134 154 180
133 154 181
134 154 181
133 154 181
133 154 181
134 154 181
133 154 181
133 154 181
134 154 181
134 154 181
133 154 181
134 154 181
133 154 181
134 154 181
135 155 181
133 154 181
134 154 181
134 154 181
134 154 181
134 154 181
134 154 181
133 154 181
133 154 181
134 154 181
134 154 181
133 154 181
134 154 181
134 154 181
133 154 181
134 154 181
134 154 181
134 154 181
134 154 181
134 154 181
135 155 181
133 154 181
133 154 181
133 154 181
134 154 181
133 154 181
134 154 181
133 154 181
133 154 181
134 154 181
135 155 181
133 154 181
133 154 181
133 154 181
133 154 181
133 154 181
133 154 181
133 154 181
133 154 181
134 154 181
134 154 181
134 154 181
134 154 181
133 154 181
134 154 181
134 154 181
134 154 181
133 154 181
133 154 181
133 154 181
133 154 181
134 154 181
134 154 181
134 154 180
134 154 181
134 154 181
133 154 181
134 154 181
133 154 181
134 154 181
134 155 181
133 154 181
134 154 181
133 154 181
135 155 181
134 154 181
133 154 181
135 155 181
134 154 181
134 154 181
134 154 180
134 155 181
133 153 180
133 153 180
133 154 181
133 154 181
134 154 181
133 154 180
134 154 181
133 154 181
134 154 181
132 153 180
132 153 180
133 154 181
134 154 180
133 154 180
134 154 181
134 154 181
135 155 181
133 154 181
133 154 181
134 154 181
134 154 181
134 154 181
134 154 181
134 154 181
133 154 181
133 153 180
134 154 181
134 154 181
133 154 181
132 153 180
133 154 181
134 154 181
134 154 180
134 154 181
134 154 180
134 154 181
135 155 181
133 154 181
133 154 180
133 154 181
133 153 180
135 155 181
133 153 180
134 154 181
133 154 181
133 154 181
133 153 180
134 154 180
134 154 181
133 153 180
133 154 181
134 154 181
133 154 181
134 154 181
134 154 181
132 153 181
134 154 181
133 154 181
135 155 181
133 154 180
133 154 181
134 154 181
133 154 181
134 154 181
132 153 180
134 154 181
133 153 180
134 154 181
134 154 181
134 155 181
133 154 181
134 154 181
134 154 181
133 154 180
134 154 181
133 154 181
133 153 180
133 154 181
134 154 181
134 154 181
134 154 181
134 155 181
135 155 181
134 154 181
133 154 181
133 154 181
133 154 181
134 155 181
133 154 181
134 154 180
134 154 180
134 154 181
134 154 181
134 154 181
133 154 181
134 154 181
133 154 181
134 154 181
134 154 181
133 154 181
134 154 181
133 153 180
134 154 181
134 154 181
133 154 181
133 153 180
133 154 181
134 154 181
134 154 180
133 154 181
133 153 180
133 153 180
133 154 181
135 155 181
134 154 180
134 154 181
134 154 181
134 154 181
134 154 181
134 154 181
134 154 181
133 154 181
133 154 181
134 154 181
134 154 181
133 154 181
134 154 181
133 154 181
134 154 181
133 154 181
133 154 180
134 154 181
133 154 181
134 154 181
134 154 181
134 154 181
134 154 181
134 154 181
134 154 181
134 154 181
134 154 181
133 154 181
134 154 181
134 154 181
134 154 181
133 154 181
134 154 181
134 154 181
133 154 181
134 154 181
134 154 181
133 154 181
133 154 180
133 153 180
134 154 181
134 154 181
134 154 181
133 154 181
135 155 181
133 154 180
134 154 181
133 154 180
134 154 181
133 154 181
133 153 180
134 154 181
133 154 181
133 154 181
134 155 181
135 155 181
134 154 181
133 154 181
134 154 181
133 153 180
134 154 181
133 154 181
133 154 181
134 154 181
134 154 181
134 155 181
133 154 181
135 155 181
132 153 180
134 154 181
133 154 181
134 154 181
131 152 180
133 153 180
133 154 181
134 154 181
133 154 181
133 154 181
133 154 181
134 154 181
134 154 181
134 154 181
133 154 181
134 154 181
134 154 181
135 155 181
134 154 181
134 154 181
133 153 180
133 154 180
133 153 180
134 154 181
133 154 181
134 154 181
134 154 181
133 154 181
134 154 181
134 154 181
133 154 181
133 154 181
134 154 181
133 154 181
133 154 181
134 154 181
134 154 181
135 155 181
134 154 181
135 155 181
134 154 181
133 154 181
133 154 181
134 154 180
132 153 180
133 154 181
134 154 181
134 154 181
135 155 181
134 154 180
134 154 181
133 154 181
134 154 181
133 154 181
133 154 181
133 154 181
134 154 181
133 154 181
134 154 181
134 154 181
134 154 180
135 155 181
134 154 181
133 154 180
134 154 181
134 154 181
133 154 181
134 154 181
134 154 181
134 154 181
134 154 181
134 154 181
134 154 181
134 154 181
132 153 180
135 155 181
133 153 180
134 154 181
134 154 181
133 154 181
133 154 181
134 154 181
134 154 181
133 154 181
134 154 181
134 154 181
134 154 181
133 154 181
133 154 181
134 154 181
134 154 181
134 154 181
133 154 181
134 155 181
134 154 181
133 154 181
133 154 181
134 154 181
134 154 181
134 154 181
133 154 181
134 155 181
134 154 181
134 154 181
134 154 181
134 154 181
133 154 181
133 154 181
134 154 180
134 155 181
134 154 181
133 154 181
133 154 181
134 154 180
134 154 181
135 155 181
134 154 181
133 154 181
133 154 180
133 154 181
135 155 181
134 154 181
133 154 180
134 154 181
134 154 181
133 154 181
134 154 180
133 154 180
134 154 181
133 154 181
134 154 181
133 154 181
132 153 180
133 154 181
134 154 181
134 154 181
134 154 181
133 154 181
134 154 181
134 154 181
134 154 181
134 154 181
134 154 181
134 155 181
133 154 181
133 154 181
133 154 181
134 154 181
134 154 181
135 155 181
133 154 181
133 154 181
134 154 181
133 154 181
133 154 181
134 154 181
133 154 181
134 154 181
134 154 181
133 154 181
133 154 181
134 154 181
134 154 181
134 154 181
134 154 181
133 154 181
134 154 181
134 155 181
133 154 181
134 154 181
133 154 181
134 154 181
134 154 181
134 154 181
133 154 181
133 154 181
134 154 181
135 155 181
134 154 181
134 154 181
134 154 181
135 155 181
134 154 181
134 154 181
134 154 181
134 154 181
134 154 181
133 154 181
134 154 181
135 155 181
133 154 181
134 154 181
134 154 180
134 154 181
134 154 181
134 154 181
134 154 181
134 154 181
133 154 181
133 154 181
134 154 181
134 154 181
134 154 181
134 154 181
134 154 181
134 154 181
134 154 181
134 154 181
134 154 181
133 154 181
133 154 181
134 154 181
134 154 181
134 154 181
134 154 181
135 155 181
134 154 181
135 155 181
134 154 181
133 153 180
133 154 181
133 154 181
133 154 181
134 154 181
132 153 181
133 154 180
134 154 181
133 154 180
134 154 181
134 154 181
134 154 181
134 154 180
134 154 181
134 154 181
133 154 180
133 154 181
134 154 181
133 154 181
134 154 181
134 154 181
134 154 181
133 154 181
133 154 181
134 154 180
134 154 181
133 154 181
134 154 181
133 154 180
135 155 181
133 154 181
134 154 181
134 154 181
133 154 181
133 154 181
133 154 181
134 154 181
134 154 181
133 153 180
134 154 181
133 154 181
132 153 181
134 154 181
133 154 181
134 155 181
134 154 181
133 154 181
133 154 181
133 154 181
133 154 180
134 154 181
134 154 181
135 155 181
133 154 180
134 154 181
133 154 181
134 154 181
134 154 181
134 154 181
134 154 180
134 154 181
133 153 180
133 154 181
134 154 180
134 154 181
134 154 181
134 154 180
134 154 181
134 154 180
134 154 180
134 154 181
134 154 181
133 154 180
134 154 181
133 153 180
133 154 180
133 153 180
133 153 180
134 154 181
134 154 181
134 154 181
134 154 181
133 154 181
134 154 181
134 154 181
134 154 180
133 154 181
133 154 181
134 154 181
134 154 181
133 153 180
133 154 181
134 154 181
134 154 181
134 154 181
133 154 181
133 154 181
134 154 181
133 154 181
134 154 181
134 154 181
133 154 181
133 154 181
133 154 181
133 154 181
133 154 180
133 154 180
134 155 181
133 154 181
134 154 181
134 154 181
133 154 181
133 154 181
132 154 181
134 154 181
134 154 181
133 154 181
133 154 181
134 154 181
133 154 181
134 154 181
134 154 181
133 154 181
133 153 180
133 154 181
134 154 181
134 154 181
134 154 181
133 154 180
133 154 181
133 154 181
134 154 181
134 154 181
133 154 181
133 153 180
135 155 181
134 154 181
133 154 181
133 154 181
133 154 181
132 153 180
134 154 180
134 154 181
133 154 181
134 154 181
133 154 181
135 155 181
134 154 181
134 154 181
133 154 181
133 154 180
134 154 181
134 154 181
134 154 181
134 154 181
133 154 180
133 154 181
133 154 181
134 154 181
133 154 181
134 154 181
133 153 180
133 154 181
133 154 181
134 154 181
134 154 181
133 154 181
133 154 181
134 154 181
133 154 181
134 154 181
134 154 181
134 154 181
134 154 181
134 154 181
133 154 181
134 154 181
134 154 181
134 154 181
134 154 181
135 155 181
134 154 181
134 154 181
134 154 181
133 154 181
134 154 181
133 154 181
134 154 181
134 154 181
133 154 181
133 154 180
133 154 181
133 154 181
133 154 181
133 154 181
135 155 181
133 154 180
133 154 181
135 155 181
134 154 181
135 154 180
133 153 180
134 154 181
134 154 181
134 154 181
134 154 181
134 154 180
134 154 180
134 154 181
134 154 181
133 154 180
133 154 181
134 154 181
134 154 181
134 154 181
135 155 181
133 154 181
134 154 181
134 154 181
134 154 181
134 154 181
134 155 181
133 154 181
134 154 181
133 154 181
133 154 181
134 154 181
133 154 181
133 154 180
133 154 181
134 154 180
133 154 180
135 155 181
134 154 181
135 155 181
134 154 181
134 154 181
134 154 181
134 154 180
134 154 181
134 154 181
134 154 181
133 154 181
134 154 181
133 154 181
134 154 181
133 154 181
133 154 181
135 155 181
134 154 181
134 154 181
133 154 181
134 154 181
134 154 181
134 154 181
134 154 181
133 154 180
133 154 181
134 154 181
134 155 181
134 154 181
134 154 181
133 154 181
133 154 181
133 154 181
134 154 181
134 154 181
133 154 181
133 154 180
134 154 181
134 154 181
134 154 181
134 154 181
133 154 181
133 154 181
133 153 180
133 154 181
134 154 181
134 154 181
134 154 181
132 153 180
133 154 181
134 155 181
134 154 181
134 154 181
134 154 181
133 154 181
133 154 181
133 154 181
134 154 181
133 154 181
134 154 181
134 154 181
134 154 181
134 154 181
134 154 181
134 154 181
133 153 180
134 154 181
134 154 181
134 154 181
133 154 181
133 154 181
134 154 181
134 154 181
133 154 181
134 154 181
133 154 181
134 154 181
133 154 181
134 154 181
133 154 181
133 153 180
134 154 181
134 154 181
134 154 181
133 154 181
134 154 181
133 154 181
133 154 181
134 154 181
134 154 181
134 154 181
134 154 181
134 154 181
134 154 181
133 154 181
134 154 181
134 154 181
134 154 181
134 154 181
134 154 181
134 154 181
134 154 181
134 154 181
134 154 181
133 154 181
134 154 181
134 154 181
135 155 181
134 154 181
133 154 181
134 154 181
134 154 181
133 154 181
134 154 181
134 154 181
134 154 181
134 154 181
133 154 181
133 154 181
133 153 180
135 155 181
134 154 181
134 154 181
134 154 180
133 154 181
134 154 181
133 154 181
133 154 181
134 154 181
133 154 181
133 153 180
134 154 181
134 154 181
133 154 181
134 154 181
134 154 181
134 154 181
134 154 181
134 154 181
133 154 181
134 154 181
133 154 181
133 154 181
134 154 181
133 154 181
133 154 181
134 154 181
133 154 181
134 154 181
134 154 180
134 154 181
133 154 181
133 154 181
133 154 181
133 154 180
133 154 181
134 154 181
134 154 181
134 154 181
134 154 181
134 154 181
134 154 181
134 154 181
134 155 181
134 154 181
133 154 181
133 154 181
134 154 181
134 154 181
133 154 181
133 154 180
134 154 180
134 154 181
134 154 181
134 154 181
134 154 181
134 154 181
134 154 181
133 154 180
133 154 181
133 153 180
133 153 180
134 154 181
133 154 180
134 154 181
133 154 181
134 154 181
133 153 180
135 155 181
133 154 181
133 154 181
134 154 181
134 154 181
134 154 181
135 155 181
133 154 180
134 154 180
133 153 180
134 154 181
134 154 181
133 153 180
134 154 181
133 153 180
133 154 181
133 153 180
134 154 181
133 154 181
134 154 181
133 154 181
134 154 181
134 154 180
134 154 181
134 154 181
133 154 181
134 154 181
133 154 181
134 154 181
134 154 181
133 154 181
134 154 181
134 154 181
134 154 181
134 154 181
134 154 181
134 154 181
133 154 181
133 154 181
134 154 181
132 153 180
134 154 181
134 154 181
134 154 181
134 154 181
134 154 181
133 154 180
132 153 180
134 154 181
134 154 181
133 154 180
133 154 180
134 154 181
134 154 181
134 154 181
134 154 181
134 154 181
133 154 181
132 153 180
134 154 181
133 154 181
133 154 181
133 154 181
134 154 180
134 154 181
133 154 180
134 154 181
133 154 181
133 153 180
134 154 181
134 154 181
134 154 181
133 154 181
133 154 181
134 154 181
134 155 181
132 153 181
134 154 181
133 154 181
132 153 180
133 153 180
133 154 180
134 154 180
135 155 181
134 154 180
134 154 181
134 154 181
133 153 180
135 155 181
134 154 181
134 154 181
134 154 181
134 154 181
133 154 181
133 154 181
133 153 180
134 154 181
134 154 181
134 154 180
133 154 181
135 155 181
133 154 180
134 154 181
134 154 181
133 154 181
134 154 181
134 154 181
133 154 181
134 154 180
134 154 181
134 154 181
133 153 179
134 154 181
134 154 181
133 154 181
134 154 181
134 154 181
133 153 180
133 154 180
133 154 181
134 154 181
135 155 181
133 154 181
134 154 181
133 154 181
134 154 181
134 154 181
134 154 181
133 154 181
135 155 181
135 155 181
134 154 181
134 154 181
135 155 181
134 154 181
133 154 181
133 154 181
134 154 181
134 154 181
134 154 181
134 154 180
135 155 181
133 154 181
134 155 181
133 154 181
133 154 181
134 154 181
133 154 181
133 154 181
134 154 181
134 155 181
134 154 181
133 154 181
134 154 181
133 154 181
133 154 181
133 153 180
133 154 180
132 153 180
134 154 181
133 154 180
133 153 180
133 154 181
134 154 181
134 154 181
134 154 181
133 154 181
133 154 181
133 154 181
135 155 181
134 154 181
133 154 181
134 155 181
134 154 181
134 154 181
134 154 181
135 155 181
134 154 181
134 154 181
134 154 181
134 154 181
133 154 181
134 154 181
134 154 181
133 154 181
134 154 181
135 155 181
134 154 181
134 154 181
134 154 181
134 154 181
134 154 181
133 154 181
134 154 181
133 154 180
134 154 181
133 154 180
134 154 181
134 155 181
134 154 180
134 154 181
134 154 180
134 154 180
133 154 180
133 154 181
134 154 181
134 154 181
133 154 181
134 154 181
134 154 181
133 154 181
133 154 181
133 154 181
134 154 181
134 154 181
134 154 181
133 154 181
134 154 181
134 154 181
134 154 181
134 154 181
133 154 181
134 154 181
133 154 181
134 154 181
134 154 181
133 154 181
133 153 180
134 154 181
133 154 181
134 154 181
134 154 181
133 154 181
133 154 181
135 155 181
133 154 181
134 154 181
134 154 181
134 154 181
134 154 181
133 153 180
133 154 181
133 154 181
133 154 181
134 154 181
134 154 181
133 154 181
133 154 181
135 155 181
133 154 181
133 154 181
134 154 181
134 154 181
134 154 181
134 154 181
134 154 181
133 154 181
134 154 181
135 155 181
134 154 181
134 154 181
133 154 181
135 155 181
134 154 181
134 154 181
134 154 180
134 154 181
134 155 181
134 154 181
134 154 181
133 154 181
134 154 181
134 154 180
134 154 181
134 154 181
134 154 181
134 154 181
133 154 181
133 154 181
133 153 180
134 155 181
134 154 181
133 154 181
133 154 181
134 154 181
133 154 181
134 154 181
133 154 181
133 154 181
133 154 181
133 154 181
134 154 181
134 154 181
133 154 181
134 154 181
134 154 181
132 153 181
134 154 181
134 154 180
134 154 181
135 155 181
134 154 181
133 154 181
133 154 181
133 154 181
135 155 181
133 154 181
133 154 181
134 154 181
133 154 181
133 154 181
134 154 181
134 155 181
134 155 181
134 154 181
134 154 181
134 154 181
133 154 181
134 154 181
133 154 181
134 154 181
134 154 181
133 153 180
133 154 181
134 154 181
134 154 181
133 154 181
133 154 180
133 154 181
134 154 181
134 155 181
133 154 181
135 155 181
134 154 181
134 154 181
134 155 181
134 154 181
134 154 181
133 154 181
134 154 181
134 154 181
133 154 181
133 154 181
134 154 181
133 154 181
133 154 181
134 154 181
134 154 181
134 154 181
134 154 181
134 154 181
134 154 181
134 154 181
134 154 181
134 154 181
133 154 181
134 154 181
133 154 181
134 154 181
134 154 181
133 154 181
134 154 181
134 154 181
133 154 181
134 154 181
134 154 181
134 154 181
133 154 181
133 154 181
133 154 181
133 154 181
134 154 181
134 154 181
134 154 181
134 154 181
133 154 181
133 154 181
133 154 181
133 154 181
133 153 180
134 154 181
134 154 181
133 154 181
133 153 180
134 154 181
132 153 180
134 154 181
133 154 180
133 154 181
134 154 181
134 154 181
134 154 180
133 154 181
134 154 181
134 154 181
134 154 181
134 154 181
134 154 181
134 154 180
133 154 181
133 154 181
134 154 181
134 154 181
134 154 181
133 154 181
134 154 181
133 154 181
133 154 181
134 154 180
134 154 181
133 154 181
133 154 181
133 154 180
132 153 180
133 154 181
133 154 181
133 154 181
134 154 181
134 154 181
134 154 181
134 154 181
134 154 181
133 153 180
134 154 181
134 154 181
134 154 181
134 154 181
134 154 181
134 154 181
133 154 181
133 154 181
134 154 181
134 154 181
134 154 181
134 154 181
134 154 181
134 154 181
134 154 180
133 154 181
133 154 181
134 154 181
133 154 181
134 154 180
135 155 181
132 153 180
134 154 180
134 154 181
133 154 181
133 154 181
134 154 181
133 153 180
132 153 180
134 154 181
134 154 180
133 154 181
132 153 179
134 154 181
134 154 181
133 154 181
134 154 181
134 154 181
134 154 181
133 154 181
134 154 181
133 154 180
134 154 181
134 154 180
133 154 181
134 154 181
134 154 181
133 153 180
134 154 181
133 154 180
133 153 180
134 154 180
134 154 181
133 154 180
135 155 181
133 154 181
134 154 181
133 154 181
133 154 181
134 154 181
134 154 181
133 153 180
134 154 181
133 154 180
134 154 181
134 154 181
133 154 181
134 154 181
134 154 180
132 153 180
133 154 181
134 154 181
133 154 181
134 154 181
134 154 181
134 154 181
133 154 181
133 154 180
134 154 181
134 154 181
134 154 181
134 154 181
134 154 181
133 154 180
133 154 181
133 154 181
133 154 181
133 154 181
134 154 181
133 154 181
133 154 181
134 154 181
134 154 181
133 154 181
133 154 181
134 154 181
134 154 181
134 154 181
133 154 181
133 154 181
134 154 181
133 154 181
134 154 181
134 154 181
133 154 181
133 154 181
133 154 180
134 155 181
134 154 181
133 154 181
133 154 181
134 154 181
134 154 181
134 154 181
133 154 181
134 154 181
133 154 181
135 155 181
133 154 180
134 154 181
134 154 181
134 154 181
134 154 181
134 154 180
133 154 180
135 155 181
133 154 181
135 155 181
133 154 181
134 154 181
134 154 181
133 153 180
134 154 181
134 154 181
134 154 180
133 154 181
133 154 181
134 154 181
134 154 181
133 154 181
135 155 181
134 154 180
134 154 181
134 154 180
134 155 181
133 154 181
134 154 181
134 155 181
134 154 181
132 153 180
133 154 181
133 154 181
134 154 181
134 154 181
134 154 181
133 154 181
134 154 181
133 153 180
134 154 181
133 154 180
134 154 180
134 154 181
134 155 181
134 154 180
134 154 181
134 154 181
134 154 181
135 155 181
133 154 181
134 154 181
134 154 181
133 154 180
134 154 181
134 154 181
134 154 181
133 154 181
133 154 181
135 155 181
134 154 181
134 154 180
134 154 181
134 154 181
133 154 181
134 154 181
133 154 181
135 155 181
133 154 181
134 154 181
134 154 180
134 154 181
134 154 181
133 154 181
134 154 181
133 154 181
134 154 181
134 154 181
133 154 181
133 154 181
133 154 181
134 154 181
133 154 181
134 154 181
134 154 181
134 154 181
134 154 181
134 154 181
135 155 181
134 154 181
133 153 180
134 154 181
134 154 181
134 154 181
135 155 181
134 154 181
133 154 181
134 154 181
134 154 181
134 154 181
134 154 180
133 154 181
134 154 181
134 154 181
133 154 181
134 154 181
134 154 181
134 154 181
134 154 180
133 154 181
134 154 181
133 153 180
134 154 181
134 154 181
134 154 181
133 154 181
134 154 181
134 154 181
133 154 181
133 154 181
133 154 181
134 154 181
134 154 181
134 154 181
134 154 180
134 154 181
135 155 181
134 154 181
133 154 180
134 154 180
134 154 181
134 154 181
134 154 181
132 154 181
135 155 181
133 154 181
134 154 181
134 154 181
134 154 181
134 154 181
134 154 181
134 154 181
135 155 181
134 154 181
134 154 181
134 154 181
134 154 181
134 155 181
134 154 181
133 154 181
134 154 181
134 154 181
133 153 180
134 154 181
134 154 181
134 154 181
134 154 181
133 154 181
133 154 181
134 154 181
134 154 181
134 154 180
134 155 181
134 154 181
134 154 181
132 153 181
133 154 181
134 154 181
134 154 181
134 154 181
134 154 181
133 154 181
133 154 181
134 154 181
134 154 181
134 154 181
134 154 181
134 154 181
134 154 181
133 154 181
135 155 181
134 154 181
134 154 181
133 154 181
134 154 181
134 154 181
133 154 181
134 154 181
133 154 181
134 154 181
134 154 181
133 154 181
133 154 181
134 154 181
133 154 181
133 154 181
134 154 181
134 154 181
134 154 181
134 154 181
134 154 181
134 155 181
133 154 181
134 154 181
133 154 181
133 154 181
133 154 181
133 153 180
133 154 181
134 154 181
134 154 181
134 154 181
134 154 180
134 154 181
134 154 181
134 154 181
133 154 181
133 154 181
134 154 181
133 154 181
134 154 181
134 154 181
133 154 181
134 154 181
134 154 181
134 154 181
134 154 181
134 154 181
133 154 181
134 154 181
134 154 181
134 154 181
134 154 181
134 154 181
133 154 181
134 154 181
134 154 181
134 154 181
135 155 181
134 154 181
134 154 181
135 155 181
134 154 180
133 154 181
133 154 181
133 154 181
133 154 180
134 154 181
134 154 181
134 154 181
133 154 181
133 154 181
133 154 181
133 154 180
134 154 181
133 154 181
133 154 181
134 154 181
133 154 181
134 154 181
134 154 181
134 154 181
133 154 180
133 154 180
133 154 181
133 154 181
134 154 180
134 154 181
133 154 180
132 153 180
134 154 181
133 154 181
134 154 181
134 154 181
134 154 181
133 154 181
134 154 181
133 154 181
133 154 181
134 154 181
133 154 181
133 154 181
133 154 180
133 154 181
134 154 181
133 153 180
133 154 181
134 154 181
133 153 180
134 154 181
134 154 181
134 154 181
134 154 180
134 154 181
134 154 181
135 155 181
133 154 181
133 154 181
134 154 181
134 154 181
134 154 181
133 154 181
134 154 181
134 154 180
134 154 181
134 154 181
134 154 181
133 154 181
134 154 180
134 154 181
133 154 181
134 154 181
135 155 181
133 154 181
134 154 181
134 154 180
134 154 180
133 154 181
133 154 181
133 154 181
134 154 181
133 153 180
134 154 181
133 154 181
134 154 181
135 155 181
132 153 180
133 154 180
134 154 181
134 154 181
134 154 181
134 154 181
133 154 181
132 153 180
133 154 180
133 154 181
134 154 180
134 155 181
133 154 181
133 153 180
133 154 181
134 154 181
133 154 181
134 154 181
132 153 180
134 154 181
134 154 181
134 154 181
134 154 181
134 154 180
133 154 180
134 154 180
134 154 181
134 154 181
133 154 181
134 154 180
133 153 180
133 154 181
134 154 181
133 154 181
133 154 181
134 154 181
135 155 181
133 154 181
134 154 181
134 154 181
134 154 180
133 154 180
134 154 181
135 155 181
134 154 181
134 154 181
134 154 181
133 154 181
134 154 181
134 154 181
134 154 181
133 154 181
135 155 181
134 154 181
134 154 181
134 154 181
134 154 181
134 154 181
133 154 181
133 154 181
133 154 181
134 154 181
134 154 181
133 154 181
134 154 181
134 154 181
134 154 181
134 154 181
133 154 181
133 154 181
133 154 181
134 154 181
134 154 181
134 154 181
133 154 181
134 154 181
133 154 181
134 154 181
134 154 181
133 154 180
133 154 180
134 154 181
133 154 181
133 154 181
134 154 181
134 154 181
134 154 181
134 154 181
133 154 181
134 154 181
134 154 181
134 154 180
133 154 181
133 154 181
134 154 181
133 154 181
133 154 181
134 154 181
133 154 180
133 154 181
133 154 181
133 154 181
133 154 181
133 154 181
133 154 181
133 154 181
133 154 181
134 155 181
134 155 181
134 154 181
133 154 181
134 154 181
135 155 181
135 155 181
133 153 180
133 154 181
133 153 180
133 154 181
134 154 181
134 154 181
134 154 181
134 154 181
134 154 181
133 154 181
134 154 181
134 154 181
134 154 181
133 154 181
134 154 181
133 153 180
133 154 181
134 154 181
133 154 180
133 154 181
133 154 181
133 154 181
134 154 181
134 154 181
134 154 181
133 154 180
134 154 181
134 154 181
133 153 180
134 154 181
135 155 181
134 154 180
134 154 181
134 154 181
134 154 181
134 154 181
134 154 181
134 154 181
134 155 181
133 154 181
135 155 181
134 154 181
134 154 181
133 153 180
134 154 181
133 154 181
134 154 181
134 154 181
134 154 181
133 154 181
134 154 181
134 154 181
134 154 181
134 154 181
133 154 181
133 154 181
134 154 181
133 154 181
134 154 181
134 154 180
135 155 181
134 154 181
134 154 181
133 154 181
134 154 181
134 154 181
134 154 181
134 154 181
134 154 181
134 154 181
134 154 181
134 154 181
134 154 181
133 154 181
133 154 181
134 154 181
133 154 181
134 154 181
134 154 181
133 154 181
133 154 181
134 154 181
134 154 181
134 154 181
135 155 181
135 155 181
134 154 181
134 154 181
134 154 180
134 154 181
133 154 181
134 154 180
134 155 181
134 154 181
134 154 181
134 154 181
134 154 181
133 154 181
133 154 181
134 154 181
133 154 181
133 154 181
134 154 181
134 154 181
134 154 181
133 154 181
133 154 181
134 154 181
134 154 181
134 154 181
133 154 181
134 154 181
134 154 181
133 154 181
133 154 181
134 154 181
134 154 181
134 154 181
133 154 180
133 153 180
134 154 181
133 154 180
134 154 181
134 154 181
134 154 181
134 154 181
133 154 181
133 154 181
133 154 181
134 154 181
133 154 181
134 154 181
133 154 181
134 154 181
134 154 181
133 154 181
134 154 181
133 154 181
133 154 181
133 154 181
134 154 181
134 154 181
134 154 181
133 154 181
133 154 181
133 154 181
133 154 181
134 154 181
134 155 181
134 154 181
134 154 181
134 154 180
134 154 181
133 154 181
134 154 181
133 154 181
133 154 181
134 155 181
133 154 181
134 154 181
134 154 181
134 154 181
133 154 181
132 153 181
133 154 181
133 154 181
134 155 181
134 154 181
133 153 180
135 155 181
133 154 181
135 155 181
134 155 181
134 154 181
133 154 180
133 154 181
133 154 181
132 153 181
133 154 181
134 154 181
134 154 181
133 154 181
134 154 181
132 153 181
134 154 181
133 154 181
134 154 181
134 154 181
134 154 180
134 154 181
133 154 181
135 155 181
134 154 181
133 154 181
133 154 181
134 154 181
134 154 180
133 154 181
133 154 181
134 154 181
133 154 181
133 153 180
133 154 180
134 154 181
134 154 181
133 154 181
133 154 180
134 154 181
134 154 181
134 154 181
133 154 181
134 154 181
133 154 180
134 154 181
133 153 180
133 153 180
133 154 181
133 154 180
134 154 181
134 154 181
134 154 181
133 154 181
134 154 181
134 154 181
133 154 181
134 154 181
133 154 181
133 154 181
133 154 181
134 154 181
134 154 181
134 154 181
133 154 180
134 154 181
134 154 181
133 154 181
133 154 181
133 154 181
134 154 181
132 154 181
134 154 181
134 154 181
133 154 181
134 154 181
134 154 181
133 154 181
134 154 181
133 154 181
134 154 181
134 154 181
133 154 181
134 154 181
134 154 181
134 154 181
133 153 180
134 154 181
133 153 180
133 154 181
133 154 180
134 154 181
134 154 181
133 154 181
134 154 180
133 154 181
134 154 181
134 154 181
134 154 181
133 154 181
134 155 181
133 154 180
134 154 181
134 154 181
133 154 181
133 154 180
134 154 181
133 153 180
134 154 181
133 154 180
134 154 181
133 154 181
133 154 180
134 154 181
134 154 181
134 154 181
133 154 181
134 154 180
133 154 181
134 154 181
133 153 180
134 154 181
134 154 181
133 154 181
133 154 181
133 154 181
133 154 181
133 154 180
134 154 181
133 154 181
134 154 181
134 154 181
133 153 180
134 154 181
134 154 181
133 154 181
133 154 181
133 154 181
134 154 181
133 154 181
135 155 181
133 154 180
133 154 180
134 154 181
134 154 181
133 153 180
134 154 181
134 154 181
133 154 181
134 154 181
133 154 181
134 154 181
133 154 181
133 154 180
134 154 181
133 154 181
133 154 181
132 153 180
134 154 181
134 154 181
134 154 181
134 154 181
133 154 181
134 154 181
134 154 181
133 154 181
133 154 181
133 154 180
134 154 181
134 154 181
134 154 181
134 154 180
134 154 180
134 154 181
133 153 180
134 154 181
134 154 180
134 154 181
134 154 181
134 155 181
133 153 180
134 154 181
134 154 181
134 155 181
134 155 181
133 154 180
134 154 181
134 154 181
134 154 181
134 154 181
133 154 181
133 154 181
133 154 181
134 154 181
134 154 181
134 154 181
133 154 181
134 154 181
134 154 180
134 154 181
134 154 181
134 154 181
134 154 181
133 154 181
133 154 181
134 154 181
134 154 181
134 154 181
133 154 181
134 155 181
134 154 181
133 153 180
135 155 181
132 153 180
134 154 181
134 154 181
135 155 181
134 154 181
134 154 181
134 154 181
133 154 181
134 154 181
135 155 181
134 154 181
134 154 181
132 153 181
133 154 181
134 154 181
134 154 181
133 154 181
134 154 181
133 154 181
133 154 181
133 154 180
134 154 181
134 154 181
134 154 181
134 154 181
134 154 181
134 154 181
134 154 181
134 154 181
134 154 181
133 154 181
134 154 181
134 154 181
133 153 180
134 154 181
134 154 181
134 154 181
134 154 181
133 154 181
133 154 181
133 154 181
134 154 181
133 153 180
134 154 181
134 154 181
133 153 180
134 154 181
135 155 181
133 154 181
134 154 181
134 154 181
134 154 181
134 154 181
134 154 181
134 154 181
134 154 181
133 154 181
134 154 181
133 154 181
134 154 181
134 154 181
133 154 181
134 155 181
133 153 180
134 154 181
132 153 180
133 154 180
134 154 181
134 154 181
134 154 181
135 155 181
133 154 181
134 154 181
135 155 181
134 154 181
134 154 181
133 154 180
134 154 181
134 154 181
133 154 181
133 154 181
133 154 181
133 154 181
133 154 181
134 154 181
135 155 181
134 154 181
133 154 181
134 154 181
134 154 181
134 154 181
133 154 181
134 154 181
133 154 181
133 154 180
134 154 181
134 154 181
134 154 181
133 154 181
134 154 181
133 154 181
134 154 181
134 154 181
134 154 181
133 154 181
135 155 181
134 154 181
134 154 181
133 154 181
134 154 181
134 154 181
133 154 181
133 154 181
134 154 181
135 155 181
134 154 181
134 154 181
133 154 181
134 154 181
133 154 181
133 154 181
133 154 181
134 154 181
133 154 181
134 154 180
134 154 181
134 154 181
134 154 181
133 154 180
133 154 180
133 154 180
134 154 181
133 154 181
134 154 181
133 154 181
134 155 181
133 154 181
134 154 181
134 154 181
134 154 181
134 154 181
134 154 181
134 154 181
134 154 181
134 154 181
134 154 181
135 155 181
133 154 181
134 154 181
134 154 181
133 154 181
135 155 181
134 155 181
134 154 181
134 154 181
132 153 180
133 154 181
134 154 181
134 154 181
135 155 181
134 154 181
134 154 181
133 154 181
133 154 181
134 154 181
133 154 181
133 154 181
134 154 181
134 154 181
134 154 181
134 154 181
134 154 181
133 154 181
134 154 181
133 154 181
134 154 181
134 154 181
134 154 181
133 154 181
135 155 181
134 154 181
133 154 181
134 154 181
132 153 181
133 154 181
134 154 181
133 154 181
133 154 181
134 154 181
134 154 181
134 154 181
134 154 181
134 154 181
134 155 181
135 155 181
134 154 181
134 154 181
133 154 181
133 154 181
134 154 181
134 154 181
134 154 181
135 155 181
134 154 181
135 155 181
134 154 181
134 154 181
133 154 181
134 154 181
134 154 180
133 154 181
134 154 181
134 154 181
134 154 181
134 154 181
134 154 181
134 154 181
134 154 181
133 154 181
134 154 181
134 154 181
134 155 181
134 154 181
133 154 180
134 154 181
135 155 181
134 154 180
132 153 181
134 154 181
133 154 180
133 154 181
133 153 180
133 154 181
135 155 181
134 154 181
134 154 181
134 154 180
134 154 181
133 154 181
134 154 181
133 154 181
134 154 181
133 154 181
134 154 181
134 154 180
134 154 181
134 154 181
134 154 181
133 154 181
134 154 180
134 154 181
133 154 181
134 154 181
133 154 180
134 154 180
134 154 181
133 154 181
134 154 181
133 154 181
135 155 181
134 154 180
133 154 181
133 154 181
133 154 181
133 154 181
132 153 180
135 155 181
134 154 181
133 154 181
134 154 181
133 154 181
133 154 181
134 154 181
134 154 180
133 154 181
133 154 181
134 154 181
134 154 180
134 154 181
134 154 181
133 154 181
134 154 181
133 154 181
133 154 180
134 154 181
133 154 181
133 153 180
134 154 181
134 154 181
134 154 180
133 154 181
133 153 180
132 153 180
134 154 181
133 154 181
133 154 181
134 154 181
134 154 181
134 154 181
133 154 180
133 154 181
134 154 181
133 154 181
133 154 181
135 155 181
134 154 181
135 155 181
134 154 181
133 154 181
134 154 181
134 154 181
133 154 180
134 154 181
133 154 180
134 154 181
134 154 181
133 154 181
134 154 181
133 154 181
133 154 181
134 154 181
134 154 181
134 154 181
134 154 181
134 154 181
133 154 181
135 155 181
133 154 181
135 155 181
133 154 181
133 154 180
134 154 181
133 154 181
134 154 181
133 154 181
134 154 181
134 154 181
135 155 181
133 154 181
133 154 181
133 154 181
134 154 181
134 154 181
134 154 181
134 154 181
134 154 181
134 154 181
134 154 181
133 154 181
133 153 180
134 154 181
135 155 181
133 154 180
133 154 181
133 154 181
134 154 181
134 154 180
133 154 181
134 154 181
134 154 181
133 154 181
133 153 180
133 154 180
134 154 181
134 154 181
133 154 181
133 154 181
134 154 181
133 154 181
135 155 181
133 154 181
134 155 181
134 154 181
134 154 181
134 154 181
133 154 181
134 154 181
134 155 181
133 154 180
134 154 181
133 153 180
133 154 181
134 154 181
134 155 181
133 154 181
134 154 181
134 154 181
134 154 180
133 154 181
133 154 181
133 154 181
134 154 181
134 154 181
134 154 181
133 154 181
134 154 181
133 154 181
134 154 181
134 154 181
134 154 181
133 154 181
133 154 180
134 155 181
134 154 181
133 153 180
134 154 181
134 154 181
134 154 181
134 154 181
134 154 181
133 154 181
135 155 181
134 154 180
133 154 181
135 155 181
133 154 181
133 154 181
134 154 181
133 154 181
134 154 181
133 154 181
133 154 181
133 154 181
133 154 181
134 154 181
134 154 181
134 154 181
135 155 181
134 154 180
134 154 181
133 154 181
133 154 181
135 155 181
134 154 181
134 154 181
134 154 181
133 154 180
133 154 180
134 154 181
133 154 181
133 154 181
134 154 181
133 154 181
135 155 181
133 154 181
134 154 181
133 154 181
133 154 181
133 154 181
135 155 181
134 154 181
134 154 181
134 154 181
133 154 181
135 155 181
133 154 181
133 154 181
134 154 181
134 154 181
133 154 181
133 154 181
133 154 181
133 154 181
133 154 181
134 154 181
133 154 180
134 154 181
134 154 181
134 154 181
134 154 181
134 154 181
134 154 181
134 154 181
134 154 181
134 154 180
134 154 181
133 154 181
134 154 181
133 154 181
134 154 181
134 154 181
134 154 181
134 154 181
134 154 181
133 154 181
134 154 181
134 155 181
133 154 181
133 154 181
134 154 181
134 154 181
133 154 181
134 154 181
133 154 181
133 154 181
133 154 181
134 154 181
134 154 181
134 154 181
134 154 181
134 154 181
134 155 181
134 154 181
134 154 181
134 154 181
133 154 181
134 154 181
135 155 181
134 154 181
133 154 181
133 154 180
134 154 181
133 154 181
134 154 181
133 154 181
134 154 181
134 154 181
134 154 181
134 154 181
133 153 180
134 154 181
134 154 181
133 154 180
133 154 181
134 154 181
134 154 181
134 154 181
133 154 181
134 154 181
134 154 181
133 154 181
134 154 181
133 154 181
133 154 181
133 154 181
134 154 181
133 154 181
133 154 181
135 155 181
134 154 181
133 154 181
133 154 180
134 154 181
133 154 181
134 154 181
134 155 181
133 154 181
134 154 181
133 154 181
134 154 181
134 154 181
134 154 181
133 154 180
134 154 181
134 154 181
134 154 181
133 154 181
133 154 181
134 154 181
133 154 181
135 155 181
133 154 181
134 154 181
134 154 181
134 154 181
134 154 181
134 154 181
134 154 181
133 154 181
133 154 181
134 154 181
133 154 181
134 154 181
134 154 181
134 154 181
133 154 180
134 154 181
133 154 181
134 154 181
135 155 181
134 155 181
134 154 181
133 154 181
134 154 181
133 154 181
134 154 181
133 154 181
134 154 181
133 154 181
134 154 181
133 154 181
134 154 181
135 155 181
134 155 181
134 154 181
133 154 181
134 154 181
134 154 181
134 154 181
134 154 181
133 153 180
133 154 181
133 154 181
133 154 181
134 154 181
133 154 181
133 154 181
135 155 181
134 154 181
133 154 181
134 154 181
135 155 181
134 154 181
134 154 181
132 153 181
134 154 181
133 154 181
134 154 181
134 154 181
134 154 181
133 154 180
133 154 181
133 153 180
133 154 180
133 154 181
134 154 181
133 154 181
133 154 180
134 154 181
134 154 181
134 154 181
133 154 181
133 153 180
134 154 181
134 154 181
134 154 181
134 154 181
133 153 180
134 154 181
132 153 180
133 154 181
134 154 181
134 154 181
133 154 181
134 154 181
133 154 181
134 154 181
134 154 181
133 154 181
134 154 181
133 154 181
134 154 181
134 154 181
133 154 181
133 154 181
134 154 181
134 155 181
133 154 181
133 153 180
133 154 180
133 154 181
134 154 181
133 154 181
133 154 181
134 154 181
134 154 181
133 154 180
134 154 181
134 154 181
134 154 181
134 154 181
133 154 181
134 154 181
134 155 181
134 154 181
133 154 181
134 154 181
134 154 181
134 154 180
133 154 180
134 154 181
134 154 181
134 154 181
133 154 181
134 154 181
135 155 181
134 154 181
134 154 181
134 154 181
133 154 181
134 154 181
135 155 181
134 154 181
134 154 181
134 154 181
134 154 181
133 153 180
134 154 181
134 154 181
133 154 181
133 154 181
134 154 181
133 154 181
133 154 180
133 154 180
134 154 181
135 155 181
134 154 181
134 154 181
134 154 181
134 154 180
133 154 180
134 154 181
135 155 181
134 154 181
133 154 180
134 154 181
133 153 180
134 154 181
134 154 181
133 154 181
132 154 181
134 154 181
134 154 180
133 154 181
133 154 181
134 154 181
134 154 181
133 154 181
134 154 180
135 155 181
133 154 180
133 153 180
133 153 180
134 154 181
133 154 180
134 154 180
134 154 181
134 154 180
134 154 181
134 154 180
133 154 181
133 154 181
134 154 181
134 154 181
133 153 180
134 154 181
133 154 181
134 154 181
134 154 181
133 154 181
133 154 181
132 153 181
133 154 181
134 154 181
134 154 181
133 154 180
133 154 181
133 153 180
133 154 181
134 154 181
134 154 181
134 154 181
133 154 180
134 154 181
134 154 181
134 154 180
134 154 181
133 154 181
134 154 181
134 154 180
133 154 180
132 153 180
133 154 181
134 154 181
133 154 181
133 154 181
133 154 181
134 154 181
133 154 180
133 154 181
134 154 180
133 154 181
135 155 181
134 154 181
134 154 181
134 154 181
134 154 181
134 154 180
134 154 181
134 154 181
133 154 180
134 154 181
135 155 181
134 154 181
133 154 181
133 154 180
134 154 181
133 154 181
133 154 181
134 154 181
134 154 181
133 154 180
134 154 181
133 154 181
133 154 181
134 154 180
134 154 181
134 154 181
133 154 181
134 154 181
134 154 181
134 154 181
134 154 181
133 154 181
134 154 181
133 154 181
134 154 181
134 154 181
133 154 181
134 154 181
133 154 181
134 154 181
135 155 181
135 155 181
133 154 181
133 154 181
134 154 181
133 154 180
133 154 181
133 154 181
134 154 181
134 155 181
134 154 181
134 154 181
134 154 181
134 154 181
134 154 181
133 154 181
134 154 180
133 154 181
133 154 181
134 155 181
134 154 181
134 154 181
134 154 181
134 154 181
133 154 181
134 154 181
134 154 181
133 154 181
133 154 181
133 154 181
134 154 181
133 154 181
133 154 181
134 154 181
133 154 181
134 154 181
135 155 181
133 154 181
133 154 180
133 154 181
134 154 181
134 154 181
134 154 181
134 154 181
134 154 181
134 154 181
133 154 181
133 154 181
134 154 181
134 154 181
133 154 181
134 154 181
134 154 181
133 154 181
134 154 181
134 154 181
133 154 181
134 154 181
134 154 181
134 154 181
134 154 181
133 154 181
134 154 181
134 154 181
134 154 181
134 154 181
133 154 181
134 154 181
134 154 181
133 154 181
133 154 181
134 154 181
135 154 180
134 154 180
133 154 181
133 154 181
134 154 181
134 154 181
134 154 181
134 154 181
134 154 181
134 154 181
134 154 181
134 154 181
134 154 181
134 154 181
134 154 181
134 154 181
133 154 181
134 154 181
133 154 181
133 154 181
134 154 181
134 154 181
135 155 181
133 154 181
134 154 181
134 154 181
134 154 180
134 154 181
134 154 181
134 154 181
134 154 181
134 154 181
133 154 181
134 154 181
134 154 181
134 154 181
134 154 181
133 154 181
134 154 181
134 154 181
134 154 181
133 154 181
133 154 181
134 154 181
134 154 181
134 154 181
134 154 181
134 154 181
133 154 181
135 155 181
133 154 180
134 154 181
133 154 181
133 154 181
134 154 181
133 154 181
134 154 181
134 154 181
134 154 180
134 154 181
134 154 181
133 154 181
134 154 181
134 154 181
133 154 181
133 153 180
135 155 181
134 154 181
134 154 181
134 154 181
133 154 181
133 154 181
134 154 181
134 154 181
134 154 181
134 154 181
133 154 181
133 154 181
134 154 181
135 155 181
133 154 181
133 154 181
134 154 181
133 154 180
133 154 181
133 154 181
133 154 181
134 154 181
134 154 181
133 154 180
134 154 181
134 154 181
134 154 180
133 154 181
134 154 181
133 154 181
134 154 181
134 154 181
134 155 181
134 154 181
134 154 181
134 154 181
133 154 181
134 154 181
134 154 181
133 154 181
133 153 180
133 154 181
134 154 181
134 154 181
134 155 181
133 154 181
134 154 181
134 154 181
133 154 181
134 154 181
133 154 181
134 154 181
134 154 181
134 154 181
133 154 181
134 154 181
133 154 180
134 154 181
133 154 181
133 154 181
134 154 181
134 155 181
135 155 181
133 154 180
134 154 181
133 154 181
134 154 181
134 154 181
132 153 179
134 154 181
134 154 181
134 154 181
133 154 181
133 154 181
134 154 181
134 154 181
133 153 180
134 154 181
134 154 181
134 154 181
133 154 181
134 154 181
134 154 181
133 154 181
133 154 181
134 155 181
134 154 181
134 154 181
134 154 180
134 154 181
134 154 181
133 153 180
134 154 180
134 154 181
132 153 181
133 154 181
134 154 181
133 153 180
134 154 181
134 154 181
134 154 181
134 154 181
134 154 181
134 154 180
134 154 181
134 154 181
133 154 180
134 154 180
134 154 181
133 153 180
133 154 181
133 154 181
134 154 180
134 154 181
133 153 180
134 154 181
133 154 181
134 154 181
134 154 181
133 154 181
134 154 181
133 154 181
133 154 180
134 154 181
134 154 181
134 154 181
133 153 180
134 154 181
134 154 181
134 154 181
133 154 181
134 154 181
134 154 181
134 154 181
133 153 180
134 154 181
134 154 181
133 154 181
134 154 181
134 154 181
134 154 180
133 153 180
134 154 181
134 154 181
133 154 181
133 154 181
134 154 181
133 154 181
134 154 181
134 154 181
134 154 181
133 154 181
133 154 181
133 154 181
133 154 181
134 154 181
134 154 181
134 154 181
134 154 181
134 154 181
134 154 181
134 154 181
134 154 181
133 154 181
133 154 180
134 154 181
133 154 181
134 154 181
134 154 181
135 155 181
134 154 181
135 155 181
134 154 181
134 154 181
134 154 180
134 154 181
134 154 181
132 153 180
134 154 180
135 155 181
133 153 180
133 154 180
133 154 181
133 154 181
133 154 181
134 154 181
133 153 180
132 153 181
134 154 181
134 155 181
134 154 181
133 154 181
133 153 180
134 154 181
134 154 181
133 154 181
134 154 181
133 154 181
134 154 181
133 154 181
134 154 181
134 154 181
135 155 181
133 154 181
133 154 181
134 154 181
134 154 181
134 154 181
133 154 181
134 154 181
133 154 181
134 154 181
134 154 181
134 154 181
135 155 181
134 154 181
134 154 181
134 154 181
133 154 181
133 153 180
134 154 181
133 154 181
134 154 181
133 154 181
134 154 181
134 154 181
134 154 181
133 154 180
134 154 180
133 154 181
134 154 181
134 154 181
134 154 181
134 154 181
133 154 181
134 154 181
135 155 181
134 154 181
134 154 181
133 154 181
134 154 181
133 154 181
134 154 181
134 154 181
133 154 181
133 154 181
134 154 181
135 155 181
133 153 180
135 155 181
134 154 181
133 154 181
134 154 181
133 154 181
134 154 181
134 154 181
133 154 180
133 153 180
133 154 181
134 154 181
134 154 181
134 154 181
134 154 181
133 154 181
133 153 180
134 154 181
134 154 181
133 154 181
134 154 181
133 154 181
134 154 180
133 154 181
134 154 181
133 154 180
134 154 181
134 154 181
133 154 181
133 154 181
135 155 181
133 154 181
133 154 180
133 154 181
133 154 180
134 154 181
134 154 181
133 154 181
134 154 181
134 154 181
134 154 181
135 155 181
133 154 181
133 153 180
133 154 181
133 154 181
134 154 181
134 154 181
133 154 181
134 154 181
134 154 181
134 154 181
134 154 181
133 154 181
133 154 181
133 154 181
134 154 181
135 155 181
134 154 181
133 154 181
133 154 181
134 155 181
133 154 181
134 154 181
135 155 181
133 154 181
134 154 181
133 154 181
133 154 181
134 154 181
135 155 181
133 154 181
133 154 181
134 154 181
133 154 181
133 154 181
133 154 181
133 154 180
133 154 181
134 154 181
134 154 181
133 154 181
134 154 181
134 154 181
133 154 181
135 155 181
133 154 181
134 154 181
133 154 181
133 154 181
134 155 181
134 154 181
134 154 181
133 154 181
134 154 181
134 154 181
134 154 181
133 154 181
132 153 180
133 154 180
134 154 181
134 154 181
134 154 181
135 155 181
134 154 181
134 154 181
134 154 181
134 154 181
134 154 181
133 154 181
134 154 181
134 154 181
134 154 181
133 154 181
134 154 181
134 154 180
134 154 181
134 154 181
134 155 181
134 154 181
133 154 181
134 154 180
133 154 181
133 154 181
134 154 181
134 154 181
134 154 181
134 154 181
133 154 181
134 154 181
133 154 180
134 154 181
134 154 181
133 154 181
133 154 181
134 154 180
134 154 181
135 155 181
134 154 181
133 154 181
133 154 181
134 154 181
134 154 181
134 154 181
135 155 181
134 154 181
133 154 181
134 154 181
134 154 181
133 154 181
134 154 181
133 154 181
133 154 181
133 154 181
133 154 181
134 154 181
134 154 181
134 154 181
134 154 181
133 154 181
134 154 181
134 154 181
134 154 181
134 154 181
134 154 181
133 154 181
134 154 181
133 154 181
133 154 181
134 154 181
134 154 181
134 154 181
134 154 181
134 154 181
134 154 181
133 154 181
134 154 181
134 154 181
134 154 181
134 154 181
134 154 181
134 154 181
134 154 180
133 154 181
134 154 181
133 154 181
134 154 181
134 154 181
133 154 181
134 154 181
133 154 181
134 154 181
134 154 181
134 154 181
134 154 181
134 154 181
133 154 181
135 155 181
134 154 181
133 154 181
134 154 181
134 154 181
134 154 181
134 154 181
135 155 181
134 154 181
133 154 181
133 154 181
133 154 181
134 154 181
133 154 180
133 154 181
134 154 181
133 154 181
133 154 181
134 154 181
134 154 181
135 155 181
134 154 181
133 154 180
134 155 181
134 154 181
133 154 181
134 154 181
133 154 181
135 155 181
134 154 181
134 154 181
133 153 180
134 154 181
134 154 181
134 154 181
134 154 181
134 154 181
134 154 181
133 154 181
135 155 181
133 154 181
134 154 181
134 154 181
134 154 181
134 154 181
133 154 181
134 154 181
134 154 181
134 154 181
133 154 181
132 153 180
134 154 181
134 154 181
133 154 181
133 153 180
135 155 181
134 154 181
134 154 181
134 154 181
135 155 181
134 154 181
134 154 181
133 153 180
133 154 181
132 153 180
133 154 181
133 154 181
133 154 181
133 154 181
133 154 181
135 155 181
134 154 181
134 154 181
134 154 181
134 154 181
133 154 181
134 154 181
134 154 181
134 154 181
134 154 181
133 154 181
133 154 180
133 154 181
134 154 181
135 155 181
134 155 181
133 154 181
133 154 181
134 154 181
133 154 181
133 154 181
134 154 181
133 154 181
134 155 181
134 154 181
134 154 181
134 154 181
133 154 181
134 154 181
134 154 180
134 154 181
133 154 180
133 154 181
134 154 181
134 154 180
133 154 181
133 154 180
133 154 181
134 154 181
133 154 180
134 154 181
134 154 181
133 154 180
134 154 180
134 154 181
133 153 180
135 155 181
134 154 181
135 155 181
133 154 181
134 154 181
134 154 181
133 154 181
133 154 181
133 154 181
134 154 181
134 154 181
133 154 181
134 154 181
133 154 181
134 154 181
134 154 181
133 154 181
134 154 181
134 154 181
134 154 181
134 154 181
134 154 181
134 154 181
133 154 181
133 154 181
133 153 180
134 154 180
134 154 181
133 153 180
133 154 181
133 154 181
134 155 181
135 155 181
133 154 181
133 154 181
133 154 181
134 154 181
134 154 181
133 154 181
133 154 181
134 154 180
134 154 181
134 154 181
133 153 180
133 154 181
134 154 181
134 154 181
133 154 181
133 154 181
133 154 181
134 154 181
133 154 181
134 154 180
134 154 181
135 155 181
133 154 181
134 154 181
134 154 180
134 154 181
134 155 181
134 154 181
133 154 181
134 154 181
134 154 181
134 154 181
134 154 181
133 154 180
134 154 181
134 154 181
134 154 181
134 154 181
134 154 181
134 154 181
134 154 181
133 153 180
133 153 180
135 155 181
133 154 181
134 154 181
133 154 181
134 154 181
134 154 181
134 154 181
134 154 181
134 154 181
134 154 181
134 154 181
134 154 180
134 154 181
134 154 181
133 154 181
133 154 181
134 154 180
133 154 180
134 154 181
133 153 180
133 154 180
134 155 181
134 154 181
134 154 181
134 154 181
134 154 181
134 154 181
133 154 180
134 154 181
134 154 181
134 154 181
134 154 181
133 154 181
134 154 181
133 154 181
133 154 181
133 154 180
134 154 181
133 154 181
133 154 181
134 154 181
133 154 180
133 154 181
134 154 181
132 153 181
133 154 181
134 154 181
134 154 181
134 154 180
133 154 181
133 154 181
133 154 181
133 154 181
132 153 181
134 154 181
133 154 181
133 154 181
134 154 181
134 154 181
134 154 181
134 154 181
134 154 181
134 154 181
134 154 181
133 154 181
134 154 181
134 154 181
134 154 181
134 154 181
134 154 181
134 154 181
133 154 181
133 154 181
134 154 181
133 154 181
134 154 181
133 154 181
134 154 181
133 154 180
134 154 181
134 154 181
133 154 180
133 154 181
135 155 181
134 154 181
134 154 181
133 154 181
133 154 181
134 154 181
134 154 181
134 154 181
134 154 181
134 154 181
133 154 181
134 154 181
134 154 181
134 154 181
133 154 181
134 154 181
134 154 181
133 154 181
134 154 181
134 154 181
135 155 181
134 154 181
134 155 181
134 154 181
134 154 181
134 154 181
133 154 181
134 154 181
134 154 181
134 154 181
134 154 181
133 154 180
134 154 180
134 154 181
132 153 181
134 154 181
134 154 181
134 154 181
134 154 181
133 153 180
134 154 181
134 154 181
133 154 181
134 154 181
134 154 181
133 154 181
134 154 181
133 154 181
134 154 181
134 154 181
134 154 181
134 154 181
134 154 181
133 154 181
134 154 181
133 154 181
134 154 181
134 154 181
133 154 181
132 154 181
134 154 181
134 154 181
135 155 181
134 154 181
134 154 181
134 154 181
134 154 181
134 154 181
133 154 180
133 154 181
133 154 181
135 155 181
134 154 181
133 154 181
133 154 181
133 153 180
133 154 181
133 154 181
133 154 181
134 154 181
134 154 180
134 154 181
134 154 181
133 154 181
133 154 181
134 154 181
134 154 181
133 154 181
134 154 181
134 154 181
134 154 181
133 154 181
134 154 181
134 154 181
134 154 181
134 154 181
134 154 181
134 154 181
133 154 181
133 154 180
134 154 181
133 153 180
134 154 181
133 154 181
134 154 181
134 154 181
134 154 181
132 153 181
134 154 181
133 154 181
133 154 181
134 154 181
134 154 181
134 154 181
134 154 181
134 154 181
134 155 181
134 154 181
133 154 181
134 154 181
133 154 180
135 155 181
134 154 181
134 154 181
134 154 181
134 154 181
134 154 181
134 154 181
134 154 181
135 155 181
134 154 181
134 154 181
134 154 181
133 154 181
134 154 181
133 154 181
133 154 181
134 154 181
135 155 181
133 153 180
134 154 181
134 154 181
133 154 181
133 154 180
134 154 181
133 154 181
134 154 180
133 154 181
134 154 181
133 154 180
135 155 181
134 154 181
133 154 181
134 154 181
134 154 181
134 154 181
134 154 181
134 154 181
134 154 181
135 155 181
133 154 180
134 154 181
135 155 181
134 154 181
133 154 180
133 154 180
133 153 180
134 154 181
134 154 181
134 154 181
133 154 181
134 154 181
133 154 181
133 154 181
134 154 181
134 154 181
134 154 180
134 154 181
133 154 181
134 154 181
134 154 181
134 154 181
133 154 181
134 155 181
134 154 181
133 153 180
133 154 181
133 154 181
135 155 181
134 154 180
134 154 181
134 154 180
134 154 181
133 153 180
134 154 181
133 153 180
134 154 181
134 154 181
133 154 181
134 154 181
134 155 181
133 154 181
133 154 181
133 154 181
133 154 181
133 154 181
133 154 181
134 154 181
134 154 181
133 154 181
134 154 181
134 154 181
134 154 181
134 154 181
134 154 181
134 154 181
135 155 181
134 154 180
133 154 181
134 154 181
134 154 181
134 154 181
133 154 181
134 154 181
133 153 180
134 154 181
134 154 181
134 154 181
135 155 181
133 153 180
133 154 181
133 154 181
134 154 181
134 154 181
134 154 181
135 155 181
134 154 181
133 154 181
134 155 181
134 154 181
134 154 181
134 154 181
133 154 181
133 154 181
134 154 181
134 154 181
134 154 181
133 154 181
132 153 180
133 154 181
134 154 181
134 154 181
134 154 181
133 154 181
133 154 181
133 154 181
133 154 181
134 154 181
134 154 181
134 154 181
133 154 181
133 153 180
135 155 181
134 154 181
134 154 181
134 154 181
134 154 181
133 154 181
134 154 181
134 154 181
134 154 181
134 154 181
133 153 180
133 154 181
134 154 181
133 154 181
133 154 181
133 154 181
134 154 181
133 153 180
134 154 181
134 154 181
133 154 181
134 154 181
134 154 181
133 154 181
134 154 181
134 155 181
133 153 180
134 154 181
134 154 181
134 154 181
134 154 181
134 154 181
134 154 181
133 154 180
134 154 181
133 154 181
134 154 181
134 154 181
134 154 180
133 154 181
134 154 180
135 155 181
133 154 181
134 154 181
134 154 181
134 154 181
133 154 181
134 154 181
133 154 181
134 154 181
134 154 181
134 154 181
133 154 181
134 154 181
133 154 180
134 154 181
133 154 181
133 154 181
134 154 181
133 154 181
135 155 181
134 154 181
133 154 181
133 154 181
133 154 181
135 155 181
133 154 181
133 154 181
134 154 181
134 154 181
133 154 181
133 154 181
133 154 181
134 154 181
134 154 181
134 154 181
133 154 181
134 154 181
133 154 181
134 154 181
133 154 181
133 154 181
134 154 181
134 155 181
134 154 181
134 154 181
133 154 181
134 154 181
133 154 181
134 154 181
134 154 181
133 154 181
134 154 181
134 154 181
134 154 181
133 154 181
134 154 181
133 154 181
134 154 181
134 154 181
134 154 180
133 153 180
134 154 181
135 155 181
133 154 181
133 154 181
134 154 181
133 154 181
134 154 181
134 154 181
133 154 181
134 154 181
134 154 181
134 154 181
133 154 181
134 154 181
132 153 181
134 154 181
134 154 181
134 154 181
133 154 181
133 154 181
134 154 181
133 154 181
133 154 181
133 154 181
133 154 181
134 154 181
134 154 181
133 154 181
135 155 181
133 154 180
133 154 181
134 155 181
133 154 181
133 154 181
134 154 181
133 154 181
133 154 181
134 154 181
134 154 181
133 154 180
133 154 181
134 154 181
134 154 181
133 153 180
133 154 181
134 154 181
134 154 181
134 154 181
134 154 181
134 154 181
134 154 181
134 154 181
133 154 181
133 154 181
134 154 181
133 154 180
133 154 180
134 154 181
134 154 181
134 154 181
133 154 181
133 154 181
134 154 181
134 154 181
133 154 181
134 154 181
134 154 181
133 154 181
134 154 181
134 154 181
134 154 181
134 154 181
134 154 181
133 154 181
134 154 181
134 154 181
134 154 181
133 154 181
133 154 181
133 154 181
132 153 180
135 155 181
134 154 181
133 154 181
134 154 181
134 154 181
134 154 181
133 154 181
134 154 181
134 154 181
134 154 181
134 154 181
133 154 181
134 154 181
133 153 180
134 155 181
134 154 181
133 153 180
133 154 181
134 154 181
134 154 181
134 154 181
134 154 181
133 154 181
134 154 181
135 155 181
134 154 181
134 154 181
133 154 181
134 154 181
133 154 181
135 155 181
133 154 181
134 154 181
133 154 181
133 154 181
133 154 181
133 154 181
135 155 181
134 154 181
134 154 181
134 154 181
133 154 180
134 154 180
133 154 181
133 154 181
134 154 181
134 154 181
134 154 181
134 154 181
132 153 181
134 155 181
133 154 181
134 154 181
133 154 181
134 154 181
134 154 181
134 154 181
134 154 181
134 155 181
134 154 181
134 155 181
133 154 181
134 154 181
134 155 181
133 154 181
134 154 181
135 155 181
134 154 181
134 154 181
134 154 181
134 155 181
134 154 181
133 154 181
133 154 180
133 154 181
134 154 181
134 154 181
134 154 181
133 154 181
133 154 181
135 155 181
134 154 181
134 154 181
133 154 180
134 154 181
134 154 181
134 154 181
134 154 181
133 154 181
133 154 181
133 154 181
134 154 181
135 155 181
134 154 181
133 154 181
134 154 181
134 154 181
134 154 181
134 154 181
134 154 181
134 154 181
134 154 181
133 153 180
132 152 179
134 154 181
133 154 181
133 154 181
134 154 181
133 154 180
133 154 181
134 154 181
134 154 181
133 154 180
134 154 181
134 154 181
134 154 181
133 154 181
133 154 181
134 154 181
134 154 180
135 155 181
133 154 181
134 154 181
134 154 181
134 154 181
133 154 181
133 153 180
134 154 181
134 154 181
134 154 181
132 153 179
133 154 181
134 154 181
134 154 181
134 154 181
134 154 180
133 154 181
134 154 180
134 154 181
133 154 181
133 154 181
134 154 181
134 154 181
133 154 180
134 154 181
133 154 181
134 154 181
133 154 181
133 154 181
133 154 180
133 154 181
134 154 181
134 154 181
133 154 181
135 155 181
135 155 181
134 154 181
134 154 181
133 154 180
133 154 181
133 153 180
133 154 180
134 154 181
134 154 181
134 154 181
134 154 181
134 154 180
134 154 181
133 154 180
133 154 181
133 154 181
133 154 181
133 154 181
134 154 181
134 154 181
134 154 181
134 154 181
134 154 181
134 154 181
135 155 181
133 154 180
134 154 181
133 154 181
134 154 181
134 155 181
133 154 181
133 154 181
134 154 180
134 154 181
134 154 180
133 154 181
135 155 181
134 154 181
134 154 181
134 154 180
134 154 181
134 154 180
133 154 181
133 154 181
133 154 181
133 154 181
134 154 181
134 154 181
133 154 181
133 153 180
134 154 181
133 154 181
132 153 181
134 154 181
133 154 180
134 154 181
134 154 181
133 153 180
133 154 181
134 155 181
134 154 181
134 154 181
134 155 181
134 154 181
134 154 181
134 154 181
134 154 181
134 155 181
134 154 181
134 154 181
133 154 181
132 153 180
134 154 181
133 154 181
133 154 181
134 154 181
134 154 181
133 154 181
134 154 180
133 154 181
133 154 181
133 153 180
134 154 181
133 154 181
133 154 180
133 154 180
134 154 181
134 154 181
135 155 181
134 154 181
134 154 181
134 154 181
133 154 180
133 154 181
134 154 181
134 154 181
134 154 181
133 154 181
134 154 181
134 154 181
134 155 181
134 154 181
134 154 181
134 155 181
132 153 180
134 154 181
134 154 181
134 154 181
134 154 181
133 154 181
134 155 181
133 154 181
134 154 181
134 154 181
133 154 181
133 154 181
135 155 181
133 154 181
134 154 181
133 154 181
133 154 181
134 154 180
133 154 180
133 154 181
133 154 181
134 154 181
134 154 181
134 154 181
132 153 181
134 154 181
133 154 181
134 154 181
134 154 181
134 154 181
134 154 181
134 155 181
134 154 181
134 154 181
134 154 181
134 154 181
134 154 181
134 154 181
134 154 181
133 154 181
134 154 181
134 154 181
134 154 181
133 154 181
134 154 181
134 154 181
134 154 181
135 155 181
134 154 181
133 154 181
133 154 181
134 154 181
134 154 181
133 154 181
135 155 181
134 154 181
135 155 181
134 154 181
134 154 181
133 154 181
133 154 181
133 154 181
134 154 181
135 155 181
133 154 181
133 154 181
134 154 181
134 154 181
134 154 181
134 154 181
133 154 181
133 153 180
134 154 181
134 154 181
134 154 181
134 154 181
134 154 181
133 154 180
133 154 181
133 154 181
134 155 181
134 154 181
134 154 181
133 154 181
133 154 180
134 154 181
134 154 181
134 154 181
134 154 181
134 154 181
134 154 181
133 154 181
134 154 181
134 154 181
133 154 181
133 154 181
134 154 181
134 154 181
133 154 181
134 154 181
134 154 181
135 155 181
134 154 181
133 154 181
133 154 181
134 154 181
134 154 181
133 154 181
133 154 181
134 154 181
134 154 181
133 153 180
133 154 181
134 154 181
133 154 181
134 154 181
134 154 181
134 154 181
134 154 181
134 154 181
133 154 181
133 154 181
134 154 181
134 154 181
134 154 181
133 154 181
134 154 181
133 154 181
134 154 181
134 154 181
135 155 181
134 154 181
133 154 181
134 154 181
134 154 181
134 154 181
133 154 181
134 154 181
133 154 181
134 155 181
134 154 181
134 154 181
134 154 181
134 154 181
134 154 181
134 154 181
134 154 180
134 154 181
134 154 181
134 154 181
134 154 181
134 154 181
134 154 181
134 154 181
133 154 181
134 154 181
133 154 181
134 154 181
135 155 181
134 154 181
134 155 181
133 154 181
134 154 180
133 154 181
133 154 181
133 154 181
133 154 181
134 154 181
133 154 181
134 154 181
134 154 181
133 154 181
133 154 181
133 154 181
135 155 181
134 154 181
133 154 181
134 154 181
134 154 181
135 155 181
134 154 181
133 154 181
134 154 181
133 154 181
134 154 181
134 154 181
133 154 181
133 154 181
134 154 181
134 154 180
133 154 181
134 154 181
134 154 181
134 154 181
134 154 181
134 154 181
134 154 181
134 154 181
134 154 181
134 154 181
133 154 181
134 155 181
134 154 180
133 154 180
134 154 181
134 154 181
134 154 181
134 154 181
134 154 181
134 154 181
134 154 181
133 154 181
133 154 181
135 155 181
134 154 181
134 154 181
134 154 181
134 154 181
134 154 181
134 154 181
134 154 181
133 154 181
132 153 181
134 154 181
134 154 181
133 154 181
133 154 181
134 154 181
134 154 181
134 155 181
135 155 181
133 154 181
134 154 181
133 154 181
135 155 181
134 154 181
133 154 181
133 154 180
133 154 181
134 154 181
133 154 181
134 154 181
133 154 180
134 154 181
133 154 181
133 154 181
133 154 181
133 154 181
134 154 181
134 154 181
134 154 181
134 154 181
133 154 181
134 155 181
134 154 181
134 154 181
134 154 181
133 153 180
134 154 181
135 155 181
134 155 181
134 154 181
134 154 181
133 154 181
132 153 180
134 154 181
133 154 181
134 154 181
133 154 181
134 154 181
133 154 181
133 154 181
133 154 181
134 154 181
133 154 180
134 154 181
133 154 181
134 154 181
134 154 181
134 154 181
134 154 181
134 154 181
134 154 181
134 155 181
134 154 181
134 154 181
134 154 181
133 154 181
134 154 181
133 154 181
134 154 181
134 154 181
133 154 180
134 154 181
133 154 181
134 154 181
134 154 181
133 154 181
135 155 181
133 154 181
134 154 181
133 154 181
134 154 181
133 154 181
135 155 181
134 154 181
134 154 181
133 154 181
134 154 181
133 154 181
134 154 181
134 154 181
133 154 181
133 154 181
133 154 181
134 154 181
134 154 181
134 154 181
133 154 181
133 154 180
133 154 181
134 154 181
134 154 181
134 154 181
134 154 181
134 154 181
133 154 181
133 154 180
133 154 181
134 154 181
134 154 181
133 154 181
133 154 180
134 154 181
134 154 181
133 154 181
134 154 181
133 154 181
134 155 181
133 154 180
133 154 181
134 154 181
134 154 181
134 154 181
133 154 181
134 154 181
134 154 181
134 154 181
133 154 181
134 154 181
133 154 181
133 154 181
134 154 181
134 154 181
133 153 180
134 154 181
134 154 181
133 154 181
133 154 181
134 154 180
134 154 181
134 154 180
134 154 181
135 155 181
132 153 180
133 154 181
133 154 181
134 154 181
134 154 181
134 154 181
133 154 181
133 154 181
134 154 181
133 154 181
134 154 181
133 154 181
134 154 181
134 154 181
132 153 181
133 154 181
134 154 181
133 154 181
134 154 181
134 154 181
133 154 181
134 154 181
134 154 181
134 154 181
133 154 181
134 154 181
135 155 181
133 154 181
134 154 181
134 154 181
134 154 181
134 154 181
133 154 181
133 154 181
134 154 180
134 154 181
134 154 181
134 154 181
134 154 181
133 154 181
133 154 181
134 154 181
134 154 181
134 154 181
134 154 181
133 153 180
134 154 181
134 154 181
133 154 181
134 154 181
133 154 181
134 154 181
133 154 181
134 154 181
133 154 181
133 154 181
133 153 180
133 154 181
133 153 180
134 154 181
133 154 181
134 154 181
134 155 181
134 154 181
135 155 181
133 154 181
133 154 181
132 153 180
134 154 181
133 154 181
133 154 181
134 154 181
134 154 181
134 154 180
134 154 181
133 154 181
134 154 181
134 154 181
134 154 181
133 154 180
134 154 181
134 155 181
134 154 181
134 154 180
133 154 181
134 154 181
135 155 181
133 154 181
134 154 181
133 154 181
134 154 181
133 154 181
133 154 181
134 154 181
133 154 181
134 154 181
133 154 180
134 154 181
134 154 181
134 154 181
135 155 181
134 154 181
135 155 181
133 154 181
134 154 181
133 154 180
135 155 181
134 155 181
135 155 181
133 153 180
134 154 180
133 154 180
134 154 181
135 155 181
134 154 181
133 154 180
133 154 181
133 154 181
134 154 181
133 154 181
134 154 181
134 154 181
133 153 180
134 154 181
134 154 181
133 154 181
135 155 181
135 155 181
134 154 181
133 154 181
134 154 181
134 154 181
134 154 181
134 154 181
134 154 181
134 154 181
134 155 181
134 154 181
134 154 181
134 154 181
134 154 181
135 155 181
133 154 181
133 154 181
134 154 181
134 155 181
134 155 181
134 154 181
135 155 181
133 154 181
134 154 181
134 154 181
132 154 181
134 154 181
133 154 181
133 153 180
134 154 181
134 154 181
134 154 181
133 154 181
134 154 181
134 154 181
134 154 181
133 154 181
134 154 181
134 154 181
136 155 181
134 154 181
134 154 181
134 154 181
133 154 181
134 154 181
134 154 181
134 155 181
133 154 181
134 154 181
134 154 181
133 154 180
133 154 181
134 154 181
133 154 181
134 154 181
133 154 181
134 154 181
132 153 181
134 154 181
134 154 181
134 154 181
133 153 180
132 154 181
134 154 181
133 154 181
133 154 181
134 154 181
134 154 181
134 154 181
133 154 181
134 154 181
134 154 181
134 154 181
134 154 181
134 154 181
134 154 181
134 154 181
134 154 181
133 154 181
134 155 181
135 155 181
134 154 181
134 154 181
134 154 181
133 154 181
134 154 181
134 154 181
134 154 181
134 154 181
134 154 181
134 154 181
133 154 181
134 154 181
134 154 181
134 154 181
134 154 181
134 154 181
133 154 180
133 154 181
134 154 181
132 153 181
134 154 181
134 154 181
134 154 181
134 154 181
134 154 181
134 154 181
133 154 181
133 154 181
134 154 180
134 154 181
133 154 180
133 154 181
134 154 180
133 154 181
134 154 181
134 154 181
135 155 181
134 154 181
134 154 181
134 154 180
134 154 181
134 154 180
135 155 181
133 154 181
133 154 181
133 154 181
134 154 181
134 154 181
135 155 181
133 154 180
134 154 181
133 154 181
133 154 181
134 154 181
134 154 181
134 154 181
133 154 181
133 154 181
133 154 181
134 154 181
133 154 180
134 154 181
134 154 181
133 154 181
134 154 181
134 154 181
134 154 181
133 154 181
134 154 181
134 154 181
133 154 181
134 154 181
134 154 180
135 155 181
134 154 180
133 154 181
134 154 181
133 153 180
134 154 181
133 154 181
133 154 181
133 153 180
134 154 181
134 154 181
134 154 181
134 154 181
134 155 181
134 154 181
135 155 181
133 154 181
134 154 181
135 155 181
134 154 181
134 154 181
134 154 181
134 154 181
133 154 181
133 154 181
133 154 181
133 154 181
133 154 181
134 154 181
133 154 181
133 153 180
134 154 181
134 154 181
134 154 181
133 154 181
134 154 181
134 154 180
134 154 181
134 154 181
134 154 181
133 153 180
134 154 181
134 154 181
134 154 181
133 154 181
133 154 181
134 154 180
134 154 181
134 154 181
133 154 180
134 154 180
133 154 181
134 154 181
134 154 181
134 154 181
133 154 181
134 154 181
133 154 181
133 154 181
134 154 181
133 154 181
134 154 181
134 154 181
133 154 180
134 154 181
133 154 180
133 154 181
134 154 181
133 154 181
133 154 180
134 154 181
135 155 181
133 154 181
134 154 181
134 154 181
133 154 181
134 154 180
134 154 181
133 154 181
134 154 180
133 154 181
133 154 181
134 154 181
133 154 181
135 155 181
134 154 181
134 154 181
134 155 181
134 154 181
133 154 180
134 154 181
134 154 181
133 154 181
134 154 181
133 154 181
133 153 180
134 155 181
134 154 181
134 154 180
134 154 181
134 154 181
134 154 181
134 154 181
134 154 181
133 154 181
134 154 181
133 154 181
133 153 180
133 154 180
134 154 181
133 154 181
134 154 181
134 154 181
134 154 181
133 154 180
133 154 181
133 154 180
135 155 181
134 154 181
133 154 181
134 154 181
133 154 181
135 155 181
134 154 181
133 153 180
133 154 181
134 154 181
133 154 181
133 154 181
134 154 181
134 154 181
134 154 181
134 154 181
133 154 181
134 154 181
134 154 181
134 154 181
133 154 181
134 154 181
134 154 180
134 154 181
134 155 181
133 154 181
133 153 180
134 154 181
135 154 180
134 154 181
134 154 181
134 154 180
133 154 181
134 154 181
134 154 181
134 154 181
134 154 181
134 154 181
134 154 181
133 154 180
134 154 181
134 154 181
134 154 181
133 153 180
134 154 181
133 154 181
134 154 181
134 154 180
133 154 181
134 154 181
134 154 181
134 154 181
133 154 181
134 154 181
134 154 181
134 154 181
134 154 181
134 154 181
134 154 181
134 154 181
134 154 181
134 154 181
133 154 181
134 154 181
134 154 181
135 155 181
133 154 181
134 154 180
134 154 181
134 154 181
133 154 181
134 154 181
133 154 181
133 154 180
133 154 181
134 154 181
134 154 181
133 154 181
133 154 181
134 154 181
134 154 180
134 155 181
135 155 181
133 154 181
134 154 181
133 154 181
135 155 181
134 154 181
133 154 181
134 154 181
133 154 181
133 154 181
133 154 181
134 154 181
134 154 181
133 154 181
133 154 181
133 154 180
133 154 181
134 154 181
133 154 181
133 154 181
134 154 181
134 154 181
134 154 181
135 155 181
134 154 181
133 153 180
134 154 181
133 154 180
134 154 181
133 153 180
134 154 181
135 155 181
134 154 181
134 154 181
133 154 181
134 154 181
133 154 181
133 154 181
134 154 181
133 154 181
134 154 181
133 154 181
134 154 181
134 154 181
135 155 181
133 154 181
133 154 181
134 154 181
134 154 181
134 154 181
134 155 181
133 154 181
133 154 181
133 154 181
133 154 181
134 154 181
133 154 180
133 154 181
134 154 181
133 154 181
134 154 181
133 154 181
134 154 181
134 154 181
134 154 181
136 155 181
134 154 181
133 154 181
133 154 181
134 154 181
133 154 180
134 154 181
135 155 181
133 154 181
134 154 181
133 154 181
133 154 181
133 154 181
134 154 181
134 154 181
134 154 181
134 154 181
133 154 181
134 154 181
132 153 180
134 154 180
134 154 181
133 154 181
134 154 181
134 154 181
135 155 181
134 154 181
134 154 181
133 154 181
133 154 181
133 154 181
135 155 181
135 155 181
134 154 181
134 154 180
134 154 181
134 154 181
134 154 181
134 154 181
133 154 181
134 155 181
134 154 181
134 154 181
134 154 181
134 154 181
134 154 180
133 154 181
134 154 181
134 154 181
133 154 181
134 154 181
133 154 181
134 154 181
134 154 181
134 155 181
134 154 181
133 154 181
133 154 181
133 154 181
133 154 181
133 154 181
133 154 181
133 154 181
133 154 181
135 155 181
133 154 181
134 154 181
134 154 181
134 154 181
133 154 181
133 154 181
134 154 181
134 154 181
133 154 181
134 154 181
134 154 181
133 154 181
134 155 181
134 154 181
134 154 181
133 154 181
134 154 181
134 154 181
134 154 181
133 154 181
134 154 181
133 154 181
134 154 181
134 154 181
133 154 181
133 154 181
134 154 181
133 154 181
133 154 180
133 154 181
134 154 181
134 154 181
133 154 181
133 154 181
134 154 181
133 154 181
134 154 181
133 154 181
133 154 181
133 154 181
133 154 181
134 154 181
133 154 181
133 154 181
134 154 181
134 154 181
134 154 181
133 154 181
134 154 181
133 154 180
134 154 181
135 155 181
134 154 181
134 154 181
134 154 180
133 154 181
134 154 181
134 154 181
134 154 181
133 153 180
133 154 181
134 154 180
135 155 181
134 154 181
134 154 181
133 154 181
134 154 181
134 154 180
134 154 181
134 154 181
134 154 181
134 154 181
134 154 181
134 154 181
133 154 181
134 154 181
134 155 181
134 155 181
133 153 180
135 155 181
134 154 181
133 154 181
134 154 181
133 154 180
134 154 181
134 154 181
133 154 181
134 154 180
134 154 181
134 154 181
133 154 181
133 154 181
134 154 181
134 154 181
134 154 180
133 154 181
133 154 181
134 154 181
134 154 181
134 154 181
135 155 181
133 154 181
135 155 181
134 154 181
134 154 181
134 154 181
134 154 181
133 154 181
133 154 181
134 154 181
134 154 181
133 154 181
133 154 180
133 153 180
134 154 181
134 154 181
134 154 181
134 154 181
134 154 181
135 155 181
134 154 181
134 154 181
134 154 181
133 154 181
134 154 181
133 153 180
134 154 181
134 154 181
134 154 181
134 154 181
133 154 181
134 154 181
134 154 180
133 154 181
133 154 181
133 154 181
134 154 181
134 154 181
134 155 181
134 154 181
134 154 181
134 154 181
133 154 181
134 154 180
134 154 181
133 154 181
134 154 181
133 154 181
135 155 181
134 154 181
134 154 181
134 154 181
134 154 181
134 154 180
133 154 181
133 154 181
133 154 181
133 154 181
133 154 181
133 154 181
134 154 181
134 154 181
134 154 181
135 155 181
133 153 180
133 153 180
133 154 181
134 154 181
134 154 181
133 154 181
134 154 181
133 154 181
134 154 181
133 154 181
134 154 181
134 154 181
134 154 181
134 154 180
133 154 181
134 154 181
133 154 181
133 154 181
134 154 181
134 155 181
134 154 181
134 154 181
134 155 181
133 154 181
133 153 180
134 154 181
133 154 181
133 153 180
134 154 181
134 154 181
134 154 181
134 154 181
134 154 181
134 154 181
133 154 181
134 154 181
134 154 181
134 154 181
133 154 181
133 154 180
133 154 181
133 154 181
134 154 181
134 155 181
134 154 181
134 154 181
135 155 181
134 154 181
133 154 181
134 154 181
134 154 181
133 154 181
134 154 181
133 154 181
133 154 181
134 154 181
133 154 181
134 154 181
133 154 181
134 154 181
133 154 181
135 155 181
134 154 181
133 154 181
134 154 181
133 154 180
134 154 181
133 153 180
133 154 181
134 154 181
133 153 180
133 154 181
135 155 181
135 155 181
134 155 181
134 154 181
134 154 181
134 154 181
134 154 181
134 154 181
134 154 181
134 154 181
133 154 181
133 154 181
133 154 181
134 155 181
133 154 181
134 154 181
134 154 181
133 154 181
133 154 181
134 154 181
133 154 181
133 153 180
133 154 181
133 154 181
133 154 181
134 154 181
134 155 181
133 154 181
134 154 181
134 154 181
133 154 180
133 154 181
134 154 181
135 155 181
134 154 180
133 154 181
133 154 181
134 154 181
133 154 181
133 154 181
134 154 181
134 154 181
133 154 181
134 154 181
133 154 181
134 154 181
134 154 181
134 154 181
134 154 181
134 154 181
134 154 181
134 154 181
134 154 181
134 154 181
134 154 181
134 154 181
133 154 181
133 154 180
134 154 181
133 154 181
134 154 181
134 154 181
134 154 181
134 154 181
134 154 181
133 154 181
134 154 181
133 154 181
134 154 181
133 154 181
134 154 181
133 154 181
134 154 181
133 154 181
133 154 181
133 154 181
134 154 181
135 155 181
134 154 181
133 154 181
133 154 181
133 154 181
134 154 181
134 154 180
134 154 181
134 154 181
134 154 181
134 154 181
134 154 181
134 154 181
134 154 181
134 154 181
134 154 181
134 154 181
133 154 181
133 154 181
133 154 181
134 154 181
134 154 181
133 154 181
133 154 180
133 154 181
135 155 181
134 154 181
134 155 181
134 154 181
133 154 181
134 154 181
134 154 181
133 154 181
133 154 181
134 154 181
133 154 180
134 154 181
134 154 181
134 154 181
134 154 181
134 154 181
134 154 180
133 153 180
133 153 180
135 155 181
133 154 180
134 154 181
134 154 181
133 154 181
134 154 181
134 154 181
134 154 181
133 154 181
134 154 181
134 154 181
134 154 181
134 154 181
133 154 181
135 155 181
134 154 181
134 154 181
134 154 181
134 154 181
133 154 181
134 154 181
134 154 181
134 154 181
134 154 181
134 154 181
134 154 181
134 154 181
133 154 181
134 154 181
133 154 181
133 154 181
133 154 181
134 154 181
133 154 181
135 155 181
133 154 181
134 154 181
133 154 181
132 153 181
133 154 181
133 154 181
133 154 181
134 154 180
133 154 181
134 154 181
133 154 181
134 154 181
134 154 181
134 154 181
134 154 181
134 154 181
134 154 181
134 154 181
133 154 181
135 155 181
134 154 181
134 155 181
134 154 181
134 154 181
134 154 181
134 154 181
134 154 181
134 154 181
134 154 181
134 154 181
135 155 181
134 154 181
133 154 181
133 154 181
134 154 181
133 154 181
134 154 181
133 154 181
134 154 181
133 154 181
134 154 181
134 154 181
133 154 181
135 155 181
133 154 181
134 154 181
133 154 181
134 154 181
134 154 181
134 154 181
133 154 181
134 154 180
132 154 181
134 154 181
134 154 181
134 154 181
134 154 181
134 154 181
135 155 181
134 154 181
134 154 181
134 154 181
134 154 181
134 154 181
133 154 181
133 154 181
133 154 180
133 154 181
135 155 181
134 154 181
133 153 180
133 154 181
134 154 181
134 154 181
133 154 181
134 155 181
133 154 180
134 154 181
134 154 181
134 154 181
133 154 181
133 154 181
134 154 181
133 154 181
133 154 180
133 154 181
134 154 181
134 154 181
133 154 181
134 154 181
134 154 181
135 155 181
134 154 181
134 154 181
133 154 180
134 154 181
134 154 180
134 154 181
133 154 180
134 154 181
133 154 181
134 154 181
134 154 181
134 154 181
133 154 181
134 154 180
133 154 181
134 154 181
134 154 180
133 154 181
133 154 181
134 154 181
134 154 181
133 154 180
134 154 181
133 154 181
133 154 181
134 154 181
134 154 181
133 154 181
133 153 180
135 155 181
134 154 181
134 154 181
134 155 181
133 154 181
134 154 181
134 154 181
133 154 181
134 154 180
133 154 181
134 154 181
134 154 181
134 154 181
133 153 180
134 154 181
133 154 180
134 154 181
134 154 181
133 154 181
134 154 181
134 154 181
133 154 181
134 154 181
134 154 181
133 154 181
135 155 181
133 154 180
134 154 181
134 154 181
133 154 181
133 154 181
133 154 181
134 154 181
134 154 181
133 154 181
134 154 181
133 154 181
134 154 181
134 154 181
134 155 181
134 154 181
134 154 181
134 154 181
134 154 181
135 155 181
134 154 181
133 154 181
133 154 181
134 154 181
134 154 181
135 155 181
134 154 181
134 154 180
133 154 181
134 154 181
134 154 181
133 154 181
133 154 181
133 154 181
133 153 180
133 153 180
134 154 181
133 154 181
133 154 180
133 154 181
134 154 181
133 154 181
134 154 181
133 153 180
134 154 181
133 154 181
133 154 181
134 154 181
134 154 181
133 154 181
134 155 181
134 154 180
134 154 181
134 154 181
133 154 181
133 154 181
134 155 181
134 154 181
134 154 181
134 154 181
135 155 181
134 154 181
133 154 181
133 154 181
133 154 181
133 154 181
133 154 181
132 153 180
134 154 181
134 154 181
133 154 181
134 154 181
134 154 181
134 154 181
134 154 181
133 154 181
133 154 181
133 154 181
133 154 181
134 154 181
134 154 180
133 154 181
133 154 181
133 154 181
133 154 181
134 154 181
134 154 181
133 154 181
133 154 181
133 154 181
134 155 181
134 154 181
134 155 181
133 154 181
133 154 181
133 154 181
133 154 181
133 154 180
134 154 181
133 154 181
134 154 181
135 155 181
133 154 181
134 154 181
133 154 181
134 154 181
133 154 181
133 154 181
134 154 181
134 154 181
134 154 181
134 154 181
134 155 181
134 154 181
134 154 181
134 154 181
134 154 181
134 154 181
134 154 181
134 154 181
134 154 181
133 154 180
133 154 181
135 155 181
134 154 181
134 154 180
133 154 181
134 154 181
133 154 181
134 155 181
134 155 181
134 154 181
134 154 181
134 154 180
134 154 181
133 154 181
134 154 181
134 154 181
133 154 181
134 154 180
134 154 181
133 154 181
134 154 181
133 154 181
133 154 181
134 155 181
133 154 181
134 154 181
134 154 181
133 154 181
135 155 181
134 154 181
133 154 181
134 154 181
134 154 181
133 154 181
134 154 181
134 154 181
133 153 180
135 155 181
134 154 181
133 154 181
134 154 181
133 154 181
135 155 181
134 154 181
134 154 181
133 154 181
134 154 181
134 154 181
134 154 181
134 154 181
134 154 181
134 154 181
134 154 181
134 154 181
133 154 181
134 154 181
133 154 181
134 154 181
134 154 181
134 154 181
134 154 181
133 154 181
134 154 180
133 154 181
133 154 181
133 154 181
134 154 181
134 154 181
133 154 180
134 154 181
135 155 181
133 154 181
134 154 181
132 154 181
134 154 181
134 154 181
133 154 181
133 154 181
133 154 181
134 154 181
134 154 181
133 154 181
134 154 181
134 154 181
134 154 181
135 155 181
133 154 180
133 154 181
134 154 181
134 154 181
134 154 181
134 154 181
134 154 180
133 154 181
134 154 181
133 154 181
134 154 181
134 154 181
134 154 181
134 154 181
133 154 181
133 154 181
134 154 181
133 154 181
133 154 181
134 154 181
134 154 181
134 154 181
133 154 181
133 154 181
134 154 181
134 154 181
135 155 181
134 154 181
133 154 181
132 153 181
133 153 180
134 154 181
133 154 181
133 154 181
134 154 181
133 154 181
134 154 181
134 154 181
134 154 181
133 154 181
133 154 181
133 154 181
134 154 181
134 154 181
134 154 181
134 154 181
134 154 181
133 154 181
135 155 181
135 155 181
134 154 181
133 154 181
133 154 181
134 154 181
134 154 181
134 154 181
133 154 181
134 154 181
134 154 181
133 154 181
134 154 181
133 154 181
134 154 181
133 154 181
134 154 180
134 154 181
134 154 181
134 154 181
134 154 181
134 154 181
133 154 181
133 154 181
134 154 181
134 154 181
133 154 180
133 154 180
134 154 181
134 154 181
134 154 181
133 154 181
134 154 181
133 154 181
134 154 181
134 154 181
133 154 181
134 154 181
133 154 181
133 154 181
134 154 181
133 154 181
133 154 181
134 154 181
135 155 181
133 154 181
133 154 181
134 154 181
134 154 181
133 154 181
134 154 181
134 154 181
134 154 181
134 154 181
133 154 181
133 154 181
135 155 181
134 154 181
134 154 181
133 154 181
134 154 181
134 154 181
134 154 181
134 154 181
133 154 181
133 154 181
134 154 181
134 154 181
134 154 181
134 154 181
134 154 181
134 154 181
133 154 181
134 154 181
133 154 181
134 154 180
133 153 180
134 154 181
133 154 181
134 154 181
133 154 181
134 154 181
133 154 181
133 154 181
133 154 181
134 154 181
134 155 181
134 154 181
133 154 181
134 154 181
133 154 181
134 154 181
133 154 181
134 154 181
134 154 181
134 154 181
133 154 180
134 154 181
132 153 180
133 154 181
133 154 181
134 154 180
134 154 181
134 154 181
134 154 181
133 154 181
133 153 180
133 154 181
134 154 181
134 154 181
133 154 181
133 154 181
134 154 181
134 154 181
133 154 181
134 154 181
134 154 181
134 154 181
135 155 181
134 154 181
133 154 180
133 154 180
134 154 181
134 154 181
134 154 181
134 154 181
134 154 181
134 154 181
134 154 181
134 154 181
133 154 181
134 154 181
134 154 181
134 154 181
134 154 181
134 154 181
134 154 181
133 154 181
134 154 181
134 154 181
132 153 180
133 154 181
134 154 181
134 154 181
133 154 181
133 154 181
133 154 181
133 154 181
134 154 181
134 154 181
133 154 181
133 153 180
134 154 181
133 154 181
135 155 181
134 154 181
133 154 181
133 154 181
134 154 181
134 154 181
134 154 181
133 153 180
133 154 181
134 154 181
134 154 181
135 155 181
133 154 181
135 155 181
133 154 181
134 154 181
133 154 181
134 154 181
133 154 181
133 154 181
134 154 181
134 154 181
133 154 181
134 154 181
133 153 180
134 154 181
134 155 181
134 154 181
133 154 181
133 154 181
134 154 181
133 154 181
134 154 181
135 155 181
133 154 181
134 154 181
133 154 181
134 154 181
134 154 181
133 154 181
133 153 180
133 154 181
135 155 181
134 154 181
133 154 181
134 154 181
133 154 181
134 154 181
134 154 181
134 154 181
133 154 181
134 154 181
134 154 181
134 154 181
134 154 181
133 154 181
134 154 181
134 154 181
133 154 181
133 153 180
133 154 181
133 154 181
134 154 181
134 154 181
133 154 181
134 154 181
135 155 181
133 154 181
134 154 181
134 154 181
134 154 181
134 154 181
134 154 181
134 154 181
134 154 181
134 154 181
133 154 181
134 154 181
134 154 181
135 155 181
134 154 181
133 154 181
134 154 181
134 154 181
134 154 181
134 155 181
133 154 181
134 154 181
134 154 181
133 154 181
133 154 181
134 154 181
134 154 181
133 154 181
133 154 181
133 153 180
135 155 181
134 154 181
133 154 181
133 154 181
134 154 181
133 154 181
134 154 180
134 154 181
135 155 181
134 154 181
134 154 181
134 154 181
134 154 181
133 154 181
134 154 181
134 154 181
133 154 181
134 154 181
133 154 181
133 154 181
135 155 181
134 154 181
133 154 180
133 154 181
133 154 181
135 155 181
134 154 181
134 154 181
134 154 181
134 154 181
133 154 181
134 155 181
133 154 181
134 154 181
134 154 181
133 154 181
134 154 181
133 153 180
134 154 181
134 154 181
133 154 181
133 154 181
135 155 181
134 154 181
134 154 181
133 154 181
134 154 181
133 154 181
134 154 181
135 155 181
134 154 181
134 154 181
134 154 181
133 154 181
134 154 181
133 154 181
134 154 181
134 154 181
134 154 180
134 154 181
133 154 181
134 154 181
133 154 181
134 154 181
133 153 180
134 154 181
134 154 181
134 154 181
134 154 180
134 154 181
134 154 181
134 154 181
133 154 181
133 154 181
133 154 181
135 155 181
133 154 181
133 154 181
134 154 181
134 154 181
133 154 181
133 154 181
133 154 181
133 154 181
134 154 181
134 154 181
134 154 181
133 154 181
134 154 181
134 154 181
133 154 180
134 155 181
134 154 181
135 155 181
135 155 181
134 155 181
134 154 181
133 154 181
134 154 181
134 154 181
134 154 181
133 154 181
134 154 181
133 154 180
135 155 181
134 154 181
133 154 181
133 154 181
134 154 181
133 154 181
134 154 181
133 154 181
134 154 181
134 154 181
134 154 181
135 155 181
134 154 181
134 154 181
135 155 181
134 155 181
134 154 180
134 154 181
134 154 181
133 154 181
134 154 181
134 154 181
133 154 181
134 155 181
132 153 180
134 154 181
134 155 181
134 154 181
134 154 181
134 154 181
134 154 181
134 154 181
134 154 181
133 154 181
134 154 181
133 154 181
133 154 181
134 154 181
133 154 181
134 155 181
134 154 181
133 154 181
134 155 181
135 155 181
133 154 181
133 154 181
134 154 181
134 154 181
133 154 181
133 154 181
134 154 181
134 154 181
134 154 181
133 154 181
134 154 181
134 154 181
134 154 181
134 154 181
134 154 181
134 154 181
134 155 181
134 154 181
134 154 181
133 154 181
134 154 181
134 154 181
133 154 181
134 154 181
134 155 181
134 154 181
133 154 181
134 154 181
134 154 181
134 154 181
134 154 181
134 154 181
134 154 181
134 154 181
133 154 181
135 155 181
134 154 181
134 154 181
135 155 181
134 154 181
135 155 181
134 154 181
134 154 181
133 154 180
133 154 181
134 154 181
134 154 181
134 154 181
134 154 181
133 154 181
134 154 181
134 154 181
133 154 181
133 154 181
134 155 181
134 154 181
135 155 181
134 154 181
133 154 181
134 154 181
134 154 181
134 154 181
134 154 181
133 154 180
134 154 181
134 154 181
134 154 181
133 154 181
134 154 180
135 155 181
134 154 181
134 154 181
134 154 181
134 154 181
134 154 181
134 154 181
134 154 181
134 154 181
134 154 181
134 154 181
133 154 181
134 154 181
134 154 181
134 155 181
134 154 181
134 154 181
134 154 181
133 154 180
134 154 181
134 154 181
134 154 181
134 154 180
134 154 181
133 154 181
135 155 181
134 154 181
134 154 181
133 154 181
134 154 181
133 154 181
134 154 181
133 153 180
135 155 181
133 154 181
134 154 181
134 154 181
134 154 181
134 154 181
133 154 181
133 153 180
134 154 181
134 154 181
134 154 181
134 154 181
134 154 181
134 154 181
133 154 181
133 154 180
133 153 180
134 154 181
134 155 181
134 154 181
133 154 181
134 154 181
132 153 180
135 155 181
134 154 181
133 154 180
133 154 180
133 154 181
133 154 181
133 154 181
133 154 181
134 154 181
134 154 181
133 154 181
134 154 181
134 154 181
134 154 181
135 155 181
134 154 181
133 154 181
133 153 180
134 154 181
133 154 181
133 154 180
134 154 181
135 155 181
134 154 181
134 154 181
133 154 181
134 154 181
133 154 180
133 154 181
134 154 181
133 154 181
134 154 181
134 154 181
133 154 181
133 154 181
134 154 181
134 154 181
134 154 181
133 153 180
133 153 180
133 154 180
134 154 181
134 154 181
134 154 181
134 154 181
134 154 181
134 154 181
134 154 181
134 154 181
134 154 181
133 154 180
134 154 181
134 154 180
133 154 181
134 154 181
134 154 181
134 154 181
134 154 181
133 153 180
134 154 181
134 154 181
134 154 181
134 154 181
134 154 181
134 154 181
134 154 181
133 154 181
134 154 181
134 154 181
134 154 181
134 154 181
133 154 181
134 154 181
134 154 181
134 154 181
134 154 181
134 154 181
134 154 181
133 154 181
134 154 181
133 154 181
134 154 181
134 154 181
134 155 181
133 154 181
133 154 180
133 154 181
134 154 180
133 154 180
135 155 181
134 154 181
134 154 181
134 154 181
133 154 181
132 153 180
135 155 181
134 154 181
133 154 181
134 154 181
133 154 181
134 154 181
134 154 180
133 154 181
133 154 181
134 154 181
133 153 180
134 154 181
134 154 180
134 154 181
133 154 181
134 154 180
134 154 181
134 154 181
133 154 181
134 154 181
133 154 181
133 154 181
134 154 181
133 154 181
134 154 181
133 154 180
134 154 181
134 154 181
133 154 181
133 154 181
134 154 180
134 155 181
134 154 181
134 154 181
133 154 181
134 154 181
134 154 181
133 154 181
134 154 181
133 154 181
134 155 181
133 154 181
134 154 181
134 154 181
134 154 181
133 154 181
133 154 181
134 154 181
133 154 181
134 154 181
133 154 181
134 154 181
134 154 181
134 154 181
134 154 181
134 154 181
134 154 181
135 155 181
134 154 180
133 154 181
134 154 181
134 154 181
134 154 180
134 154 181
133 154 181
133 154 181
133 154 181
134 154 180
134 154 181
134 154 181
134 154 181
133 154 181
134 154 181
134 154 181
133 154 181
134 154 181
134 155 181
134 154 181
134 154 181
134 154 181
134 154 181
135 155 181
134 154 181
134 154 181
133 154 181
134 154 181
134 154 181
134 154 181
134 154 181
134 154 181
133 154 181
134 154 181
133 154 181
135 155 181
133 154 181
134 154 181
134 154 181
135 155 181
134 154 181
133 154 181
133 154 181
134 154 181
134 154 181
134 154 181
134 154 181
135 155 181
134 154 181
134 154 181
135 155 181
134 154 181
133 154 181
133 154 180
135 155 181
133 154 181
133 153 180
135 155 181
134 154 181
134 154 181
135 155 181
134 154 181
135 155 181
133 154 181
134 154 181
134 154 181
134 154 181
133 154 181
134 154 181
134 154 181
134 154 181
134 154 181
133 154 181
134 154 181
133 154 181
133 154 181
133 154 181
133 154 181
134 154 181
134 154 180
134 154 181
133 154 181
134 154 181
133 154 181
134 154 181
133 154 181
134 154 181
134 154 181
134 154 181
133 154 181
134 154 181
134 154 181
133 154 181
135 155 181
133 154 181
134 154 181
133 153 180
134 154 181
133 154 181
134 154 181
133 154 181
134 154 181
133 154 181
134 154 181
134 154 181
134 154 181
133 154 181
134 155 181
134 154 181
134 154 181
133 154 181
134 154 181
134 154 181
133 154 181
133 154 181
133 154 181
134 154 181
134 154 181
135 155 181
133 153 180
134 154 181
134 154 181
134 154 181
134 155 181
134 154 181
134 154 181
134 154 180
134 154 181
134 154 181
133 154 181
134 154 181
133 154 181
134 154 181
134 154 181
135 155 181
134 154 181
133 154 181
134 154 181
134 154 181
133 154 181
134 154 181
134 154 180
134 154 181
133 154 181
134 154 181
134 154 181
134 154 181
133 154 180
134 154 181
134 154 181
134 154 181
134 154 181
134 154 181
133 154 181
133 154 181
133 154 181
134 154 181
134 154 181
132 153 181
134 154 181
133 154 181
133 154 181
134 154 181
133 154 181
134 154 181
134 154 181
134 154 181
134 154 181
134 154 180
133 154 181
134 154 181
134 154 181
134 154 181
134 154 181
133 154 181
134 154 181
134 154 181
133 154 181
133 154 181
134 154 181
135 155 181
133 154 181
135 155 181
134 154 181
133 154 181
134 154 181
134 155 181
134 154 181
134 154 181
133 154 181
133 154 180
134 154 181
134 154 181
133 153 180
133 154 181
134 154 181
133 154 181
134 154 181
134 154 181
134 154 181
133 154 181
134 154 181
134 154 181
133 154 181
134 155 181
134 154 181
134 154 181
133 154 180
134 154 181
134 154 181
133 154 181
132 153 181
134 154 181
133 154 181
134 154 181
133 154 180
134 154 181
134 154 181
133 154 180
134 154 181
133 154 181
133 154 181
134 154 181
134 154 181
134 154 181
134 154 181
134 154 181
134 154 181
133 154 181
133 153 180
134 154 181
133 154 181
133 154 181
134 154 181
133 154 181
134 154 180
132 153 180
135 155 181
134 154 181
133 154 181
134 155 181
133 154 181
133 154 181
134 154 181
133 154 181
133 154 181
134 154 181
133 154 181
133 154 181
134 154 180
133 154 181
134 154 181
133 154 181
134 154 181
134 154 181
132 153 181
134 154 181
133 154 181
134 154 181
133 154 181
134 154 181
133 154 180
133 154 181
134 154 181
134 154 181
134 154 181
132 153 181
134 154 181
134 154 181
134 154 181
134 154 181
134 154 181
134 154 181
134 155 181
134 154 181
134 154 181
134 154 181
133 154 181
134 154 181
135 155 181
133 154 181
134 154 181
134 154 181
134 154 181
134 154 181
133 154 180
133 154 181
134 155 181
134 154 181
134 154 181
135 155 181
133 154 181
135 155 181
134 154 181
133 154 181
133 154 181
133 154 181
133 154 181
134 155 181
133 154 181
133 154 181
134 154 181
134 154 181
134 154 181
133 154 181
134 154 181
134 154 181
133 154 181
133 154 181
134 154 180
134 154 181
132 153 179
133 153 180
134 154 180
134 154 181
134 154 181
134 155 181
134 154 181
134 154 181
134 154 181
133 154 181
134 154 181
135 155 181
134 154 181
134 154 181
133 154 181
134 154 181
133 154 181
133 154 181
134 154 181
134 154 181
134 154 181
134 154 181
133 154 180
134 154 181
133 154 180
134 154 181
134 154 181
133 154 181
133 154 181
133 154 181
133 154 181
134 154 180
133 154 180
134 154 180
134 154 181
133 154 181
134 154 181
134 154 181
134 154 181
134 154 181
133 154 181
134 154 181
134 154 181
134 154 181
134 154 181
134 154 181
134 154 181
134 154 181
134 154 181
134 154 181
134 154 181
133 154 181
134 154 180
134 154 181
133 154 181
134 154 181
134 154 181
133 154 181
134 154 181
135 155 181
134 154 181
134 154 181
134 154 181
134 154 181
134 154 181
134 154 181
132 153 181
134 154 181
134 154 181
133 154 181
133 154 181
134 154 181
134 154 181
134 154 181
134 154 181
133 154 181
134 155 181
134 154 181
134 154 181
133 153 180
134 154 181
134 154 181
134 155 181
134 154 181
134 154 181
134 154 181
134 154 181
133 154 181
134 154 181
134 154 181
134 154 181
133 154 181
133 154 181
134 154 181
134 154 181
134 154 181
133 154 181
134 154 181
133 154 181
133 154 181
134 154 181
134 154 181
133 154 181
134 154 181
132 153 180
133 154 181
133 154 181
133 154 181
134 154 181
133 153 180
134 154 181
134 155 181
134 154 181
134 154 181
133 154 181
134 154 181
133 154 181
134 154 181
133 154 181
133 154 180
134 154 181
134 154 181
133 154 181
134 155 181
134 154 181
135 155 181
134 154 181
134 154 181
133 154 181
133 154 181
133 154 181
134 154 181
133 154 181
134 154 181
133 154 181
134 154 181
134 154 181
134 154 181
134 154 181
134 154 181
134 154 181
134 154 181
134 154 181
133 154 181
134 154 181
134 154 181
134 155 181
133 154 180
133 154 181
133 154 181
134 154 181
134 154 181
133 154 181
134 154 181
133 154 181
134 154 181
134 154 181
134 154 181
134 154 181
134 154 181
134 155 181
134 154 181
134 154 181
133 154 181
133 154 181
134 154 181
134 154 181
134 154 181
133 154 181
134 154 181
135 155 181
134 154 181
133 154 181
134 154 181
133 154 181
134 154 181
133 154 181
133 154 181
132 153 181
134 154 181
133 154 181
134 154 181
135 155 181
134 154 181
134 154 181
133 154 181
134 154 181
135 155 181
134 154 181
134 154 181
133 154 181
134 154 181
133 154 181
133 154 181
134 154 181
135 155 181
134 154 181
133 154 181
135 155 181
134 154 181
134 154 181
134 154 181
134 154 181
134 154 181
133 154 181
134 154 181
134 154 181
134 154 181
133 154 181
134 154 181
134 154 181
134 154 181
134 155 181
134 154 181
133 154 181
134 154 181
134 154 181
133 154 181
134 154 181
133 154 181
134 154 181
133 154 181
134 154 181
134 154 181
133 154 181
134 154 181
134 154 181
133 154 181
134 154 181
134 154 181
133 154 181
134 154 181
133 154 181
134 154 181
135 155 181
134 154 181
134 155 181
133 154 181
133 154 181
134 154 181
134 154 181
134 154 181
133 154 181
133 154 181
133 154 181
134 155 181
133 154 181
134 154 181
135 155 181
135 155 181
133 154 181
134 155 181
133 154 181
134 154 181
134 154 181
134 154 180
134 154 181
134 154 181
133 154 181
133 154 181
134 154 181
134 154 181
134 154 181
134 154 181
133 154 180
135 155 181
133 154 181
133 154 181
134 154 181
133 154 181
134 154 181
135 155 181
134 154 181
134 154 181
134 154 180
133 154 181
133 154 181
134 154 181
133 154 181
134 154 181
134 154 181
133 153 180
133 154 181
133 154 181
134 154 181
134 154 181
134 154 181
135 155 181
134 154 181
134 154 181
134 154 181
133 154 181
134 154 181
135 155 181
133 154 181
134 154 181
134 154 181
134 154 181
134 154 181
134 154 181
134 154 181
133 154 181
133 154 181
134 154 181
134 155 181
133 154 181
133 153 180
134 154 181
134 154 181
133 154 180
133 154 181
134 154 181
134 154 181
134 154 181
134 154 181
133 153 180
134 154 181
135 155 181
134 154 181
134 154 181
133 154 181
133 154 181
134 154 181
135 155 181
133 154 181
134 155 181
134 154 181
134 154 181
134 154 181
134 154 180
133 154 181
135 155 181
134 154 181
134 154 181
134 154 181
134 154 181
135 155 181
134 154 181
133 154 181
134 154 180
134 154 181
134 154 181
134 154 181
133 153 180
134 154 181
133 154 181
134 154 181
134 155 181
134 154 181
134 154 181
133 154 181
133 154 181
134 154 181
132 153 180
133 154 181
134 154 181
133 154 180
134 154 181
134 154 181
133 154 181
135 155 181
135 155 181
133 154 181
134 154 181
134 154 181
135 155 181
134 154 181
133 154 180
133 154 181
133 154 181
134 154 180
134 154 181
134 154 181
133 154 181
133 154 181
134 154 181
134 154 181
134 154 181
134 154 181
134 154 181
134 154 181
134 154 181
134 154 181
134 155 181
134 155 181
134 154 181
133 154 181
134 154 181
133 154 181
134 154 180
134 154 181
134 154 181
134 154 181
133 154 181
134 154 181
134 154 181
134 154 181
133 154 181
134 154 181
134 154 181
134 154 181
133 154 181
134 154 181
134 154 180
134 154 181
133 154 181
133 154 181
134 154 181
134 154 181
134 154 181
133 154 181
133 154 181
133 154 181
134 154 181
134 154 180
133 154 181
135 155 181
134 154 181
134 154 181
133 153 180
133 154 181
134 154 181
135 155 181
133 154 181
134 154 181
133 154 181
133 154 181
133 154 181
132 153 180
134 154 181
134 154 181
135 155 181
134 154 181
134 154 181
134 154 181
133 154 181
133 154 181
134 154 181
135 155 181
134 154 181
134 154 181
133 153 180
133 154 180
134 154 181
134 154 181
133 154 181
133 154 181
134 154 181
134 154 181
134 154 181
133 154 181
133 154 181
134 154 181
134 154 181
134 154 181
134 154 181
134 154 181
133 154 181
133 154 180
134 154 181
134 154 181
134 154 181
133 154 181
133 154 181
133 154 181
134 154 181
134 154 181
134 154 181
133 154 181
133 154 181
134 154 181
133 154 181
134 154 181
134 154 181
134 155 181
134 154 181
134 154 181
134 154 181
134 154 181
134 154 181
134 154 181
134 154 181
133 154 181
134 155 181
133 154 181
134 154 181
133 154 181
134 154 181
133 154 180
134 154 181
134 154 181
133 154 181
134 154 181
134 154 181
133 154 181
133 154 181
134 154 181
134 154 181
134 154 181
134 154 181
134 154 181
134 154 181
134 154 181
134 154 181
134 154 181
134 154 181
133 154 181
134 154 181
134 154 181
133 154 181
133 154 181
134 154 181
133 154 181
133 154 181
133 154 181
133 154 181
134 154 181
134 154 181
133 154 181
133 154 181
135 155 181
134 154 181
134 154 181
134 154 181
133 154 181
134 154 181
133 154 181
134 154 181
133 154 181
133 154 181
134 154 181
133 154 181
134 155 181
133 154 181
134 154 181
134 154 181
134 154 181
134 154 181
133 154 181
135 155 181
134 154 181
133 154 181
134 154 181
133 154 181
134 154 181
134 154 181
134 154 181
133 154 181
135 155 181
134 154 181
134 154 181
133 154 181
134 154 181
134 154 181
134 154 181
134 154 181
134 154 181
133 154 181
134 154 181
133 154 181
134 154 181
133 154 181
133 154 181
134 154 181
133 154 180
133 154 181
133 154 181
133 154 181
134 154 181
134 154 181
134 154 181
133 154 181
133 154 181
134 154 181
133 154 181
133 154 181
134 154 181
134 154 181
134 154 181
134 154 181
134 154 181
133 154 181
133 154 181
134 154 181
134 154 181
133 154 181
134 154 181
134 154 181
133 154 181
134 154 181
133 154 181
133 154 181
134 155 181
133 154 181
133 153 180
134 154 181
133 154 181
134 154 181
134 155 181
134 154 181
133 154 181
133 154 181
134 154 181
134 154 181
133 154 181
134 154 181
134 155 181
134 154 181
134 154 181
133 154 181
134 154 181
134 154 181
133 154 181
134 154 181
134 155 181
133 154 181
134 154 181
134 154 181
133 154 181
134 154 181
134 154 181
134 154 181
134 154 181
133 154 181
133 154 181
134 154 181
133 154 181
133 154 180
133 154 181
133 154 181
134 154 181
134 154 181
134 154 181
134 154 181
134 154 181
133 154 181
134 154 181
134 154 181
134 154 181
134 154 181
135 155 181
134 154 181
135 155 181
135 155 181
134 154 181
134 154 181
134 154 180
134 154 181
133 154 181
133 154 181
134 154 181
134 154 181
134 155 181
135 155 181
134 154 181
134 154 181
134 154 181
133 154 181
134 154 181
133 154 181
135 155 181
134 154 181
133 154 181
134 154 181
134 154 181
133 154 181
133 154 181
134 154 181
134 154 181
134 154 181
134 154 181
135 155 181
134 154 181
134 154 181
134 154 181
133 154 181
132 153 180
134 154 181
134 154 181
134 154 181
134 154 181
133 154 181
134 154 181
134 154 181
134 154 180
134 154 181
134 154 181
133 154 180
134 154 181
133 154 181
133 154 181
133 154 181
135 154 180
134 154 181
134 154 181
134 154 180
133 154 180
134 154 181
134 154 181
133 153 180
134 154 181
135 155 181
134 154 181
133 153 180
134 154 181
133 154 181
134 154 181
134 154 181
134 154 181
134 154 181
135 155 181
133 154 181
134 154 181
134 154 181
133 154 181
134 154 181
133 154 181
133 154 180
134 154 181
133 154 181
133 154 181
133 154 181
132 153 181
133 154 181
134 154 180
134 154 181
133 154 181
134 154 181
134 154 181
134 154 181
133 154 181
133 154 181
134 154 181
134 154 181
134 154 181
134 154 181
134 154 181
134 154 181
134 154 181
133 154 181
135 155 181
134 154 181
134 154 181
133 154 181
134 154 181
134 154 180
135 155 181
135 155 181
134 154 181
134 155 181
134 154 181
134 155 181
134 154 181
134 154 181
133 154 181
134 154 181
134 154 181
134 154 181
133 154 181
133 154 181
135 155 181
134 154 181
134 154 181
134 154 181
134 154 181
132 153 181
134 154 181
132 153 181
134 154 181
134 154 181
133 154 181
132 153 181
133 154 181
133 154 181
133 154 181
134 154 181
134 154 181
134 154 181
134 154 181
134 154 181
135 155 181
134 154 181
134 154 181
134 154 181
134 154 181
134 154 181
134 154 181
134 154 181
134 154 180
133 154 180
132 153 181
133 154 181
133 154 181
134 154 181
133 154 181
133 154 181
134 154 181
134 154 181
134 154 181
135 155 181
134 154 181
134 154 181
134 154 181
133 154 181
134 154 181
133 154 181
133 154 181
133 154 181
134 154 181
134 154 181
134 154 181
134 154 181
133 154 181
133 154 181
134 154 181
133 153 180
133 154 181
132 153 179
134 154 181
132 153 180
134 154 181
134 154 181
135 155 181
134 154 181
133 154 181
134 154 181
134 154 181
133 153 180
133 154 181
134 154 181
133 154 181
133 154 180
134 154 181
134 154 181
133 154 181
134 154 181
133 154 181
134 154 181
135 155 181
133 154 181
134 154 181
134 154 181
134 154 181
134 154 181
134 154 181
134 154 181
135 155 181
134 154 181
134 154 181
133 154 181
134 154 181
134 154 181
134 154 181
134 154 181
134 154 181
133 154 181
134 154 181
134 154 181
135 155 181
134 154 181
134 155 181
134 154 181
133 154 181
133 154 181
134 154 181
133 154 181
135 155 181
133 154 181
134 154 181
133 154 181
133 154 181
134 154 181
134 154 181
134 154 181
133 154 181
133 154 181
134 155 181
134 154 181
134 154 181
133 154 181
134 154 181
134 154 181
134 154 181
134 154 181
134 154 181
134 154 181
133 154 181
134 154 181
133 154 181
134 154 181
133 154 181
134 154 181
133 154 181
134 154 181
134 154 181
133 154 181
134 154 181
134 154 181
134 154 181
133 154 181
135 155 181
133 154 181
133 154 180
133 154 181
134 154 181
134 154 181
133 154 181
134 154 181
134 154 181
134 154 181
133 154 181
134 155 181
133 154 181
133 154 181
134 154 181
134 154 181
134 154 181
134 155 181
134 154 181
134 154 181
133 154 181
134 154 181
134 154 181
133 154 181
134 154 181
134 154 181
133 154 181
134 154 181
133 154 181
134 154 181
134 154 181
134 154 181
134 154 181
134 154 181
133 154 181
134 154 181
134 154 181
134 154 181
133 154 181
134 154 181
134 154 181
133 154 181
133 154 181
134 154 181
134 154 181
134 154 181
133 154 181
133 154 181
135 155 181
134 154 181
133 154 181
134 154 181
134 154 181
133 154 181
135 155 181
134 154 181
134 154 181
134 154 181
133 154 181
134 155 181
134 154 181
134 154 181
134 154 181
134 154 181
133 154 181
134 154 181
134 154 181
133 154 181
133 154 181
134 154 181
134 154 181
133 154 180
134 154 181
133 154 181
133 154 181
134 154 181
134 154 181
133 154 181
135 155 181
134 154 181
134 154 181
134 154 181
133 154 181
134 154 181
134 154 181
134 154 181
134 155 181
133 154 181
134 154 181
134 154 181
133 154 180
134 154 181
134 154 181
134 154 181
134 154 181
134 154 181
133 154 181
133 154 181
134 154 181
134 154 181
134 154 181
134 154 181
133 154 181
133 154 181
134 154 181
133 154 181
134 154 181
134 154 181
133 154 181
133 154 181
135 155 181
134 154 181
134 154 181
133 154 181
133 154 181
134 154 181
133 154 181
133 154 181
134 154 180
133 154 181
133 154 181
133 154 181
134 154 181
132 153 181
133 154 181
134 154 181
134 154 181
134 154 181
134 154 181
135 155 181
134 154 181
133 154 181
134 154 181
133 154 181
134 154 181
134 154 181
133 154 181
134 154 181
134 154 181
133 154 181
133 154 181
133 154 181
134 155 181
134 154 181
134 154 180
133 154 181
134 154 181
134 154 181
134 154 181
134 154 181
133 154 181
134 154 181
134 154 181
134 154 181
133 154 181
133 154 181
135 155 181
133 154 181
133 154 181
134 154 181
134 154 181
134 154 181
134 154 181
134 154 181
133 154 181
134 154 181
134 154 181
134 154 181
133 154 181
134 155 181
133 154 181
134 154 181
134 154 181
135 155 181
133 154 180
135 155 181
134 154 180
134 154 181
133 154 181
133 154 181
133 154 181
133 154 181
133 154 181
133 154 181
134 154 181
133 154 181
133 154 180
133 153 180
133 154 181
133 154 181
133 154 181
134 154 180
133 154 181
134 154 181
133 154 181
134 154 181
134 154 181
134 154 181
133 154 181
133 154 181
133 154 181
133 154 181
134 155 181
134 154 181
134 154 181
134 154 180
133 153 180
133 154 181
133 154 180
134 154 181
134 154 181
134 154 180
133 154 181
133 154 181
134 154 181
134 154 181
134 154 181
133 154 181
133 154 180
134 154 181
134 154 181
134 154 181
133 154 181
134 154 181
134 154 181
134 154 181
132 153 180
133 154 181
134 154 181
134 155 181
133 154 181
133 154 181
133 154 181
134 154 181
133 154 181
135 155 181
133 154 181
133 154 181
134 155 181
134 154 181
134 154 181
134 154 181
133 154 180
134 154 181
133 154 181
134 154 181
133 154 181
134 154 181
134 154 181
134 154 181
133 154 181
135 155 181
133 154 180
134 154 181
134 154 181
133 154 180
133 154 180
133 154 181
134 154 181
134 154 181
134 154 181
134 154 181
134 154 181
134 154 181
133 154 181
133 154 181
133 154 181
134 154 181
133 154 181
134 154 181
133 154 181
134 154 181
134 154 180
132 153 181
133 154 181
133 154 181
134 154 181
134 154 181
133 153 180
134 154 181
133 154 181
134 154 181
135 154 180
133 154 181
134 154 181
133 154 181
133 154 181
133 154 181
133 154 181
133 154 181
134 154 180
134 154 181
134 154 180
133 154 181
134 154 180
134 154 181
133 154 181
134 154 181
135 155 181
133 154 181
134 154 181
134 154 180
134 154 181
134 154 181
134 154 181
134 154 181
135 155 181
133 154 181
134 154 181
133 154 181
134 154 181
133 154 181
133 154 181
133 154 181
134 154 181
134 154 181
133 154 181
134 154 181
134 154 181
134 154 181
134 154 181
133 154 181
134 154 180
134 154 181
133 154 181
134 154 181
133 154 181
134 155 181
133 154 181
134 154 180
134 154 181
134 154 181
134 154 181
134 154 181
134 154 181
133 154 181
134 154 181
133 154 181
133 154 181
133 154 180
134 154 181
134 154 181
134 154 181
132 153 180
134 154 181
134 154 181
134 154 181
134 154 181
134 154 181
134 154 181
134 154 181
134 154 181
134 154 181
134 154 181
134 154 181
133 154 181
133 154 181
133 153 180
134 154 181
134 154 181
133 154 181
134 154 180
134 154 181
134 155 181
133 154 181
133 154 181
134 154 181
134 154 181
134 154 181
133 154 181
134 154 181
133 154 181
133 154 181
133 154 181
134 154 181
133 154 181
134 154 181
133 154 180
134 154 181
134 154 180
134 154 181
133 154 181
134 154 181
134 154 181
134 154 181
134 154 180
133 154 181
133 154 181
134 154 180
134 154 181
134 154 181
133 154 181
134 154 181
133 154 181
133 154 181
133 153 180
134 154 181
133 154 181
134 154 181
134 154 181
133 154 181
133 153 180
135 155 181
134 154 181
134 154 181
135 155 181
133 153 180
134 154 181
133 154 181
133 154 181
134 154 181
134 154 181
134 154 181
133 154 181
133 153 180
133 154 181
134 154 180
134 155 181
133 154 181
134 154 181
133 154 181
134 154 181
134 154 181
133 154 181
134 154 181
134 154 181
134 154 181
134 154 181
133 154 181
133 154 181
134 154 181
133 154 181
134 154 181
134 154 181
133 154 181
135 155 181
135 155 181
133 154 181
135 155 181
134 154 181
134 154 181
133 154 180
133 153 180
133 154 181
134 154 181
134 154 181
133 154 181
134 154 181
133 154 181
133 154 181
134 154 180
134 154 181
134 155 181
134 154 181
134 154 181
133 154 181
133 154 181
134 154 181
133 154 181
134 154 181
134 154 181
133 154 181
134 154 181
135 155 181
134 154 181
134 154 181
133 154 181
134 154 181
134 154 181
134 154 181
133 154 181
133 154 181
133 154 181
134 154 181
134 154 181
134 154 181
134 154 181
134 154 181
133 153 180
134 154 181
134 154 181
133 154 181
135 155 181
133 154 181
133 154 181
134 154 181
134 154 181
134 154 181
134 154 181
135 155 181
133 154 181
134 154 181
133 154 181
134 154 181
133 154 181
134 154 181
133 154 181
133 154 181
134 154 180
133 154 181
134 154 181
134 154 181
133 154 181
134 154 181
133 154 181
134 154 181
134 154 181
134 155 181
133 154 181
134 154 181
132 153 181
133 153 180
133 154 181
134 154 181
135 155 181
133 154 181
134 154 181
133 154 181
133 154 181
133 154 181
133 154 181
135 155 181
134 154 181
133 154 181
133 154 181
133 154 181
133 154 181
134 154 181
134 155 181
135 155 181
134 154 181
134 154 181
134 154 181
134 154 181
133 154 181
134 154 181
135 155 181
134 154 181
134 154 181
134 154 181
133 154 181
133 154 181
134 154 181
133 154 181
133 154 181
133 154 181
133 154 181
133 154 181
134 154 181
134 154 181
133 154 181
135 155 181
134 155 181
133 154 181
133 154 181
135 155 181
134 154 181
133 154 181
134 154 181
133 154 181
134 154 181
133 154 181
134 154 181
134 154 181
133 154 181
134 154 181
134 154 181
133 154 181
133 154 181
133 154 181
133 154 181
133 154 181
134 154 180
134 154 181
133 154 181
134 154 181
133 154 180
134 154 181
134 154 181
134 154 181
135 155 181
133 154 181
133 154 181
134 154 181
133 154 181
135 155 181
134 154 181
134 154 181
133 154 181
134 154 181
133 154 181
134 154 181
134 154 181
133 154 180
133 154 181
134 154 181
134 154 181
134 154 181
134 154 181
133 154 181
134 154 181
134 154 181
133 154 181
134 154 181
134 154 181
134 154 181
133 154 181
134 154 181
134 154 181
133 154 181
134 154 181
133 154 180
134 154 181
135 155 181
134 154 181
134 154 181
134 154 181
134 154 181
134 154 181
134 154 181
133 154 181
134 154 181
134 154 181
134 154 180
134 154 181
133 154 181
133 153 180
135 155 181
134 154 181
134 155 181
133 154 181
134 154 181
134 154 181
133 154 181
134 154 180
134 154 181
133 154 181
133 154 181
133 154 180
134 154 181
132 153 181
134 154 180
135 155 181
134 154 181
134 154 181
134 154 181
135 155 181
133 154 181
134 154 181
134 154 181
134 154 181
134 154 181
134 154 180
133 154 181
133 154 181
134 154 181
134 154 181
133 154 181
133 153 180
133 154 181
134 154 181
134 154 181
134 154 181
134 154 180
133 154 181
133 154 181
134 154 181
133 154 181
135 155 181
134 154 181
133 154 181
134 154 181
134 154 180
133 154 181
134 154 181
133 154 181
134 154 181
133 154 181
134 154 181
133 154 181
134 154 181
134 154 181
134 154 181
134 154 181
134 154 181
134 154 181
134 154 181
134 154 181
133 154 181
133 154 181
134 154 181
134 154 181
134 154 181
134 154 181
133 154 181
134 154 181
134 154 181
134 154 181
134 154 181
134 154 181
134 154 181
133 154 181
134 154 181
134 154 181
134 155 181
133 154 181
134 154 181
134 154 181
134 154 181
134 154 181
134 154 181
134 154 181
134 154 181
134 154 181
134 154 181
134 154 180
134 154 181
133 154 181
134 155 181
135 155 181
133 153 180
133 154 181
134 154 181
134 154 181
135 155 181
133 154 180
135 155 181
134 154 181
134 154 181
133 154 181
134 154 181
133 154 181
134 154 181
133 154 181
133 154 181
134 154 181
132 153 181
134 154 181
133 154 181
135 155 181
134 154 181
134 154 181
134 154 180
135 155 181
134 154 181
134 154 181
133 154 180
134 154 181
133 154 181
135 155 181
133 154 181
134 155 181
133 154 181
133 153 180
134 154 181
134 154 181
134 154 181
134 154 181
133 154 181
134 154 181
133 154 181
134 154 181
134 154 181
134 154 181
135 155 181
133 154 181
134 155 181
134 154 181
133 154 181
134 154 181
134 154 181
134 154 181
134 154 181
134 154 181
134 154 181
134 154 181
133 154 181
133 154 181
134 154 181
133 154 180
134 154 181
135 155 181
134 154 181
134 154 181
134 155 181
134 154 181
134 154 181
134 155 181
133 154 181
133 154 181
134 154 181
134 154 181
134 154 181
134 154 181
134 154 181
134 154 181
134 154 181
134 154 181
134 154 181
134 154 181
134 154 181
134 154 181
134 154 181
134 154 181
133 154 181
134 154 181
134 154 181
134 154 181
135 155 181
134 154 181
133 153 180
134 155 181
134 154 181
133 154 181
133 154 181
133 153 180
134 154 181
134 154 181
134 154 181
133 154 181
134 154 181
133 154 181
134 154 180
134 154 181
134 154 181
134 154 181
133 154 181
134 154 181
134 154 181
134 154 181
134 154 181
133 154 181
133 154 181
134 154 181
134 154 181
133 154 181
134 154 181
134 154 181
134 154 181
134 155 181
133 154 181
133 154 181
134 154 181
133 153 180
134 154 181
133 154 181
134 155 181
134 155 181
134 154 181
134 154 181
135 155 181
134 154 181
135 155 181
134 154 181
133 154 181
134 154 181
134 154 181
134 154 181
133 154 181
133 154 181
134 154 181
134 154 181
134 154 181
134 154 181
134 154 181
134 154 181
134 154 181
135 155 181
134 154 181
134 154 181
134 154 181
134 154 181
134 154 181
134 154 181
135 155 181
133 154 181
134 155 181
134 154 181
134 154 181
134 154 181
133 154 181
132 153 181
134 154 181
134 154 181
133 154 180
133 154 181
134 154 181
134 154 181
135 155 181
133 154 181
133 154 180
133 154 181
133 154 181
134 154 181
134 154 181
134 154 181
134 154 181
134 154 181
134 154 181
133 154 181
134 154 181
134 154 181
134 154 181
133 154 181
134 154 181
135 155 181
134 154 181
134 154 181
134 154 181
134 154 181
134 154 181
134 154 181
134 154 181
133 154 181
133 154 181
133 154 181
134 155 181
133 154 181
134 154 181
134 154 181
134 154 181
134 154 181
134 154 181
134 154 181
134 154 181
134 154 181
134 154 181
134 154 181
134 154 181
134 154 181
134 154 180
134 154 181
135 155 181
135 155 181
134 154 181
134 154 181
133 154 181
135 155 181
134 154 181
134 154 180
134 154 181
135 155 181
133 154 181
133 154 181
134 154 181
134 154 181
133 154 181
134 154 181
133 154 181
134 154 181
134 154 181
133 154 181
134 154 180
134 154 181
133 154 181
134 154 181
133 154 181
134 154 181
135 155 181
134 154 181
133 154 181
134 154 181
134 154 181
133 154 181
134 154 181
134 154 181
132 153 181
134 154 181
134 154 181
134 154 181
134 154 181
133 154 181
134 154 181
134 154 181
134 154 181
133 153 180
133 154 180
134 154 181
133 154 181
134 154 181
133 154 181
134 154 181
134 154 181
133 154 181
134 154 181
134 154 181
133 154 181
133 154 181
134 154 181
134 154 181
133 154 181
134 154 181
132 153 181
133 154 181
133 154 181
133 154 181
133 154 181
135 155 181
134 154 181
133 154 180
134 154 181
133 154 181
133 154 181
134 154 181
134 154 181
134 154 181
134 154 181
134 154 181
134 154 181
133 154 180
134 154 181
134 154 181
133 154 181
134 154 180
133 154 181
133 153 180
134 154 181
134 154 181
134 154 181
135 155 181
132 153 181
133 154 181
134 154 181
134 154 181
134 154 181
133 154 181
133 153 179
133 154 181
133 154 181
133 154 181
133 154 181
134 154 181
134 154 180
133 154 181
133 154 180
133 154 181
134 154 181
134 154 181
134 155 181
134 155 181
135 155 181
134 154 181
134 154 181
133 154 181
133 154 181
133 154 181
133 153 180
135 155 181
132 153 180
134 154 181
134 154 181
134 154 180
134 154 181
134 154 181
134 154 181
133 154 181
133 154 181
133 154 180
134 154 181
133 154 181
133 154 181
132 153 181
134 154 181
134 154 181
134 154 181
133 154 181
133 154 181
133 154 181
134 154 180
134 154 181
134 154 181
133 154 181
135 155 181
134 154 181
135 155 181
134 154 181
135 155 181
133 154 181
134 154 181
134 154 181
134 154 180
134 154 181
134 154 181
134 154 181
134 154 181
133 154 181
134 154 181
134 154 181
134 154 181
133 154 181
133 154 181
134 154 180
134 154 181
134 154 181
134 154 181
133 154 181
134 154 180
133 154 181
134 154 181
134 154 181
134 154 181
133 154 181
134 154 181
134 154 181
134 154 181
133 154 181
134 154 181
133 154 180
134 154 181
133 154 181
133 154 181
134 154 181
134 154 181
134 154 180
134 154 181
133 154 181
133 154 181
134 154 181
134 154 181
134 154 181
134 154 181
134 154 181
134 154 181
133 154 181
134 154 181
133 154 181
133 154 181
134 154 181
134 154 181
134 154 181
135 155 181
134 154 181
133 154 181
133 154 181
133 154 181
134 154 181
134 154 181
133 154 181
134 154 181
134 154 181
134 154 181
133 154 181
134 154 181
134 154 181
135 155 181
134 154 181
134 154 181
134 154 181
133 154 181
133 154 181
134 154 181
133 154 181
133 154 181
134 154 180
133 154 181
134 154 181
133 153 180
133 154 181
134 154 181
133 153 180
134 154 181
134 154 181
135 155 181
134 154 180
135 155 181
134 154 181
134 154 181
134 154 181
134 154 181
133 154 181
135 155 181
134 154 181
133 154 181
134 155 181
133 154 181
134 154 181
135 155 181
133 154 181
133 154 181
135 155 181
133 154 181
134 154 181
134 154 181
134 154 181
133 154 181
134 154 181
134 154 181
135 155 181
134 154 181
134 154 181
133 153 180
134 154 181
134 154 181
134 154 181
133 154 181
135 155 181
134 154 181
134 154 181
134 154 181
135 155 181
134 154 181
133 154 181
133 154 181
134 154 181
133 154 180
134 154 181
134 154 181
134 154 181
133 154 181
134 154 181
133 154 181
133 154 181
133 154 181
134 154 181
134 154 181
134 154 181
134 154 181
134 155 181
134 154 181
134 154 181
134 154 181
133 154 181
134 154 181
134 154 181
133 154 181
134 154 181
133 154 181
133 154 181
133 154 181
134 154 181
134 154 181
134 154 181
135 155 181
134 154 181
133 154 181
134 154 181
133 154 181
134 154 181
134 154 181
134 154 181
133 154 181
133 154 181
133 154 180
134 154 181
134 154 181
134 154 181
134 154 181
133 154 181
134 154 181
134 154 181
134 154 181
134 154 181
133 154 181
134 154 181
133 154 181
134 154 181
133 154 181
134 154 181
133 154 181
134 154 181
134 154 181
134 154 181
134 154 181
135 155 181
133 154 181
133 154 181
133 154 181
133 154 181
134 154 181
134 154 181
134 154 181
133 154 181
133 154 181
134 154 181
134 154 181
134 154 181
135 155 181
134 154 181
133 154 181
134 155 181
134 155 181
133 154 181
133 154 181
133 154 181
135 155 181
134 154 181
135 155 181
134 154 181
134 154 181
133 154 181
134 154 181
134 154 181
135 155 181
134 154 181
134 154 181
133 154 180
134 154 181
134 154 181
135 155 181
133 154 181
134 154 181
134 154 181
134 154 181
134 154 181
134 154 181
133 154 181
133 154 181
135 155 181
134 154 181
134 154 181
133 154 181
134 154 181
135 155 181
133 154 181
134 154 181
134 154 181
133 154 181
134 154 181
133 154 181
134 154 181
134 154 181
134 154 181
134 154 181
134 154 181
134 154 181
134 154 181
134 154 181
133 154 181
134 154 181
134 154 181
134 154 181
134 154 181
134 154 181
134 154 181
134 154 181
134 154 181
134 154 181
133 154 181
133 154 181
134 154 181
134 154 181
134 154 181
134 154 181
133 154 181
134 155 181
133 154 181
134 154 181
134 154 181
134 154 181
133 154 181
134 154 181
133 154 181
135 155 181
133 154 181
134 154 181
133 154 181
133 154 181
133 154 181
134 154 181
134 154 181
134 154 181
134 154 181
134 154 181
134 155 181
135 155 181
133 154 181
134 154 181
135 155 181
133 154 181
132 153 181
134 154 181
134 154 181
134 154 181
134 154 181
135 155 181
133 154 181
133 154 181
133 154 181
134 154 181
133 154 181
133 154 181
133 154 181
133 154 181
134 154 181
134 154 181
134 154 181
135 155 181
134 154 181
134 154 181
133 154 181
134 154 181
134 154 181
133 154 181
134 154 181
134 154 181
133 154 181
133 154 181
134 154 181
134 154 181
134 154 181
134 154 181
133 154 181
133 154 180
134 154 181
133 153 180
134 154 181
134 154 180
134 154 181
133 153 180
134 154 181
133 154 181
134 154 181
134 154 181
133 154 181
133 153 180
133 153 180
133 154 181
134 154 181
134 154 181
134 154 181
133 154 180
134 154 181
134 154 181
134 154 181
134 155 181
134 154 181
134 154 180
134 154 181
134 154 181
133 154 181
133 154 181
133 154 180
135 155 181
134 154 181
134 154 181
134 155 181
133 154 181
134 154 181
134 154 181
134 154 181
133 154 181
133 154 181
133 154 181
135 155 181
134 154 181
133 154 181
132 152 179
134 154 181
133 154 181
134 154 181
133 154 181
134 154 181
135 155 181
134 154 180
134 154 180
134 154 181
134 154 181
134 154 181
135 155 181
134 154 181
133 154 181
134 154 181
133 154 180
133 154 181
133 154 181
134 154 181
133 154 181
135 155 181
133 154 180
134 154 181
134 154 181
133 154 181
134 154 180
134 154 181
134 154 181
133 154 181
135 155 181
134 154 181
134 154 181
133 154 181
134 154 181
134 154 181
134 154 181
134 154 181
133 154 181
133 153 180
134 154 181
133 154 181
135 155 181
134 154 180
134 154 181
134 154 181
134 154 181
134 154 181
134 154 181
133 154 181
134 154 180
135 155 181
134 154 181
134 155 181
134 154 181
134 154 181
134 154 181
134 154 181
135 155 181
134 154 181
134 154 181
133 154 181
134 154 181
133 154 181
134 154 181
134 154 181
133 153 180
134 154 181
133 154 181
134 154 181
134 154 181
134 154 181
133 154 181
133 154 181
134 154 181
134 154 181
133 154 181
134 154 181
134 154 181
134 154 181
134 154 181
134 154 181
134 154 181
134 154 181
134 155 181
133 154 181
133 154 181
134 154 181
133 154 181
134 154 181
134 154 181
134 154 181
133 154 181
134 154 181
134 154 181
133 154 181
133 154 181
134 154 181
133 154 181
133 154 180
133 154 181
134 154 181
134 154 181
134 154 181
133 154 180
134 154 181
134 154 181
133 154 181
133 154 180
134 154 181
134 154 181
133 154 181
134 154 181
134 154 181
133 154 181
134 155 181
133 154 181
134 154 181
134 154 181
133 154 181
133 154 180
134 154 181
133 154 181
133 154 181
134 154 181
133 154 181
134 154 181
134 154 181
134 154 181
134 154 181
134 154 181
134 154 181
133 154 181
134 154 181
133 154 181
133 154 181
133 154 181
133 154 181
134 154 181
134 154 181
134 154 181
134 155 181
134 154 181
133 154 181
134 154 181
134 154 181
133 154 181
134 154 181
134 154 181
133 154 181
133 154 181
134 154 181
133 154 180
135 155 181
134 154 181
134 154 181
135 155 181
134 154 181
132 153 180
134 154 181
134 154 180
134 154 181
133 154 181
133 154 181
134 154 181
134 154 181
133 154 181
135 155 181
135 155 181
133 154 181
134 154 181
134 154 181
134 154 181
134 154 181
134 154 180
133 154 181
134 154 181
133 154 181
134 154 181
133 154 181
134 154 181
134 154 181
133 154 181
133 154 181
135 154 180
134 154 181
134 154 180
134 154 181
134 154 181
133 154 181
133 153 180
133 154 181
134 154 181
134 154 181
134 154 181
135 155 181
134 154 181
134 155 181
134 154 181
134 154 180
135 155 181
134 154 181
133 154 181
133 154 181
134 154 181
135 155 181
134 154 181
133 154 181
133 154 181
134 154 181
133 154 181
134 154 181
133 154 181
133 154 181
133 154 181
134 154 181
134 154 181
133 154 181
134 154 181
134 154 181
133 154 181
133 154 181
134 154 181
134 154 181
134 154 181
134 154 181
134 154 181
134 155 181
134 154 181
134 154 181
134 154 181
134 154 181
134 154 181
134 154 181
134 154 180
134 154 181
134 154 181
134 154 181
133 154 181
134 154 181
134 154 181
134 154 181
134 154 181
133 154 181
133 154 181
134 154 181
133 154 181
133 154 181
133 154 181
135 155 181
133 154 181
134 154 181
134 154 181
134 154 181
133 154 181
134 154 181
134 154 181
134 154 181
134 154 181
134 154 181
134 154 181
134 154 181
135 155 181
134 154 181
133 154 181
134 154 181
134 154 181
133 154 181
133 154 181
133 154 181
134 154 181
133 154 180
133 154 181
134 154 181
135 155 181
134 154 181
134 154 181
133 154 181
134 154 181
134 154 181
133 154 181
134 154 181
133 154 181
133 154 181
133 154 181
133 154 180
134 154 181
134 155 181
135 155 181
133 154 181
134 154 181
133 154 181
135 155 181
134 154 181
133 154 181
134 154 181
133 154 181
133 154 181
134 155 181
134 154 181
133 154 181
134 154 181
134 154 181
134 154 181
133 154 181
134 154 181
133 154 181
134 154 181
133 154 181
134 154 181
133 154 181
133 154 181
134 154 181
134 154 181
133 154 181
134 154 181
133 154 181
134 154 181
134 154 181
134 154 181
134 154 181
134 154 181
134 154 181
134 154 181
134 154 181
134 154 180
134 154 181
133 154 181
135 155 181
133 154 180
134 154 181
134 154 181
134 154 181
133 154 181
134 154 180
133 154 180
134 154 181
133 154 180
134 154 181
133 154 181
133 154 181
134 154 181
134 154 181
135 155 181
134 154 181
133 154 181
134 154 181
134 154 181
134 154 181
134 154 181
133 154 181
133 154 181
133 154 181
133 154 181
134 154 181
134 154 181
134 154 181
133 154 181
134 154 181
134 154 181
134 154 181
134 154 181
133 153 180
133 154 181
134 154 181
134 154 181
133 154 181
134 154 181
133 154 181
133 154 181
135 155 181
133 154 181
133 154 181
133 154 181
134 154 181
134 154 181
134 154 181
133 154 181
134 154 180
134 154 181
134 154 180
134 154 181
134 154 181
134 154 181
133 154 180
134 154 181
133 154 181
134 154 181
133 154 181
134 154 180
134 155 181
133 154 180
133 154 181
133 154 181
134 154 181
133 154 181
134 154 181
135 155 181
133 154 181
133 154 180
133 154 181
134 154 181
134 154 181
133 154 181
133 154 181
133 154 181
133 154 181
133 154 181
134 154 181
133 154 181
133 154 181
134 154 181
133 154 181
134 154 181
133 154 181
133 154 181
133 154 181
134 154 181
133 154 181
134 154 181
134 154 181
134 154 181
134 154 181
134 154 181
133 154 181
134 155 181
135 155 181
134 154 181
134 154 181
134 154 181
133 154 181
133 154 181
134 154 181
133 154 181
133 153 180
134 154 181
133 154 180
135 155 181
133 154 181
134 154 181
132 153 181
133 154 181
134 154 181
134 155 181
134 154 181
133 154 181
134 154 181
134 154 181
133 154 181
134 154 181
134 154 181
133 154 181
134 154 181
133 154 181
133 154 181
134 154 181
134 154 181
133 154 181
134 154 181
133 154 181
134 154 181
135 155 181
134 154 181
134 154 181
133 153 180
133 154 181
133 154 181
133 154 181
134 154 181
134 154 181
134 155 181
134 154 181
133 153 180
133 154 180
134 154 181
134 154 180
134 154 181
134 154 181
134 154 181
134 154 181
133 154 181
134 154 181
134 154 181
133 154 181
134 154 181
134 154 181
134 154 181
134 154 181
134 154 181
132 153 181
134 154 181
133 154 181
133 154 181
134 154 181
135 155 181
133 154 181
133 154 181
133 153 180
133 154 181
133 154 181
134 154 181
134 154 181
134 154 181
134 154 181
133 154 181
133 154 181
134 154 181
133 154 181
133 154 181
134 154 181
134 154 181
134 154 181
133 154 181
134 154 181
134 154 181
134 154 181
134 154 181
134 154 181
133 154 180
133 154 181
133 154 181
134 154 181
134 154 181
135 155 181
134 154 181
134 154 181
134 154 181
134 155 181
133 154 181
134 154 181
132 153 181
134 154 181
134 154 181
134 154 181
134 154 181
134 155 181
134 155 181
134 154 181
133 154 181
134 154 181
133 154 181
133 154 181
134 154 181
134 154 181
134 154 181
133 154 181
134 154 181
134 154 181
134 154 181
134 154 181
134 154 180
134 154 181
134 154 181
133 154 181
134 154 181
134 154 180
134 154 181
133 154 180
135 155 181
134 154 181
134 154 181
134 154 181
134 154 181
134 154 181
133 154 181
134 154 181
133 154 181
135 155 181
134 154 181
134 154 181
134 154 180
134 154 181
134 154 181
133 154 181
133 154 180
133 154 180
133 154 181
134 154 181
133 154 181
134 154 181
134 154 180
134 154 181
134 154 181
134 154 181
134 154 181
134 154 181
135 155 181
134 154 181
134 154 181
134 154 181
134 154 181
134 155 181
134 154 181
133 154 181
133 154 181
134 154 181
134 154 181
134 154 181
133 154 181
133 154 181
134 154 181
134 154 181
133 154 181
134 154 181
133 154 181
133 154 181
133 153 180
134 154 181
134 154 181
133 154 181
133 154 181
134 154 181
134 154 181
133 154 181
133 154 181
134 154 180
133 154 180
133 154 181
134 154 181
134 154 181
133 154 181
134 154 181
134 154 181
133 154 181
133 154 181
134 154 181
133 154 181
134 154 181
133 154 181
134 154 181
134 154 181
135 155 181
133 154 181
134 154 181
133 154 181
133 154 181
133 154 181
133 154 181
134 154 181
133 154 180
134 154 181
133 154 181
135 155 181
134 154 181
134 154 181
134 154 181
134 154 181
135 155 181
134 154 181
134 154 181
133 154 181
134 154 181
133 154 181
134 154 181
134 154 181
133 154 181
133 154 180
134 154 181
134 154 181
134 154 181
134 154 181
134 154 181
134 154 181
134 154 181
133 154 181
134 154 181
133 154 181
133 154 181
133 154 181
134 154 181
134 154 181
133 154 181
133 154 181
133 154 181
134 154 181
134 154 181
134 154 181
134 154 181
134 154 181
134 154 181
135 155 181
133 154 181
134 154 181
135 155 181
134 154 181
134 154 181
134 154 181
134 155 181
134 154 181
134 154 181
133 154 181
133 154 181
133 154 181
134 154 181
134 155 181
134 154 181
134 154 181
134 155 181
134 154 181
133 154 181
134 154 181
133 154 180
133 154 181
135 155 181
133 154 181
134 154 181
134 154 181
134 154 181
134 155 181
134 154 181
134 154 181
133 154 181
133 154 181
134 154 181
135 155 181
134 154 181
133 154 181
132 153 180
134 154 180
133 154 181
134 154 181
134 154 181
133 154 181
133 154 181
134 154 181
134 154 181
133 154 181
133 154 181
134 154 180
133 154 181
134 154 181
134 154 181
133 154 181
134 154 181
134 154 181
134 154 181
134 154 181
135 155 181
133 154 181
134 155 181
134 154 181
134 154 181
134 154 181
134 154 181
134 154 181
134 155 181
134 154 181
135 155 181
134 154 181
134 154 181
134 154 181
134 154 181
134 154 181
133 154 181
133 154 181
134 154 181
134 154 181
134 154 181
134 154 181
134 154 181
134 154 181
133 154 181
133 154 181
133 154 181
134 154 181
134 154 181
134 154 181
132 153 180
134 154 181
135 155 181
134 154 181
134 154 181
134 154 180
133 154 180
133 154 181
133 154 181
134 154 181
133 154 181
134 154 180
133 154 181
134 154 181
134 155 181
134 154 181
133 154 181
134 154 181
134 154 180
133 154 181
134 154 181
134 154 181
134 154 181
134 154 181
134 154 181
133 154 181
134 154 181
133 154 181
133 154 181
134 154 181
134 154 181
134 154 180
133 154 181
133 154 181
134 154 181
135 155 181
134 154 180
133 154 181
134 154 181
134 154 181
134 154 181
134 154 181
133 154 181
133 154 181
134 154 181
133 154 181
134 154 181
134 154 181
134 154 181
133 154 181
134 154 181
134 154 181
134 154 181
133 154 181
133 154 181
133 154 181
134 154 181
133 154 181
134 154 181
134 154 181
134 154 181
133 154 180
134 154 181
133 154 181
134 154 181
133 154 181
134 154 181
134 154 181
133 154 181
133 154 181
135 155 181
134 154 181
134 154 181
134 154 181
134 154 181
134 154 181
135 155 181
134 154 181
134 154 181
134 154 181
134 154 181
134 154 181
134 154 181
135 155 181
134 154 181
134 154 181
134 154 181
134 154 181
134 154 181
134 154 181
133 154 181
133 154 181
133 154 181
134 155 181
133 154 181
133 154 181
134 154 181
134 154 181
134 154 181
134 154 181
134 154 181
134 154 181
134 154 181
134 154 181
134 154 181
134 154 181
134 154 181
134 154 181
133 154 181
134 154 181
135 155 181
134 154 181
133 154 181
134 154 181
134 154 181
134 154 181
133 154 181
133 154 180
133 154 181
134 154 181
134 154 181
133 154 181
133 154 181
133 154 180
134 154 181
134 154 181
133 154 181
133 154 181
134 154 180
133 154 181
134 154 181
134 154 181
134 154 181
133 154 181
134 154 181
134 154 181
133 154 181
133 154 181
134 154 180
134 154 181
134 154 181
134 154 181
133 154 181
133 154 181
134 154 180
134 154 181
134 154 181
134 154 181
134 154 181
133 154 181
133 154 181
133 154 181
133 154 181
134 154 181
134 154 181
134 154 181
134 154 181
134 154 181
134 154 181
133 154 181
134 154 181
134 154 181
133 154 181
134 154 181
134 154 181
134 154 181
133 154 181
134 154 181
135 155 181
133 154 181
134 154 181
133 154 181
133 154 181
134 154 181
134 154 181
134 154 181
134 154 181
134 154 181
133 154 181
134 154 181
134 154 181
134 154 181
133 154 180
134 154 181
135 155 181
134 154 180
134 154 181
134 154 181
133 154 181
134 154 180
134 154 181
133 154 180
133 154 181
134 154 181
133 154 181
133 154 181
134 154 181
133 154 181
134 154 181
133 154 181
134 154 181
133 154 181
135 155 181
134 154 181
133 154 181
133 154 181
133 154 181
133 154 181
134 154 181
134 154 181
133 154 181
135 155 181
134 154 181
134 154 181
134 154 181
134 154 181
133 154 181
134 154 181
134 154 181
134 154 181
135 155 181
132 153 181
133 154 181
133 154 181
134 154 181
133 154 181
134 154 181
134 154 181
133 154 181
133 154 181
134 154 181
134 154 181
133 154 181
134 154 181
134 154 181
134 154 181
134 154 181
134 154 181
134 154 181
134 154 181
134 154 181
134 154 181
134 154 181
134 154 181
134 154 181
133 154 181
133 154 180
134 155 181
134 154 181
133 154 181
134 154 181
134 154 181
134 154 181
133 154 181
134 154 181
134 154 181
133 154 181
134 154 181
134 154 181
133 154 181
134 154 181
133 154 181
135 155 181
134 154 181
134 154 181
135 155 181
133 154 181
133 154 180
134 154 181
134 154 181
134 154 181
132 153 181
133 154 181
134 154 181
134 154 181
134 154 181
133 154 181
133 154 181
134 154 181
132 153 181
133 154 181
134 154 180
132 153 181
133 154 180
133 154 181
133 154 181
134 154 181
134 154 181
134 154 181
133 154 181
133 154 181
134 154 181
133 154 181
134 154 181
133 154 181
134 154 181
134 154 181
133 154 181
133 154 181
134 154 181
134 154 180
133 154 181
134 154 181
134 154 181
134 154 181
133 154 181
134 154 181
134 154 181
133 154 181
134 154 181
133 154 181
133 154 181
133 154 181
134 154 181
134 154 181
134 154 181
134 154 181
133 154 181
134 154 181
134 154 181
134 155 181
134 154 181
134 154 181
134 154 181
133 154 180
134 154 181
133 154 181
134 154 181
133 154 181
133 154 180
134 154 181
134 154 181
134 154 181
133 154 181
135 155 181
134 154 181
135 155 181
133 154 181
134 154 181
134 154 181
133 154 181
134 154 181
134 154 181
134 154 181
133 153 180
134 154 181
133 154 181
133 154 181
134 154 181
134 154 181
135 155 181
134 154 181
134 155 181
134 154 181
133 154 181
133 154 181
133 154 181
134 154 181
134 154 181
134 154 181
133 154 180
134 154 181
133 154 180
134 154 181
135 155 181
134 154 181
134 154 181
134 154 181
133 154 181
134 154 181
134 154 181
133 154 181
135 155 181
134 154 181
134 154 181
133 154 181
133 154 181
134 154 181
133 154 181
134 154 181
133 154 181
133 154 180
134 154 181
134 154 181
134 154 181
134 154 181
133 154 181
133 154 181
134 154 181
134 154 181
133 154 181
134 154 181
134 154 181
134 154 181
133 154 181
133 154 181
134 154 181
134 154 181
134 154 181
134 154 181
133 154 181
134 154 181
134 154 181
134 154 181
134 154 181
134 154 181
134 154 181
133 154 181
133 154 181
133 154 181
134 154 181
134 154 181
134 154 181
134 154 181
133 154 181
134 154 181
134 154 181
134 154 181
134 154 181
134 154 181
133 154 181
134 154 181
134 154 181
134 154 181
133 154 181
134 154 181
133 154 181
135 154 180
133 154 181
134 154 181
134 154 181
133 154 181
133 154 181
134 154 181
134 154 181
133 154 181
135 155 181
134 154 181
134 154 181
134 154 180
134 154 181
133 154 181
133 153 180
134 154 181
133 154 181
133 154 181
133 154 181
134 154 181
133 154 181
134 154 181
134 154 181
134 154 181
133 154 180
135 155 181
134 154 181
134 154 181
134 154 181
134 154 181
134 155 181
135 155 181
134 154 181
134 154 181
134 154 181
133 154 181
134 154 181
134 154 181
133 154 181
133 154 180
134 154 181
134 154 181
134 154 181
134 154 181
133 154 181
134 154 181
133 154 181
133 154 181
134 154 181
135 155 181
134 154 181
134 154 181
134 154 181
134 154 181
133 154 180
134 154 181
134 154 181
133 154 181
134 154 181
134 154 181
134 154 181
134 154 181
134 154 181
134 154 181
134 154 181
133 154 181
132 153 181
133 154 181
133 154 181
134 154 180
133 154 181
134 155 181
134 154 181
134 154 181
133 154 181
133 154 181
134 154 181
133 154 181
134 154 181
134 154 181
134 154 181
134 154 181
134 154 181
134 154 181
134 154 181
133 154 181
133 154 181
133 154 181
133 154 181
134 154 181
134 154 181
133 154 180
135 155 181
133 154 180
133 154 181
135 155 181
133 154 181
134 154 181
133 154 181
134 154 181
133 154 181
133 154 181
134 154 181
133 154 181
133 154 181
134 154 181
134 154 181
133 154 181
135 155 181
133 154 181
134 154 181
134 154 181
135 155 181
134 154 181
132 153 181
135 155 181
133 154 181
134 154 181
134 154 181
134 154 180
134 154 181
134 154 181
134 154 181
134 154 181
134 154 181
134 154 181
133 154 181
133 154 181
134 154 181
133 154 181
134 154 181
134 154 181
134 154 181
133 154 181
135 155 181
134 154 181
134 154 181
133 154 181
134 154 181
134 154 181
134 154 181
133 154 181
134 154 181
134 154 181
134 154 181
133 154 181
134 154 181
134 154 181
134 154 181
134 154 181
134 154 181
134 155 181
134 154 181
133 154 180
134 154 181
133 154 181
133 154 180
134 154 181
134 154 181
133 154 180
133 154 181
134 154 181
134 154 181
134 154 181
134 154 181
134 154 181
134 154 181
134 154 181
134 154 181
133 154 181
134 154 181
133 154 181
133 154 181
134 154 181
133 154 181
133 154 181
134 154 181
134 154 180
134 154 181
133 154 181
134 154 181
133 154 181
133 154 181
133 154 181
134 155 181
134 154 181
134 154 181
134 154 181
133 154 181
134 154 181
134 154 181
134 154 181
134 154 181
134 154 181
134 155 181
133 154 181
134 154 181
133 154 181
134 154 180
134 154 181
134 154 181
134 154 181
134 154 181
134 155 181
133 154 181
134 154 181
134 154 181
134 155 181
133 154 180
133 154 181
133 154 180
134 154 181
134 154 181
133 154 181
134 154 180
133 154 181
134 154 181
133 154 181
133 154 181
135 155 181
134 154 181
134 154 181
134 154 180
134 154 181
133 154 181
134 154 181
135 155 181
133 154 181
134 154 181
134 154 181
134 154 181
134 154 181
135 155 181
133 154 181
135 155 181
134 154 180
133 154 181
134 154 181
134 154 181
134 154 181
133 154 181
134 154 181
133 154 181
134 154 181
133 154 181
134 154 181
134 154 181
134 154 181
134 154 181
134 154 181
134 154 181
134 154 181
133 153 180
134 154 181
133 154 181
134 154 181
134 154 181
134 154 181
134 154 181
134 154 181
135 155 181
133 154 181
135 155 181
134 154 181
134 154 181
133 154 181
134 154 181
134 154 181
134 154 181
133 154 181
133 154 181
133 154 181
134 154 180
134 154 181
134 154 181
134 154 181
134 154 180
134 154 181
133 154 181
133 154 181
134 154 181
134 154 181
134 154 181
134 154 181
134 154 181
134 154 181
134 154 181
134 154 181
133 154 180
135 155 181
133 154 181
134 154 181
134 154 181
134 155 181
134 154 181
133 154 181
134 154 181
134 154 181
134 154 181
134 154 181
133 154 181
133 154 181
134 154 181
134 154 181
133 154 181
134 154 181
134 154 181
134 154 181
134 154 181
133 154 181
134 154 181
133 154 181
133 154 181
134 154 181
132 153 181
134 154 181
134 154 181
133 154 181
134 154 181
133 154 181
133 154 181
134 154 181
134 154 181
133 154 181
134 154 181
134 154 181
135 155 181
132 153 180
133 154 181
133 154 181
133 154 181
133 154 181
134 154 181
134 154 181
133 154 181
132 153 180
134 154 181
134 154 181
134 154 180
134 154 181
135 155 181
134 154 181
134 155 181
134 154 181
133 154 181
134 154 181
133 154 181
134 154 181
133 154 181
134 154 181
134 154 181
133 154 181
134 154 181
133 154 181
134 154 181
134 154 181
134 154 181
133 154 181
133 154 181
133 154 181
135 155 181
134 154 181
134 154 180
134 154 181
134 154 181
133 154 181
134 154 181
134 154 181
134 154 181
134 154 181
134 154 180
134 154 181
134 154 181
134 154 181
134 154 181
133 154 181
134 154 181
134 154 181
134 154 181
133 153 180
134 154 181
134 154 181
133 154 180
134 154 181
133 154 181
134 154 181
135 155 181
134 154 181
134 154 181
134 154 181
133 154 181
134 154 181
134 154 180
133 154 181
133 154 181
135 155 181
133 154 181
134 154 181
133 154 181
133 154 181
134 154 181
134 154 181
134 154 181
133 154 181
133 154 181
134 154 181
134 154 181
135 155 181
134 154 181
134 154 181
134 154 181
133 154 181
134 154 181
134 154 181
133 154 181
134 154 181
134 154 181
134 154 181
135 155 181
135 155 181
134 154 181
134 154 181
134 154 181
135 155 181
134 154 181
134 154 181
134 154 180
134 154 181
134 154 181
134 154 181
134 154 181
134 154 181
134 154 181
133 153 180
133 154 181
133 154 181
133 154 181
133 154 181
134 154 181
133 154 181
134 154 181
135 155 181
134 154 180
133 154 181
132 153 181
133 154 181
134 154 181
134 154 181
134 154 181
134 154 181
133 154 181
133 154 181
133 154 181
134 154 181
133 154 181
134 154 181
133 154 181
133 154 181
134 154 181
133 154 181
134 154 181
134 154 181
133 154 181
134 154 181
134 155 181
135 155 181
134 154 181
133 154 181
133 154 181
133 154 181
134 154 181
134 154 181
134 154 181
134 154 181
135 155 181
133 154 181
134 154 181
133 154 181
134 154 181
134 154 181
134 154 181
134 154 181
133 154 181
134 154 180
133 154 181
133 154 181
134 154 181
134 154 181
134 154 181
134 154 181
134 154 181
133 154 181
134 154 181
133 154 181
133 154 181
132 153 181
134 154 181
133 154 181
134 154 181
133 154 181
134 154 181
134 154 181
134 154 181
134 154 181
133 154 181
133 154 181
134 154 181
134 154 181
134 154 181
134 154 181
134 154 181
133 154 181
133 154 181
133 154 181
133 154 181
135 155 181
133 154 181
134 154 181
134 154 181
135 155 181
134 154 181
134 154 181
134 154 181
132 153 181
134 154 181
133 154 181
133 154 181
134 154 181
133 154 181
134 154 181
135 155 181
134 154 181
133 154 181
134 154 180
134 154 181
134 154 181
135 155 181
134 154 181
133 154 181
134 154 181
134 154 181
134 154 181
134 154 181
135 155 181
134 154 181
133 154 181
133 154 181
133 154 181
135 155 181
134 154 181
134 154 181
135 155 181
134 154 181
133 154 181
134 154 181
134 154 181
133 154 181
133 154 180
134 154 181
134 154 181
134 154 181
134 154 181
134 154 181
134 154 181
134 154 181
134 154 181
134 154 181
133 154 181
134 154 181
135 155 181
134 154 180
134 154 181
134 154 181
133 154 181
134 154 181
133 154 181
134 154 181
133 153 180
134 154 181
133 154 180
133 154 181
134 154 181
134 154 181
133 154 181
134 154 181
134 154 181
133 154 181
134 154 181
133 154 181
134 154 181
134 154 181
133 154 181
134 154 181
134 154 181
134 154 181
134 154 181
133 154 181
133 154 181
134 154 181
134 154 181
134 154 181
134 154 181
134 154 181
133 154 181
133 154 181
134 154 181
134 155 181
133 154 181
133 154 181
133 154 181
135 155 181
134 154 181
133 154 181
134 154 181
133 154 181
133 154 181
133 154 181
133 154 180
134 154 181
134 154 181
134 154 181
134 154 180
134 154 181
134 154 181
134 154 181
134 154 181
133 154 181
134 154 181
133 154 181
134 154 181
135 155 181
133 154 181
134 154 181
134 154 181
134 154 181
134 154 181
134 154 181
134 154 181
133 154 181
135 155 181
134 154 181
133 154 181
134 154 181
135 155 181
134 154 181
133 154 180
133 154 181
135 155 181
134 154 181
134 154 181
133 154 181
134 154 181
134 154 181
133 154 181
134 154 181
134 154 181
133 154 181
134 154 181
134 154 181
133 154 181
133 154 181
133 154 181
133 154 181
134 154 181
134 154 181
134 154 181
134 154 181
134 154 181
134 154 181
134 154 181
134 154 181
134 155 181
134 154 181
134 154 181
133 154 181
134 154 181
134 154 181
134 154 181
133 154 181
135 155 181
134 154 181
133 154 181
134 154 181
134 154 181
134 154 181
134 154 181
134 154 181
134 154 181
133 154 181
134 154 181
134 154 181
134 155 181
134 154 180
134 154 181
134 154 181
134 154 180
133 154 181
133 154 181
134 154 181
134 154 181
134 155 181
134 154 181
134 154 181
134 154 181
134 154 181
133 154 180
134 154 181
133 154 181
134 154 181
133 154 181
133 154 181
133 154 180
133 154 181
134 154 181
134 154 181
132 153 180
134 154 181
133 154 181
134 154 181
133 154 181
134 154 181
135 155 181
134 154 181
135 155 181
134 154 181
133 154 181
134 154 181
133 154 181
134 154 181
134 154 181
134 154 181
134 154 181
135 155 181
134 155 181
133 154 181
134 154 181
133 154 181
133 154 181
134 154 180
134 154 181
134 154 181
134 154 181
134 154 181
134 154 181
134 154 181
134 154 181
133 154 181
134 154 181
134 154 181
134 154 181
134 154 181
134 154 181
134 154 181
132 153 180
134 154 181
133 154 181
134 154 181
134 154 181
134 154 181
133 154 181
133 154 181
134 154 181
134 154 181
135 155 181
134 154 181
134 154 181
134 155 181
134 154 181
134 154 181
134 154 181
134 154 181
133 154 181
133 154 181
134 154 181
134 154 181
134 154 181
133 154 181
134 154 181
134 154 180
134 154 181
134 154 181
134 154 181
134 154 181
133 154 181
134 154 181
134 154 180
133 154 181
134 154 181
133 154 181
134 154 180
133 154 181
133 154 180
134 154 181
134 154 181
134 154 181
134 154 181
133 154 180
135 155 181
134 154 181
134 154 181
133 154 180
134 154 181
134 154 181
134 154 181
134 154 181
134 154 181
134 154 181
134 154 181
133 154 181
135 155 181
133 154 181
133 154 181
134 154 181
134 154 181
133 154 181
133 154 181
134 154 181
133 154 181
134 154 181
134 154 181
133 154 181
133 154 181
134 154 181
135 155 181
134 154 181
134 154 181
134 154 181
134 154 181
135 155 181
134 154 181
134 154 181
134 154 181
133 154 181
134 154 181
133 154 181
134 154 181
133 154 181
134 154 181
134 154 181
133 154 180
134 154 181
134 154 181
134 154 181
134 154 181
133 154 181
134 154 181
135 155 181
133 154 181
134 154 180
134 154 181
134 154 181
134 154 181
135 155 181
133 153 180
134 154 181
134 154 181
134 154 180
133 154 181
134 154 181
134 154 181
133 154 181
134 154 181
134 154 181
134 154 181
134 154 181
134 154 181
133 153 180
133 154 181
134 154 181
133 154 181
134 154 181
134 154 181
132 153 180
134 154 181
134 154 181
134 154 181
133 154 181
134 154 180
133 154 181
134 154 181
133 154 181
134 154 181
134 154 181
133 154 181
134 154 181
133 154 181
133 154 181
134 154 181
134 155 181
134 154 181
134 154 181
133 154 181
133 154 181
133 154 181
134 154 181
134 154 181
133 154 181
134 155 181
134 154 181
133 154 181
134 154 181
133 154 181
134 154 181
133 154 181
134 154 181
133 154 180
134 154 181
133 154 181
135 155 181
134 154 181
134 154 181
134 154 180
133 154 181
134 154 181
133 154 181
135 155 181
133 154 181
134 154 181
134 154 181
134 154 181
134 154 181
134 154 180
134 154 181
134 154 181
133 154 181
133 154 181
133 154 181
134 154 181
134 154 181
134 154 181
134 154 181
135 155 181
134 154 181
134 154 181
134 154 181
134 154 181
134 154 181
134 154 181
135 155 181
133 154 181
133 154 181
134 154 181
133 154 181
133 154 181
134 154 181
135 155 181
133 154 181
133 154 181
133 154 181
134 154 181
134 154 181
134 154 181
134 154 181
134 154 181
133 154 181
134 154 181
134 154 181
134 154 181
133 154 181
133 153 180
133 154 181
134 154 181
134 154 181
134 154 181
134 154 181
134 154 181
134 154 181
134 154 181
134 154 181
134 154 181
135 155 181
134 154 181
134 154 181
133 154 181
133 154 181
134 154 181
134 154 181
134 154 180
133 154 181
134 154 181
134 154 181
134 154 181
134 154 181
133 154 181
134 154 181
133 154 181
134 154 181
135 155 181
134 154 181
134 154 181
134 154 181
134 154 181
133 154 181
133 154 180
135 155 181
134 154 181
135 155 181
134 155 181
133 154 181
134 154 181
134 154 181
134 154 181
134 154 181
133 153 180
133 154 181
133 154 181
134 154 181
134 154 181
134 154 181
134 154 181
133 154 181
134 154 181
134 154 181
134 154 181
133 154 181
134 154 181
133 154 181
135 155 181
134 154 181
134 154 181
134 154 181
134 154 181
134 154 181
134 154 181
134 154 181
133 154 181
134 154 181
134 154 181
133 154 181
133 154 181
134 154 181
133 154 181
134 154 181
133 154 181
133 154 181
133 154 181
134 154 181
133 154 181
134 154 181
134 154 181
134 154 181
134 154 181
134 154 181
133 154 181
134 154 181
134 155 181
134 154 181
134 154 181
134 154 181
134 154 180
133 154 181
134 154 181
134 154 181
134 155 181
133 154 181
134 154 181
134 154 181
134 154 181
134 154 181
133 154 181
134 154 181
133 154 181
133 154 181
134 154 181
133 154 181
134 154 181
133 154 180
133 154 181
134 154 181
134 154 181
134 154 181
135 155 181
134 154 181
134 154 181
133 154 181
133 154 181
134 154 181
133 154 181
134 154 181
134 154 181
133 154 181
134 155 181
134 154 181
133 154 181
135 155 181
134 154 181
134 154 181
134 154 181
133 154 181
134 154 181
134 154 181
133 154 180
134 154 181
134 154 181
134 154 181
134 154 181
134 155 181
135 155 181
134 154 181
134 154 181
133 154 181
134 154 181
134 154 181
134 154 181
133 154 181
134 154 181
134 154 181
134 154 181
134 154 181
134 154 181
133 154 181
134 154 181
134 154 181
134 154 181
134 154 181
133 154 181
133 154 181
134 154 181
134 154 181
134 154 181
133 154 181
134 154 181
133 154 181
133 154 181
134 154 181
134 154 181
133 154 180
133 154 181
133 154 181
133 154 181
133 154 181
134 154 181
134 154 181
134 154 181
134 154 181
134 154 181
134 154 181
134 154 181
134 154 181
133 154 181
133 154 181
135 155 181
134 154 181
133 154 181
133 154 181
133 153 180
134 154 181
133 154 181
134 154 181
133 154 181
132 153 181
134 154 181
133 154 181
133 154 180
134 154 181
134 154 181
134 154 181
134 154 181
134 154 181
134 154 181
133 154 181
134 154 181
134 154 181
134 154 181
133 154 181
133 154 181
134 154 181
134 154 181
133 154 181
133 154 181
134 154 181
133 154 181
133 154 181
134 154 181
134 154 181
134 154 181
133 154 181
133 154 181
135 155 181
133 154 181
134 154 181
134 154 181
133 154 181
134 154 181
134 154 180
135 155 181
134 154 180
134 154 181
133 154 181
133 154 181
133 154 181
134 154 181
133 154 181
134 155 181
133 154 181
133 154 181
134 154 181
134 154 181
134 154 181
134 154 181
134 154 181
134 154 181
134 154 181
134 154 181
134 155 181
133 154 181
134 154 181
133 153 180
134 154 181
133 154 181
134 154 181
133 154 181
134 154 181
134 154 181
133 154 181
134 154 181
135 155 181
134 154 181
133 154 181
133 154 181
134 154 181
132 154 181
133 154 181
135 155 181
133 154 181
134 154 181
133 154 181
133 154 181
134 154 181
133 154 181
134 154 180
134 154 180
134 154 181
134 154 181
133 154 180
134 154 181
134 154 181
135 155 181
134 154 181
133 154 181
135 155 181
133 154 181
134 154 181
135 155 181
134 154 181
133 154 181
133 154 181
133 154 181
133 154 181
134 154 181
134 154 181
134 154 181
133 154 181
133 154 181
134 154 181
133 154 181
134 154 181
134 154 181
133 154 181
134 154 181
133 154 180
133 154 181
133 154 181
133 154 181
134 154 181
133 154 181
134 154 181
134 154 181
133 154 181
133 154 181
133 154 181
134 154 181
134 154 181
134 154 181
134 154 181
133 154 181
134 154 181
134 154 181
134 154 181
134 154 181
133 154 181
134 154 181
133 154 181
134 154 181
134 154 181
133 154 181
133 154 181
133 154 180
134 154 181
134 154 181
133 154 181
134 154 181
134 154 181
133 154 181
134 154 181
134 154 181
135 155 181
134 154 181
135 155 181
134 154 181
132 153 180
133 154 180
133 154 181
134 154 181
133 154 181
133 154 181
133 154 181
134 154 181
134 154 181
134 154 181
134 154 181
133 154 181
135 155 181
133 154 181
133 154 181
133 154 181
133 154 181
134 154 181
135 155 181
135 155 181
134 154 181
135 155 181
133 154 181
133 154 181
134 154 181
133 154 181
133 154 181
133 154 181
134 154 181
134 154 181
134 154 181
134 154 181
134 154 181
134 154 181
134 155 181
134 154 181
133 154 181
133 154 181
134 155 181
133 154 181
134 154 181
133 154 181
134 154 181
133 154 181
133 154 181
135 155 181
134 154 181
133 154 181
134 154 181
135 155 181
135 154 180
135 155 181
134 154 181
134 154 181
135 155 181
133 154 181
133 154 181
134 154 181
135 155 181
134 154 181
135 155 181
133 154 181
133 154 181
133 154 181
134 154 181
134 154 181
134 154 181
134 154 181
134 154 181
134 154 181
133 154 181
133 154 181
135 155 181
134 154 181
134 154 180
133 154 181
133 154 181
134 154 181
134 154 181
134 154 181
134 154 181
133 153 180
133 154 181
133 154 181
134 154 181
133 154 181
133 154 181
133 154 181
134 154 181
135 155 181
134 154 181
134 154 181
134 154 181
135 155 181
134 154 181
133 154 181
134 154 181
134 155 181
133 154 181
134 154 181
134 154 181
134 154 181
133 154 181
134 154 181
134 154 180
134 154 181
134 154 181
133 154 181
134 154 181
134 155 181
133 154 181
134 154 181
134 154 181
134 154 181
134 154 181
134 155 181
133 154 181
134 154 181
133 154 181
134 154 181
133 154 181
133 154 181
133 154 181
134 154 181
133 154 181
134 154 181
133 154 181
133 154 181
135 155 181
134 154 181
133 154 181
133 154 180
134 154 181
133 154 181
135 155 181
134 154 181
134 154 181
133 154 181
133 154 181
134 155 181
133 154 181
133 154 181
134 154 181
134 154 181
134 155 181
133 154 181
134 154 181
134 154 181
134 154 181
134 154 181
133 154 181
134 154 181
135 155 181
134 154 181
134 154 181
134 154 181
134 154 181
133 154 181
134 154 181
133 154 181
134 154 181
133 154 181
134 154 181
134 154 181
134 154 181
133 154 181
133 154 181
134 154 180
134 154 181
134 154 181
134 154 181
134 154 181
135 155 181
134 154 181
133 154 181
133 154 181
133 154 181
134 154 181
134 154 181
133 154 181
133 154 181
133 154 180
134 154 181
133 154 181
134 154 181
133 154 181
133 154 181
134 154 181
134 154 181
134 154 181
134 154 181
133 154 181
133 154 180
134 155 181
134 154 181
133 154 181
133 154 181
134 154 181
134 154 181
135 155 181
134 155 181
134 155 181
134 154 181
133 154 181
133 154 181
133 154 181
133 154 181
133 154 181
134 154 181
134 154 181
134 154 181
134 154 181
134 154 180
133 154 181
133 154 181
133 154 181
134 154 181
134 154 181
133 154 181
134 154 181
134 154 181
133 154 180
133 154 181
134 154 181
133 154 181
134 154 181
134 155 181
134 154 181
133 154 181
134 154 181
134 154 181
134 154 181
134 154 181
134 154 181
134 154 181
134 154 180
134 154 181
134 154 181
134 154 181
134 154 181
134 154 181
134 154 181
134 154 181
134 154 181
133 154 181
134 154 181
134 154 181
134 154 181
133 154 181
134 154 181
134 154 181
133 154 181
133 154 180
133 154 181
134 154 181
134 154 181
133 154 181
133 154 181
134 155 181
134 154 181
134 154 181
133 154 180
134 154 181
133 154 181
134 154 181
132 153 180
134 154 181
133 154 181
134 154 181
133 154 180
134 154 181
134 154 181
132 153 180
134 154 181
133 153 180
133 154 181
134 154 181
133 154 181
133 154 181
134 154 181
134 154 181
134 154 180
133 154 181
133 154 181
135 155 181
134 154 181
134 154 181
133 154 181
133 153 180
134 154 181
134 154 181
133 154 181
134 154 181
134 154 181
133 154 181
134 154 181
134 154 181
133 154 181
134 154 181
134 154 181
133 154 181
134 154 181
134 154 181
134 154 181
134 154 181
133 154 180
133 154 180
134 154 181
133 154 181
134 154 181
133 154 180
133 154 181
133 154 181
134 155 181
134 154 181
134 154 181
134 154 181
134 154 181
133 154 181
134 154 181
134 154 181
133 154 180
135 155 181
133 154 181
133 154 181
134 154 181
133 154 181
135 155 181
134 154 181
134 154 181
134 154 181
134 154 181
134 154 181
133 154 181
134 154 181
135 155 181
133 154 181
134 154 181
133 154 181
134 154 181
134 155 181
134 154 181
133 153 180
134 154 181
133 154 181
134 154 181
132 153 181
134 154 181
134 154 181
133 154 181
134 154 181
133 154 181
134 154 181
133 154 180
135 154 180
134 154 181
133 154 181
132 153 181
134 154 181
133 154 181
133 154 181
133 154 181
134 154 181
133 154 181
134 154 181
134 155 181
134 154 181
133 154 180
134 154 181
134 154 181
134 154 181
134 154 181
133 153 180
134 154 181
134 154 181
134 154 181
134 154 181
133 154 181
133 154 181
134 154 181
134 154 181
133 154 181
134 154 181
133 154 181
133 154 181
132 153 180
133 154 180
134 154 181
134 154 181
134 154 181
134 154 181
134 154 181
134 154 181
134 154 181
133 154 180
134 154 181
134 154 180
134 154 181
134 154 181
134 154 181
134 155 181
134 154 181
133 154 180
133 154 181
133 154 181
134 155 181
134 154 181
134 154 181
134 154 181
133 154 181
133 154 181
134 154 181
134 154 181
133 154 181
134 154 180
134 154 180
134 154 181
134 155 181
133 154 181
134 154 181
134 154 180
134 154 181
133 154 181
134 154 181
134 154 181
133 154 181
134 154 181
134 154 181
134 154 181
133 154 181
134 154 181
133 154 181
133 154 181
134 154 181
133 154 181
133 154 181
133 154 181
133 154 181
134 154 181
134 154 181
133 154 181
134 154 180
134 154 181
134 154 181
134 154 181
134 154 181
134 154 181
133 154 181
134 154 181
134 154 181
133 154 181
134 154 181
134 155 181
134 154 181
133 154 181
134 154 181
133 154 181
134 154 181
134 154 181
134 154 181
133 154 181
133 154 181
134 154 181
133 154 181
134 154 181
133 154 181
135 155 181
134 154 181
134 154 181
133 154 181
134 154 181
134 154 181
134 154 181
134 155 181
133 154 181
134 154 181
133 154 181
134 154 181
133 154 181
135 155 181
133 154 181
135 155 181
134 154 181
134 154 181
134 154 180
135 155 181
134 154 181
133 154 181
134 154 181
134 154 181
133 154 181
133 154 181
133 154 180
133 154 181
134 154 181
134 154 181
134 154 180
134 154 181
134 154 181
134 154 181
134 154 181
133 154 181
134 154 181
134 154 181
134 154 181
133 154 181
133 154 181
133 154 181
134 154 181
133 154 181
134 154 181
134 154 181
133 154 181
134 154 181
134 154 181
134 154 181
134 154 181
133 154 181
134 154 181
134 154 181
134 154 181
134 154 181
134 155 181
134 154 181
133 154 181
134 154 181
134 154 180
135 155 181
134 154 181
134 155 181
134 154 181
133 154 181
134 154 181
134 154 181
133 154 181
134 154 181
134 154 181
134 154 181
133 154 181
133 154 181
134 154 181
133 154 180
134 154 181
134 154 181
134 154 181
134 154 181
134 154 181
134 154 181
134 154 181
134 154 181
134 154 181
134 154 181
134 154 181
134 154 181
133 154 181
134 154 181
134 154 180
133 154 181
133 153 180
134 154 181
134 154 181
132 153 181
133 154 181
134 154 181
134 154 181
133 154 181
133 154 181
134 154 181
134 154 181
133 154 181
133 154 181
134 154 181
135 155 181
135 155 181
134 155 181
134 154 181
134 154 181
134 154 181
133 154 181
134 154 181
134 154 181
133 154 181
134 154 181
135 155 181
133 154 181
134 154 181
133 154 181
134 154 181
134 154 181
133 154 181
134 154 181
134 154 181
134 154 181
133 154 180
134 154 181
134 155 181
135 155 181
133 154 181
133 154 181
134 154 181
134 154 181
134 154 181
134 154 181
134 154 180
133 154 180
135 155 181
133 154 181
133 154 181
133 154 181
134 154 181
134 154 181
133 154 181
134 154 181
134 154 181
134 154 181
133 154 181
134 154 181
134 154 181
134 154 181
134 154 181
133 154 181
134 154 181
133 154 181
134 154 181
134 154 181
134 154 181
133 154 181
133 154 181
133 154 181
133 154 181
133 154 181
134 154 181
134 154 180
134 154 181
134 154 181
134 154 181
133 154 181
133 154 181
134 154 181
134 154 181
133 154 181
134 154 181
133 154 181
134 154 181
133 154 181
133 153 180
134 154 181
134 154 181
133 154 181
133 153 180
132 153 180
134 154 181
134 154 181
134 154 181
134 154 181
134 154 181
134 154 181
133 154 181
133 154 181
133 153 180
134 154 180
134 154 181
134 154 181
134 154 181
134 154 181
133 154 181
135 155 181
133 154 181
132 153 181
134 154 181
134 154 181
134 154 181
133 154 181
133 154 181
133 154 181
134 154 181
134 154 181
133 154 181
135 155 181
134 154 181
133 154 181
133 154 180
134 155 181
134 154 181
133 154 181
133 154 181
134 154 181
135 155 181
133 154 181
133 154 181
133 154 181
133 154 181
134 154 181
134 154 181
134 154 181
134 154 181
134 154 181
134 154 181
133 154 181
134 154 181
134 154 181
134 154 181
135 155 181
134 154 181
133 154 181
134 154 181
134 154 181
134 154 181
134 154 181
133 154 181
133 154 181
135 155 181
133 154 181
134 154 181
134 154 181
133 154 181
133 154 181
134 154 181
134 154 181
134 154 181
133 153 180
133 154 181
134 154 181
133 154 181
133 154 181
134 154 181
133 154 181
135 155 181
133 154 181
134 154 181
134 154 181
134 154 181
134 154 181
134 155 181
134 154 181
134 154 181
134 154 180
133 154 181
134 154 181
134 154 181
133 154 181
134 154 181
135 155 181
134 154 181
134 154 181
133 154 180
133 154 180
133 154 181
133 154 181
133 154 181
134 154 181
134 154 181
134 154 181
134 154 181
134 154 180
134 154 181
134 154 181
134 154 181
133 154 181
134 154 181
133 154 181
134 154 181
134 154 181
134 154 181
134 154 181
134 154 181
134 154 181
134 154 181
133 154 181
134 154 181
133 153 180
133 154 181
134 154 181
134 154 181
134 154 181
134 154 181
134 154 181
134 154 181
134 154 181
133 154 181
133 154 181
133 153 180
134 154 181
134 154 181
133 154 181
134 155 181
133 154 181
134 154 181
134 154 181
133 154 181
134 154 181
134 154 181
134 154 181
134 154 181
133 154 181
133 154 181
134 154 181
134 154 181
134 154 181
133 154 181
134 154 181
134 154 181
134 154 181
134 154 181
133 153 180
134 154 180
134 154 181
134 155 181
134 154 181
134 154 181
134 154 181
134 154 181
134 154 180
134 154 181
134 154 181
133 154 181
133 154 181
134 154 181
133 154 181
134 154 181
134 154 181
134 154 181
133 154 181
134 154 181
134 154 181
132 154 181
133 153 180
134 154 181
133 154 181
134 154 181
133 154 181
133 154 181
134 154 181
133 154 181
134 154 181
134 154 181
134 154 180
133 154 181
134 154 181
133 154 181
133 154 181
134 154 181
134 154 181
135 155 181
134 154 181
134 154 181
134 154 181
134 154 181
134 154 181
133 154 181
134 154 181
134 154 181
135 155 181
134 154 181
134 154 181
133 154 181
133 154 181
134 154 180
134 154 181
134 154 180
134 154 181
134 154 181
134 155 181
133 154 180
133 154 181
133 154 181
132 153 180
134 154 181
134 154 181
134 154 181
134 154 181
133 154 181
133 154 181
135 155 181
134 154 181
134 154 181
133 154 181
135 155 181
134 154 181
133 154 181
134 154 181
133 154 181
134 154 181
133 154 181
134 154 181
134 154 181
133 154 181
133 154 181
133 154 181
134 154 181
133 154 181
134 154 181
133 154 181
134 154 181
134 155 181
133 154 181
133 154 181
134 154 181
134 154 181
133 154 181
133 154 181
134 154 181
134 154 181
133 154 181
134 154 181
134 154 181
134 154 181
134 154 181
134 154 181
134 154 181
134 154 181
134 154 181
133 154 181
134 154 181
134 154 181
134 154 181
133 154 180
134 154 181
133 154 181
135 155 181
134 154 181
133 154 181
134 154 181
133 154 181
135 155 181
133 154 181
134 154 181
134 154 181
134 154 181
134 154 181
133 154 181
134 154 181
135 155 181
134 154 181
134 154 181
135 155 181
133 154 181
134 154 181
134 154 181
134 154 181
133 154 180
134 154 181
134 154 181
134 154 181
133 154 180
134 154 181
134 154 181
135 155 181
134 154 181
134 154 181
133 154 181
133 154 181
133 154 181
134 154 181
133 154 180
134 155 181
134 154 180
133 154 181
133 154 181
133 154 181
134 154 181
133 154 181
134 154 181
134 154 181
133 154 181
133 154 180
134 154 181
133 154 181
134 154 181
134 154 181
133 154 181
133 154 181
133 154 181
134 154 181
134 154 181
134 154 181
134 154 181
133 154 181
134 155 181
134 154 181
135 155 181
133 154 181
134 154 181
134 154 181
134 154 181
134 154 181
134 154 181
133 154 181
133 154 181
134 154 181
133 153 180
134 154 181
134 154 181
134 154 181
133 154 181
133 154 181
134 154 181
134 154 181
134 154 181
133 154 181
134 154 181
134 154 181
133 154 181
135 155 181
134 154 181
134 154 181
135 155 181
135 155 181
134 154 181
134 154 181
133 154 181
134 154 181
134 154 181
133 154 181
135 155 181
133 154 181
134 154 181
134 154 181
134 154 181
133 153 180
134 154 181
134 154 181
133 154 181
134 154 181
134 154 181
133 154 181
135 155 181
133 154 181
133 154 181
134 154 181
133 154 180
134 154 181
133 154 181
133 154 181
134 154 181
134 154 181
134 154 181
134 154 181
134 154 181
133 154 181
133 154 181
134 154 181
133 154 181
133 154 180
134 154 181
134 154 181
134 154 181
134 155 181
134 154 181
133 154 181
135 155 181
133 154 181
134 154 181
133 154 181
133 154 181
134 154 181
134 154 181
135 154 180
134 154 181
133 154 180
134 154 181
134 154 181
133 154 181
135 155 181
133 154 181
133 154 181
133 154 181
134 154 181
134 154 181
134 154 181
133 154 181
133 154 180
133 154 181
133 154 181
133 153 180
134 154 181
134 154 181
133 154 181
133 154 181
133 154 181
134 155 181
134 154 181
134 154 181
134 154 181
133 154 181
134 154 181
134 154 181
135 155 181
134 154 181
134 154 181
134 154 181
134 154 181
133 154 181
133 154 181
133 154 181
133 154 181
133 154 181
134 154 181
134 154 181
134 154 181
134 154 181
134 154 181
133 154 181
133 154 180
133 154 181
134 154 181
133 154 181
134 154 181
135 155 181
133 154 181
134 154 181
135 155 181
133 154 181
135 155 181
134 154 181
133 154 181
133 154 181
133 154 181
134 154 181
133 154 181
133 154 180
134 154 181
134 154 181
133 154 181
133 154 180
133 154 181
134 154 181
132 153 180
133 154 181
134 154 181
133 154 181
135 155 181
134 154 181
133 154 181
134 154 181
134 154 181
134 154 181
134 154 181
134 154 181
134 154 181
133 154 181
134 154 181
133 154 181
134 154 181
134 154 181
134 154 181
134 154 181
133 154 181
133 154 181
134 154 181
134 154 181
134 154 181
133 154 180
134 154 181
134 154 181
134 154 181
134 154 181
134 154 181
134 154 181
134 154 181
133 154 181
133 154 181
134 154 181
133 154 181
134 154 181
133 154 181
134 154 181
133 154 181
134 154 181
133 154 181
134 154 181
134 154 181
134 154 181
132 153 181
133 154 181
134 155 181
133 154 181
134 154 181
135 155 181
134 154 181
133 154 181
133 154 181
133 154 181
134 154 181
134 154 181
133 154 181
133 154 181
134 154 181
133 154 181
133 154 181
134 155 181
133 154 181
134 154 181
134 154 181
133 154 181
134 154 181
134 154 181
134 154 181
134 154 181
134 154 181
133 154 181
134 154 180
132 153 181
133 154 181
133 154 181
133 154 181
134 154 181
134 154 181
133 154 181
135 155 181
134 154 181
135 155 181
134 154 181
133 154 181
133 154 181
134 154 181
134 154 181
133 154 180
133 154 181
133 154 181
134 155 181
134 154 181
133 154 181
134 154 181
134 154 181
133 154 180
134 154 181
134 154 181
134 154 181
133 153 180
134 154 180
135 155 181
134 154 181
135 155 181
134 154 181
134 155 181
134 154 181
134 155 181
134 154 181
134 154 181
133 154 181
134 154 181
134 154 181
135 155 181
135 155 181
134 154 181
134 154 181
134 154 181
133 154 181
134 154 181
134 154 181
133 154 181
134 154 181
133 154 181
134 154 181
134 154 181
134 155 181
134 154 181
134 154 181
133 154 181
134 154 181
134 154 180
134 154 181
134 154 181
134 154 181
133 154 181
133 154 181
133 154 181
134 154 181
134 154 181
134 154 181
134 154 181
134 154 181
134 154 181
135 155 181
134 154 181
134 154 181
133 154 181
133 154 181
134 154 181
134 154 181
135 155 181
134 154 181
134 154 181
133 154 181
133 154 181
133 154 181
134 154 181
133 153 180
133 154 181
134 154 181
133 154 181
133 154 181
133 154 181
134 154 181
134 154 181
134 154 181
134 154 181
133 154 181
134 154 181
134 154 181
133 154 181
134 154 181
133 154 181
134 154 181
134 154 181
134 154 181
133 154 181
134 154 181
134 154 181
134 154 181
134 155 181
134 154 181
134 154 181
132 153 181
134 154 181
133 153 180
134 155 181
134 154 181
134 154 181
133 154 181
133 154 181
134 154 181
134 154 181
134 154 181
134 154 181
134 154 181
134 154 181
134 154 181
134 154 181
133 154 181
133 154 181
134 154 181
134 154 181
134 154 181
134 154 181
134 154 181
133 154 181
133 153 180
133 154 181
133 154 180
134 154 181
133 154 181
134 154 181
134 154 181
134 154 181
133 153 180
133 154 181
134 154 181
133 154 181
133 154 181
134 154 181
134 154 181
134 154 181
134 155 181
134 154 181
134 154 181
133 154 181
133 154 181
134 155 181
134 154 181
135 155 181
134 154 181
134 154 181
134 154 181
133 154 181
133 154 181
135 155 181
135 155 181
134 154 181
134 154 181
134 154 181
134 154 181
134 154 181
134 154 181
134 154 181
134 154 181
133 154 181
134 154 181
133 154 181
133 154 180
133 154 181
134 154 181
134 154 181
134 154 181
133 154 181
134 154 181
133 154 181
134 154 181
134 154 181
134 154 181
133 154 181
133 154 181
135 155 181
135 155 181
133 154 181
134 154 181
134 154 181
134 154 181
134 154 181
134 154 181
135 155 181
134 154 181
133 154 181
134 154 181
133 154 181
134 154 181
134 154 181
134 154 181
134 154 181
133 154 181
134 154 181
133 154 181
134 154 181
134 154 181
133 154 181
133 153 180
134 154 181
133 154 181
134 155 181
133 154 181
134 154 181
134 154 181
134 154 181
134 154 181
134 154 181
134 154 181
134 154 181
135 155 181
133 153 180
134 154 181
134 154 181
135 155 181
134 154 181
135 155 181
134 154 181
134 154 181
134 155 181
133 154 180
133 154 181
134 154 181
134 154 181
134 154 181
134 154 181
133 154 181
134 154 181
133 154 181
134 154 181
134 154 181
133 154 181
134 154 181
135 155 181
134 154 181
134 154 181
134 154 181
134 154 180
134 154 181
134 154 181
134 154 181
134 154 181
134 154 181
133 154 181
134 154 181
134 154 181
134 154 181
135 155 181
133 154 181
134 154 180
133 154 181
133 154 180
134 154 181
134 154 181
133 154 181
134 154 181
133 154 181
133 154 181
134 154 181
134 154 181
134 154 181
134 154 181
134 154 181
134 154 181
134 154 181
133 154 180
134 154 181
133 153 180
133 154 181
133 153 180
134 154 181
133 154 180
135 155 181
133 154 181
134 154 181
134 154 181
133 154 181
133 154 181
133 154 180
135 155 181
134 154 181
133 154 181
134 154 181
134 154 180
134 154 181
133 154 180
134 154 181
133 154 181
134 154 181
133 154 181
133 154 181
134 154 181
133 154 181
134 154 181
134 154 181
135 155 181
134 154 181
134 154 181
133 154 181
133 154 181
133 154 180
135 155 181
133 154 181
133 154 181
134 154 181
135 155 181
134 154 181
133 153 180
133 154 180
134 154 181
134 154 181
134 154 181
133 154 181
134 154 181
134 155 181
134 154 181
134 154 181
134 154 181
133 154 181
133 154 180
134 154 180
133 153 180
133 154 181
133 153 180
133 154 181
135 155 181
133 154 181
133 154 181
133 154 181
134 154 181
134 154 181
134 154 181
133 154 181
134 154 181
133 154 181
133 154 181
135 155 181
133 154 181
134 154 181
133 154 181
134 154 181
134 154 181
134 154 181
134 154 181
133 154 181
134 154 181
134 154 181
134 154 181
133 154 181
134 154 181
133 154 180
133 153 180
134 154 181
133 153 180
134 154 181
134 154 181
134 154 181
133 154 181
134 154 181
134 154 181
133 154 181
133 154 181
133 153 180
133 154 181
134 154 181
133 154 181
133 154 181
134 154 181
133 154 181
133 154 181
133 154 181
133 153 180
133 154 181
134 154 181
133 154 180
133 154 181
133 154 181
133 154 181
134 154 181
133 153 180
133 154 181
134 154 181
134 154 181
133 154 181
134 154 181
134 154 181
133 154 181
133 154 181
134 154 181
133 154 181
134 154 181
134 154 181
132 153 180
133 154 181
134 154 181
133 154 181
133 154 181
134 154 181
133 154 181
134 155 181
134 154 181
134 154 181
133 154 181
134 154 181
134 155 181
134 154 181
134 154 181
133 154 181
134 154 181
133 154 181
133 154 181
134 154 181
134 154 181
134 154 181
134 154 181
134 154 181
133 154 181
133 154 181
134 154 181
133 154 181
134 154 181
134 154 181
134 154 181
134 154 181
133 154 181
133 154 181
133 154 181
134 154 181
133 154 181
134 154 181
133 154 181
134 154 180
133 154 181
133 154 181
133 154 181
134 154 181
135 155 181
134 154 181
133 154 181
134 154 181
134 154 181
135 155 181
134 154 181
134 154 181
133 154 181
134 154 181
134 154 181
134 154 181
135 155 181
133 154 181
134 154 181
133 154 181
134 154 181
135 155 181
133 154 181
133 154 181
133 154 181
134 154 181
134 154 181
134 154 181
134 154 181
133 154 181
133 154 181
134 154 181
135 155 181
134 154 181
134 154 181
133 154 181
134 154 181
133 154 181
134 154 181
133 154 181
134 154 181
135 155 181
133 154 181
133 154 181
134 154 181
134 154 181
134 154 181
134 154 181
135 155 181
134 154 181
134 154 181
134 154 181
134 154 181
134 154 181
134 154 181
134 154 181
133 153 180
134 154 181
134 154 181
134 154 181
134 154 181
135 155 181
133 154 181
134 154 181
134 154 181
134 154 181
134 154 181
133 154 181
134 154 181
134 154 181
135 155 181
134 154 181
134 154 181
134 154 181
133 154 181
133 154 181
134 154 181
134 154 181
132 153 181
133 154 181
134 154 181
134 154 180
134 154 181
134 154 181
134 154 181
134 154 181
133 154 181
135 155 181
134 154 181
134 154 181
134 154 181
134 154 181
134 154 180
134 154 181
133 154 181
134 154 180
134 154 180
133 154 181
134 154 181
134 154 181
134 154 181
133 154 181
134 154 180
134 154 181
134 154 181
134 154 181
133 154 181
134 154 181
135 155 181
134 154 181
134 154 181
133 154 181
134 154 181
134 155 181
134 154 181
134 154 181
134 154 181
134 154 181
134 154 181
133 154 181
134 154 181
134 154 181
134 154 181
134 154 181
134 154 181
134 154 181
134 154 181
134 154 181
133 154 181
134 154 181
134 154 181
134 154 181
135 155 181
133 154 181
135 155 181
134 154 181
134 154 181
134 154 181
134 154 181
135 155 181
134 154 181
133 154 181
134 154 181
133 154 181
135 155 181
133 154 181
134 154 181
134 154 181
134 154 181
133 154 181
134 154 181
134 154 181
134 154 181
134 154 181
134 154 181
133 154 181
133 154 181
134 154 180
134 155 181
134 154 181
133 154 181
134 154 181
134 154 181
133 154 181
134 154 181
133 154 181
134 154 181
134 154 181
134 154 181
134 154 181
133 154 181
134 154 181
134 154 181
135 155 181
133 154 181
133 154 181
134 154 181
134 154 181
134 154 181
134 154 181
133 154 181
133 154 181
133 154 181
134 154 181
134 154 181
134 154 181
134 154 181
133 154 181
134 154 181
133 154 181
134 154 181
133 154 181
134 154 181
135 155 181
133 154 181
134 154 181
134 154 181
134 154 181
134 154 181
134 154 181
135 155 181
134 154 181
133 154 181
133 154 181
134 154 181
134 154 181
133 154 181
134 154 181
134 154 181
134 154 181
133 154 181
134 154 180
134 154 181
134 154 181
133 154 181
134 154 181
133 154 181
133 154 180
134 154 181
135 155 181
133 154 181
133 154 181
134 154 181
133 154 181
134 154 181
133 153 180
134 154 181
133 154 181
133 153 180
134 154 181
133 153 180
134 154 181
134 154 181
134 155 181
134 154 181
135 155 181
134 154 181
134 154 181
133 154 181
134 154 181
133 154 181
134 154 181
133 154 181
133 154 181
133 154 181
134 154 181
134 154 181
133 154 181
133 154 181
133 154 181
133 154 181
133 154 181
133 154 180
133 154 181
134 154 181
134 154 181
133 154 181
134 154 181
133 154 180
134 154 181
135 155 181
134 154 181
134 154 181
133 154 181
134 154 181
133 154 180
134 154 181
134 154 181
134 154 181
134 154 181
133 154 181
132 153 181
133 154 181
134 154 181
134 154 181
134 154 181
134 154 181
134 154 181
134 154 181
135 155 181
134 154 181
133 154 180
133 154 181
133 154 181
134 154 181
134 154 181
134 154 181
134 154 181
134 154 181
134 154 181
133 154 180
133 154 181
133 154 181
134 154 181
133 154 181
134 154 181
134 154 181
134 154 181
133 154 181
134 154 181
134 154 181
134 154 181
133 154 181
135 155 181
134 154 180
133 154 181
134 154 181
134 154 181
134 154 181
134 154 181
134 154 181
134 154 181
134 154 181
133 154 181
134 154 181
134 154 181
134 154 181
134 154 181
134 154 181
134 154 181
134 154 181
134 155 181
134 154 181
134 154 181
134 154 181
133 154 181
133 154 181
133 154 180
133 154 181
134 154 181
134 154 180
134 155 181
134 154 181
134 154 181
134 155 181
134 154 181
134 154 181
134 154 181
133 154 181
134 154 181
133 154 181
134 154 181
134 154 181
134 154 181
134 154 181
133 154 181
133 154 181
134 154 181
134 154 181
134 154 181
134 154 181
134 154 181
133 154 181
132 153 181
134 154 181
133 154 181
133 154 181
133 154 181
134 154 181
133 154 181
134 154 181
134 154 181
134 154 181
134 154 181
134 154 181
135 155 181
134 154 181
134 154 181
133 154 181
134 154 181
134 154 181
134 154 181
133 154 181
134 154 181
133 154 181
134 154 181
133 154 181
133 154 181
135 155 181
134 154 181
133 153 180
134 154 181
134 154 181
134 154 181
134 154 180
134 154 181
135 155 181
134 154 181
134 154 181
134 154 181
133 154 180
134 154 181
134 154 181
134 154 181
133 154 181
135 155 181
134 154 181
134 154 181
133 154 181
133 154 181
134 154 181
133 154 181
133 154 181
134 154 181
133 154 181
134 154 181
133 154 180
134 154 181
135 155 181
134 154 181
133 154 181
134 154 181
134 154 181
133 154 181
134 154 181
134 154 181
134 154 181
134 154 181
134 154 181
134 154 181
134 154 181
133 154 181
134 154 181
134 154 181
135 155 181
134 154 181
134 154 181
133 154 181
133 154 181
134 154 181
134 154 181
134 154 181
133 153 180
133 154 181
134 154 181
133 154 180
134 154 181
134 154 181
134 154 181
134 154 181
134 154 181
134 154 181
134 154 181
134 154 181
133 154 181
133 154 181
134 154 181
133 154 181
133 154 181
134 154 181
133 154 181
134 154 181
134 154 181
134 154 181
134 154 181
134 154 181
133 154 181
134 154 181
134 154 181
133 154 181
134 154 181
134 154 181
134 154 181
133 154 181
134 154 181
134 154 181
133 154 181
133 154 181
133 154 181
132 153 181
133 154 181
133 154 181
135 155 181
134 154 181
135 155 181
134 154 181
134 154 181
134 154 181
134 154 181
134 154 181
133 153 180
135 155 181
134 154 181
134 154 181
134 154 181
133 154 181
133 154 180
134 154 181
134 155 181
134 154 181
134 154 181
133 154 181
133 154 181
133 154 181
132 154 181
134 154 181
134 154 180
133 154 181
133 154 181
133 154 181
135 155 181
134 155 181
133 154 181
134 154 181
134 154 181
134 154 181
134 154 181
134 154 181
135 155 181
133 154 181
134 154 181
134 154 181
134 155 181
134 154 181
133 154 181
133 154 181
134 155 181
135 155 180
133 154 181
134 154 181
133 154 180
133 154 181
133 154 181
134 154 181
134 154 181
133 154 181
133 154 181
134 154 181
133 154 181
133 154 181
135 155 181
133 154 181
133 154 181
134 154 181
133 154 180
134 154 181
134 154 181
134 154 181
134 154 181
134 154 181
133 154 181
134 154 181
134 155 181
134 154 180
133 154 181
134 154 181
134 154 181
134 155 181
133 154 181
134 154 181
133 154 181
134 154 181
134 154 181
133 154 181
133 154 181
134 154 181
133 154 181
134 154 181
134 154 181
133 154 181
134 154 181
134 154 181
134 154 181
133 154 181
134 154 181
134 154 181
133 154 181
133 154 181
134 154 181
136 155 181
133 154 181
133 154 181
133 154 181
134 154 181
133 154 181
133 154 181
134 154 181
134 154 181
133 154 181
134 154 181
134 154 181
133 154 181
133 154 181
134 154 181
133 154 181
133 154 181
134 154 181
134 154 181
134 154 181
134 154 181
134 155 181
134 154 181
133 154 181
133 154 181
134 154 181
134 154 181
134 155 181
135 155 181
134 154 181
133 154 181
133 154 181
134 154 181
134 154 181
134 154 181
134 154 180
134 154 181
135 155 181
133 154 181
134 154 181
134 154 181
134 154 181
133 154 181
133 154 180
134 154 181
135 155 181
133 154 181
135 155 181
133 154 181
133 154 181
134 154 181
133 154 181
134 154 181
134 154 181
134 154 181
133 154 181
135 155 181
134 154 181
134 154 181
133 154 181
134 154 181
133 154 181
133 154 181
133 153 180
134 154 181
133 154 181
133 154 181
133 154 181
134 154 181
133 154 181
134 154 181
134 154 181
135 155 181
133 154 181
134 154 181
134 154 181
134 154 181
133 154 181
134 154 181
134 154 181
133 154 181
134 154 181
134 154 181
134 154 181
134 154 181
133 154 181
134 154 181
134 154 181
133 154 181
133 154 181
135 154 180
134 154 180
134 154 181
133 154 181
133 154 180
134 154 181
134 154 181
134 154 181
135 155 181
134 154 181
134 154 181
134 154 181
134 154 181
133 154 181
134 154 181
135 155 181
133 154 181
134 154 181
133 154 181
134 154 181
134 154 181
134 154 181
134 154 181
133 154 181
133 154 181
135 155 181
134 154 181
134 154 181
134 154 181
133 154 180
134 154 181
133 154 181
134 154 181
133 154 181
133 154 181
134 154 181
134 154 181
134 154 181
134 154 181
134 154 181
134 155 181
134 154 181
133 154 180
134 154 181
134 154 181
134 154 181
134 154 181
133 154 181
134 154 181
133 154 181
134 154 181
133 153 180
135 155 181
134 154 181
133 154 181
133 154 181
134 154 181
134 154 181
134 154 181
134 154 181
133 154 181
134 154 181
133 154 181
134 154 180
134 154 181
134 154 181
133 154 181
134 154 181
133 154 181
134 155 181
133 154 181
133 154 181
134 154 181
133 154 181
133 154 181
134 154 181
134 154 181
134 154 181
134 154 181
133 154 181
133 154 181
134 154 181
133 154 181
133 154 181
134 154 180
133 154 181
134 154 181
133 154 181
134 154 181
133 154 181
134 154 181
134 155 181
134 154 181
134 154 181
134 154 181
134 154 181
134 154 181
133 154 181
134 154 181
133 154 181
133 154 181
134 154 181
134 154 181
135 155 181
135 155 180
134 154 181
134 154 181
133 154 181
135 155 181
134 155 181
134 154 181
134 154 181
133 154 181
134 154 181
134 154 181
135 155 181
134 154 181
134 154 181
133 154 181
133 154 181
133 154 181
133 154 181
133 154 180
134 154 181
135 155 181
134 154 181
134 154 181
134 154 181
133 154 181
134 155 181
134 154 181
134 154 181
134 154 181
134 154 181
135 155 181
134 154 180
134 154 181
134 155 181
134 155 181
134 154 181
134 154 181
133 154 181
134 154 181
134 154 181
134 154 181
133 154 181
133 154 181
133 154 181
133 154 181
134 154 181
134 154 181
134 154 181
133 154 180
134 154 181
134 154 181
134 154 181
134 154 181
133 154 181
133 154 180
133 154 180
134 154 181
133 154 181
134 154 181
134 154 181
134 154 181
133 154 181
134 154 181
134 154 181
134 155 181
133 154 181
134 154 181
134 154 181
133 154 181
134 154 181
134 154 181
135 155 181
134 155 181
134 154 181
134 154 181
134 154 181
133 154 181
133 154 181
134 154 181
133 154 181
134 154 181
133 154 181
134 154 180
134 154 181
134 154 181
133 153 180
133 154 181
135 155 181
134 154 181
133 154 181
135 155 181
133 154 181
134 154 181
134 154 181
133 154 181
133 154 181
134 154 181
133 154 181
133 154 181
134 154 181
133 154 181
134 154 181
134 154 181
134 154 181
134 154 181
133 154 181
133 154 181
134 154 181
134 154 181
133 154 181
134 154 181
133 154 181
134 154 181
134 154 181
133 154 180
133 154 181
132 153 181
134 154 181
134 154 181
134 154 181
134 154 181
135 155 181
134 154 181
134 154 181
133 154 181
134 154 181
134 154 181
134 154 181
134 155 181
134 154 181
134 154 181
134 154 181
134 154 181
134 154 181
134 154 181
134 154 181
133 154 181
134 154 180
135 155 181
133 154 181
133 154 181
134 154 181
134 154 181
133 154 181
134 154 181
134 154 181
133 154 181
134 154 180
135 155 181
134 154 181
133 154 181
133 154 181
134 154 181
134 154 181
135 155 181
133 154 181
134 154 181
133 154 181
133 154 181
134 154 181
134 154 181
133 154 181
134 154 181
134 154 181
135 155 181
134 154 181
134 154 181
134 154 181
133 154 180
133 154 180
134 155 181
134 154 181
133 154 181
134 154 181
134 154 181
133 154 181
135 155 181
134 154 181
133 154 181
134 154 181
133 154 181
134 154 181
134 154 181
134 154 181
134 154 181
134 154 181
134 154 180
133 154 181
134 154 181
134 154 181
134 154 181
133 154 181
135 154 180
134 154 181
134 154 181
134 154 181
133 154 181
133 154 181
133 154 181
132 153 180
134 154 181
134 154 181
133 154 181
134 154 181
134 154 181
133 154 181
134 154 181
134 154 181
134 154 181
134 154 181
134 154 181
133 154 181
133 154 181
134 154 181
135 155 181
134 154 181
134 154 181
134 154 181
133 154 181
