P3
400 200
255
134 154 181
134 154 181
133 154 181
134 154 181
134 154 181
134 154 181
133 154 181
133 154 181
134 154 181
134 154 181
134 155 181
134 154 181
134 154 181
134 154 181
134 154 181
134 154 181
133 154 181
133 154 181
134 154 181
135 155 181
133 154 181
134 154 181
134 155 181
133 154 181
134 154 181
134 154 181
135 155 181
133 154 181
134 154 181
134 154 181
134 154 181
134 154 181
134 154 181
134 154 181
134 154 181
133 154 181
134 154 181
134 154 180
134 154 181
133 154 181
133 154 181
133 154 181
134 154 180
133 154 180
134 154 181
133 154 181
134 154 181
134 154 181
134 155 181
134 154 181
133 154 181
133 154 181
132 153 180
134 154 181
134 154 181
134 154 181
133 154 181
133 154 181
133 154 181
133 154 181
134 154 181
134 154 181
134 154 180
134 154 181
133 154 181
133 154 181
134 154 181
134 154 181
135 155 181
133 154 181
133 154 181
134 154 181
134 155 181
134 154 181
133 154 181
134 154 181
133 154 181
134 154 181
133 154 180
134 154 181
133 154 181
133 154 181
134 155 181
134 154 181
134 154 181
133 154 181
134 154 180
133 154 181
134 154 181
134 155 181
133 154 181
134 154 181
133 154 181
133 153 180
133 154 181
135 155 181
134 154 181
133 154 181
135 154 180
134 154 181
133 154 181
134 154 181
134 154 181
134 154 181
134 154 181
134 154 181
134 154 181
134 154 181
133 154 181
134 154 181
134 154 181
134 154 181
134 154 181
134 154 181
133 154 181
134 154 181
134 155 181
134 154 181
134 154 181
133 154 181
134 154 180
134 154 181
134 154 181
134 154 181
134 154 181
134 154 181
134 154 181
134 154 181
134 154 181
135 155 181
134 154 180
134 154 181
134 154 181
134 154 181
135 155 181
134 154 181
133 154 181
133 154 181
133 153 180
133 154 181
134 154 181
134 154 181
135 155 181
133 154 181
134 154 181
133 154 181
134 154 181
134 154 181
133 154 181
133 153 180
134 154 181
133 154 180
133 154 181
134 154 180
134 154 181
134 154 181
134 154 181
134 154 181
133 154 181
134 154 181
133 154 181
134 154 181
133 154 181
133 154 181
134 154 181
134 154 181
133 154 181
133 153 180
134 154 181
134 154 181
135 155 181
134 154 181
133 154 181
133 154 181
134 154 181
134 154 181
134 154 181
133 154 181
133 154 181
133 154 181
134 154 181
133 154 181
133 154 181
132 153 180
133 154 181
133 154 180
133 154 181
133 153 180
134 154 181
134 154 181
133 154 181
132 153 180
134 154 181
133 153 180
134 154 181
134 154 181
134 154 180
134 154 181
134 154 181
133 154 181
133 154 180
135 155 181
134 154 181
133 153 180
134 154 181
134 154 181
133 154 181
133 154 181
133 154 181
133 154 181
134 154 180
134 154 181
134 154 181
134 154 181
133 153 180
134 154 181
133 154 181
133 153 180
133 154 181
133 154 181
133 154 181
134 154 181
134 155 181
134 154 181
133 153 180
133 154 181
133 154 180
133 154 181
134 154 180
134 154 180
132 153 179
132 153 180
133 154 181
133 153 180
134 154 180
134 154 181
133 153 180
134 154 181
134 154 181
134 154 181
133 154 180
133 154 181
133 154 180
133 154 181
133 154 181
134 154 181
134 154 180
134 154 181
134 154 181
133 154 181
134 154 181
134 154 181
133 153 180
134 154 180
133 154 180
134 154 181
134 154 181
134 154 181
133 154 180
133 153 180
133 154 181
134 154 181
134 154 181
132 153 180
133 154 180
132 152 179
133 153 180
135 154 180
134 154 180
133 153 180
133 154 181
133 154 181
133 153 180
131 152 179
134 154 180
133 153 180
133 154 180
133 153 180
134 154 180
133 153 180
133 153 180
133 153 180
134 155 181
134 154 181
134 154 181
133 154 180
133 154 180
133 154 180
133 154 181
134 154 180
133 153 180
134 154 181
133 154 180
134 154 180
133 153 180
134 154 181
134 154 180
134 154 181
133 154 180
134 154 180
134 154 181
133 154 181
134 154 181
133 153 180
134 154 180
133 153 180
134 154 181
134 154 180
133 153 180
133 153 180
133 153 180
133 153 180
133 153 180
134 154 181
133 153 179
133 153 180
134 154 181
133 154 180
133 154 181
133 154 180
133 154 180
134 154 181
134 155 181
133 153 180
134 154 181
133 154 181
134 154 181
134 154 180
133 153 180
133 153 180
133 153 180
135 155 181
133 153 179
134 154 181
133 153 180
133 154 180
133 154 180
134 154 180
134 154 181
133 153 179
134 154 181
133 154 181
133 154 181
134 154 181
133 154 181
134 154 181
133 154 180
133 154 180
132 153 180
133 154 181
133 154 181
134 154 181
134 154 181
133 154 181
134 154 181
133 154 180
135 155 181
133 153 180
134 154 181
133 154 181
133 154 181
134 154 181
133 154 181
134 154 181
135 155 181
133 154 181
133 154 180
134 154 181
132 152 180
133 153 180
134 154 181
133 154 180
135 155 181
132 153 180
133 153 179
133 153 180
134 154 181
133 153 180
134 154 181
134 154 180
133 153 180
133 153 179
134 154 181
134 154 180
133 153 180
134 154 181
133 154 180
133 153 179
134 154 181
134 154 181
134 154 181
134 154 180
134 154 181
133 154 180
133 153 180
134 154 181
133 153 180
134 154 181
134 154 181
135 155 181
134 154 181
134 154 181
134 154 181
134 154 181
133 154 181
135 155 181
133 154 181
133 154 181
133 154 181
134 154 181
134 154 181
133 154 181
134 154 181
134 154 181
134 154 181
134 154 181
134 154 181
133 154 181
134 154 181
134 154 181
134 154 181
134 154 181
134 154 181
134 155 181
133 154 181
134 154 181
134 154 181
134 154 181
133 154 181
134 155 181
134 154 181
134 154 181
133 154 181
134 154 180
134 154 181
134 154 181
134 154 181
133 154 181
134 154 181
133 154 181
133 154 181
133 154 181
134 154 181
133 154 181
133 154 181
134 154 181
134 154 181
134 154 181
134 154 181
133 154 181
133 154 181
134 154 180
135 155 181
134 154 181
134 154 181
134 154 181
134 155 181
134 154 181
134 154 181
134 154 181
134 154 181
134 154 181
133 154 180
134 154 181
134 154 180
134 154 181
134 154 181
133 154 181
133 154 181
134 154 181
134 154 181
134 154 181
133 154 181
133 154 180
134 154 181
134 154 181
134 154 181
133 154 181
133 154 181
134 154 181
134 154 181
134 154 181
134 154 181
134 154 181
134 154 181
133 153 180
134 154 180
133 154 181
133 153 180
133 154 181
134 154 180
134 154 181
133 154 181
133 154 181
133 154 181
133 154 181
134 154 181
134 154 181
134 154 181
133 153 180
133 154 181
133 154 181
134 154 181
134 154 181
134 154 181
134 154 181
133 154 181
135 155 181
134 154 181
134 154 180
133 154 181
134 154 181
133 154 181
134 154 181
133 154 181
135 155 181
133 154 181
134 154 181
134 154 181
134 155 181
133 154 181
134 154 181
133 154 181
134 154 181
135 155 181
135 155 181
134 154 181
134 154 180
133 154 181
133 154 181
133 154 181
134 154 181
135 155 181
134 154 181
133 154 180
134 154 181
133 154 180
133 154 181
134 154 181
132 153 181
133 154 181
134 154 181
134 154 181
133 154 180
133 154 181
133 154 181
134 154 181
134 154 181
134 154 181
134 154 181
134 154 181
133 154 181
133 153 180
134 154 181
134 154 181
134 154 180
133 154 181
134 154 181
134 154 180
135 155 181
134 154 181
134 155 181
134 154 181
134 154 181
135 155 181
134 154 181
133 154 181
134 154 181
133 154 181
134 154 180
135 155 181
133 154 181
134 154 181
133 154 181
135 155 181
134 154 181
133 154 180
134 154 180
134 154 181
134 154 181
133 153 180
134 154 181
134 154 181
134 154 181
134 154 180
134 154 181
134 154 181
134 154 180
134 154 181
134 154 181
135 155 181
134 154 181
134 154 181
133 154 180
134 154 181
133 154 180
133 154 180
134 154 181
134 154 181
133 154 180
134 154 181
134 154 180
133 154 181
133 154 181
133 154 181
134 154 181
132 153 179
134 154 181
134 154 181
133 154 181
134 154 181
134 154 181
133 154 180
133 154 181
133 153 180
133 154 181
134 154 181
133 154 181
134 154 181
134 154 181
133 154 181
134 154 181
134 154 181
133 153 180
134 154 181
134 154 181
133 153 179
133 154 180
133 154 181
133 154 181
135 155 181
133 154 180
133 154 180
134 154 181
133 154 181
134 154 180
133 154 181
134 154 181
134 154 181
134 154 181
133 154 181
134 154 181
133 153 180
134 154 181
135 155 181
135 155 181
134 154 180
134 154 180
134 154 181
134 154 181
134 154 180
133 154 181
133 153 180
134 154 181
133 154 181
133 154 180
134 154 181
134 154 180
134 154 181
133 154 181
134 154 180
134 154 181
133 153 180
133 153 180
132 153 180
133 154 181
133 154 181
133 154 180
134 154 181
134 154 181
133 154 180
133 154 181
134 154 181
134 154 181
133 153 180
134 154 181
133 154 181
134 154 180
133 154 180
134 154 180
133 154 181
133 154 180
134 154 181
133 154 180
134 154 181
134 154 181
132 152 179
133 154 180
133 154 181
133 154 180
134 154 181
134 154 180
134 154 181
132 153 180
134 154 181
134 154 181
133 154 181
133 154 180
134 154 181
134 154 181
134 154 181
134 154 181
133 154 180
133 154 181
134 154 180
133 154 181
134 154 181
133 154 181
133 154 180
134 154 180
133 153 180
134 154 180
133 153 179
134 154 180
134 154 181
133 153 180
134 154 181
133 153 180
133 154 180
134 154 181
134 154 181
133 153 179
133 154 180
133 153 180
133 154 181
135 155 181
134 154 180
134 154 181
133 154 181
133 154 180
133 153 180
134 154 181
134 154 181
133 153 180
133 153 180
133 154 180
133 153 180
133 154 180
134 154 181
133 154 181
134 154 181
132 152 179
134 154 181
134 154 181
134 154 180
134 154 181
132 153 180
134 154 181
133 154 181
134 154 181
133 154 180
134 154 181
132 152 179
133 153 179
133 154 181
133 154 181
133 154 180
132 153 180
134 154 181
134 154 181
134 154 180
134 154 181
134 154 181
134 154 181
135 155 181
133 154 181
134 154 181
133 154 181
133 154 181
134 154 179
134 154 180
133 154 181
133 154 181
133 154 180
134 154 181
133 154 180
134 154 180
133 154 181
134 154 180
133 153 180
134 154 181
133 153 180
133 154 181
134 154 180
134 154 180
133 154 181
134 154 181
133 154 181
134 154 181
133 154 180
134 154 181
132 152 179
133 154 181
134 154 181
134 154 181
134 154 180
133 153 180
134 154 181
133 154 180
134 154 181
133 154 181
133 154 181
134 154 181
134 154 181
134 154 181
134 154 181
134 154 180
133 154 181
134 154 181
134 154 181
134 154 181
135 155 181
134 154 181
134 154 181
134 154 181
133 154 181
134 154 181
133 154 181
133 154 180
134 154 181
135 155 181
133 154 181
133 154 181
134 154 181
134 154 181
133 154 181
133 154 181
134 154 181
135 155 181
134 154 181
133 154 181
134 154 181
133 154 181
133 154 181
133 154 181
134 154 181
134 154 181
133 154 181
133 154 180
133 154 181
134 154 181
134 154 181
134 154 181
134 154 181
134 154 181
133 153 180
135 155 181
133 154 181
134 154 181
134 154 181
134 154 181
133 154 181
134 154 181
132 153 181
133 154 181
134 154 181
133 153 180
134 154 181
134 154 181
134 154 181
134 154 181
134 154 181
135 155 181
134 154 181
134 154 181
134 154 181
134 154 181
135 155 181
133 154 181
134 154 181
134 154 181
134 154 181
132 153 181
134 154 181
133 154 181
134 154 181
134 154 181
134 154 181
133 154 181
134 154 181
134 155 181
134 154 181
134 154 181
133 154 181
134 154 181
135 155 181
133 154 181
134 154 181
133 154 181
133 154 181
134 154 181
134 154 181
133 154 181
134 154 181
134 154 181
134 154 181
134 154 181
133 154 181
135 155 181
133 154 181
134 154 181
134 154 181
133 154 181
134 154 181
133 154 181
134 154 181
133 154 181
134 154 181
134 154 181
133 154 181
132 153 180
134 154 180
133 154 181
134 154 181
133 154 181
134 154 181
135 155 181
135 155 181
134 155 181
134 154 181
134 154 181
134 154 181
133 154 181
134 154 181
134 154 181
133 154 181
133 154 181
134 154 181
134 154 181
134 155 181
134 154 181
134 154 181
133 154 181
132 153 181
134 154 181
135 155 181
134 154 181
135 155 181
134 154 181
134 154 181
134 155 181
134 154 181
134 154 181
134 154 181
134 154 181
133 154 181
133 154 181
133 154 181
134 154 181
134 154 181
134 154 181
133 154 181
134 154 181
135 155 181
133 154 181
134 154 181
133 154 181
134 154 181
134 154 181
133 154 181
133 154 181
134 154 181
134 154 181
134 154 181
134 154 181
133 153 180
134 154 181
133 154 181
133 154 181
133 154 180
133 153 180
134 154 181
134 154 181
134 154 181
134 154 181
134 155 181
135 155 181
134 154 181
134 154 181
133 154 180
134 154 181
133 154 181
134 154 181
134 154 180
134 154 181
134 154 180
133 154 181
134 154 181
133 154 180
134 154 181
133 154 181
133 154 181
134 154 181
134 154 181
134 154 180
134 154 181
132 153 180
135 155 181
133 153 180
134 154 180
133 154 181
134 154 181
134 154 181
133 154 180
135 155 181
133 154 181
134 154 181
133 153 179
134 155 181
133 154 181
134 154 181
133 153 180
133 154 181
134 154 181
133 153 180
133 154 181
133 154 181
134 154 180
134 154 181
133 154 181
135 154 180
134 154 181
134 154 180
135 155 181
134 155 181
134 154 181
133 154 181
134 154 181
134 154 181
134 154 180
133 153 180
134 154 181
133 154 181
133 154 181
133 154 180
133 154 181
133 153 179
133 154 181
134 154 180
135 155 181
133 154 180
134 154 181
133 154 181
134 154 181
133 154 181
133 154 180
134 154 181
133 154 180
134 154 181
133 154 180
134 154 180
133 154 181
133 154 181
132 152 179
134 154 181
133 153 180
133 153 180
133 153 180
133 154 181
133 154 181
134 154 180
134 154 181
134 154 180
134 154 180
134 154 181
134 154 180
133 154 181
133 154 181
133 154 180
134 154 181
132 153 180
134 154 180
134 154 181
133 154 181
133 153 180
133 153 180
134 154 181
133 153 180
132 153 180
133 154 180
133 154 181
133 153 180
133 154 181
132 153 180
131 152 179
133 154 181
133 153 180
133 154 181
134 154 180
134 154 181
133 153 179
134 154 181
133 153 180
133 154 181
134 154 181
133 154 180
132 153 180
133 154 181
134 154 181
133 154 180
134 154 180
133 153 179
132 153 180
133 154 181
134 154 181
132 152 179
134 154 181
133 154 181
135 155 181
134 154 180
134 154 181
134 154 180
133 153 179
133 154 181
133 153 180
134 154 181
132 152 180
134 155 181
134 154 181
134 154 180
133 153 180
133 154 180
133 153 180
134 154 180
134 154 181
134 154 181
134 154 181
134 154 180
133 153 179
134 154 181
133 153 180
134 154 181
134 154 181
133 154 180
133 154 181
133 154 181
134 154 181
135 155 181
134 154 181
132 153 179
135 155 181
133 154 180
134 154 181
133 154 180
132 152 179
134 154 180
132 153 180
134 154 181
133 154 181
134 154 181
134 154 181
133 153 180
133 153 180
133 154 181
134 155 181
133 154 180
134 154 180
134 154 181
133 153 180
133 154 180
134 154 181
134 154 181
134 154 181
133 153 180
133 154 181
135 155 181
134 154 180
132 153 180
134 154 181
132 153 180
134 154 181
134 154 181
134 154 180
133 154 181
134 154 181
133 154 180
133 154 181
133 154 181
134 154 181
134 154 181
134 154 181
134 153 179
133 154 181
134 154 181
134 154 181
134 154 180
134 154 180
133 154 181
133 154 181
133 154 181
132 152 179
134 154 181
134 154 181
132 153 180
134 154 180
132 153 180
133 153 180
134 155 181
133 153 180
134 154 181
133 154 180
134 154 181
133 154 180
133 154 181
133 154 181
134 154 181
134 154 181
134 154 181
133 154 181
134 154 181
133 154 181
134 154 181
135 155 181
134 154 181
134 154 181
135 155 181
134 154 181
133 154 181
134 154 181
134 155 181
133 154 181
133 154 181
134 154 181
134 154 180
134 154 181
134 154 181
133 154 181
134 154 181
133 154 180
134 154 181
134 154 181
134 154 181
134 154 181
135 155 181
134 154 181
133 154 181
134 154 181
133 154 180
134 154 181
134 154 181
133 154 181
134 154 181
134 155 181
133 154 181
135 155 181
134 154 181
134 154 181
134 154 181
135 155 181
134 154 181
134 154 181
134 154 181
134 154 181
134 154 181
133 154 181
133 154 181
133 154 181
134 154 181
134 154 181
133 154 181
134 154 181
134 154 181
134 154 181
133 154 181
134 154 181
135 154 180
135 155 181
134 154 181
135 155 181
134 154 181
135 155 181
133 154 181
134 154 181
134 154 181
133 154 181
133 154 181
134 154 181
134 154 181
133 154 181
133 154 181
134 154 181
135 155 181
134 154 181
135 155 181
134 154 181
134 154 181
135 155 181
134 154 180
134 154 181
134 154 181
133 154 181
134 154 181
133 154 181
133 154 181
134 154 181
135 155 181
134 154 180
134 154 181
133 154 181
134 154 181
133 154 181
133 153 180
133 154 181
133 154 181
134 154 181
133 154 181
133 154 181
134 154 181
134 154 181
134 154 181
133 154 181
134 154 181
134 155 181
134 154 181
133 154 181
133 154 181
134 154 181
134 154 181
133 154 181
134 154 181
135 155 181
133 154 181
134 154 181
134 154 181
133 154 181
133 154 181
134 155 181
134 154 181
134 154 181
134 154 181
133 154 180
134 154 181
134 154 181
134 154 180
133 154 181
134 154 180
133 154 180
133 153 180
133 153 180
133 154 181
135 155 181
134 154 180
134 154 181
133 154 180
133 153 180
133 154 180
134 154 181
133 153 180
134 154 181
133 154 181
134 154 181
134 154 181
133 154 181
133 154 181
133 154 181
133 154 181
134 155 181
133 154 181
133 154 180
133 153 180
133 154 181
135 155 181
134 154 181
133 154 181
133 154 181
134 154 181
135 155 181
134 154 181
133 154 181
133 154 181
133 154 181
134 154 181
134 154 180
135 155 181
134 154 181
133 154 181
134 154 181
134 154 181
133 154 180
133 154 180
134 154 181
134 154 181
133 154 181
133 154 181
133 154 181
133 154 181
134 154 181
134 154 181
133 154 180
134 154 181
134 154 181
134 154 180
134 154 181
134 154 181
134 154 181
132 153 180
134 154 180
135 155 181
134 154 181
132 153 180
134 154 181
133 154 181
133 154 180
133 154 181
133 153 180
133 154 181
133 154 181
134 154 181
133 153 180
133 154 181
133 154 180
134 154 181
133 154 180
134 154 180
134 154 181
133 154 181
133 154 181
133 153 180
134 154 181
133 154 181
132 153 180
134 154 181
132 153 180
134 154 181
134 154 181
133 154 181
133 154 181
133 154 181
133 154 181
133 154 181
134 154 181
134 154 181
134 154 181
133 154 180
133 154 180
133 154 181
133 154 181
134 154 181
133 153 180
134 154 180
134 154 181
133 154 181
134 154 181
133 153 180
132 153 180
133 154 181
134 154 181
134 154 180
133 154 180
134 155 181
133 153 180
133 154 180
133 153 180
134 154 180
133 154 180
134 154 181
133 154 181
134 154 181
133 154 181
133 154 181
133 153 180
134 154 181
133 154 181
133 154 181
134 154 181
133 153 180
133 154 181
134 154 181
133 154 181
133 154 180
133 154 180
132 153 179
133 154 181
134 154 181
134 154 181
134 154 181
133 154 181
133 154 181
133 154 181
134 154 180
133 154 181
133 154 181
133 154 180
134 154 181
133 154 180
134 154 181
133 154 181
133 153 180
133 154 181
133 154 180
133 153 180
134 154 181
134 154 181
133 154 181
133 154 180
134 154 181
134 154 181
134 154 181
134 154 180
135 155 181
133 154 180
132 153 180
133 152 179
133 153 180
133 154 181
133 153 180
134 154 181
133 154 181
133 153 180
133 153 180
133 153 180
133 154 180
133 153 180
135 154 180
133 154 180
134 154 180
133 153 179
133 154 181
132 153 180
133 154 181
133 154 181
133 154 181
133 153 180
134 154 180
134 154 180
134 154 180
134 154 181
134 154 181
133 153 180
133 153 180
134 154 180
133 154 180
132 152 179
134 154 180
132 153 180
134 154 180
134 154 181
133 153 180
134 154 181
134 154 180
133 153 180
132 153 179
134 154 180
133 154 181
134 154 181
134 154 180
133 153 180
134 154 181
134 154 180
134 154 181
134 154 181
133 153 180
133 154 181
133 153 180
134 154 180
133 153 180
133 153 180
134 154 181
133 154 181
134 154 180
133 153 180
132 153 180
134 154 181
134 154 181
133 154 181
133 154 181
134 154 181
134 154 180
133 153 180
133 153 180
134 154 181
134 154 181
133 154 181
134 154 181
132 153 179
133 153 180
134 155 181
134 154 180
134 154 181
133 154 181
133 154 180
133 153 179
133 153 180
134 154 181
134 155 181
134 154 181
133 154 181
135 155 181
134 154 181
133 153 180
133 153 180
133 153 180
133 154 181
133 154 181
134 154 181
133 154 181
133 154 181
134 153 179
134 154 181
133 154 181
134 155 181
135 155 181
134 154 180
134 154 181
133 154 181
133 154 181
134 154 181
134 154 181
133 154 181
134 154 181
134 154 181
134 154 181
133 154 181
133 154 181
134 154 181
134 154 181
133 154 181
134 154 181
133 154 181
134 154 181
134 154 181
134 154 181
134 154 181
134 154 181
133 154 181
133 154 181
134 154 181
134 154 181
133 154 181
133 154 181
134 154 181
133 154 180
134 154 181
133 154 181
134 154 181
134 154 181
135 155 181
133 154 181
134 154 181
134 154 181
135 155 181
134 154 181
133 154 181
134 154 181
134 154 181
134 154 181
134 154 181
133 154 181
134 154 181
134 154 181
134 154 181
134 154 181
134 154 181
134 154 181
133 154 181
134 154 181
134 154 181
134 154 181
134 154 181
134 154 181
134 154 181
133 154 181
133 154 181
134 154 181
134 154 181
133 154 181
134 154 181
134 154 180
134 154 181
134 154 181
134 154 181
133 154 181
134 154 181
133 154 181
134 154 181
134 154 180
134 154 181
134 155 181
133 154 181
133 153 180
133 154 181
134 154 181
134 154 181
133 154 181
134 154 181
134 154 181
135 155 181
134 154 181
134 154 181
134 154 181
134 154 181
134 154 181
133 153 180
134 154 181
133 154 181
134 154 181
134 154 181
134 154 181
134 154 181
133 154 181
134 154 181
134 154 181
134 154 181
134 154 181
135 155 181
135 155 181
133 154 181
133 154 181
134 154 180
133 153 180
133 154 181
134 154 181
133 154 181
133 153 180
133 154 181
133 154 180
135 155 181
134 154 181
135 155 181
134 154 181
134 154 181
135 155 181
133 154 181
134 154 181
134 154 181
134 154 181
134 154 181
134 154 181
133 154 180
134 154 181
133 154 181
135 155 181
134 154 181
134 154 181
133 154 181
134 154 181
134 154 180
134 154 181
134 154 181
133 154 181
133 154 181
134 154 181
133 154 180
134 154 181
133 154 181
135 155 181
134 154 181
135 155 181
134 154 181
134 154 181
134 154 181
134 154 181
134 154 181
134 154 181
134 154 181
134 154 181
134 154 181
133 154 181
134 154 180
133 154 181
133 154 180
134 154 181
134 154 181
135 155 181
133 154 181
133 154 181
134 154 181
134 154 181
134 154 181
135 155 181
134 154 180
134 154 181
134 154 181
134 154 181
133 154 181
134 154 180
133 154 181
134 154 181
133 154 181
134 154 181
133 154 180
134 154 181
134 154 181
133 154 181
133 154 181
134 154 181
134 155 181
134 154 181
133 154 181
134 154 181
133 154 181
134 155 181
133 154 181
133 154 181
134 154 181
134 154 181
134 154 181
134 154 180
133 154 181
132 153 180
133 154 181
133 154 181
133 154 181
132 153 180
134 154 181
134 154 181
133 154 180
133 154 181
134 154 181
133 154 181
133 154 181
134 154 181
134 154 181
134 154 181
132 153 180
133 154 181
134 154 181
134 154 180
134 154 181
134 154 180
135 155 181
133 154 181
133 153 180
133 154 181
134 154 180
134 154 180
133 153 180
134 154 181
134 154 180
133 154 180
133 154 181
134 155 181
133 154 181
134 154 180
133 154 181
134 154 181
134 154 180
133 153 180
134 154 181
134 154 181
134 154 181
133 154 181
134 154 181
132 152 179
134 154 181
134 154 181
133 154 181
133 154 181
133 154 181
134 154 180
134 155 181
133 154 181
134 154 181
135 155 181
134 154 181
133 154 181
134 154 181
134 154 180
134 154 181
134 154 181
133 153 180
134 154 181
133 154 180
133 154 180
134 154 181
133 154 181
133 154 180
132 153 180
132 152 179
133 154 181
133 153 180
133 154 181
133 154 181
134 154 181
134 154 180
134 154 180
134 154 181
132 153 180
133 154 181
133 153 180
133 153 180
134 154 181
134 154 181
132 153 180
133 154 181
133 154 181
134 154 181
133 153 180
132 152 179
133 154 180
134 154 181
134 154 181
133 153 180
133 154 181
133 153 180
133 154 180
133 154 180
133 153 180
132 153 179
133 154 180
133 154 180
133 153 180
134 154 180
133 154 180
133 154 181
134 154 181
133 154 180
134 154 180
132 153 180
133 154 181
134 154 181
133 154 181
133 153 180
134 154 181
133 154 180
133 153 180
134 154 181
133 153 180
134 154 181
133 154 181
134 154 180
134 154 181
134 154 181
133 154 181
134 154 180
133 154 181
132 152 179
133 154 181
133 153 180
134 154 180
134 155 181
133 153 180
134 154 180
134 154 181
133 154 181
134 153 180
135 155 181
133 153 179
133 154 181
134 154 181
134 154 181
132 153 180
133 153 179
134 154 181
134 154 181
133 154 181
132 153 181
134 154 181
133 154 181
134 154 181
134 154 181
134 154 181
133 154 181
134 154 180
133 154 181
133 154 180
133 154 181
132 153 180
132 153 180
134 154 181
134 154 181
134 154 181
133 153 180
133 154 180
133 153 180
134 154 180
133 153 180
133 154 181
134 154 181
133 153 180
134 154 180
133 154 180
133 154 180
133 154 181
133 154 181
133 154 181
134 154 181
134 154 181
134 154 181
133 154 180
134 154 180
134 154 180
134 154 181
134 154 180
133 154 181
133 154 181
133 154 181
133 153 180
135 155 181
134 154 180
133 154 181
134 154 181
133 153 180
133 153 179
133 153 180
133 154 181
134 153 179
134 154 181
134 154 181
134 154 181
133 154 180
134 154 181
134 154 180
133 154 181
133 154 181
133 154 181
133 154 181
134 154 181
133 153 180
134 154 181
134 154 181
134 154 181
134 154 181
134 154 181
133 154 181
134 154 181
134 154 181
134 154 181
134 154 181
132 153 181
135 155 181
134 154 181
133 154 181
134 154 181
134 154 181
134 154 181
133 154 181
133 154 181
133 154 181
133 154 181
134 155 181
135 155 181
134 154 181
133 154 181
134 154 181
134 154 181
134 154 181
133 154 181
134 154 181
135 155 181
134 154 181
134 154 181
134 154 181
133 154 181
134 154 181
134 154 181
134 154 181
134 154 181
134 154 181
134 154 181
133 153 180
133 154 180
134 154 181
134 154 181
134 154 181
134 154 181
134 154 181
134 154 181
134 154 181
133 154 181
133 154 180
135 155 181
134 154 181
133 153 180
135 155 181
134 154 181
133 154 181
134 154 181
134 154 181
135 155 181
134 154 181
134 154 181
134 154 181
135 155 181
133 154 181
134 154 181
133 154 181
133 154 181
134 154 181
133 154 181
134 154 180
134 154 181
134 154 181
134 154 180
133 154 181
133 154 181
133 154 181
134 154 181
133 154 181
134 154 181
134 154 181
134 154 181
134 154 181
133 154 180
134 154 181
134 154 181
133 154 181
133 154 181
134 154 181
133 154 181
134 154 181
134 154 180
133 153 180
134 154 181
133 154 181
134 154 181
134 154 181
134 154 181
135 155 181
133 154 180
134 154 181
133 154 181
134 154 181
134 154 181
133 154 181
133 154 181
134 154 181
134 154 181
133 153 180
133 154 181
134 154 181
133 154 180
134 154 181
134 154 181
133 153 180
133 154 181
133 153 180
133 154 181
135 155 181
134 154 181
135 155 181
132 153 181
134 154 181
133 154 181
134 154 181
133 154 181
134 154 181
133 154 181
133 154 181
135 155 181
134 154 181
133 154 180
133 154 181
134 154 181
133 154 181
134 154 181
134 154 180
133 153 180
133 154 181
134 154 181
134 154 181
134 154 181
133 154 181
133 154 181
133 154 181
134 154 181
134 154 180
134 154 181
133 154 181
133 154 181
134 154 181
133 154 181
133 153 180
134 154 181
134 154 181
133 154 181
134 154 181
134 154 181
133 154 181
134 154 180
134 154 181
134 154 181
134 154 181
133 154 181
135 155 181
133 154 181
133 154 181
133 154 180
133 154 181
133 154 181
133 154 181
134 154 181
133 154 181
133 154 181
135 155 181
134 154 181
134 154 181
134 154 181
134 154 181
134 154 180
134 154 181
133 153 180
133 154 181
134 154 180
135 155 181
134 154 181
133 154 181
133 154 181
134 154 181
133 154 181
134 154 181
134 154 180
134 155 181
133 154 181
134 155 181
133 154 180
134 154 181
133 154 181
132 153 180
134 154 181
133 154 180
133 154 180
133 154 181
133 154 181
134 154 180
133 154 181
133 154 180
135 155 181
133 154 180
134 154 180
134 154 181
134 154 181
133 153 180
133 154 181
133 153 180
134 154 180
134 154 181
134 154 181
134 154 181
134 154 181
133 154 180
134 154 180
133 154 181
133 154 180
133 154 181
133 153 180
132 153 180
134 154 180
133 154 181
133 154 180
133 154 181
133 154 181
133 154 180
133 154 181
132 153 180
133 153 180
133 153 180
133 153 180
133 153 180
134 154 181
133 153 180
133 154 180
133 153 180
133 154 181
133 154 180
135 155 181
133 154 181
133 154 180
133 154 181
135 154 180
134 154 181
133 154 180
133 153 180
133 154 181
134 154 181
133 154 181
133 154 180
133 153 180
134 154 181
133 154 181
133 154 181
133 154 181
134 154 181
133 154 180
133 153 180
134 154 180
135 155 181
133 153 180
132 153 180
133 154 180
134 154 180
134 154 181
133 154 181
132 153 180
133 154 180
134 154 180
133 153 180
134 154 181
133 153 180
133 154 181
135 155 181
134 154 181
133 154 180
133 154 181
134 154 180
133 153 180
133 154 180
134 154 180
133 154 180
134 155 181
133 153 180
133 154 180
134 154 181
134 154 181
133 154 180
134 154 181
134 154 180
132 152 178
134 154 181
132 153 180
133 154 181
134 154 181
134 154 181
133 153 180
133 154 180
133 154 181
134 155 181
133 153 180
133 154 180
133 154 181
133 153 180
134 154 181
133 153 180
134 154 180
134 154 180
133 154 181
133 154 181
133 153 180
134 154 181
133 154 181
133 153 179
133 153 180
133 153 180
134 154 180
132 152 179
133 154 181
134 154 181
134 154 181
133 154 180
134 154 181
133 153 180
132 153 180
134 153 179
134 154 181
134 154 181
133 154 181
134 154 181
133 154 180
133 153 180
133 154 181
133 153 180
133 154 180
134 154 180
133 154 180
133 154 181
133 154 181
133 154 181
134 154 180
133 154 181
133 154 180
134 154 181
132 153 180
133 154 181
134 154 181
134 154 181
134 154 181
133 154 181
133 153 180
133 154 181
133 153 180
133 154 181
133 154 180
133 153 180
133 154 181
134 154 181
132 153 180
133 153 179
134 154 181
134 154 181
133 154 181
134 154 180
135 155 181
133 153 180
135 154 180
133 154 180
133 154 181
134 154 180
132 153 180
134 154 181
135 155 181
134 154 181
133 153 180
133 153 180
134 154 181
134 154 180
133 154 181
134 154 181
134 154 180
133 153 180
133 153 180
134 154 181
134 155 181
134 154 181
133 154 181
133 154 181
134 154 181
134 154 181
134 154 181
133 154 181
133 154 181
134 155 181
134 154 181
134 154 181
134 154 181
134 154 181
134 154 180
134 154 181
134 154 181
134 154 181
134 154 181
135 155 181
134 154 181
134 154 181
134 154 181
133 154 181
134 154 181
134 154 181
134 154 181
134 154 181
134 154 181
134 154 181
133 154 181
134 154 181
134 154 181
135 155 181
134 154 181
133 154 181
134 154 181
134 154 181
133 154 181
133 154 181
134 154 181
134 154 181
134 154 181
133 154 181
135 155 181
134 154 181
134 155 181
134 154 181
134 154 181
134 155 181
134 154 181
134 154 181
133 154 181
133 154 181
134 154 181
134 154 181
133 154 181
134 155 181
134 154 181
133 154 181
133 154 181
133 154 181
134 154 181
133 154 181
134 154 181
134 154 181
133 154 181
134 154 181
135 155 181
134 155 181
133 154 181
134 154 181
135 155 181
133 154 181
133 153 180
134 154 181
134 154 181
134 154 181
134 154 181
133 154 181
135 155 181
133 154 181
134 154 181
134 154 181
134 154 181
133 154 181
133 154 181
134 154 181
134 154 181
134 154 181
133 154 181
134 154 181
134 154 181
133 154 181
134 154 181
135 155 181
133 154 181
134 154 181
134 154 181
133 154 181
134 154 181
134 154 181
133 154 181
134 154 181
133 153 180
134 154 181
134 154 181
134 154 181
134 154 181
133 154 181
134 154 180
134 154 181
135 155 181
133 154 181
134 154 181
134 154 181
135 155 181
135 155 181
134 154 181
133 154 181
134 154 181
134 154 181
133 154 181
135 154 180
133 154 181
133 154 181
133 154 181
133 154 181
133 154 181
133 154 181
134 154 181
134 154 181
134 154 181
133 154 181
134 154 181
133 154 181
134 154 181
134 154 181
134 154 181
134 154 181
134 154 181
134 154 181
134 154 181
134 154 181
134 154 181
134 154 181
134 154 181
133 154 181
134 154 181
134 154 181
134 155 181
133 154 181
134 154 181
133 154 181
134 154 180
134 154 181
133 154 181
134 154 181
134 154 181
133 154 181
134 154 181
133 154 181
134 154 181
134 154 181
133 154 180
133 154 181
134 154 181
133 154 181
134 154 181
134 154 181
132 153 180
133 154 181
134 154 181
135 155 180
133 154 181
133 154 180
134 154 181
133 154 181
134 154 181
134 154 181
134 154 181
133 154 181
133 154 180
135 155 181
133 154 181
134 154 181
134 154 181
134 154 181
134 154 181
134 154 181
133 154 181
134 154 181
133 154 181
133 154 181
135 155 181
134 154 181
134 154 181
134 154 181
133 154 181
134 154 181
134 153 180
133 154 181
133 154 181
134 154 181
133 154 181
133 154 180
134 154 181
134 154 181
134 154 181
134 154 181
134 154 181
133 154 181
133 153 180
134 154 180
134 154 181
134 154 181
133 154 181
134 154 181
133 154 181
133 153 180
134 154 180
134 154 181
134 154 181
134 154 181
134 154 181
133 154 180
134 154 181
134 154 181
134 154 181
133 154 181
133 154 180
133 153 179
133 154 181
135 155 181
132 153 180
135 155 181
134 155 181
132 153 180
134 154 181
134 154 181
134 155 181
134 154 181
134 154 181
132 153 180
134 154 181
133 154 181
133 154 181
133 154 181
134 154 181
133 154 181
133 154 181
133 154 181
133 154 180
133 154 180
133 154 181
134 154 180
133 154 181
133 154 181
135 155 181
134 154 180
134 154 181
134 154 180
134 154 181
134 154 180
133 154 180
134 154 181
133 153 180
134 154 181
133 153 180
132 153 180
134 154 181
134 154 181
134 154 181
134 154 181
133 153 180
133 153 180
133 154 181
133 154 180
131 152 179
133 154 181
132 153 181
133 153 180
134 154 181
134 154 180
134 154 181
134 154 180
134 155 181
135 155 181
133 153 180
133 153 180
134 155 181
134 154 180
134 154 181
134 154 181
132 153 180
132 153 180
133 154 181
134 154 181
134 154 180
133 154 181
133 153 180
133 154 181
133 154 180
133 153 180
134 154 181
133 154 181
134 154 181
134 154 181
134 155 181
134 154 180
134 154 181
134 154 181
133 154 180
132 152 179
133 153 179
132 153 181
134 154 181
134 154 181
134 154 181
133 154 181
133 154 181
134 154 181
134 154 180
133 154 180
134 154 181
133 153 180
134 154 180
133 154 180
135 155 181
133 154 180
133 154 181
133 154 180
134 153 179
133 154 181
134 154 181
133 153 180
134 154 181
134 154 181
133 153 180
133 154 181
132 152 180
134 154 181
133 154 181
134 154 181
133 153 179
134 154 181
134 154 180
133 154 181
134 154 181
133 153 180
132 153 180
133 154 180
132 153 181
134 154 181
134 154 181
133 153 180
133 154 181
133 154 181
133 154 180
133 154 181
132 153 180
133 153 180
133 154 180
134 154 180
133 154 181
134 153 179
134 154 181
134 154 181
134 154 181
133 154 181
134 154 181
133 154 181
133 154 180
134 154 181
134 154 181
133 154 180
134 154 181
134 154 181
134 154 180
134 154 181
133 153 180
133 153 180
134 154 181
134 154 181
134 154 181
134 154 181
134 154 181
133 154 181
133 154 181
134 154 181
134 154 181
134 154 181
133 153 179
134 154 181
133 154 181
133 153 179
134 154 180
134 155 181
134 154 181
134 154 181
133 154 180
134 154 181
134 155 181
134 154 181
134 154 181
134 154 181
134 154 181
134 154 181
133 154 181
133 154 181
133 154 181
134 154 181
134 154 181
134 154 181
134 154 181
133 154 181
134 154 181
133 154 181
134 154 180
134 154 181
134 154 181
134 154 181
133 154 181
133 154 181
134 154 181
134 154 181
134 154 181
134 154 181
133 154 181
134 154 181
134 154 181
134 154 181
134 154 181
133 154 181
133 154 181
134 154 181
134 154 181
133 154 181
133 154 181
133 154 181
134 154 180
135 155 181
134 154 180
133 154 181
134 154 181
133 154 181
133 154 181
133 153 180
134 154 181
134 154 181
133 154 181
134 154 181
134 154 181
133 154 181
134 154 181
134 154 181
134 154 181
134 154 181
133 154 181
133 154 180
134 154 181
134 154 181
134 154 181
135 155 181
133 154 181
135 155 181
134 154 181
134 154 181
134 154 181
134 154 181
134 154 181
133 154 181
133 154 181
133 154 181
134 154 181
134 154 181
134 154 181
133 154 181
134 154 181
133 154 181
133 154 181
134 154 181
134 154 181
134 154 181
134 154 181
134 154 181
133 154 181
134 155 181
134 154 181
134 154 180
135 155 181
134 154 180
133 154 180
134 154 181
134 154 181
134 154 180
133 154 181
134 154 181
134 154 181
134 154 181
134 154 181
135 155 181
134 154 181
133 154 181
133 153 180
134 154 181
133 154 181
133 154 181
134 154 181
133 154 180
134 154 181
134 154 181
134 154 181
134 154 181
133 154 180
133 154 181
135 155 181
133 154 180
133 154 180
134 154 181
134 154 181
133 153 180
134 154 181
133 154 181
134 154 181
135 155 181
133 154 181
134 154 181
133 154 181
134 154 181
134 154 181
133 154 180
133 154 181
134 154 181
134 154 180
133 154 181
134 154 181
133 154 181
135 155 181
134 154 181
134 154 181
134 154 181
133 154 181
134 154 181
134 154 181
134 154 181
135 155 181
134 154 181
133 154 181
135 155 181
134 154 181
134 154 181
133 154 181
133 154 181
134 154 180
135 155 181
134 155 181
133 154 181
134 154 180
134 154 181
133 153 180
134 154 181
133 154 180
134 154 181
133 154 181
132 153 180
134 154 181
134 154 181
134 154 181
134 154 181
133 154 181
134 154 181
134 154 181
134 154 181
133 154 181
134 154 181
133 154 180
133 153 180
134 154 181
133 153 180
134 154 181
134 154 181
134 154 181
134 154 181
133 154 181
133 154 181
133 154 181
133 154 181
134 154 181
134 154 180
134 154 181
133 154 181
133 154 181
134 154 180
133 153 180
134 154 181
133 154 181
133 153 180
134 154 181
133 154 180
133 153 180
134 154 181
134 154 181
134 154 181
134 154 181
133 154 181
134 154 181
134 154 181
133 153 180
133 154 181
134 154 181
133 154 181
134 154 181
134 154 180
134 154 180
134 154 181
134 154 181
132 153 181
134 154 181
134 154 180
133 154 181
133 153 180
132 153 180
133 154 181
135 155 180
133 154 180
132 153 180
134 154 181
133 154 181
133 154 181
133 153 180
134 154 181
134 154 181
134 154 181
133 154 181
134 154 181
134 154 181
133 153 180
133 154 181
133 153 180
132 153 179
134 154 181
133 154 181
132 152 179
133 154 180
134 154 181
134 154 181
134 154 181
133 153 180
134 154 181
134 154 181
133 154 180
135 155 181
133 154 181
134 154 180
133 153 180
133 154 181
134 154 181
133 153 180
132 153 181
133 154 181
134 154 181
134 154 181
133 154 181
134 154 180
134 154 180
134 153 179
134 154 181
134 154 181
133 153 180
133 153 179
133 153 180
134 154 181
134 154 181
134 154 180
133 153 180
134 154 181
133 153 180
134 154 181
133 154 181
134 154 181
133 154 180
134 154 180
134 154 181
133 154 181
133 153 180
134 154 181
133 153 180
133 154 181
134 154 181
134 154 180
134 154 181
134 154 181
132 153 180
133 153 180
134 154 181
134 154 181
134 154 180
132 153 180
133 153 180
134 154 181
133 153 180
133 154 181
134 154 181
134 154 180
133 154 180
133 154 181
133 154 181
133 154 181
133 154 180
133 153 180
133 154 181
134 154 180
133 153 180
133 154 181
134 154 180
134 154 181
134 154 181
132 153 180
133 153 180
133 153 180
133 154 181
133 154 181
134 154 180
134 154 181
134 154 181
134 154 181
134 154 180
134 154 180
133 154 181
134 154 180
133 154 180
133 154 181
134 154 181
133 153 180
133 153 179
133 154 180
134 154 180
133 153 179
134 154 181
133 154 180
133 154 181
133 154 181
132 153 179
133 154 181
135 155 181
134 154 181
134 154 180
133 153 180
133 154 181
134 154 180
134 154 181
133 154 180
133 154 180
133 153 180
133 153 180
133 154 181
134 155 181
134 154 181
133 154 181
134 154 181
133 154 180
132 153 179
134 154 181
134 154 181
134 154 181
133 154 181
133 153 180
133 154 181
134 154 181
133 153 180
134 154 180
134 153 179
134 154 181
134 154 181
134 154 181
133 154 181
134 155 181
133 153 180
134 154 180
134 154 181
134 154 181
134 154 180
134 154 180
134 154 181
133 154 181
133 153 180
134 154 181
133 154 181
134 154 181
133 154 181
133 153 180
134 154 180
134 154 180
134 154 180
134 154 181
133 153 179
133 153 180
134 154 181
134 154 181
134 154 181
134 154 181
134 154 181
134 154 181
134 154 181
133 154 181
134 154 181
134 155 181
134 154 181
133 154 181
134 154 181
134 154 181
133 154 181
134 154 181
134 154 181
134 154 181
134 154 181
134 154 181
134 154 181
134 154 181
133 154 181
134 154 181
134 154 181
134 154 181
133 154 180
133 154 181
133 154 181
134 154 181
135 155 181
134 154 181
134 154 181
133 154 181
134 154 181
133 154 181
134 154 181
133 154 181
133 154 181
135 155 181
134 154 181
135 155 181
133 154 181
133 154 181
133 154 181
134 154 181
134 154 181
134 154 181
134 154 181
133 154 181
134 154 181
134 154 181
134 154 181
134 154 181
133 154 181
134 154 181
133 154 181
133 154 181
135 155 181
133 153 180
134 155 181
134 154 181
134 154 181
134 154 181
134 154 181
133 154 181
134 154 180
135 155 181
135 155 181
134 154 181
134 154 181
134 154 181
133 154 181
133 154 181
133 154 181
134 154 181
133 154 180
133 154 181
133 154 181
133 154 181
134 154 181
133 154 181
134 154 181
134 154 181
134 154 181
134 154 181
135 155 181
134 154 181
134 154 181
134 154 181
134 154 181
134 154 181
134 154 181
133 154 181
133 154 181
134 154 181
134 154 181
134 154 181
133 154 181
134 154 181
134 154 181
134 154 181
134 154 181
133 154 181
133 154 181
133 154 181
134 154 180
133 154 180
133 154 181
134 154 181
133 154 181
133 154 181
133 154 181
133 153 180
134 154 181
134 154 181
134 154 181
134 154 181
134 154 181
134 154 181
135 155 181
133 154 181
133 154 181
133 154 181
133 154 181
133 153 180
134 154 181
133 154 180
133 154 181
133 154 181
134 154 181
134 154 181
134 154 181
133 154 181
133 154 181
133 154 181
135 155 181
134 154 181
134 154 181
134 154 181
134 154 181
134 154 181
135 155 181
133 154 181
133 153 180
133 153 180
134 154 181
134 154 181
134 154 181
133 154 181
134 154 181
134 154 181
133 154 181
134 154 181
134 154 181
134 154 181
134 154 181
133 154 181
134 154 181
133 154 180
133 154 181
133 154 181
133 154 181
133 154 181
133 153 180
134 154 181
133 154 181
133 154 181
133 154 181
133 154 181
134 154 181
134 154 181
134 154 180
134 154 181
133 153 180
133 154 181
134 154 181
133 153 180
134 154 181
133 154 181
132 153 180
134 154 181
134 154 181
134 154 181
134 154 181
135 155 181
134 154 181
133 154 181
132 153 180
134 154 181
134 154 181
134 154 181
133 154 181
133 154 181
133 154 181
135 155 181
133 154 181
133 154 180
134 154 181
133 154 181
132 153 180
134 154 181
134 154 181
134 154 181
133 154 181
133 154 180
134 154 181
134 154 181
134 154 181
134 154 181
133 153 180
134 154 181
133 154 181
134 154 181
133 154 180
133 154 180
132 153 180
133 154 181
134 154 180
134 154 181
133 154 181
134 154 181
133 154 181
133 154 181
133 154 180
133 154 181
133 154 181
133 154 181
132 153 180
133 154 181
133 153 180
133 154 181
133 154 181
134 154 181
134 154 181
134 154 181
134 154 181
133 154 180
133 154 180
133 154 181
134 154 181
132 153 180
134 154 181
134 154 181
134 154 181
134 154 181
134 155 181
133 154 181
133 154 181
134 154 181
133 153 179
133 153 180
133 154 181
133 154 181
134 154 181
133 154 181
134 154 181
133 154 180
133 154 180
133 153 180
133 153 180
132 153 180
133 154 181
133 153 180
133 154 180
133 153 180
134 154 181
134 155 181
133 153 180
134 154 181
134 154 180
134 154 180
135 155 181
131 152 179
134 154 181
134 154 181
133 154 180
132 153 180
133 153 180
134 154 181
134 154 181
134 154 180
133 153 180
133 154 181
134 154 181
135 155 181
133 154 180
134 154 180
134 154 181
134 154 181
133 154 181
133 154 180
134 154 180
133 154 181
133 153 180
134 154 181
133 154 180
133 153 180
134 154 181
134 154 181
133 153 180
133 154 180
133 154 180
134 153 179
133 154 181
133 154 181
133 154 181
134 154 181
133 154 180
134 154 181
133 154 181
133 154 181
133 153 180
133 153 179
134 154 180
133 154 180
133 153 180
133 154 180
134 154 181
133 154 181
133 154 180
133 154 180
134 154 181
132 153 180
134 154 181
134 154 181
135 154 180
133 154 181
134 154 181
134 155 181
133 154 181
133 153 180
133 154 180
134 154 181
132 152 180
134 154 180
134 154 180
133 154 180
134 154 180
133 154 180
133 154 180
134 154 180
133 153 180
134 154 181
134 154 181
133 154 180
132 153 180
134 154 181
133 153 180
133 154 181
131 152 179
132 152 179
134 154 181
134 154 181
134 154 181
135 155 181
134 154 181
132 152 179
134 154 181
134 154 181
133 154 180
133 153 180
134 154 181
134 154 180
133 154 181
133 154 181
134 154 180
133 153 179
134 154 181
134 154 181
134 154 181
134 154 181
133 154 181
132 153 179
134 154 181
133 154 181
134 154 181
133 154 180
133 154 181
134 154 181
133 154 181
134 154 180
134 154 180
133 154 181
134 154 181
133 153 180
133 153 179
133 154 181
134 154 181
134 154 181
134 154 180
132 153 180
134 154 180
133 153 180
134 155 181
133 154 181
133 154 180
133 154 181
133 154 181
133 154 181
134 154 180
134 154 181
133 154 181
133 154 181
133 154 181
134 154 181
133 154 180
134 154 181
133 154 181
134 154 181
133 154 181
134 154 181
134 154 181
134 154 181
134 154 181
134 154 181
134 154 181
134 154 181
134 154 180
134 154 181
134 154 180
133 154 181
134 154 181
134 154 181
134 154 181
134 155 181
134 154 181
134 154 181
134 154 181
134 154 181
134 154 181
135 155 181
133 154 181
134 154 181
133 154 181
133 154 181
134 154 181
134 154 181
134 154 181
134 154 181
133 154 181
133 154 180
134 154 181
133 154 181
134 154 181
134 154 180
133 154 181
133 154 181
134 154 181
134 154 181
134 154 181
133 154 180
135 155 181
133 154 181
134 154 181
133 154 181
134 154 181
133 154 181
135 155 181
133 154 181
134 154 181
134 154 181
133 154 181
134 154 180
134 154 181
133 154 181
134 155 181
134 154 181
134 154 181
134 154 181
133 154 181
135 155 181
134 154 181
134 154 180
134 154 181
134 154 181
133 154 181
134 154 181
134 154 181
134 154 181
134 154 181
133 154 181
133 154 181
134 154 181
134 154 181
134 154 181
133 154 180
134 154 181
135 155 181
134 154 181
134 154 181
133 154 181
133 154 180
134 154 181
134 154 181
133 154 181
133 154 180
134 154 181
134 154 181
134 154 181
135 155 181
133 154 181
134 154 181
134 154 181
133 154 180
134 154 181
133 154 181
134 154 181
133 154 181
134 154 181
133 154 181
134 154 181
134 154 181
134 154 181
135 155 181
133 154 181
133 154 181
134 155 181
133 153 180
133 154 181
134 154 181
134 154 181
134 154 180
133 154 181
134 154 181
134 154 181
134 154 181
133 154 181
133 154 181
134 154 181
134 155 181
134 154 181
134 154 181
133 154 181
134 154 181
134 154 181
133 154 181
134 154 181
133 153 180
133 154 181
133 154 181
134 154 181
134 154 181
134 154 181
133 154 181
134 154 181
134 154 181
134 154 180
134 154 181
135 155 181
134 154 181
133 154 181
135 155 181
134 154 181
134 154 181
134 154 181
133 154 181
133 154 181
135 155 181
132 153 180
134 154 181
134 154 181
134 154 181
134 154 181
135 155 181
133 154 180
134 154 181
134 154 181
134 154 181
133 154 181
134 154 181
134 154 181
133 154 180
134 154 181
134 154 181
134 154 181
134 154 180
133 154 181
134 154 180
133 154 181
133 153 180
134 154 181
135 155 181
134 154 180
134 154 181
133 154 180
135 155 181
133 154 181
134 154 181
134 154 181
133 154 181
133 153 180
134 154 181
134 154 181
134 154 181
134 154 181
134 154 180
134 154 180
133 154 181
134 155 181
134 154 181
133 154 181
133 154 180
133 154 181
134 154 181
133 154 180
134 154 181
134 154 181
133 154 181
133 154 180
134 154 181
134 154 181
134 154 181
134 154 181
133 154 181
133 154 181
133 153 180
134 154 180
134 155 181
134 154 180
132 153 180
134 154 181
133 154 181
133 153 179
133 154 181
134 154 181
133 154 181
134 154 180
134 154 181
133 153 180
134 154 181
134 154 181
134 154 181
134 154 181
133 154 181
134 154 181
133 154 181
134 154 181
133 154 181
133 153 180
133 153 180
133 153 180
133 153 180
134 154 181
135 155 181
134 154 181
133 153 180
133 154 181
133 154 180
133 154 181
133 154 181
134 154 181
132 153 179
133 154 181
134 154 181
134 154 181
132 153 181
134 154 181
134 154 181
133 153 180
133 154 181
134 154 181
134 154 181
134 154 181
134 154 180
134 154 180
134 155 181
133 154 180
133 154 181
134 154 181
134 154 180
133 154 181
134 154 181
134 154 181
134 154 181
133 153 180
133 154 181
135 155 181
135 155 181
134 154 181
134 155 181
134 154 181
134 154 180
132 153 180
134 154 180
135 155 181
133 153 180
132 153 179
132 153 180
134 154 181
133 154 181
133 153 180
133 154 181
134 154 181
133 154 181
132 153 180
133 154 181
133 154 181
133 154 180
133 154 181
133 153 180
134 154 181
133 154 181
133 153 180
134 154 181
133 154 180
133 154 181
134 154 181
133 154 180
133 153 180
134 154 181
134 154 181
132 153 180
134 154 181
133 154 180
133 154 181
133 153 180
134 154 181
134 154 181
134 154 181
133 153 180
133 153 180
134 154 181
134 154 181
133 154 180
133 154 180
134 154 181
133 154 180
134 154 180
134 154 181
133 154 181
134 155 181
133 154 181
135 155 181
134 154 180
134 154 181
134 154 181
133 154 181
133 154 180
133 153 180
133 153 180
134 154 180
134 154 181
134 154 181
134 154 181
133 153 179
135 154 180
135 155 181
133 153 180
134 154 181
133 154 180
134 154 181
134 154 181
134 154 181
134 154 181
135 155 181
134 154 181
133 154 180
134 154 180
133 154 181
133 154 180
134 154 181
133 154 181
134 154 181
134 154 181
134 154 180
134 154 181
133 153 180
132 153 180
134 154 180
133 154 181
133 154 181
133 154 180
133 154 181
134 154 181
133 153 180
133 154 181
133 154 181
134 154 181
133 153 180
133 154 181
135 154 180
134 154 181
134 154 181
133 154 181
133 154 180
135 155 181
134 154 181
134 154 180
133 154 181
133 154 181
134 154 181
134 154 181
133 153 180
134 154 181
134 155 181
134 154 181
134 154 181
133 153 180
133 153 180
133 154 181
133 154 181
134 154 181
133 154 181
134 154 181
133 154 181
134 154 181
132 153 180
133 154 181
134 154 181
134 154 181
134 154 181
134 154 181
134 154 181
134 154 181
134 154 181
133 154 181
134 154 181
134 155 181
133 154 180
133 154 181
134 154 181
134 154 181
133 154 181
134 155 181
133 154 180
134 154 181
134 154 181
133 154 181
133 154 181
134 154 181
134 155 181
133 154 181
134 154 181
133 154 181
133 154 180
134 154 181
134 154 181
134 154 181
135 155 181
134 154 181
134 155 181
133 154 181
134 154 181
134 154 181
134 154 181
133 154 181
135 155 181
134 154 181
133 154 181
134 154 181
134 155 181
133 154 181
134 154 181
134 154 181
134 154 181
133 154 180
134 155 181
134 154 181
134 154 181
134 154 180
134 154 181
134 154 181
133 154 181
133 154 181
133 154 181
133 154 181
133 154 181
133 154 181
133 154 181
134 154 181
133 154 181
133 154 181
134 154 181
134 154 181
134 154 181
133 154 181
134 154 180
134 154 181
134 155 181
134 154 181
134 154 181
134 154 181
133 154 181
134 154 181
134 154 181
134 154 181
133 153 180
134 154 181
134 154 181
134 154 181
134 154 181
133 154 180
134 154 181
134 154 181
134 154 181
133 154 181
134 154 181
134 154 181
134 154 181
133 154 181
134 154 181
134 154 181
133 154 181
133 154 181
133 154 181
133 154 181
134 154 181
134 154 181
134 154 181
134 154 181
134 154 181
134 154 181
133 154 181
134 154 181
134 154 181
134 154 181
134 154 181
133 154 181
134 154 181
133 154 181
134 154 181
134 154 181
135 155 181
133 154 181
134 154 181
133 154 181
133 154 181
133 154 181
134 154 181
134 154 181
134 154 181
133 154 181
133 154 181
134 154 181
134 154 181
134 154 181
134 154 180
133 154 181
134 154 181
135 155 181
133 154 181
134 154 181
135 155 181
133 154 180
134 154 181
133 154 181
134 154 181
134 154 181
134 154 181
135 155 181
133 154 181
134 154 181
133 154 181
134 154 181
133 154 181
133 154 181
134 154 181
133 154 180
133 153 180
134 154 181
134 154 181
134 154 181
134 154 181
134 154 181
133 154 181
134 154 181
134 154 180
134 155 181
134 154 181
133 154 181
134 154 181
134 154 181
133 154 181
133 153 180
133 154 181
133 154 180
135 155 181
133 154 181
135 154 180
134 154 181
133 154 180
133 154 181
134 154 181
134 154 180
133 154 181
134 154 181
134 154 180
133 154 181
134 154 181
134 154 181
133 154 181
133 154 180
133 154 181
133 154 180
134 154 181
133 153 180
134 154 181
134 154 181
134 154 181
134 154 181
134 154 181
134 154 180
135 155 181
133 154 181
132 153 180
133 154 181
133 153 180
132 153 179
134 154 181
134 154 181
133 154 181
132 153 180
134 154 181
133 154 181
133 154 180
133 153 180
134 154 181
133 153 180
134 154 181
134 154 181
134 154 181
134 154 180
134 154 181
133 154 181
135 155 181
133 154 181
134 154 181
134 154 181
134 154 181
133 153 180
134 154 181
133 153 180
134 154 180
134 154 181
133 154 181
132 153 180
133 153 180
134 154 181
134 154 181
132 153 179
133 154 180
133 154 180
135 155 181
132 152 180
133 154 180
133 153 180
133 154 181
134 155 181
133 154 181
133 153 180
133 153 179
133 154 180
133 154 181
133 154 180
133 154 181
134 154 181
134 154 180
134 154 181
133 153 179
134 154 180
133 153 180
133 154 180
132 153 180
134 154 180
134 154 181
132 153 180
133 154 180
133 153 180
134 154 180
133 154 180
133 154 180
133 154 181
135 155 181
134 154 181
134 154 181
134 154 180
135 155 181
134 154 181
133 153 180
134 154 181
134 154 181
134 154 181
133 154 181
134 154 180
134 154 180
134 154 181
133 154 180
134 154 181
133 154 181
134 154 181
132 153 180
134 154 181
133 154 181
134 154 180
135 155 181
135 154 180
134 154 181
133 154 181
133 154 180
134 154 181
133 153 179
133 154 181
132 152 179
134 154 181
134 154 181
134 154 181
134 154 180
134 154 181
133 154 181
135 155 181
133 153 180
134 154 181
133 153 180
133 154 181
133 154 181
133 154 181
134 154 181
133 153 180
134 154 181
134 154 180
133 154 181
132 153 180
132 153 179
133 154 181
134 154 181
134 154 181
134 154 181
134 154 181
133 154 181
133 154 181
134 154 181
133 154 180
133 154 180
133 154 180
133 154 180
133 154 181
134 154 181
133 154 181
133 154 181
134 154 181
133 153 180
134 154 181
133 154 181
134 154 181
134 154 181
133 154 181
134 154 181
134 154 181
132 153 180
134 154 180
134 154 180
134 154 181
133 154 180
133 154 181
133 153 179
134 154 180
133 153 180
134 154 181
135 154 180
133 154 181
133 153 179
133 154 181
134 154 181
132 153 180
134 154 181
133 154 181
134 154 181
133 154 181
132 153 180
133 153 180
134 154 180
133 154 180
133 154 180
134 154 180
134 154 181
134 154 180
133 153 179
134 154 181
133 154 181
134 154 180
133 153 180
134 154 181
132 153 180
134 154 181
134 154 181
133 154 181
133 154 181
134 154 181
133 154 180
132 153 180
134 154 181
134 154 181
133 153 179
133 154 181
135 155 181
133 153 179
135 154 180
133 153 180
133 154 181
134 154 181
134 154 181
134 154 181
134 154 181
134 154 181
134 154 181
134 155 181
133 154 181
134 154 181
134 154 181
134 154 181
134 154 181
133 154 181
133 154 181
134 154 181
133 154 181
133 154 181
133 154 181
134 154 181
133 154 181
133 154 181
134 154 181
134 154 181
134 154 181
134 154 181
134 154 181
134 154 181
134 154 181
134 154 181
134 154 181
134 154 181
133 154 181
134 154 181
134 154 181
134 154 181
134 154 181
133 154 181
134 154 181
135 155 181
134 154 181
134 154 181
134 154 181
134 154 181
134 154 181
134 154 181
134 154 181
133 154 181
134 154 181
134 154 181
134 154 181
134 154 181
134 154 181
135 155 181
134 154 181
134 154 181
134 154 181
133 154 181
132 153 181
134 154 181
134 154 180
134 154 181
135 155 181
133 153 180
134 154 181
134 154 181
133 154 181
134 154 181
134 154 181
134 154 181
133 154 181
133 154 181
134 154 181
133 154 181
133 154 181
134 154 181
134 154 181
134 154 181
135 155 181
134 154 181
133 153 180
133 154 181
133 154 181
134 154 181
133 154 181
134 154 181
134 154 181
135 155 181
134 154 181
133 153 180
133 154 180
134 154 181
133 154 181
134 154 181
133 154 181
133 154 181
134 154 181
134 154 181
133 154 181
134 154 181
135 155 181
134 154 181
133 154 181
134 154 181
134 154 181
133 154 181
133 154 181
134 154 181
134 154 181
135 155 181
133 154 181
135 155 181
134 154 181
135 155 181
134 154 181
135 155 181
133 154 181
134 154 181
134 154 181
134 154 181
134 154 181
134 154 181
134 154 181
134 154 181
134 154 181
133 154 181
135 155 181
134 154 181
134 154 180
133 154 181
132 153 180
134 154 181
134 154 181
133 154 181
133 154 181
134 154 181
135 155 181
133 154 181
133 154 181
133 154 181
134 154 181
134 154 181
135 155 181
134 154 181
135 155 181
135 155 181
134 154 181
134 154 181
133 153 180
133 153 180
133 154 181
134 154 181
135 155 181
134 154 181
134 154 181
134 154 181
133 154 181
134 155 181
132 153 180
133 153 180
133 154 181
133 154 181
134 155 181
133 154 181
133 153 180
134 154 181
133 154 181
133 154 181
134 154 181
134 154 180
133 154 181
134 154 181
133 153 180
133 154 181
134 154 181
134 154 181
133 154 180
133 154 180
134 154 181
133 153 180
133 154 181
135 155 181
133 154 180
134 154 181
133 154 181
133 154 181
134 154 181
133 154 181
134 154 181
134 154 181
134 154 181
134 154 180
134 154 181
134 154 181
133 154 181
135 155 181
134 154 180
134 154 181
133 153 180
133 154 181
132 153 180
134 154 181
133 154 181
133 154 180
134 154 181
134 154 181
134 154 181
133 154 180
134 154 180
134 154 181
133 154 181
133 154 181
133 153 180
133 154 181
134 154 181
133 154 180
133 153 180
133 154 181
134 154 181
134 154 181
133 153 180
134 154 181
133 154 181
134 154 181
133 154 181
133 154 181
134 154 181
134 154 181
133 154 181
134 154 181
133 153 180
134 154 181
133 153 180
132 153 180
134 154 181
134 154 181
132 153 180
134 154 181
134 154 180
134 154 181
133 154 181
134 154 181
134 154 181
133 154 181
133 154 181
134 154 181
134 154 181
133 154 180
133 153 180
133 154 181
134 154 181
134 154 181
134 154 180
134 154 180
134 154 181
133 154 181
133 154 181
133 153 180
133 153 180
134 154 181
133 154 180
133 153 180
132 153 180
133 154 180
134 155 181
134 154 181
133 154 181
134 154 181
133 153 180
133 153 178
133 154 180
133 154 180
133 154 181
134 154 181
133 154 181
133 153 180
133 154 181
134 154 180
134 154 181
133 154 181
133 154 180
133 154 180
132 153 180
133 154 180
133 154 181
133 153 179
133 154 181
134 154 180
134 154 181
134 154 181
133 154 180
134 154 181
133 153 179
133 153 180
134 154 180
134 154 181
134 154 181
132 152 179
133 154 180
134 154 181
133 153 180
133 154 181
132 153 180
132 153 180
133 154 181
133 154 181
134 154 181
132 153 180
134 154 180
134 154 181
135 155 181
133 154 181
133 154 181
133 154 180
134 154 181
133 153 180
134 154 181
133 154 181
133 154 181
133 154 181
134 154 181
133 154 181
134 154 181
133 153 179
133 154 181
133 154 181
134 154 180
132 153 180
133 154 180
133 154 180
133 153 179
134 154 181
133 154 181
134 155 181
135 155 181
133 153 180
134 154 181
134 154 180
134 154 181
133 154 181
134 154 181
133 153 180
134 154 181
134 154 181
134 154 180
133 153 180
134 154 181
133 154 181
132 153 180
133 153 179
133 153 180
134 154 181
134 154 180
133 153 180
133 153 180
134 154 180
133 153 180
133 154 180
133 153 180
134 154 181
133 153 180
134 154 181
133 154 181
134 154 180
133 154 181
133 153 180
134 153 180
132 153 181
133 154 181
133 154 181
134 154 181
134 155 181
134 154 181
134 155 181
134 154 181
133 154 180
134 154 180
133 154 181
134 154 180
132 153 180
134 154 181
134 154 181
133 153 179
132 153 181
134 154 181
134 154 181
134 154 181
132 152 179
133 154 181
134 154 181
134 154 181
133 153 180
134 154 180
133 154 181
132 153 179
134 154 181
134 154 181
133 154 181
133 154 181
133 153 180
133 153 180
134 154 180
135 155 181
133 154 181
133 154 181
134 154 181
133 154 181
133 154 181
133 154 181
133 153 180
133 154 181
134 154 181
134 154 181
134 154 181
134 154 181
134 154 181
133 154 181
134 154 181
133 154 181
134 154 180
134 154 181
134 154 181
134 154 181
134 154 181
134 154 180
134 154 181
134 154 181
133 154 181
134 154 181
134 154 181
135 155 181
134 154 181
134 154 181
134 154 181
134 154 181
133 154 180
133 154 181
134 154 181
134 154 181
135 155 181
134 154 181
135 155 181
133 154 181
133 154 181
134 154 181
134 154 181
133 154 181
134 154 181
134 154 181
135 155 181
134 154 181
134 154 181
134 154 181
134 154 181
134 154 181
134 154 181
133 154 181
134 154 181
134 154 181
134 154 181
134 155 181
134 154 181
134 154 181
134 154 181
135 155 181
134 154 181
134 154 181
133 154 181
134 154 181
134 154 181
134 154 181
134 154 181
133 153 180
134 154 181
134 154 181
134 154 181
133 154 181
134 154 181
134 154 181
134 154 181
133 154 181
134 154 180
134 154 181
134 154 181
134 154 181
133 154 180
135 155 181
135 155 181
133 154 181
134 154 181
135 155 181
134 154 181
133 154 181
134 154 180
134 154 180
134 154 181
135 155 181
134 154 181
133 154 180
134 154 180
134 154 180
134 154 181
134 154 181
133 154 181
133 154 181
134 154 181
134 154 181
133 154 181
134 154 181
133 154 181
134 154 181
134 154 181
134 154 181
134 154 181
134 154 181
134 154 181
134 154 181
134 154 180
134 155 181
134 155 181
134 154 181
134 154 181
134 154 181
135 155 181
134 154 181
134 155 181
134 154 180
134 154 181
134 154 181
134 154 181
133 154 181
133 154 181
134 154 180
134 154 181
133 154 181
134 154 181
133 154 181
133 154 181
134 154 181
134 154 181
134 154 181
134 154 181
134 154 181
133 153 180
134 154 181
134 154 181
134 154 181
134 154 181
133 154 181
134 154 181
133 154 181
134 155 181
134 154 181
134 154 181
134 154 181
133 154 181
134 154 181
133 154 181
134 154 181
134 154 181
133 154 181
134 154 181
133 154 180
134 154 180
133 154 181
134 154 181
134 154 181
134 154 181
134 154 180
134 154 181
134 154 181
134 155 181
134 154 180
134 154 181
134 154 181
135 155 181
132 153 180
135 155 181
133 153 180
134 154 181
134 154 181
134 154 181
134 154 181
133 154 181
134 154 181
133 154 180
133 154 181
134 154 181
132 153 180
134 154 180
134 154 181
134 154 180
134 154 181
135 155 181
133 154 181
133 153 180
134 154 180
133 154 181
134 154 181
133 153 180
135 155 181
134 154 180
134 154 181
134 154 181
133 154 181
134 154 181
133 154 181
133 153 180
134 154 181
134 154 181
134 154 181
133 154 181
134 154 180
134 154 181
133 154 181
134 154 181
133 154 180
133 154 181
133 154 181
134 154 181
132 153 180
134 154 181
134 154 181
134 154 181
132 153 180
133 154 180
134 154 180
133 154 180
133 154 181
133 153 180
133 154 180
134 154 181
134 154 181
132 153 180
133 154 180
133 153 180
133 154 181
134 154 181
134 154 181
134 154 180
133 154 180
133 154 180
134 154 181
134 154 181
133 154 181
133 154 181
134 154 181
134 154 181
132 153 179
134 154 180
133 154 181
133 154 180
133 153 180
134 154 180
135 155 181
133 153 180
134 154 181
134 154 180
133 154 180
133 153 180
133 154 181
133 154 181
134 155 181
134 154 181
134 154 181
133 154 180
133 154 181
134 154 181
133 154 181
134 154 180
134 154 181
133 154 181
133 153 180
134 154 181
134 154 180
133 154 181
134 154 181
134 154 180
133 154 181
134 154 181
133 154 181
133 154 180
134 154 181
134 154 181
133 154 181
133 154 180
134 154 181
133 154 181
133 154 181
134 154 181
133 153 180
133 154 181
134 154 180
134 154 181
133 154 181
133 153 180
135 155 181
133 154 181
133 154 181
133 154 181
134 154 181
133 154 181
135 155 181
134 154 181
133 154 180
133 153 180
133 154 181
134 154 181
134 154 181
132 152 179
133 154 180
134 154 181
133 154 181
134 154 180
133 154 180
133 154 180
133 153 180
135 155 181
134 154 180
132 153 180
134 154 181
133 154 181
134 154 181
134 154 181
134 154 181
134 154 181
133 153 180
134 154 181
133 153 180
134 154 180
134 154 181
133 154 181
133 153 180
133 154 181
134 154 180
132 153 180
133 154 180
133 154 180
133 154 180
133 154 181
134 154 181
133 154 181
133 154 181
133 153 179
134 154 181
134 154 180
134 154 181
134 154 181
134 154 181
134 154 180
134 154 180
133 154 181
135 155 181
133 154 180
133 153 180
133 153 179
133 153 180
133 153 180
133 154 181
133 154 180
134 154 181
134 154 181
133 154 180
134 154 181
134 154 181
134 154 181
134 154 181
133 154 181
132 153 179
133 154 181
133 154 180
134 154 181
133 154 181
134 154 181
134 154 181
134 154 181
133 154 181
134 154 181
134 154 181
134 155 181
133 153 180
132 153 180
134 154 181
133 154 181
134 154 181
132 152 179
135 155 181
134 154 181
134 154 181
134 155 181
133 154 181
133 153 180
135 155 181
133 154 181
133 154 181
133 153 180
133 154 181
133 154 181
133 154 180
133 153 180
134 154 181
133 153 180
134 154 181
134 154 181
134 154 181
133 154 181
133 154 181
134 154 181
134 155 181
134 154 181
134 154 181
133 154 181
134 154 181
134 155 181
134 154 181
133 154 181
134 154 181
134 154 181
134 154 181
133 154 181
134 154 181
134 154 181
134 155 181
134 154 181
133 154 181
134 154 181
134 154 181
133 154 181
134 154 181
134 154 181
134 154 181
134 154 181
134 154 181
133 154 181
134 154 181
133 154 181
134 154 181
134 154 181
135 155 181
134 154 181
133 154 181
134 154 181
133 154 180
133 154 181
134 154 181
133 154 181
134 154 181
134 154 181
134 154 181
134 154 181
133 154 181
135 155 181
134 154 181
134 154 181
134 154 181
134 154 181
134 154 181
134 154 181
134 154 181
133 154 181
133 154 181
133 154 181
134 154 181
134 154 181
134 154 181
134 154 181
134 154 181
134 154 181
133 154 181
134 154 181
134 154 181
132 153 180
134 154 181
133 153 180
134 154 181
134 154 181
134 154 181
134 155 181
134 154 181
133 154 181
134 154 181
133 154 181
134 154 181
134 154 181
133 154 181
134 154 181
134 154 181
133 154 181
134 154 181
133 154 180
133 154 181
134 154 181
133 154 180
133 154 181
132 153 181
134 154 181
133 153 180
133 154 181
134 154 181
133 154 181
134 154 181
134 154 181
135 155 181
134 154 181
134 154 181
133 154 181
134 154 181
133 154 181
134 154 181
134 154 181
133 154 181
134 154 181
134 154 181
134 154 181
134 154 181
134 154 181
134 154 181
134 154 181
134 154 181
134 154 181
132 153 180
133 154 181
134 154 181
133 154 181
133 154 181
135 155 181
134 154 181
134 154 181
134 154 181
134 154 181
134 154 181
133 154 181
134 154 181
135 155 181
134 154 180
134 154 181
134 154 181
135 155 181
134 154 181
134 154 181
134 154 181
133 154 180
133 154 181
134 154 181
133 154 180
133 154 180
133 154 181
134 154 181
134 154 181
133 153 180
134 154 180
133 154 181
133 154 181
134 154 181
134 154 181
133 154 181
134 154 181
133 154 181
134 154 181
134 154 181
134 154 181
134 154 181
134 154 181
133 154 180
134 154 181
134 154 181
134 154 181
134 154 181
134 154 181
133 154 181
133 154 180
134 154 181
134 154 181
134 154 181
133 154 181
134 154 181
133 153 180
134 154 181
133 154 181
133 153 180
134 154 181
134 154 181
134 154 181
133 154 181
133 154 181
134 154 181
133 154 180
133 154 181
134 154 181
134 154 181
134 154 180
133 154 181
134 154 181
133 154 181
133 154 181
133 154 181
134 154 181
134 154 181
134 154 181
133 154 180
133 154 181
133 154 181
134 154 180
133 154 181
134 154 181
134 154 181
133 154 180
132 153 180
134 154 181
134 154 181
134 154 181
133 154 181
133 154 181
134 154 181
134 154 181
134 154 181
134 154 180
133 154 181
133 154 180
134 155 181
133 154 181
134 154 181
133 154 181
132 153 180
134 154 181
134 154 181
134 154 181
133 154 181
133 153 180
133 153 180
133 153 180
133 153 180
134 154 181
133 153 180
133 154 180
134 154 181
134 154 181
133 154 181
134 154 180
133 153 180
133 154 181
134 154 181
134 154 180
134 154 181
134 154 181
133 153 180
133 154 181
133 154 181
134 154 180
134 154 180
133 153 180
134 154 180
134 154 181
133 153 180
134 154 181
133 154 181
133 153 180
134 154 181
134 154 181
133 153 180
132 153 180
134 154 181
134 154 181
133 153 180
133 153 180
134 154 181
134 154 181
134 154 181
134 154 181
134 154 181
133 154 180
133 154 181
134 154 181
134 154 180
134 154 181
133 154 180
134 154 180
134 154 181
133 154 181
134 154 180
134 154 181
133 153 180
134 154 181
133 154 181
134 154 181
135 154 180
134 154 181
133 154 181
133 154 181
134 154 181
133 154 181
134 155 181
134 154 181
133 154 181
134 154 180
133 154 181
133 153 179
133 153 180
133 153 180
134 154 181
134 154 181
134 154 180
133 154 180
133 153 180
134 154 181
134 154 181
133 154 181
135 155 181
135 154 180
134 154 181
133 154 180
133 154 181
133 153 180
134 154 181
133 154 181
134 154 181
133 154 181
134 154 181
134 154 181
133 154 181
134 154 181
134 154 181
134 154 181
134 154 181
134 154 180
133 153 180
133 153 179
133 153 180
133 154 180
134 154 180
133 154 181
133 153 180
134 154 181
134 154 181
134 154 181
134 154 181
134 154 181
134 154 181
133 154 181
132 153 180
133 154 180
134 154 181
134 154 181
133 154 180
133 153 180
134 154 181
133 154 181
134 154 181
133 154 180
133 154 181
134 154 181
135 155 181
133 154 181
133 153 179
134 154 181
134 154 180
134 154 181
134 154 181
133 154 181
133 153 180
132 153 179
133 153 179
134 154 181
134 154 181
134 154 181
133 153 179
133 154 180
133 154 181
133 153 180
134 154 181
134 154 181
133 154 180
132 153 180
134 154 180
134 154 181
134 154 181
134 154 181
134 154 181
133 153 180
132 153 181
135 155 181
134 154 181
134 154 181
133 153 180
134 154 181
133 153 180
133 154 180
134 155 181
134 154 181
133 154 181
133 154 181
133 154 181
134 154 181
133 154 181
134 154 180
134 154 180
134 154 180
133 154 181
134 154 181
133 154 181
134 154 181
134 154 181
134 154 181
133 154 181
133 154 181
134 154 181
134 154 181
134 154 181
134 154 181
133 154 181
134 154 181
134 154 181
135 155 181
134 154 181
133 154 181
134 154 181
134 154 181
133 154 181
134 154 181
133 153 180
134 154 181
133 154 181
133 154 181
134 154 181
134 154 181
134 154 181
133 154 181
133 154 181
134 154 181
134 154 181
134 154 181
134 154 181
134 154 181
135 155 181
133 154 181
133 154 181
134 154 181
133 154 181
134 154 181
134 154 181
134 154 181
134 154 181
134 155 181
134 154 181
134 154 181
133 154 181
134 154 181
134 154 181
133 154 181
134 154 181
134 154 181
134 154 181
134 154 181
133 154 181
135 155 181
133 154 181
134 154 181
134 154 181
133 154 181
134 154 181
133 154 181
134 154 181
134 155 181
134 154 181
134 154 181
134 154 181
134 154 181
134 154 181
133 154 181
134 154 181
134 154 181
133 154 181
133 154 181
133 154 181
134 154 181
134 154 181
133 154 181
134 154 181
133 154 181
134 154 181
133 154 181
134 154 181
133 154 181
134 154 181
134 154 181
134 154 181
133 154 180
134 154 181
134 154 181
134 154 181
133 154 181
134 154 180
133 154 181
135 155 181
133 154 181
133 154 181
135 155 181
134 154 181
134 154 181
134 154 181
133 154 181
132 153 181
132 153 180
134 154 181
134 154 181
134 154 181
133 154 181
134 154 181
134 154 181
134 154 181
133 154 181
133 154 181
134 154 181
134 154 181
134 154 181
134 154 181
134 154 181
135 155 181
134 154 181
135 155 181
134 154 181
133 154 181
134 154 181
134 154 181
132 153 180
133 154 181
134 154 181
133 154 181
134 154 181
133 154 181
134 154 181
134 154 180
135 155 181
134 154 181
134 154 181
133 154 180
134 154 181
133 154 181
135 155 181
133 154 181
134 155 181
134 154 180
134 154 181
134 154 181
134 154 181
134 154 181
135 155 181
132 153 180
134 154 181
134 154 181
132 153 180
133 154 181
134 154 181
133 154 181
135 155 181
134 154 181
134 154 180
134 154 181
134 154 181
133 154 181
134 154 181
133 154 181
133 154 181
134 154 181
133 153 180
133 154 181
133 154 181
133 154 181
133 153 180
133 154 181
135 155 181
134 154 181
134 154 181
134 154 181
134 155 181
133 153 180
133 154 181
134 154 181
134 154 181
133 154 181
134 154 181
134 154 181
134 154 181
134 154 181
134 154 181
134 154 181
134 154 181
134 155 181
133 154 181
134 154 181
134 154 181
134 154 181
133 154 181
134 154 181
133 153 180
133 154 181
133 154 181
134 154 181
134 154 180
134 154 180
133 154 180
133 154 181
132 153 180
134 154 181
134 154 181
135 155 181
134 154 181
133 154 181
135 155 181
133 154 181
133 154 181
133 153 180
134 154 181
133 154 180
132 153 180
133 154 181
133 153 180
134 154 181
134 154 181
133 153 180
133 153 180
134 154 181
135 155 181
133 154 181
133 154 181
134 154 181
133 154 181
134 154 181
133 153 179
133 154 181
135 155 181
132 153 180
133 154 181
133 153 180
133 154 180
134 154 180
133 153 180
134 154 181
134 155 181
134 154 181
133 153 180
134 154 181
134 154 181
133 154 180
134 154 181
134 154 181
134 154 181
133 154 181
133 154 181
133 153 180
134 154 181
133 153 180
133 154 181
134 154 181
133 154 181
132 153 180
133 154 181
134 154 181
134 154 181
133 154 181
133 154 181
132 153 180
133 153 180
134 154 181
134 154 181
135 155 181
133 154 181
133 153 180
134 154 181
134 154 181
133 154 181
133 153 180
133 154 181
133 154 180
134 154 181
134 154 181
134 154 181
133 153 180
133 153 180
134 154 181
134 154 181
134 154 181
133 154 181
134 154 181
133 154 181
134 154 180
134 154 181
133 154 181
133 154 180
135 155 181
133 153 180
134 154 180
134 154 181
133 154 181
133 154 181
133 153 180
134 154 181
133 154 181
133 154 181
134 154 181
132 153 180
134 154 181
133 154 181
133 154 181
133 154 181
133 153 180
134 154 181
134 154 180
133 154 181
133 154 181
134 154 181
133 154 181
134 154 181
134 154 181
133 154 180
134 154 181
134 154 181
134 154 181
133 154 181
133 154 180
133 154 181
134 154 180
134 154 180
133 154 181
132 153 179
134 154 180
134 154 181
133 154 181
133 154 181
134 154 181
133 153 180
134 154 181
133 154 181
135 155 181
134 154 180
132 152 179
132 153 180
134 154 181
133 154 181
133 154 181
132 153 179
133 154 181
134 154 181
134 154 181
134 154 181
134 154 180
135 155 181
134 154 181
134 154 181
132 153 180
134 154 180
133 154 180
134 154 181
133 153 180
134 154 181
133 153 180
134 154 181
134 154 181
133 154 181
134 154 181
134 154 181
134 154 181
132 153 180
134 154 181
133 154 181
133 154 181
133 154 181
134 154 181
133 154 181
133 154 180
133 154 181
134 154 181
133 154 181
134 154 181
133 153 180
134 154 181
132 153 180
133 153 180
134 154 180
133 154 181
134 154 181
133 153 179
133 154 180
134 154 181
133 154 181
132 153 179
134 154 181
134 155 181
134 154 181
134 154 181
134 154 181
133 153 180
133 154 181
133 153 179
133 154 180
133 154 181
135 155 181
134 154 181
134 154 180
133 154 180
134 154 181
134 154 181
134 154 181
133 154 181
134 154 181
134 154 181
134 154 181
133 154 181
134 154 181
134 154 181
134 154 181
135 155 181
134 154 180
134 154 181
133 154 180
133 154 181
134 154 181
134 154 181
134 154 181
135 155 181
133 154 181
133 154 180
134 154 181
133 154 181
133 154 181
134 154 181
134 154 181
133 154 181
133 154 181
133 154 181
134 154 181
134 154 181
134 154 181
134 154 181
134 154 181
134 154 181
133 154 181
134 154 181
134 154 181
133 154 181
133 154 181
134 154 181
134 154 181
134 154 181
133 154 181
134 154 181
134 154 181
134 154 181
134 154 181
134 154 181
133 154 181
133 154 180
134 154 181
135 155 181
133 154 181
134 154 181
135 155 181
134 154 181
133 154 181
133 154 181
134 154 181
133 154 181
133 154 181
134 154 181
133 154 180
134 154 181
133 154 181
133 154 181
133 154 181
134 154 181
134 154 181
133 154 181
134 154 181
135 155 181
134 154 181
135 155 181
135 155 181
133 154 181
134 154 181
134 154 181
134 154 181
134 154 181
133 154 181
133 154 181
133 154 181
133 154 181
133 154 181
135 155 181
134 154 181
134 154 181
133 154 181
133 154 180
133 154 181
133 154 180
134 154 181
133 154 180
133 154 181
135 155 181
134 154 181
134 154 181
134 154 181
132 154 181
134 154 181
133 154 181
133 154 181
134 154 181
133 154 180
134 154 181
134 154 181
133 154 181
134 154 181
134 154 181
133 154 181
134 154 181
133 154 181
133 154 181
134 154 181
134 154 181
134 154 181
133 154 181
134 154 181
133 154 181
134 154 181
133 154 181
134 154 181
134 154 181
133 154 181
134 154 181
134 154 180
134 154 181
133 154 181
134 154 181
133 154 181
134 154 181
134 154 181
133 154 181
134 154 181
133 154 181
134 154 181
134 154 181
134 154 181
134 154 181
134 154 180
133 154 181
133 154 181
133 154 181
134 154 181
134 154 181
134 154 180
135 155 181
134 154 180
133 154 181
134 154 181
134 154 181
134 154 181
133 154 181
134 154 180
134 154 181
133 154 181
133 154 181
133 154 181
134 154 181
134 154 180
133 154 181
134 154 181
134 154 181
133 154 181
134 154 181
134 154 181
134 154 181
134 154 181
135 155 181
134 154 181
134 154 181
133 154 181
134 154 181
133 154 180
134 154 181
135 155 181
134 154 181
133 154 180
134 154 181
134 154 181
134 154 181
133 154 181
134 154 181
133 154 180
134 154 181
134 154 181
135 155 181
133 154 181
134 154 181
133 154 181
134 154 181
134 154 181
135 155 181
133 154 181
134 154 181
133 154 180
134 154 181
133 154 180
135 155 181
134 154 180
133 154 181
134 154 181
135 155 181
133 154 180
134 154 181
133 154 181
134 154 180
133 154 181
134 154 181
134 154 180
134 154 181
133 153 180
133 153 180
134 154 181
133 153 180
134 154 181
135 155 181
134 155 181
134 154 181
134 154 181
134 154 181
133 154 180
135 154 180
134 154 181
133 154 181
133 154 180
133 154 180
134 154 181
133 153 180
132 153 180
134 154 180
134 154 180
134 154 181
134 154 181
133 154 180
134 154 181
133 154 181
134 154 181
134 154 180
134 154 181
134 154 181
133 153 180
133 153 180
133 153 180
135 155 181
133 154 180
133 153 180
134 154 181
133 154 181
134 154 181
133 154 181
133 153 180
134 154 181
133 154 181
134 154 180
134 154 181
133 152 179
134 154 181
134 154 181
134 154 180
134 154 181
132 153 180
134 154 181
134 154 181
134 154 181
133 154 181
133 154 181
134 154 181
134 154 181
135 155 181
134 154 181
134 154 181
134 154 181
133 154 180
133 154 181
134 154 181
133 154 180
133 154 181
134 154 181
134 154 181
133 154 181
133 154 180
133 153 180
134 154 181
133 154 180
133 153 180
133 153 180
133 154 181
133 154 181
133 154 181
132 153 179
133 154 181
134 154 180
133 154 180
134 154 181
134 154 181
133 154 181
133 154 181
133 154 181
134 154 181
133 153 180
134 154 181
135 154 180
133 153 179
132 153 180
134 154 181
134 154 181
134 154 180
133 153 180
133 154 181
133 153 180
133 154 180
133 154 181
133 153 180
134 154 181
132 153 181
134 154 180
134 154 181
134 154 180
134 154 180
133 154 181
134 154 181
132 153 180
133 154 181
134 154 181
134 154 181
134 154 181
133 154 180
133 154 181
133 153 179
134 154 180
133 153 180
133 154 180
134 154 181
133 153 180
133 154 180
135 155 181
133 154 181
132 153 180
134 154 181
134 154 181
133 154 181
133 154 181
134 154 181
133 154 180
134 154 181
132 153 181
134 154 180
133 153 180
134 153 179
133 154 181
133 154 181
133 154 181
134 154 181
134 154 181
133 154 181
134 154 181
134 154 181
133 154 180
134 154 181
133 154 181
132 154 181
133 154 181
134 154 181
133 153 180
134 154 181
134 154 181
134 154 181
134 154 181
134 154 180
134 154 181
134 154 181
135 155 181
133 153 179
134 154 181
132 153 181
133 154 181
133 154 181
134 154 181
134 154 180
134 154 180
134 154 180
134 154 181
133 154 181
133 154 181
132 153 181
134 154 181
134 154 180
133 154 181
134 154 181
133 154 181
134 154 181
133 153 180
134 154 180
134 154 181
134 154 181
132 153 180
133 153 180
133 153 180
134 154 181
134 154 181
133 154 181
134 154 181
134 154 181
134 154 181
134 154 181
135 155 181
134 154 181
134 154 181
134 154 181
133 154 181
134 154 181
134 154 181
134 154 181
134 154 181
134 154 181
134 154 181
134 154 181
134 154 181
134 154 181
134 154 181
134 154 181
133 154 180
133 154 181
135 155 181
133 154 181
134 154 181
134 154 181
134 154 181
133 154 181
133 154 181
133 154 181
133 154 180
134 154 181
134 154 181
134 154 181
134 154 181
133 154 181
134 154 181
134 154 180
134 154 181
134 155 181
135 155 181
133 154 181
134 154 181
134 154 181
134 154 181
134 154 181
134 154 181
134 154 181
134 154 181
134 154 180
134 154 181
135 155 181
134 154 181
133 154 181
134 154 181
133 154 181
133 154 181
134 154 181
134 154 181
134 154 181
135 155 181
134 154 181
133 154 181
135 155 181
133 154 181
134 154 181
134 154 181
134 154 181
133 154 181
133 154 181
133 154 181
134 154 181
135 155 181
134 154 181
134 154 181
134 154 181
134 154 181
134 154 181
134 154 181
134 154 181
133 154 181
134 154 181
134 154 181
134 154 181
133 154 181
133 154 181
134 154 181
134 154 180
134 154 181
133 154 181
133 154 181
134 154 181
134 154 181
133 154 181
134 154 181
134 154 181
134 154 181
134 154 181
133 154 181
133 154 181
133 154 181
134 154 181
134 154 181
134 154 181
134 154 181
134 154 181
134 154 181
133 154 181
133 154 181
134 154 181
134 154 181
134 154 181
133 154 181
134 154 181
133 154 181
133 154 181
134 154 180
134 154 181
134 154 181
134 154 181
134 154 181
134 154 181
134 154 181
135 155 181
134 154 181
133 154 181
134 155 181
133 154 181
134 154 181
133 154 181
135 155 181
134 154 180
134 154 181
133 154 181
133 154 181
134 155 181
134 154 181
134 154 181
134 154 181
134 154 181
134 154 181
133 154 181
134 154 181
132 153 180
133 154 181
133 154 181
133 154 181
133 154 181
134 154 181
134 154 181
134 154 181
134 154 181
133 154 181
133 154 181
134 154 181
133 153 180
134 155 181
133 153 180
134 154 181
135 155 181
134 154 181
132 153 180
133 154 181
134 154 181
134 154 181
133 154 180
134 154 180
133 154 181
134 154 181
133 154 181
132 153 180
133 154 180
133 153 179
132 153 180
134 154 180
134 154 181
133 153 180
134 154 181
133 153 180
133 154 181
134 155 181
134 154 181
133 154 181
134 154 181
134 154 181
133 154 181
133 154 180
133 154 181
134 154 181
135 155 181
133 153 180
133 153 180
133 154 181
134 154 180
134 154 181
134 154 181
133 153 180
134 154 181
134 154 181
133 153 180
133 153 180
133 154 181
134 154 181
134 154 180
134 154 181
134 155 181
133 154 180
133 154 180
134 154 181
133 154 181
133 154 180
134 154 181
133 154 181
133 153 180
134 154 181
135 155 181
134 154 181
134 154 181
133 154 181
133 154 181
134 154 181
133 154 181
134 154 180
133 154 180
135 155 181
134 154 181
134 154 181
133 154 181
134 154 181
134 154 181
135 155 181
134 154 181
134 154 181
134 154 181
133 154 180
135 155 181
135 155 181
134 154 181
133 154 181
133 154 181
134 154 180
133 154 181
134 154 181
134 154 181
134 154 181
133 154 181
134 154 181
133 154 181
133 154 181
134 154 181
134 154 181
133 153 180
133 154 181
133 154 180
133 154 181
133 153 180
133 154 181
134 154 181
133 154 181
135 155 181
133 153 180
133 154 181
133 154 181
134 154 181
133 154 181
133 154 181
133 154 180
135 155 181
134 154 181
133 154 180
134 154 181
134 154 181
134 154 181
134 154 181
133 154 181
133 153 180
134 154 180
133 153 180
134 154 181
133 154 181
134 154 181
133 153 180
132 153 181
133 154 181
133 154 181
133 154 181
133 154 181
133 154 180
134 154 181
133 154 181
133 154 180
133 153 180
134 154 181
134 153 179
133 154 181
133 153 180
134 154 181
134 154 181
133 154 181
133 154 181
134 154 181
134 154 181
133 154 180
133 153 180
134 154 181
135 155 181
134 154 180
133 154 181
133 154 181
134 154 180
133 153 180
132 153 180
133 153 180
133 153 180
134 154 180
133 154 181
134 154 181
134 154 181
134 154 181
133 154 181
133 154 180
133 153 180
134 154 181
134 154 181
134 154 181
134 154 181
133 154 180
134 154 180
135 155 181
134 154 181
133 154 180
134 154 181
133 154 180
134 154 181
133 154 181
133 153 179
133 154 181
133 154 181
132 153 180
134 154 181
134 154 181
133 154 181
134 154 180
133 154 181
133 154 181
133 153 180
133 154 180
133 154 181
134 154 180
134 154 181
133 154 181
134 154 180
133 153 179
134 154 181
134 154 181
134 154 181
134 154 181
133 153 180
134 154 181
133 154 181
133 154 181
134 154 179
134 154 181
132 153 180
133 154 181
133 154 181
135 155 181
134 154 180
134 154 181
133 154 180
134 154 181
134 154 181
133 154 180
133 153 180
134 154 181
133 154 181
134 154 181
133 153 179
134 154 181
133 154 181
135 155 181
133 154 181
134 154 181
133 154 181
134 154 180
135 155 181
134 154 180
135 155 181
133 154 180
133 154 181
133 154 181
133 154 181
133 153 180
134 154 181
134 154 179
133 154 181
133 154 181
133 154 181
133 154 181
135 155 181
134 154 181
134 155 181
134 154 181
134 154 181
133 154 181
134 154 181
133 154 181
133 153 180
134 154 181
134 154 181
134 154 181
134 154 181
133 154 181
133 154 181
133 154 181
133 154 181
134 154 181
134 155 181
133 154 181
134 154 181
134 154 181
134 154 181
135 155 181
133 154 181
134 154 181
134 154 181
134 154 181
134 154 181
134 154 181
134 154 181
134 154 181
134 154 181
134 154 181
135 155 181
134 154 181
133 154 181
133 154 181
133 154 181
133 154 181
133 154 181
133 153 180
134 154 181
134 154 181
134 154 181
134 154 181
133 154 181
134 154 181
134 154 181
133 154 181
135 155 181
134 154 181
134 154 181
133 154 181
133 154 181
134 154 181
134 154 181
134 154 181
133 154 180
134 154 181
134 154 181
135 155 181
133 154 181
134 154 181
133 154 181
134 154 181
134 154 181
134 154 181
134 154 181
132 153 181
133 154 181
134 154 181
134 154 181
134 154 181
134 154 181
134 154 180
133 154 181
133 154 181
134 154 181
133 154 180
134 154 181
134 154 181
134 154 181
134 154 181
133 154 181
134 154 181
135 155 181
134 154 180
134 154 181
134 154 181
134 154 181
133 154 181
133 154 180
134 154 181
134 155 181
134 154 181
134 154 181
134 155 181
133 154 181
134 154 181
134 154 181
133 154 181
134 154 181
133 154 181
134 154 180
134 154 180
134 154 181
133 154 181
134 154 181
133 154 181
133 154 181
134 154 181
134 154 181
134 154 181
134 154 181
134 154 181
134 154 181
134 154 181
134 154 181
134 154 181
135 155 181
134 154 181
134 154 181
134 154 181
135 155 181
133 154 181
133 154 181
134 154 181
134 154 181
133 154 181
133 154 181
133 154 180
134 154 180
133 154 181
134 154 181
134 154 181
134 154 181
133 154 181
134 154 181
134 154 181
134 154 181
134 154 181
134 154 181
132 153 180
133 154 181
133 154 181
134 154 181
134 154 181
134 154 181
134 154 180
133 154 181
133 154 181
133 154 181
134 154 180
134 154 181
134 154 181
134 154 181
134 154 180
133 154 181
132 153 180
134 154 181
134 154 181
134 154 181
134 154 181
134 154 181
133 154 181
133 154 181
134 154 181
134 155 181
134 155 181
134 154 181
134 154 181
133 154 180
134 154 181
135 155 181
133 154 181
133 154 180
134 154 181
133 154 181
134 155 181
134 154 181
133 154 181
134 155 181
134 154 181
133 153 180
134 155 181
134 154 181
133 154 181
134 154 181
133 154 180
134 154 181
133 154 180
134 154 181
134 154 181
134 154 181
133 153 180
134 154 181
134 154 181
134 154 181
133 154 181
134 154 181
133 154 181
134 154 181
134 154 181
135 154 180
133 154 180
134 154 181
133 154 181
134 154 181
133 154 181
134 154 181
133 154 181
134 154 181
133 154 181
134 154 181
133 154 181
133 154 180
134 154 180
133 154 181
133 154 181
133 154 181
133 153 180
134 154 181
133 154 181
134 154 181
133 154 180
133 154 180
135 155 181
134 154 180
133 154 181
134 154 181
133 153 180
135 155 181
133 153 180
134 154 180
134 154 181
133 153 180
134 154 181
133 154 181
134 154 181
135 155 181
133 154 181
133 154 180
134 154 181
134 154 181
133 154 181
134 154 180
133 154 181
134 154 181
134 154 181
134 154 181
133 154 181
133 153 180
133 154 180
134 154 181
133 154 180
134 154 180
134 154 181
132 153 180
133 154 180
134 154 181
133 154 181
134 154 181
134 154 181
134 154 180
133 154 181
135 155 181
133 154 181
133 153 180
133 154 181
134 154 181
132 153 179
134 154 181
134 154 180
134 154 180
133 154 180
134 154 180
133 154 181
134 154 181
133 154 180
134 154 181
133 154 181
134 154 181
134 154 181
134 154 181
134 154 180
133 153 180
134 154 181
134 154 181
134 154 181
133 153 180
133 154 180
134 154 181
133 154 181
132 153 180
132 153 180
133 154 181
132 153 180
133 154 180
134 154 181
134 154 181
133 154 181
133 154 181
133 154 181
133 154 180
134 154 181
134 154 181
133 153 180
133 154 181
135 155 181
134 154 180
134 154 180
135 155 181
134 154 181
134 154 180
133 153 180
133 153 180
133 154 181
133 154 180
133 154 181
134 154 180
133 154 180
133 153 180
134 154 181
133 153 180
133 153 180
134 154 181
133 154 180
133 154 181
133 153 180
134 154 181
134 154 181
133 154 181
134 154 181
135 154 180
133 154 181
133 153 180
134 154 181
133 154 181
133 153 179
134 155 181
134 154 181
134 154 181
133 153 180
134 154 181
133 154 181
133 153 180
133 154 181
134 154 181
133 153 180
134 154 181
133 153 180
133 153 180
134 154 181
133 153 180
133 154 181
134 154 181
134 154 181
133 154 180
133 154 181
132 153 179
134 154 180
134 154 181
134 154 180
134 154 180
133 154 181
133 154 181
134 154 180
134 154 181
134 154 180
133 153 180
134 154 181
133 154 181
134 154 180
134 154 181
133 153 180
134 154 180
135 155 181
133 153 180
133 154 181
133 153 179
133 154 181
133 154 180
134 154 180
133 154 181
134 154 181
133 153 180
133 154 181
134 154 180
134 155 181
134 154 181
134 154 181
133 154 181
134 154 181
134 154 181
134 154 181
132 153 180
133 154 181
134 154 181
134 154 181
134 154 181
134 154 181
134 154 181
133 154 180
133 154 181
135 155 181
134 154 181
134 154 181
133 154 181
134 154 181
134 154 181
134 154 181
134 155 181
134 155 181
134 154 181
134 154 181
134 154 181
134 154 181
134 154 181
134 154 181
134 154 181
133 154 181
133 154 181
134 154 181
133 154 181
134 154 181
133 154 181
134 154 181
133 154 181
134 154 181
134 154 181
134 154 181
134 154 181
133 154 181
134 154 181
134 154 181
134 154 180
135 155 181
134 154 181
133 154 181
134 154 181
133 154 181
134 154 181
133 154 181
134 154 181
134 154 181
134 154 181
134 154 181
133 154 181
133 154 181
133 154 181
134 154 181
133 154 181
134 154 181
134 154 181
133 154 181
133 154 180
133 154 181
134 154 181
134 154 181
133 154 181
133 154 180
134 154 181
134 154 181
133 154 181
134 154 181
133 154 181
133 153 180
134 154 181
134 154 181
134 154 181
133 154 181
133 154 181
134 154 181
134 154 181
134 154 181
133 154 181
133 154 181
133 154 181
134 154 181
134 154 180
133 154 180
132 153 181
134 154 181
134 154 180
134 154 181
133 154 181
134 154 181
134 154 181
133 154 181
134 154 181
134 154 181
134 154 181
134 154 181
133 154 181
133 154 181
133 154 181
134 154 181
134 154 181
133 154 180
134 154 181
133 154 180
134 155 181
133 154 181
134 154 181
132 153 181
134 154 181
134 154 181
134 154 181
133 153 180
134 154 181
133 154 181
133 154 181
134 154 181
135 155 181
134 154 181
134 154 181
133 154 180
133 153 180
134 154 181
132 153 180
134 154 181
134 154 181
134 154 181
134 154 181
135 155 181
133 154 181
133 154 181
134 154 181
134 154 181
133 154 181
134 154 181
134 154 181
133 154 181
133 154 181
133 153 180
133 154 181
133 154 181
134 154 181
133 153 180
133 154 181
133 154 181
133 154 181
134 154 181
133 154 181
133 154 180
134 154 181
134 154 181
134 154 181
135 154 180
133 154 181
134 154 181
134 154 181
134 154 181
132 153 180
133 154 181
134 154 181
133 154 181
134 155 181
134 154 181
134 154 181
133 154 181
134 154 181
133 154 180
134 154 181
133 154 181
134 154 181
134 154 181
133 154 181
134 154 181
134 154 181
133 154 181
134 154 180
134 154 181
134 154 181
134 154 180
133 154 181
133 154 181
133 154 181
134 154 181
134 154 180
134 154 181
133 153 180
134 155 181
133 154 181
134 154 181
135 155 181
134 154 180
133 154 181
134 154 181
134 154 181
133 154 181
133 154 181
134 154 181
135 155 181
133 154 181
133 154 181
133 154 181
134 154 181
133 154 181
135 155 181
134 154 181
133 154 180
134 154 181
134 154 181
135 155 181
134 154 181
134 154 181
133 154 181
134 154 181
134 154 181
134 154 181
134 154 180
134 154 180
134 154 181
134 154 181
133 153 180
134 154 180
133 154 181
134 154 181
134 154 181
132 153 180
134 154 181
133 153 180
133 153 180
133 154 181
133 154 181
133 154 181
134 154 181
133 154 181
134 154 181
134 154 181
133 154 181
134 154 181
133 154 181
134 155 181
133 153 180
133 154 181
133 154 180
133 153 180
134 154 181
135 155 181
133 154 181
133 154 180
134 154 181
132 153 180
133 154 181
135 155 181
133 154 181
133 154 180
133 154 181
134 154 181
133 153 180
134 154 180
134 154 180
134 154 181
134 154 180
134 154 181
133 154 181
134 154 181
134 154 181
133 154 181
134 154 181
133 154 181
134 154 181
133 154 181
133 153 180
133 154 181
134 154 181
134 154 181
134 154 180
133 154 181
132 153 181
134 154 181
133 154 181
134 154 181
133 154 181
134 154 181
134 154 180
135 155 181
134 154 181
133 154 181
132 153 181
134 154 181
133 153 180
134 154 181
134 154 181
134 154 181
134 154 181
133 154 181
134 154 180
134 154 180
133 154 181
133 154 181
133 154 181
134 154 181
133 154 180
134 154 181
134 154 181
134 154 181
133 153 180
133 154 181
134 155 181
133 154 180
134 154 181
132 152 179
133 153 180
134 154 181
134 154 181
134 154 180
133 153 180
134 154 181
134 154 181
134 154 181
133 154 181
134 154 181
134 154 181
134 154 180
133 154 181
133 154 181
133 154 181
134 154 181
134 154 181
133 154 181
133 153 179
133 153 179
134 154 181
133 154 181
134 154 181
133 154 181
133 153 180
133 154 180
133 154 180
134 154 181
133 153 180
133 153 180
133 153 180
133 154 181
134 153 179
134 154 181
134 154 181
134 154 181
134 154 181
134 154 181
134 154 181
133 153 180
134 154 181
135 155 181
133 153 180
134 154 181
134 154 181
133 154 180
132 153 180
132 153 180
134 154 181
134 154 181
133 154 181
134 155 181
133 153 180
134 154 181
132 153 180
134 154 180
132 153 180
133 153 179
132 153 180
133 153 180
134 154 181
133 153 180
134 154 181
133 154 181
135 155 181
134 154 181
134 154 180
133 153 180
134 154 181
133 154 181
134 154 181
133 154 181
133 154 181
134 154 180
134 154 181
134 154 181
133 154 181
134 154 181
133 153 180
133 154 180
134 154 181
134 154 180
133 154 181
133 153 180
134 154 181
134 154 181
134 154 181
133 154 181
133 153 180
134 154 181
134 154 181
134 154 181
133 154 181
135 155 181
134 154 181
134 154 181
133 154 181
133 154 181
133 154 181
133 154 181
134 154 181
133 154 181
133 154 180
134 154 181
133 154 181
133 154 181
134 154 181
133 154 180
134 154 181
134 154 181
133 154 181
134 154 181
134 154 181
133 154 181
133 153 180
133 154 181
133 154 181
133 154 181
134 154 181
134 154 181
133 154 181
133 154 181
134 154 181
133 154 181
133 154 181
134 154 181
133 154 181
135 155 181
132 153 181
134 154 181
133 154 180
134 154 181
133 154 181
134 154 181
134 154 181
134 154 181
135 155 181
134 154 181
135 155 181
133 153 180
134 154 181
133 154 181
133 153 180
133 154 180
133 154 181
133 154 181
134 154 181
134 154 181
134 154 181
133 154 181
134 154 181
134 154 181
134 154 181
134 154 180
133 154 181
133 154 181
134 154 181
133 154 181
134 154 181
133 154 181
134 154 180
133 154 181
133 154 181
134 154 181
135 155 181
134 155 181
134 155 181
133 154 181
134 154 181
134 154 181
133 154 181
134 154 181
134 154 180
134 154 181
133 154 181
134 154 181
133 154 181
133 154 181
133 154 181
134 154 181
133 154 181
133 154 181
134 154 181
134 154 181
134 154 181
135 155 181
134 154 181
133 154 181
133 154 181
134 154 181
133 154 181
133 153 180
133 154 181
134 154 181
134 154 181
133 154 181
133 153 180
135 155 181
134 154 180
133 154 181
134 154 181
135 155 181
133 154 181
135 155 181
133 154 181
134 154 181
133 154 181
134 154 181
134 154 181
133 154 181
134 154 181
133 154 181
134 154 181
133 153 180
134 154 181
133 154 181
133 154 181
134 154 181
135 155 181
134 154 180
134 154 181
133 154 181
134 154 181
134 154 181
135 155 181
133 153 180
134 154 181
134 154 181
134 154 181
133 154 181
133 154 181
134 155 181
134 154 181
134 155 181
133 154 180
134 154 181
134 154 181
133 153 180
134 154 180
134 154 180
134 155 181
133 154 181
133 154 181
134 154 181
133 153 180
135 155 181
133 154 180
133 154 181
134 154 181
134 154 181
134 154 181
133 154 181
133 154 181
133 154 181
134 154 181
134 154 181
134 154 180
132 153 180
134 154 181
133 153 180
134 154 181
135 155 181
134 154 181
134 154 181
134 154 181
134 154 181
134 154 181
134 154 180
133 154 181
133 154 181
134 154 181
133 153 180
134 154 181
133 154 180
133 154 181
134 154 181
134 154 181
133 154 180
134 154 181
134 154 181
134 154 181
134 154 181
134 154 181
133 153 180
134 154 181
133 154 181
134 154 181
134 154 181
134 154 181
134 154 181
133 154 181
134 154 180
134 154 181
133 154 181
133 154 180
133 154 180
134 154 181
134 154 181
134 154 181
134 154 181
133 154 181
133 154 181
134 154 180
134 154 180
133 154 181
134 154 181
133 153 179
134 154 181
134 154 181
133 153 180
133 154 180
134 154 181
134 154 181
133 154 181
133 154 181
134 154 181
134 154 181
134 154 181
133 154 181
133 154 181
133 153 180
134 154 181
134 154 181
134 154 181
133 154 181
133 154 181
133 154 181
134 154 181
133 154 181
133 153 180
133 154 181
133 153 180
134 154 180
134 154 181
134 154 181
133 154 181
132 152 179
134 155 181
132 153 180
135 155 181
133 154 181
133 154 181
135 155 181
133 154 180
134 154 181
133 154 180
133 154 181
134 154 181
134 154 181
133 154 181
133 154 181
133 154 181
133 154 181
133 153 180
133 154 181
134 154 181
134 154 181
134 154 181
133 154 180
133 153 180
133 154 181
134 154 181
134 154 181
133 154 181
133 154 181
134 154 181
133 154 180
134 154 180
134 154 181
134 154 180
133 154 180
133 154 181
133 154 181
133 153 180
134 154 181
133 154 180
133 154 180
133 154 180
134 154 180
134 154 180
135 155 181
134 154 181
134 154 181
133 154 181
134 154 181
133 153 180
134 154 181
134 154 181
133 154 181
134 154 181
132 153 179
132 152 180
133 154 181
133 153 180
133 154 181
133 154 180
134 154 181
133 154 180
133 154 181
133 154 181
133 153 180
133 154 181
134 154 181
134 154 181
134 154 181
133 153 180
134 154 181
133 153 180
136 155 181
134 154 181
134 154 181
133 153 180
134 154 181
134 154 181
133 153 180
133 154 181
133 153 180
134 154 181
133 153 180
133 153 179
133 153 180
133 154 180
134 154 181
133 154 181
134 154 181
134 154 181
134 154 181
134 154 181
134 154 181
134 154 181
133 154 181
133 154 181
133 154 181
133 153 180
134 154 181
134 154 181
133 154 181
134 154 181
134 154 181
133 153 180
135 155 181
134 154 180
133 154 181
133 154 181
134 154 181
135 155 181
134 154 181
134 154 181
134 154 181
133 154 181
133 154 181
133 154 180
134 154 181
134 154 181
134 154 180
133 154 181
134 154 181
134 154 181
132 152 179
134 154 181
134 154 181
134 154 181
133 154 181
134 154 181
134 154 181
133 154 180
133 154 181
133 154 181
135 155 181
135 155 181
135 154 180
133 154 180
135 154 180
134 154 181
134 154 180
133 154 181
134 154 180
134 154 181
133 154 181
134 154 180
134 154 181
133 154 181
133 154 180
134 154 181
133 154 181
133 154 180
134 154 180
134 154 181
135 155 181
134 154 181
134 154 181
134 154 181
133 154 181
134 154 180
133 154 181
133 154 181
133 154 180
135 155 181
133 154 181
133 154 181
134 154 181
134 154 181
134 154 180
134 155 181
134 154 181
133 154 181
133 154 181
134 154 181
134 154 181
134 154 181
134 154 181
133 154 181
133 154 181
133 154 181
133 154 181
134 154 181
134 154 181
134 154 181
133 154 181
135 155 181
134 154 181
134 154 181
134 154 181
133 154 181
133 154 181
133 154 181
134 154 181
134 154 180
133 154 181
134 154 181
133 154 181
133 154 181
132 153 181
135 155 181
134 154 181
133 154 181
134 154 181
134 154 181
134 154 181
134 154 181
134 154 181
133 154 181
133 154 181
134 154 181
135 155 181
134 154 181
133 154 181
134 154 181
133 154 181
133 154 181
133 154 181
134 154 181
133 154 181
134 154 181
134 154 181
134 154 181
134 154 181
133 154 181
134 154 181
134 154 181
135 155 181
134 154 181
133 153 180
134 154 181
134 154 181
134 154 181
134 154 181
133 154 181
133 154 181
134 154 181
135 155 181
134 154 181
133 154 180
134 154 181
134 154 181
135 155 181
134 154 181
134 154 181
133 154 181
134 154 181
135 155 181
134 154 180
134 154 181
133 154 181
133 154 181
134 154 181
133 153 180
133 154 181
134 154 181
133 154 181
133 154 181
135 155 181
134 154 181
134 154 181
134 154 181
134 154 181
134 154 181
133 154 181
134 154 181
133 154 180
134 154 181
134 154 181
134 154 181
134 154 181
133 154 181
134 154 181
134 154 181
134 154 180
132 153 181
133 154 181
133 154 181
133 154 181
133 154 181
134 154 181
134 154 181
134 154 181
134 154 181
134 154 181
133 153 180
134 154 181
134 154 181
133 154 181
133 154 181
133 154 180
135 155 181
134 154 181
133 154 181
134 154 181
134 154 181
134 154 181
134 154 180
134 154 181
134 154 181
135 155 181
134 154 181
134 154 181
133 154 180
134 154 181
134 154 180
134 155 181
135 155 181
133 154 181
133 154 181
132 153 180
134 155 181
133 154 180
135 155 181
133 154 181
135 155 181
133 154 181
134 155 181
133 154 181
134 154 181
133 154 181
134 154 181
134 154 181
134 154 181
134 154 181
134 154 181
132 153 180
134 154 181
133 154 180
133 154 181
133 154 181
134 154 181
133 154 181
134 154 181
133 154 181
135 155 181
134 154 181
133 154 181
133 154 181
134 154 181
133 154 181
134 154 181
134 154 181
135 155 181
133 154 181
134 154 181
134 154 181
133 154 181
134 154 180
134 154 181
134 154 181
133 154 181
134 154 181
134 154 181
134 154 181
133 154 181
133 154 181
133 153 180
134 154 181
134 154 180
133 154 181
132 153 181
133 154 181
133 154 181
134 154 181
134 154 181
133 154 181
134 154 181
133 154 181
134 154 181
134 154 181
134 154 181
133 154 180
134 154 180
133 154 181
133 153 180
133 154 181
135 154 180
134 154 181
133 154 180
134 153 179
134 154 181
134 154 181
134 154 181
134 154 180
135 155 181
134 154 181
133 154 181
134 154 181
133 154 181
134 154 181
133 154 181
133 153 180
134 154 181
134 154 181
133 154 180
134 154 181
134 154 181
133 154 180
134 154 181
134 154 181
134 154 181
133 153 180
133 154 181
134 154 181
133 154 181
134 154 181
133 154 181
134 154 181
133 154 181
134 154 180
134 154 181
134 154 181
134 154 181
134 154 180
133 154 181
133 153 180
133 154 181
133 154 181
133 154 181
133 154 180
134 154 181
133 153 180
134 154 181
134 154 181
133 154 181
132 153 180
133 154 181
134 154 181
134 154 181
133 154 181
134 154 181
133 154 181
134 154 180
134 154 180
133 154 181
133 154 181
133 154 181
134 154 181
132 153 180
134 154 181
133 154 181
133 154 180
133 154 181
134 154 180
134 154 181
133 154 181
133 153 180
134 154 180
133 154 181
134 154 181
134 154 181
132 153 180
134 154 181
134 155 181
135 155 181
133 154 181
134 154 181
133 153 180
133 154 181
135 155 181
134 154 181
133 154 181
134 154 181
134 154 181
134 154 181
133 154 181
134 154 181
133 154 181
132 153 180
135 155 181
134 154 181
134 154 181
134 154 181
133 154 181
135 154 180
133 154 181
134 154 180
134 154 180
133 154 181
134 154 181
134 154 181
133 154 181
134 154 181
133 154 181
134 154 181
134 154 181
133 154 181
133 154 181
133 153 180
133 154 181
134 155 181
133 154 181
133 153 180
134 154 180
134 154 181
134 154 181
133 154 180
133 153 180
133 154 181
133 154 181
134 154 181
134 154 180
135 155 181
133 154 181
133 153 180
134 154 181
134 154 180
134 154 181
133 153 180
132 153 181
133 154 181
134 154 181
133 154 180
134 154 181
134 154 181
134 154 181
134 154 181
134 154 181
133 153 180
135 155 181
133 154 181
133 153 180
134 154 181
133 154 181
133 154 181
134 154 180
134 154 181
133 154 181
134 154 181
134 154 181
134 154 181
133 154 181
133 154 180
132 153 180
133 154 181
134 154 180
133 153 179
134 154 181
133 154 181
134 154 181
133 153 179
134 154 180
133 154 181
133 154 181
134 154 180
133 154 181
133 153 180
133 154 180
133 154 180
134 153 180
133 154 181
134 154 180
134 154 181
133 153 180
134 154 180
133 153 180
133 154 181
133 154 181
133 154 181
135 155 181
134 154 180
133 154 181
133 154 181
133 154 181
133 154 181
134 154 181
134 154 181
134 154 181
133 154 181
133 154 181
135 155 181
133 154 181
133 153 180
135 155 181
135 154 180
135 155 181
133 154 181
133 154 181
133 154 181
133 154 181
134 154 181
133 154 181
134 154 181
134 154 181
133 154 181
135 155 181
134 154 181
134 154 181
134 154 181
134 154 181
134 154 181
134 154 181
134 154 181
134 154 181
134 154 181
134 155 181
133 154 181
134 154 181
133 154 181
134 154 181
133 154 181
134 154 181
134 155 181
133 154 181
134 154 181
132 153 181
134 154 181
133 154 180
133 154 180
135 155 181
134 154 181
134 154 181
134 154 180
134 154 181
134 154 181
132 153 181
133 154 181
133 154 181
134 155 181
134 154 181
133 154 181
134 154 181
133 154 181
133 154 181
135 155 181
134 154 181
134 154 181
134 154 181
133 154 181
133 154 181
134 154 181
133 153 180
134 154 181
134 154 181
134 154 181
134 154 181
133 154 181
133 154 181
133 154 180
134 154 181
135 155 181
134 154 181
133 154 181
134 154 181
133 154 180
134 154 181
134 154 181
135 155 181
134 154 181
135 155 181
134 154 181
133 153 180
134 154 181
134 154 181
133 154 181
134 154 181
133 153 180
133 154 181
134 154 181
133 153 180
135 155 181
134 154 181
134 154 181
133 154 181
133 154 181
133 154 181
132 153 181
134 154 181
134 154 181
134 154 181
134 154 181
133 154 181
134 154 181
134 154 181
134 154 181
134 154 181
133 154 181
134 154 181
133 154 181
133 154 181
135 155 181
133 154 181
134 154 181
134 155 181
134 154 181
134 154 181
133 154 181
134 154 181
134 154 181
134 154 181
135 155 181
133 154 181
134 154 181
134 154 181
134 154 181
133 154 181
133 154 181
133 154 181
134 154 181
134 154 181
133 154 181
133 154 180
135 155 181
133 154 181
134 154 181
134 154 181
134 154 181
134 154 181
134 154 181
134 154 181
134 155 181
133 154 181
135 155 181
134 154 181
134 154 181
134 154 181
133 154 181
133 154 181
134 154 181
134 154 181
133 154 181
133 154 180
134 154 181
134 154 181
134 154 181
133 154 181
134 154 181
134 154 181
134 154 181
135 155 181
134 154 181
134 154 181
133 154 181
133 154 181
135 155 181
133 154 181
134 154 181
134 154 181
135 155 181
134 154 181
134 154 181
134 154 181
133 154 181
133 153 180
134 154 181
132 153 181
133 154 181
133 153 180
134 154 181
134 154 181
133 154 181
133 154 180
134 154 181
134 154 181
133 154 181
134 154 181
134 154 181
134 154 180
133 154 181
134 154 181
134 154 180
133 154 181
134 154 181
133 154 180
134 154 181
134 154 181
133 153 180
133 154 181
134 154 181
134 154 181
133 154 181
133 153 180
135 155 181
134 154 181
134 154 180
133 154 181
134 154 181
134 154 181
133 154 181
133 153 179
133 154 181
133 154 180
134 154 181
132 153 180
133 154 181
134 154 181
134 154 181
134 154 181
134 154 181
133 154 180
134 154 181
134 154 181
134 154 181
133 154 181
134 154 181
134 154 180
133 154 181
133 153 180
134 154 181
133 154 181
133 154 181
134 154 181
134 154 181
133 154 181
134 154 181
134 154 181
133 154 181
134 154 181
133 154 181
135 155 181
134 154 181
134 154 181
134 154 180
134 154 181
133 154 180
134 154 181
133 154 180
135 155 181
134 154 181
133 154 181
134 154 180
133 154 181
133 154 180
134 154 180
133 153 180
133 153 179
133 154 181
134 154 181
133 154 181
133 153 180
134 154 181
134 154 181
134 154 180
134 154 181
134 154 180
134 154 181
133 154 181
134 154 181
134 154 180
134 154 180
133 154 181
134 154 181
133 153 180
133 154 181
134 154 181
133 154 181
134 154 181
134 154 180
133 154 181
134 154 181
133 154 181
133 154 181
135 155 181
135 155 181
134 154 181
135 155 181
134 154 180
134 154 181
134 154 180
132 153 180
133 153 180
133 153 180
136 155 181
133 154 180
132 153 180
133 154 181
133 154 181
134 154 180
134 154 181
134 154 181
134 154 181
134 154 181
134 154 181
133 153 180
134 154 181
134 154 180
133 154 181
133 154 180
134 154 181
134 154 181
135 155 181
133 154 180
133 153 180
134 154 181
133 154 181
134 154 181
133 154 181
133 154 181
133 154 181
133 153 180
134 154 181
134 154 181
134 154 181
134 154 181
133 154 181
134 154 181
133 153 180
133 153 180
134 155 181
133 154 181
133 153 180
134 154 181
134 154 181
134 154 181
134 154 180
134 154 181
133 154 181
134 154 181
133 154 181
133 154 181
133 154 180
134 154 181
134 154 181
134 154 181
132 153 181
135 155 181
134 154 181
133 153 180
133 154 180
134 154 181
133 154 180
133 154 181
134 154 181
133 153 180
133 153 180
133 154 181
134 154 181
133 154 181
133 153 180
133 153 180
134 154 181
134 154 181
134 154 181
134 154 180
133 154 181
134 154 180
133 154 181
133 153 180
134 154 180
133 154 180
133 154 181
134 154 181
133 154 180
133 153 179
133 153 180
134 154 181
134 154 181
134 154 181
133 154 181
133 154 180
134 154 180
133 153 180
133 153 180
134 154 181
134 154 181
133 154 181
133 153 180
134 154 180
133 154 181
133 153 180
134 154 181
135 155 181
134 154 181
133 154 181
134 154 181
134 154 181
134 154 181
133 154 180
134 154 181
134 154 181
133 154 181
134 154 181
135 155 181
134 154 181
134 154 181
133 154 181
133 154 181
134 154 181
133 154 181
135 155 181
133 154 181
134 154 181
133 154 181
134 154 181
134 154 181
134 154 181
135 155 181
134 154 181
135 155 181
134 154 181
134 154 181
133 154 180
133 154 181
133 154 181
133 154 181
134 154 180
133 154 181
133 154 181
133 154 181
134 154 181
134 154 181
133 154 181
133 154 181
133 153 180
134 154 181
134 155 181
132 153 181
134 155 181
134 154 181
135 155 181
133 154 181
134 154 181
134 154 181
133 154 181
134 154 181
133 154 181
132 153 180
134 154 180
134 154 181
133 154 181
133 154 181
134 154 181
134 154 181
133 154 181
133 154 181
134 154 181
133 154 181
134 154 181
134 154 181
135 155 181
134 154 181
134 154 181
134 154 181
133 154 181
134 154 181
134 154 181
134 155 181
134 154 181
134 154 181
133 154 181
133 154 180
133 154 181
134 154 181
133 154 181
133 154 181
134 155 181
134 154 181
134 154 181
133 154 181
133 154 181
133 154 180
133 154 181
132 153 180
134 154 181
134 154 181
134 154 181
134 155 181
134 154 181
133 154 181
134 154 181
133 154 181
133 154 181
134 154 181
133 154 181
134 154 181
134 154 181
134 154 181
134 154 181
133 154 181
135 155 181
134 154 181
133 154 181
134 154 181
134 154 181
134 154 181
135 155 181
133 154 181
134 154 181
134 154 180
133 154 180
134 154 181
134 154 181
135 155 181
133 154 181
134 154 181
133 154 181
134 154 181
134 154 181
133 154 181
134 154 180
134 154 181
134 154 181
134 154 181
134 154 181
134 154 180
134 154 181
133 154 181
133 154 180
134 154 181
134 154 181
134 154 181
135 155 181
133 154 181
134 154 181
134 154 181
133 154 181
133 154 181
134 154 181
134 154 181
134 154 181
133 154 180
133 153 180
133 154 181
133 153 180
134 154 181
133 153 180
133 154 180
134 154 181
134 154 181
133 154 181
133 154 181
134 154 181
133 154 181
134 154 181
134 154 181
134 154 181
134 154 181
134 154 181
134 154 181
133 154 181
133 154 181
133 154 181
134 154 181
134 154 181
133 154 181
134 154 180
134 154 181
134 154 181
134 154 181
135 155 181
134 154 180
134 154 181
134 154 181
133 153 180
133 153 180
134 154 181
135 155 181
134 154 181
134 154 181
133 153 180
134 154 180
133 154 180
134 154 181
133 154 181
134 154 181
134 154 181
134 154 181
134 154 180
134 154 181
133 154 180
134 154 181
134 154 181
134 154 181
133 153 179
134 154 180
133 154 181
133 154 181
133 153 180
134 154 181
134 154 181
134 154 181
134 154 181
134 154 181
134 154 181
133 154 181
133 153 180
134 154 181
133 154 181
134 154 181
133 153 180
134 154 181
134 154 180
134 154 181
134 154 181
134 154 181
133 154 181
133 154 181
133 154 180
134 154 181
134 154 181
133 154 181
134 154 181
133 154 181
133 154 181
133 154 180
133 154 181
133 154 181
134 154 180
134 154 181
134 154 181
134 154 181
134 154 181
133 154 181
134 154 181
133 154 181
133 154 180
134 154 181
134 154 181
133 154 180
133 153 180
134 154 181
132 152 179
132 153 180
134 154 181
134 154 181
134 154 181
134 154 181
134 154 181
133 154 181
132 153 180
132 153 179
134 154 181
134 154 181
134 154 181
134 154 181
134 154 181
134 154 181
133 153 180
134 154 181
133 153 180
135 155 181
133 154 181
132 153 181
134 155 181
133 154 181
134 154 181
133 154 180
132 153 180
133 153 180
134 154 181
133 154 181
133 154 181
133 154 180
133 154 181
133 154 181
133 154 181
133 153 179
134 154 181
134 154 181
134 154 181
133 154 180
134 155 181
133 154 180
134 154 181
133 154 181
134 154 181
133 153 180
134 154 181
134 154 181
133 154 181
132 153 180
133 154 181
134 154 181
134 154 181
133 153 180
133 153 180
133 154 181
134 154 180
133 154 181
133 153 180
134 154 181
134 154 181
133 154 181
134 154 181
133 154 181
134 154 180
133 154 181
133 154 180
133 154 181
133 154 181
133 154 181
133 154 181
134 154 181
135 155 181
134 154 181
133 153 180
133 153 180
134 154 181
133 154 180
135 155 181
134 154 180
134 154 180
134 154 181
134 154 181
133 153 180
134 154 181
134 154 181
133 153 180
133 153 180
133 154 181
133 153 180
134 154 181
134 154 181
134 155 181
133 153 180
133 154 180
133 154 181
134 154 181
134 154 181
133 154 181
134 154 181
133 154 181
133 154 181
133 153 180
133 153 180
134 154 181
134 154 181
135 155 181
134 154 181
134 154 180
134 154 181
133 154 180
135 155 181
134 154 181
134 154 180
133 153 180
134 154 180
133 154 181
133 154 180
134 154 180
134 154 181
134 154 181
133 154 181
133 154 180
134 154 181
134 154 181
134 154 181
134 154 180
133 154 181
134 154 181
133 154 181
134 154 181
134 154 181
135 155 181
134 154 181
133 154 181
133 153 180
133 154 181
134 154 181
134 154 181
134 154 181
134 154 181
134 154 181
133 154 180
132 153 180
133 154 181
133 154 180
134 154 181
133 154 181
134 154 181
133 154 180
134 154 181
133 154 181
134 154 181
133 154 181
133 154 181
133 154 181
134 154 181
134 154 181
133 154 181
134 154 180
133 154 180
134 154 181
134 154 181
134 154 181
133 154 181
134 154 181
134 154 181
134 155 181
134 155 181
133 154 181
133 154 181
133 154 181
134 154 181
134 154 181
133 154 181
134 154 181
133 154 181
134 154 181
133 154 181
133 154 181
134 154 181
133 154 181
135 155 181
133 154 181
134 154 181
134 154 181
134 154 181
134 154 181
133 154 181
134 154 181
134 154 181
134 154 181
133 154 181
134 154 181
134 154 181
133 154 181
135 155 181
134 154 181
133 154 180
134 154 181
133 154 181
133 154 181
135 155 181
134 154 181
134 154 181
134 154 181
134 154 181
133 154 181
133 154 181
134 154 181
133 154 181
134 154 181
134 154 181
133 153 180
134 154 181
133 154 181
133 154 181
134 154 181
133 154 181
134 154 181
133 154 181
134 154 181
134 154 181
134 154 181
133 154 181
133 154 181
133 154 181
133 154 181
134 154 181
134 154 181
133 154 181
134 154 181
133 154 181
134 154 181
134 154 181
134 154 181
134 154 180
133 154 180
133 154 181
133 154 181
133 154 181
134 154 181
135 155 181
133 154 181
134 154 181
134 154 181
134 154 181
133 154 181
133 154 181
133 154 181
133 154 181
133 154 181
134 154 181
134 154 181
134 154 181
134 154 181
133 154 180
133 154 181
134 154 181
135 155 181
134 154 181
134 154 181
133 154 180
134 154 181
134 154 181
134 154 181
134 154 181
134 154 181
133 154 181
134 154 181
134 154 181
134 154 181
134 154 181
134 154 181
133 154 181
134 154 180
134 155 181
133 154 181
134 154 181
134 154 181
134 154 181
134 154 181
134 154 181
135 155 181
134 154 181
134 154 180
133 154 181
134 154 181
134 154 180
134 154 181
134 154 181
133 154 181
133 154 181
135 155 181
134 154 181
133 154 181
134 154 181
133 154 181
134 154 181
134 154 181
134 154 181
133 154 181
133 154 181
133 154 180
133 153 180
134 154 181
134 154 181
134 154 181
134 154 180
134 154 181
134 154 181
135 155 181
134 154 181
134 154 181
133 154 181
134 154 181
133 154 181
134 154 181
134 154 181
134 154 181
133 154 180
134 154 180
134 153 179
134 154 181
133 153 180
134 154 181
133 154 181
134 154 181
134 154 181
133 154 181
133 154 181
134 154 181
133 154 181
134 154 181
134 154 181
134 154 181
134 154 181
134 154 181
133 154 181
134 154 181
134 154 181
133 154 180
134 154 181
134 154 181
134 154 181
133 153 180
133 153 180
133 154 181
134 154 181
134 154 181
134 154 181
133 153 180
133 154 181
133 153 180
133 153 180
134 154 181
134 154 181
134 154 181
133 154 181
133 154 181
134 154 180
133 153 180
133 154 181
133 153 180
133 153 180
132 153 180
134 154 181
134 154 181
134 154 180
134 154 181
134 154 180
134 154 181
134 154 181
133 154 180
133 153 180
134 154 181
134 154 181
133 154 181
134 154 181
133 154 181
134 154 181
134 154 180
133 154 181
133 154 181
133 153 179
133 154 180
134 154 181
133 154 180
134 155 181
135 155 181
134 154 181
134 154 181
133 154 180
133 154 181
134 154 181
133 153 180
134 155 181
134 154 181
133 154 181
134 154 181
133 154 181
134 154 180
133 154 181
134 154 180
132 153 180
135 155 181
134 154 181
133 154 180
134 154 181
133 153 180
134 154 181
134 154 180
133 154 180
133 153 180
133 154 180
133 154 180
133 154 181
135 155 181
133 154 181
133 154 181
133 153 179
133 154 181
134 154 181
134 154 181
134 154 181
133 154 180
135 155 181
134 154 181
134 154 181
134 154 181
133 154 181
133 153 180
134 154 181
134 154 181
133 154 181
134 154 181
134 154 181
133 154 180
134 154 181
133 154 181
134 154 181
133 154 181
134 154 180
134 154 180
133 154 180
133 153 180
133 154 180
134 154 181
134 154 181
134 154 181
133 154 181
134 154 181
134 154 181
135 155 181
133 154 181
132 153 180
133 154 180
134 154 181
134 154 181
134 154 181
134 154 181
133 154 181
132 152 179
133 154 181
134 154 181
134 154 181
133 153 180
133 154 181
133 153 180
134 155 181
133 154 181
134 154 181
133 154 181
133 153 180
133 154 181
133 154 181
133 154 181
133 154 180
134 154 181
133 153 180
133 154 180
134 154 180
134 154 181
134 154 181
134 154 181
134 154 180
133 154 181
134 154 181
134 153 180
133 154 180
134 154 181
134 154 181
133 154 181
133 154 180
132 153 180
134 154 180
134 154 181
134 154 180
134 154 181
134 154 181
134 154 181
134 154 180
133 154 180
133 154 180
133 154 181
133 154 181
134 154 181
132 153 180
134 154 181
132 153 179
134 154 181
133 154 180
134 154 181
135 155 181
133 154 181
134 154 181
134 154 181
134 154 180
134 154 181
133 154 181
134 154 181
133 154 181
133 154 181
134 154 181
133 154 181
134 154 181
133 154 181
134 154 181
134 154 181
133 153 180
134 154 180
134 154 181
133 153 180
133 154 181
134 154 180
134 154 181
133 154 180
133 153 180
134 154 181
134 154 181
133 153 180
133 154 181
133 154 181
135 155 181
133 153 180
134 154 180
133 154 180
133 154 181
134 154 181
134 154 181
133 154 181
134 154 181
134 154 181
134 154 181
134 154 181
133 154 181
134 154 181
135 155 181
134 154 181
133 154 181
134 154 181
135 155 181
133 154 181
133 154 181
134 154 181
134 154 181
134 154 181
134 154 181
134 154 181
134 154 181
133 154 181
134 154 181
134 154 181
134 154 180
133 154 181
133 154 181
133 154 181
134 154 181
132 153 180
133 154 181
133 154 181
134 154 181
134 154 181
134 154 180
134 154 181
134 154 181
134 155 181
134 154 181
134 154 181
133 154 181
133 154 181
133 154 181
133 154 181
134 154 181
134 154 181
134 154 181
133 154 181
133 154 181
134 154 181
133 154 181
135 155 181
133 154 181
132 153 181
134 154 181
134 154 181
134 154 181
134 154 181
133 154 181
134 154 181
133 154 181
133 154 181
134 154 181
133 154 181
133 154 181
133 154 181
133 154 181
134 154 181
135 155 181
134 154 181
134 154 181
134 155 181
134 155 181
133 154 181
134 154 181
134 154 181
133 154 181
135 155 181
133 154 181
134 154 181
134 154 181
133 154 180
133 154 181
133 154 180
133 154 181
134 154 181
134 155 181
134 154 181
133 154 180
133 153 180
133 154 181
134 154 181
133 153 180
134 154 181
134 154 181
134 154 181
133 154 181
133 154 181
134 154 181
134 154 181
134 154 181
133 154 180
134 155 181
134 154 181
135 155 181
134 155 181
133 154 181
134 154 181
133 154 181
134 154 181
134 154 181
134 154 181
134 154 181
134 154 181
134 154 181
134 154 181
133 154 180
133 154 181
133 154 181
133 154 181
134 154 181
133 154 181
133 154 181
134 154 181
133 154 180
134 154 181
133 154 181
134 154 181
133 154 181
134 154 181
133 154 181
133 154 181
133 154 181
133 154 181
133 154 181
133 154 181
135 155 181
133 154 181
133 154 181
133 154 181
133 154 181
134 154 181
133 154 181
134 154 181
133 154 181
134 154 181
134 154 181
134 154 181
132 153 180
134 154 181
134 154 181
133 154 181
133 154 181
134 154 181
135 155 181
133 154 181
132 153 180
133 153 180
133 154 180
133 153 180
134 154 181
133 154 181
134 154 181
133 154 181
134 154 181
134 154 181
134 154 181
134 154 181
133 153 180
134 154 180
133 153 180
134 154 180
133 154 181
134 154 180
135 155 181
134 154 181
135 154 180
133 154 181
132 153 181
133 154 181
133 154 180
133 154 181
133 154 180
133 154 181
134 154 181
133 153 180
134 154 181
134 154 181
133 154 181
134 154 181
135 155 181
133 153 179
134 154 181
134 154 181
133 154 181
134 154 181
133 154 181
134 154 180
134 154 181
134 154 181
134 154 181
134 154 181
133 154 181
133 154 181
134 154 181
134 154 181
133 153 180
134 154 181
133 154 181
134 154 181
134 154 181
134 154 180
134 154 180
134 154 181
133 154 181
132 154 181
133 153 180
133 154 181
133 154 181
134 154 181
134 154 181
134 154 181
133 154 181
134 154 180
133 154 180
133 154 181
133 154 180
133 154 181
133 153 180
134 154 181
133 154 180
134 154 181
133 154 181
134 154 181
134 154 181
134 154 181
133 153 180
133 154 181
132 153 180
134 154 180
133 154 181
133 154 181
134 154 181
134 154 181
134 154 181
132 153 180
134 154 181
134 154 180
134 154 181
135 155 180
133 154 181
134 154 181
134 154 181
134 154 180
134 154 181
134 154 181
134 154 181
134 154 181
134 154 181
134 154 180
134 154 181
134 155 181
134 154 181
133 153 180
133 154 181
134 154 181
134 154 181
133 154 181
134 154 181
132 153 181
134 154 181
133 153 180
134 154 181
132 153 180
134 154 181
134 154 181
133 154 180
133 153 179
132 152 179
134 154 181
134 154 181
133 154 181
134 154 181
134 154 180
133 154 180
133 154 181
133 153 180
134 154 181
133 154 180
134 154 181
134 154 181
132 153 180
134 154 181
134 154 181
134 154 181
134 154 180
134 154 181
133 154 181
133 154 180
133 154 181
133 154 181
133 154 181
134 154 181
132 153 180
133 154 181
134 154 181
133 154 181
133 153 179
133 154 181
133 154 181
133 153 180
133 154 180
133 154 180
134 154 181
134 154 180
134 154 181
133 153 180
134 154 180
133 154 181
133 154 181
133 154 181
134 154 181
134 154 181
134 154 180
134 154 181
133 154 181
134 154 181
132 153 180
134 154 181
133 154 180
134 154 181
133 154 181
133 154 181
133 154 181
134 154 181
134 154 181
133 153 180
134 154 181
133 154 181
133 154 181
133 154 180
134 154 180
132 153 179
134 154 181
134 154 181
134 154 181
134 154 181
134 154 181
134 154 180
135 155 181
134 154 181
134 154 181
134 154 181
134 154 181
134 154 181
134 154 181
134 154 181
133 154 181
134 154 180
133 153 180
133 153 180
133 154 181
134 154 181
134 154 180
134 154 181
133 154 181
133 154 181
133 153 180
134 154 181
134 154 181
133 154 181
135 155 181
134 154 180
134 155 181
133 153 180
134 154 181
134 154 181
135 155 181
133 154 181
133 154 181
133 154 181
134 154 181
131 152 179
134 154 181
133 154 181
132 153 180
134 154 181
134 154 181
134 154 181
133 154 181
134 155 181
133 153 180
132 153 181
133 154 181
133 154 180
134 153 179
133 153 180
133 153 180
134 154 181
133 154 181
133 154 181
134 154 181
134 154 181
134 155 181
134 154 181
135 155 181
134 154 181
133 154 181
133 153 180
133 154 181
133 154 181
134 154 181
134 154 181
134 154 181
134 154 181
134 154 181
134 154 181
134 154 181
134 154 181
133 154 181
133 154 180
134 154 181
134 154 181
133 154 180
134 154 181
134 154 181
134 154 181
134 154 181
134 154 181
134 154 181
134 154 181
133 154 181
133 154 181
134 154 181
134 154 181
134 154 181
133 154 181
134 154 181
134 154 181
133 154 181
134 154 181
135 155 181
134 154 181
133 154 181
134 154 181
134 154 181
133 154 181
134 154 181
134 154 181
135 155 181
133 154 180
133 154 181
133 154 181
134 154 181
133 154 181
133 154 181
133 154 181
134 154 181
132 153 180
133 154 181
134 154 181
134 154 181
133 154 181
134 154 181
134 154 181
133 154 181
134 154 181
133 154 181
133 154 181
135 155 181
134 154 181
134 154 181
134 154 181
135 155 181
134 154 181
135 155 181
134 154 181
133 154 181
134 154 181
134 154 181
134 154 181
134 155 181
134 154 180
133 154 181
134 154 181
135 155 181
134 154 181
134 154 181
134 154 181
134 154 181
133 154 181
134 154 181
134 154 181
133 154 181
134 154 181
134 154 181
133 154 180
134 154 181
134 154 181
133 153 180
134 154 181
134 154 181
134 154 181
133 154 181
135 155 181
134 154 181
134 154 181
134 154 180
133 154 181
133 154 181
134 154 181
134 154 181
134 154 181
133 154 181
134 155 181
134 154 181
134 154 181
134 154 180
135 155 181
134 154 181
133 154 181
134 154 181
133 154 181
133 153 179
133 154 181
134 154 181
133 154 181
133 154 181
133 154 181
133 154 181
135 155 181
134 154 181
134 154 181
133 154 181
134 154 181
134 154 181
134 154 181
135 155 181
133 154 180
133 154 181
133 154 181
134 154 181
134 154 181
133 153 180
134 155 181
133 154 181
134 154 181
134 154 181
134 154 181
134 154 180
134 154 181
134 154 181
134 154 181
134 154 181
134 154 181
134 154 181
135 155 181
134 155 181
134 154 181
134 154 180
134 154 181
133 154 181
134 154 181
134 154 181
133 154 181
133 153 180
134 154 181
133 154 181
134 154 181
134 154 181
133 154 181
133 154 181
134 154 181
134 154 181
134 154 181
133 154 181
134 154 181
134 154 181
134 154 181
134 154 181
134 154 181
134 154 181
134 154 181
134 154 181
134 154 181
133 154 180
134 154 181
135 155 181
133 154 181
134 154 181
134 154 180
134 154 180
134 154 181
133 153 180
134 154 181
133 154 181
134 154 180
133 154 181
134 154 181
134 154 181
133 154 181
134 154 181
134 154 181
134 154 181
134 154 181
133 154 181
134 155 181
133 154 181
133 154 180
133 154 180
134 154 181
134 154 181
133 153 180
134 155 181
134 154 181
134 154 181
134 154 181
134 154 181
133 154 181
134 154 181
134 154 181
134 154 181
134 154 181
134 154 181
133 154 180
134 154 181
134 154 181
133 154 181
134 155 181
133 154 181
134 154 181
134 154 181
134 154 181
134 154 181
134 154 181
134 154 181
134 154 180
134 154 181
133 153 180
134 154 181
134 154 181
133 154 180
133 153 180
133 153 180
134 154 181
134 154 181
133 154 180
134 154 181
134 154 181
134 154 181
134 154 181
134 154 181
133 153 180
134 154 181
133 154 180
133 153 180
134 154 181
134 154 181
134 154 181
133 154 181
134 154 181
134 154 181
134 154 181
133 154 181
133 154 180
134 154 181
132 153 180
134 154 181
134 154 181
134 154 181
133 154 180
133 153 180
133 154 180
133 154 180
133 154 181
134 154 181
134 154 181
134 155 181
134 154 181
133 154 181
134 154 181
133 153 180
134 154 180
133 154 181
133 154 181
134 154 181
133 154 181
133 153 180
133 153 180
134 154 181
135 155 181
133 154 180
133 153 180
134 154 180
133 154 181
134 154 181
134 154 181
133 153 180
134 154 181
134 154 181
133 154 181
134 154 181
133 154 181
133 153 180
134 154 181
134 154 180
134 154 180
134 154 181
133 153 180
134 154 181
132 153 180
133 153 180
133 154 181
132 152 179
134 154 181
134 154 180
134 154 181
133 154 180
135 155 181
133 154 181
133 153 180
133 154 181
134 154 181
134 154 181
134 154 180
133 154 180
134 154 181
135 155 181
133 154 181
134 154 181
134 154 181
133 154 181
133 154 181
133 154 181
133 153 180
134 154 180
134 154 181
133 154 181
134 154 181
134 154 181
134 154 181
134 154 181
133 153 179
133 154 180
134 154 181
134 154 181
133 154 180
134 154 181
133 154 180
134 154 181
134 154 181
134 154 181
134 154 181
133 154 181
133 154 181
133 154 181
133 154 181
134 154 181
134 154 180
135 155 181
133 154 181
132 153 180
133 154 181
133 154 180
134 154 181
134 154 181
133 153 180
133 154 181
132 153 180
133 153 179
134 154 181
133 154 181
133 154 181
134 154 180
133 154 181
134 155 181
133 153 179
134 154 181
132 152 179
134 154 181
134 155 181
133 154 180
134 154 181
133 154 181
134 154 181
134 154 181
134 154 181
134 154 181
134 154 181
134 154 181
134 154 180
134 154 180
133 154 181
132 153 179
133 153 180
134 154 181
133 154 180
133 154 180
134 154 181
134 154 181
134 154 181
133 154 181
133 154 181
133 154 181
134 154 181
133 154 181
135 155 181
135 155 181
134 154 180
133 154 181
133 154 181
134 154 181
135 155 181
134 154 181
135 155 181
134 154 181
133 153 180
133 154 181
133 154 181
134 154 181
134 154 181
134 154 181
133 154 181
134 154 181
134 154 181
134 154 181
133 154 181
133 154 181
134 154 181
134 155 181
134 154 181
134 155 181
134 154 181
134 154 181
134 154 181
134 154 181
134 154 181
133 154 181
133 154 181
134 154 181
134 154 181
135 155 181
134 154 181
133 154 181
133 154 181
134 154 181
133 154 181
134 154 181
134 154 181
133 154 181
134 154 181
133 154 181
134 154 181
134 154 181
133 154 181
134 154 181
133 154 181
133 154 181
133 154 181
133 154 181
134 154 181
133 154 181
134 154 181
134 154 181
133 154 181
135 155 181
134 154 181
133 154 181
134 154 181
134 154 181
134 154 181
135 155 181
134 154 181
133 154 181
133 154 180
133 154 181
133 154 181
134 154 181
133 153 180
133 154 181
135 155 180
133 154 181
134 154 181
134 154 181
134 155 181
134 154 181
133 154 181
134 154 181
133 154 181
133 154 181
133 153 180
133 154 181
133 154 181
133 154 180
133 154 181
134 154 181
134 154 181
133 154 180
134 154 181
133 154 181
134 154 181
134 154 181
133 153 180
133 154 181
133 154 181
133 154 181
133 154 180
134 154 181
134 154 181
133 154 181
133 154 181
134 154 181
133 154 181
134 154 181
134 154 181
134 154 181
133 154 181
134 154 181
134 154 181
133 154 181
134 154 181
135 155 181
133 154 181
133 154 181
133 154 181
134 154 181
134 154 181
134 154 181
134 154 181
133 154 181
134 154 181
134 154 180
133 154 180
134 154 181
134 155 181
134 154 181
134 154 181
134 154 181
133 154 181
133 154 180
134 154 181
134 154 181
135 155 181
133 154 181
134 155 181
134 154 181
134 154 181
134 154 181
133 154 181
133 154 181
133 154 181
134 154 181
133 154 181
134 154 180
133 154 181
135 155 181
134 154 181
133 154 181
133 154 181
135 155 181
133 154 180
134 154 181
135 155 181
133 154 180
134 154 181
134 154 181
133 154 181
133 154 181
134 154 181
134 154 181
134 155 181
134 154 181
133 154 181
134 154 180
133 154 181
133 154 181
133 154 181
134 154 180
133 154 181
133 154 181
134 154 181
133 154 181
134 154 180
133 154 181
134 154 181
133 154 181
134 154 181
133 154 181
133 154 181
134 154 180
134 154 181
134 154 181
134 154 181
134 154 181
134 154 181
134 154 181
133 154 181
133 154 181
133 153 180
133 154 181
134 154 181
133 154 181
133 154 180
134 154 181
134 154 181
133 154 181
133 154 181
134 154 181
134 154 181
133 154 180
134 154 181
135 155 181
133 154 181
134 154 181
134 154 181
134 154 181
134 154 181
134 154 181
134 154 181
132 153 179
134 155 181
134 154 180
133 154 181
134 154 180
134 154 181
132 153 180
134 154 181
135 155 181
133 153 180
134 154 181
134 154 181
134 155 181
134 154 181
134 155 181
135 155 181
134 154 181
134 154 181
133 154 181
133 153 180
134 154 181
133 154 181
134 154 181
135 155 181
133 154 181
134 154 181
133 154 181
132 153 180
133 154 180
135 155 181
133 154 181
134 154 181
134 154 181
134 154 181
134 154 181
135 155 181
133 153 180
134 154 181
133 154 181
134 154 181
134 154 181
134 154 181
133 154 180
135 155 181
133 154 181
134 155 181
133 154 180
133 154 181
134 154 181
134 154 181
132 153 180
134 154 181
134 154 181
133 154 180
133 154 181
134 154 181
133 154 180
132 153 180
134 154 181
132 153 180
134 154 181
134 154 180
134 154 181
133 154 181
134 154 181
134 154 180
134 154 180
134 154 180
133 154 181
134 154 181
134 154 180
133 154 180
133 154 181
132 153 180
134 154 181
134 154 181
134 154 181
134 154 181
132 152 179
134 154 181
133 153 180
133 153 180
134 154 181
133 154 181
134 154 180
133 154 181
133 154 181
133 154 181
133 153 179
134 154 181
132 153 180
133 154 181
134 154 181
134 154 181
133 154 180
134 154 181
133 154 181
134 154 181
134 154 181
134 154 180
133 154 180
134 154 181
133 154 181
134 154 181
133 154 181
133 153 179
134 154 181
133 154 180
134 154 181
134 154 180
134 154 181
133 154 181
133 153 180
133 154 181
133 154 181
133 154 181
133 154 180
133 154 181
134 154 181
134 154 181
133 154 181
135 155 181
134 154 181
133 153 180
133 154 181
133 153 180
134 154 181
134 154 181
133 154 181
134 154 181
134 154 180
134 153 179
134 154 181
133 154 181
134 154 181
134 154 181
133 154 181
133 154 180
134 154 180
133 154 181
134 154 181
134 154 181
134 154 181
133 154 181
133 154 181
134 154 181
133 154 181
134 154 181
134 154 181
133 153 180
134 154 181
133 154 180
134 154 181
133 153 179
133 153 180
134 154 181
134 154 181
133 154 181
134 154 181
134 154 181
134 154 180
134 155 181
134 154 180
133 154 181
134 154 181
133 153 180
134 154 181
134 154 181
134 154 181
134 154 181
134 154 181
134 154 181
134 154 181
133 154 181
134 155 181
133 153 180
133 154 181
134 154 181
134 154 181
134 154 181
134 154 181
135 155 181
134 154 181
134 154 181
134 154 181
135 155 181
134 154 181
134 154 181
133 154 181
134 154 181
133 154 181
135 155 181
134 154 181
133 154 180
133 154 181
133 154 181
133 154 181
133 154 181
134 154 181
133 154 181
133 154 181
134 154 181
134 154 181
133 154 181
133 154 181
134 154 181
134 154 181
133 154 181
133 154 181
134 154 181
133 154 181
134 154 181
133 154 181
133 154 181
133 154 181
134 154 181
134 154 181
134 154 181
134 154 181
134 154 180
133 154 181
134 154 181
134 154 181
134 154 181
133 154 180
134 154 181
134 154 181
134 154 181
133 154 181
135 155 181
133 154 181
134 154 181
133 154 181
134 154 180
133 154 181
133 154 181
134 154 181
134 154 181
133 154 181
134 154 181
133 154 181
134 154 181
134 154 181
133 154 181
134 154 181
134 154 181
134 154 181
133 154 181
134 154 181
134 154 181
135 155 181
134 154 181
133 154 181
134 154 181
134 154 181
135 155 181
133 154 181
134 154 181
133 154 181
134 154 181
134 154 181
134 154 181
133 154 180
134 154 181
134 154 181
134 154 181
134 154 181
135 155 181
134 154 180
133 154 181
133 154 181
134 154 181
133 154 181
133 154 181
134 154 181
133 154 180
134 154 181
134 154 180
134 154 181
134 154 181
133 154 181
134 154 181
134 154 181
134 154 181
134 154 181
134 154 181
133 154 181
134 154 181
133 154 181
133 154 181
133 154 181
134 154 181
134 154 181
133 154 181
134 154 181
134 154 181
134 154 181
134 154 181
134 154 181
134 154 181
133 154 181
133 154 181
133 154 181
134 154 181
134 154 181
133 154 181
134 154 181
133 154 181
134 154 181
133 154 180
134 154 181
134 154 181
133 154 181
134 154 181
134 154 181
134 154 181
134 154 181
134 154 181
134 154 181
133 154 181
134 154 181
133 154 181
134 154 181
133 154 181
135 155 181
133 154 181
134 154 181
133 154 181
133 154 181
134 154 181
133 154 181
133 154 181
133 154 180
133 154 181
134 154 181
133 154 181
133 154 181
133 154 181
133 154 181
134 154 181
135 155 181
134 154 181
134 154 181
134 154 180
134 154 180
134 154 181
133 154 181
133 154 181
135 155 181
134 154 181
133 154 181
134 154 181
134 155 181
133 154 180
134 154 181
133 154 181
134 154 181
134 154 181
133 154 181
134 154 181
134 154 181
133 154 181
135 155 181
134 154 181
134 154 181
134 154 181
133 154 180
134 154 181
133 154 181
133 154 181
134 154 180
134 154 181
133 154 181
134 154 181
134 154 181
133 154 180
133 154 181
134 154 181
134 154 181
134 154 181
134 154 181
133 154 181
134 154 181
134 154 181
134 154 181
134 154 181
133 153 180
134 154 181
134 154 181
134 154 181
134 154 181
134 154 181
133 154 181
134 154 181
134 154 181
133 154 181
134 154 181
133 154 181
132 153 180
134 154 180
134 154 181
134 154 181
135 155 181
134 154 181
134 154 181
133 154 180
133 154 180
134 154 181
134 154 181
132 154 181
133 154 181
133 154 181
133 153 180
133 154 181
134 154 181
133 154 180
133 154 181
134 155 181
133 153 180
133 154 181
133 154 181
134 154 181
134 154 181
133 154 181
133 154 181
133 154 180
133 154 181
134 154 181
133 154 181
134 154 181
134 154 180
133 154 181
134 154 181
133 154 180
134 154 181
134 154 181
133 154 181
134 154 180
133 154 181
134 154 181
134 154 181
133 154 180
134 154 181
133 154 181
133 154 180
134 154 181
134 154 181
133 154 181
132 153 180
133 154 180
134 154 181
133 153 180
133 153 180
134 154 181
133 154 180
133 153 180
133 153 179
133 154 181
133 154 181
135 155 181
134 154 181
134 154 180
133 154 181
133 154 180
134 154 181
134 154 181
133 153 180
133 153 180
133 154 181
134 154 181
133 154 181
133 154 180
133 154 180
134 154 181
133 154 180
133 154 181
134 154 180
134 154 181
133 154 181
133 153 180
134 154 181
133 154 181
134 154 181
133 154 181
134 154 181
133 154 181
134 154 180
133 154 180
133 154 180
133 154 180
133 154 181
134 154 181
134 154 181
133 154 181
134 154 181
134 154 180
133 154 180
133 154 181
134 154 180
134 154 181
133 154 181
133 153 180
133 154 181
133 154 181
133 154 180
134 154 181
134 154 181
133 154 181
133 154 181
133 154 181
134 154 181
134 154 180
134 155 181
134 154 181
134 154 181
134 154 181
133 154 181
133 154 181
133 154 181
133 153 180
134 154 181
134 154 181
133 154 180
134 154 180
134 154 180
133 154 180
134 154 181
134 154 181
134 154 181
134 154 181
133 154 181
134 154 181
134 154 181
133 154 181
134 154 181
134 154 181
134 154 181
134 154 181
134 154 181
134 154 181
133 154 181
134 154 181
134 154 181
134 154 180
133 153 180
134 154 181
134 154 180
134 154 181
132 153 181
133 153 180
134 154 180
134 154 181
133 153 180
134 154 181
133 154 180
134 154 181
134 154 181
133 153 180
134 154 180
132 153 180
134 154 180
134 155 181
134 154 181
134 154 181
134 154 181
133 154 181
133 154 181
134 154 180
134 154 180
134 154 181
134 154 180
133 154 180
133 154 181
135 154 180
133 153 180
133 154 181
134 154 181
135 155 181
134 154 181
133 154 181
133 154 181
133 154 181
133 154 181
134 154 181
134 154 181
134 154 181
134 154 181
133 154 181
134 154 181
134 154 181
134 154 180
133 154 181
133 154 181
133 154 181
133 154 181
133 154 181
134 154 181
134 154 181
134 154 181
134 154 181
134 154 181
133 154 181
134 155 181
134 154 181
133 154 181
134 154 181
133 154 180
134 154 180
134 154 181
134 154 181
133 154 181
133 154 181
134 154 181
135 155 181
135 155 181
133 154 181
133 154 181
133 154 180
134 154 181
134 154 181
134 154 181
133 154 181
133 154 181
133 154 181
133 154 181
133 154 180
134 154 181
133 154 181
134 154 181
134 154 181
134 154 181
134 154 181
135 155 181
134 154 181
133 154 181
134 154 181
133 154 181
134 154 181
134 155 181
134 154 181
134 154 181
134 154 181
133 154 181
134 154 181
133 154 181
133 154 180
134 154 181
134 154 181
134 154 181
133 154 181
134 154 181
134 154 181
133 154 181
134 154 181
134 154 180
134 154 181
134 154 180
134 154 181
134 154 181
134 154 181
133 154 181
134 154 181
133 154 181
134 154 181
133 154 181
133 154 181
134 155 181
133 154 181
134 154 181
135 155 181
133 154 181
134 154 181
134 154 181
134 154 181
134 154 181
134 154 181
134 154 181
134 154 181
133 154 180
133 154 181
134 154 181
134 154 181
134 154 181
134 154 181
133 154 181
133 154 180
134 154 181
134 154 181
135 155 181
135 155 181
135 155 181
133 154 181
133 154 180
134 154 181
133 154 181
134 154 181
132 153 181
135 155 181
134 154 180
134 154 181
134 154 181
134 154 181
133 154 181
133 153 180
134 154 181
133 154 181
134 154 181
134 154 181
133 154 180
133 154 181
134 154 181
134 154 181
133 154 181
134 154 181
133 154 181
134 154 181
134 154 181
133 154 181
133 154 181
134 154 181
134 154 181
134 154 180
133 154 181
134 154 181
134 154 181
134 154 181
134 154 181
133 154 181
133 154 181
133 154 181
133 154 180
133 154 180
134 154 181
134 154 181
133 154 181
134 154 181
134 154 181
134 154 181
134 154 181
133 153 180
134 154 181
135 155 181
133 154 181
134 154 181
133 154 181
134 154 181
132 153 180
134 154 181
133 154 181
134 154 181
134 154 181
134 154 181
134 154 181
134 154 181
134 154 181
134 154 181
134 154 181
133 154 180
134 154 181
134 154 180
133 154 181
133 154 181
134 154 181
133 153 180
134 154 181
133 154 181
133 154 181
134 154 181
134 154 181
134 154 181
135 155 181
134 154 181
134 154 181
134 154 181
134 154 181
133 154 181
134 154 181
134 154 181
134 154 181
133 154 181
134 154 181
133 153 180
134 154 181
134 154 181
133 154 181
134 154 181
134 154 181
134 155 181
133 154 181
133 154 181
134 154 181
134 154 181
134 154 181
132 154 181
134 154 181
135 155 181
134 154 181
134 154 181
133 154 181
134 154 181
134 154 181
133 154 180
133 154 180
133 153 180
133 154 181
134 154 181
132 153 180
134 154 181
134 154 181
134 154 181
134 154 181
133 154 181
133 153 180
134 154 180
134 154 181
133 154 181
133 154 180
134 155 181
134 154 181
134 154 180
133 154 181
134 154 181
135 155 181
134 154 181
134 154 181
134 154 181
134 154 180
133 154 181
134 154 180
134 154 181
134 154 181
133 153 180
133 154 181
134 154 181
134 154 181
134 154 181
134 154 180
133 154 180
134 154 181
134 154 180
134 154 181
133 154 180
133 154 181
133 154 181
134 154 180
133 154 180
133 154 181
133 154 181
132 153 180
134 154 181
134 154 181
134 154 181
134 154 181
132 153 180
133 154 180
134 154 181
134 154 180
133 153 180
134 154 181
134 154 181
133 154 181
134 154 181
133 154 181
134 154 181
133 154 181
133 153 179
133 154 181
134 154 181
132 153 180
134 154 181
134 154 180
133 153 180
134 154 181
134 154 181
133 154 181
133 154 181
134 154 181
133 154 181
134 154 181
135 155 181
134 154 181
133 154 180
133 154 181
134 154 181
134 154 181
134 154 181
133 154 180
133 154 180
133 153 180
134 154 180
133 154 181
134 154 180
134 154 181
134 154 181
133 153 180
134 154 181
134 154 181
134 154 181
133 154 181
134 154 181
133 154 181
133 153 180
133 154 180
134 154 181
134 154 181
132 153 180
133 154 181
133 154 181
133 154 180
133 154 180
134 154 181
134 154 181
133 154 181
133 153 180
135 155 181
134 154 181
134 154 181
135 155 181
133 154 180
133 154 180
134 154 181
133 154 181
133 154 181
133 154 181
134 154 181
133 154 181
135 155 181
133 154 181
134 154 181
133 154 180
134 154 180
134 154 181
134 154 181
134 154 181
133 153 180
134 154 181
135 155 181
134 154 181
133 153 180
133 154 181
133 153 180
134 154 181
133 153 179
134 154 181
134 154 180
134 154 181
134 154 180
134 154 181
134 154 181
134 154 181
134 154 181
134 154 181
134 154 181
133 153 180
133 154 181
134 154 181
134 154 181
134 154 180
134 154 181
134 154 181
133 154 180
134 154 181
134 154 181
133 154 181
134 154 181
133 153 180
134 154 181
133 153 180
134 155 181
134 154 180
134 154 181
133 154 181
133 153 180
133 154 181
134 153 180
133 154 181
133 154 181
133 153 180
133 154 181
135 155 181
133 154 181
135 155 181
134 154 181
134 154 181
134 154 180
134 154 181
134 154 181
133 154 181
133 154 181
134 155 181
134 154 181
134 154 181
133 154 181
135 155 181
133 154 181
133 154 181
134 154 181
133 154 181
134 154 181
133 154 181
134 154 181
133 154 181
133 154 181
133 154 181
134 154 181
133 154 181
134 155 181
134 154 181
133 154 181
134 154 181
134 154 181
133 154 181
134 154 181
134 155 181
134 154 181
133 154 181
135 155 181
134 154 180
133 154 180
133 154 181
133 154 181
134 154 181
133 154 181
134 154 181
134 154 181
133 154 181
134 154 181
134 154 181
133 154 181
134 154 181
134 154 181
133 154 181
133 154 181
133 154 181
134 154 180
133 154 181
134 155 181
134 154 181
133 154 181
134 154 181
134 154 181
133 154 181
134 154 181
134 154 181
134 154 181
134 154 181
134 154 181
134 154 181
134 154 181
133 154 181
133 154 181
133 154 181
134 154 181
134 154 181
134 154 181
134 154 181
133 154 181
134 154 181
133 154 181
133 154 181
133 154 181
133 154 181
133 154 181
134 154 181
133 154 181
133 154 181
134 155 181
133 154 181
133 153 180
133 154 181
135 155 181
134 154 181
134 154 181
133 154 181
135 155 181
134 154 181
134 154 181
134 154 180
133 154 181
133 154 181
134 154 181
133 154 181
133 154 181
134 154 181
133 154 181
134 154 181
134 154 181
134 154 181
134 154 181
134 154 181
135 155 181
133 154 181
134 154 181
134 154 180
133 154 181
134 154 181
134 154 181
133 154 181
134 154 181
133 153 180
135 155 181
134 154 180
134 154 181
134 154 181
133 154 181
134 154 180
133 154 181
133 153 180
135 155 181
134 154 181
134 154 181
134 154 181
134 154 181
134 154 181
134 154 180
135 155 181
133 153 180
134 154 181
134 154 180
134 154 181
134 154 181
135 155 181
133 154 181
133 154 181
134 154 181
134 154 181
135 155 181
134 154 181
133 154 181
133 154 181
134 154 181
134 154 181
133 154 181
134 154 181
134 154 181
134 154 181
134 154 180
134 154 181
134 154 181
133 154 181
133 153 180
134 154 181
133 154 181
133 154 180
133 154 181
133 154 181
134 154 181
135 155 181
134 154 181
133 154 181
134 154 181
134 154 181
133 154 181
134 154 181
133 154 181
134 154 181
133 154 181
133 154 181
134 154 181
133 154 181
133 154 181
134 154 181
134 154 181
133 153 180
133 153 180
134 154 181
133 154 181
134 154 181
134 154 181
133 153 180
135 155 181
134 154 181
134 154 180
133 154 181
134 154 181
135 155 181
134 154 181
133 154 181
133 154 181
134 154 181
134 154 180
134 154 181
133 154 180
134 154 181
133 153 180
133 154 181
135 155 181
133 154 181
134 154 181
134 154 181
134 155 181
133 154 181
133 154 181
134 154 181
134 154 181
134 154 181
133 154 181
133 154 181
134 154 181
133 154 181
133 154 181
134 154 180
134 154 181
133 154 181
133 154 181
134 154 181
133 153 179
135 155 181
133 154 181
133 154 180
134 154 181
134 154 181
134 154 181
133 154 181
134 154 181
134 154 181
134 154 180
133 154 181
134 154 181
134 154 181
134 154 181
132 153 180
135 155 181
133 154 180
133 154 181
133 154 180
134 154 181
133 154 181
134 154 181
134 154 181
133 153 180
134 154 181
133 154 181
133 154 181
134 154 181
133 154 181
134 154 180
133 154 181
133 154 181
133 153 180
134 154 180
134 154 181
133 153 180
134 154 181
134 155 181
134 154 181
133 154 181
134 154 181
133 154 181
134 154 181
134 155 181
132 153 180
134 154 181
133 154 181
133 154 181
134 154 181
134 154 180
133 153 180
134 154 181
133 153 180
132 153 181
133 153 180
134 154 181
134 154 181
134 154 181
134 154 180
134 154 181
134 155 181
134 154 181
133 154 181
134 154 181
134 154 181
134 154 181
134 154 181
133 153 180
133 154 181
134 154 181
133 154 181
134 154 181
134 154 180
134 154 181
134 154 181
134 154 181
133 154 181
134 155 181
133 153 180
134 153 179
133 154 180
135 155 181
133 153 180
133 154 181
133 154 181
134 154 181
134 154 181
133 153 180
133 154 181
134 154 181
133 154 180
134 154 181
133 153 180
134 154 181
134 154 181
135 155 181
133 154 181
134 154 181
134 154 181
133 154 181
133 154 181
133 154 181
134 154 181
133 154 181
133 154 180
133 154 181
134 154 181
134 154 181
133 153 180
134 154 181
133 154 181
134 153 179
133 154 180
134 154 181
133 154 181
133 154 181
133 154 181
133 153 180
134 154 181
134 154 181
134 154 181
134 154 181
134 154 180
133 154 181
133 154 181
133 154 181
133 153 180
133 154 181
134 154 180
133 154 181
133 153 180
134 154 181
133 154 181
133 154 181
134 154 181
135 155 181
134 154 181
133 153 180
132 153 179
134 154 181
133 154 181
134 154 181
133 154 181
133 154 181
133 154 181
134 154 181
134 154 181
134 154 181
133 153 180
134 154 180
133 154 181
133 154 181
134 154 180
133 154 180
133 153 179
133 153 180
135 155 181
134 154 181
134 154 181
134 154 181
133 153 180
133 153 179
134 154 180
134 154 181
135 155 181
133 154 181
133 153 179
134 154 181
133 153 180
134 155 181
134 154 181
134 154 181
134 154 181
133 154 181
133 154 181
132 153 180
134 154 181
134 155 181
134 154 181
134 154 181
133 154 181
133 154 181
133 154 180
133 154 180
134 154 181
135 155 181
133 154 181
133 154 181
134 154 181
134 154 181
133 154 181
133 154 181
133 154 181
134 154 181
134 154 181
134 154 181
133 154 181
134 154 181
133 154 181
134 154 181
134 155 181
135 155 181
133 154 181
133 154 181
134 154 181
134 154 181
132 154 181
134 155 181
133 154 181
133 154 181
134 154 181
133 154 181
133 154 181
134 154 181
134 154 181
134 154 181
135 155 181
133 153 180
134 154 181
134 154 181
133 154 181
133 154 181
133 154 181
134 154 181
134 154 181
134 154 181
133 154 180
134 154 181
134 154 181
133 154 181
134 154 180
133 154 181
134 154 181
134 154 181
134 154 181
134 154 181
133 154 181
134 154 181
134 154 181
133 154 181
134 154 181
134 154 181
133 154 180
134 154 181
134 154 181
133 153 180
134 154 181
133 154 180
134 154 181
135 155 181
133 154 181
133 154 181
134 154 181
135 155 181
135 155 181
134 154 181
134 154 181
134 154 181
134 154 181
134 154 181
133 153 180
134 154 181
134 154 181
133 154 180
133 154 181
134 154 181
133 154 181
134 154 181
133 154 180
134 154 181
133 154 181
133 154 181
134 154 181
134 154 181
134 155 181
134 154 181
134 154 181
134 154 181
134 154 181
134 154 180
133 154 181
134 155 181
133 154 181
134 154 181
134 154 181
134 154 181
133 154 181
134 154 181
133 154 181
134 154 181
133 154 180
133 154 181
134 154 181
134 154 180
133 154 181
134 154 181
134 154 181
134 154 180
134 154 181
134 154 180
134 154 181
133 154 181
134 154 181
134 154 181
134 154 181
134 154 181
134 154 181
134 154 181
134 154 181
133 154 181
134 154 181
133 154 181
134 154 181
134 154 181
133 154 181
133 154 181
134 154 181
134 154 181
134 155 181
134 154 181
134 154 181
133 154 181
134 154 181
133 154 181
134 154 181
133 154 181
133 154 180
133 154 180
133 154 181
134 154 180
134 154 181
133 154 181
134 154 180
134 154 181
133 153 180
133 154 180
133 154 181
133 154 181
134 154 181
134 154 181
134 154 181
134 154 181
134 154 181
133 154 181
134 154 181
134 154 181
134 154 181
134 154 181
133 154 181
134 154 181
134 154 181
134 154 181
133 154 181
134 154 181
134 154 181
135 155 181
134 155 181
134 154 181
133 154 181
134 154 181
133 154 181
134 154 181
133 154 181
133 154 181
133 154 181
134 154 181
133 154 181
134 154 181
134 154 181
134 154 181
133 154 181
133 154 180
133 154 180
133 154 181
134 154 181
134 154 181
134 154 181
134 155 181
134 154 180
135 155 181
134 154 181
134 154 181
133 154 181
134 154 181
133 154 180
134 154 181
133 154 181
134 154 180
134 154 181
132 153 179
133 154 181
134 154 181
134 154 181
134 154 181
134 154 181
133 154 180
134 154 181
134 154 181
133 153 179
134 154 181
133 154 181
133 153 180
134 154 181
134 154 181
133 153 180
134 154 181
134 154 181
134 154 181
133 154 180
133 154 181
134 154 181
133 154 181
133 154 181
134 154 181
134 155 181
134 154 181
133 154 181
133 154 181
134 154 180
134 154 181
134 154 181
134 154 181
134 154 180
134 154 181
134 154 181
134 154 181
133 154 180
133 154 181
133 154 181
133 154 181
133 154 180
133 154 181
135 155 181
133 154 181
134 154 181
133 154 181
133 154 180
134 154 181
135 155 181
134 154 180
134 154 181
133 154 181
134 154 181
133 154 181
133 153 180
134 154 181
134 154 181
134 154 181
134 154 181
133 153 180
134 154 181
133 154 181
134 154 181
134 154 180
133 153 180
134 154 181
133 154 180
134 154 181
134 154 181
134 154 181
134 154 181
133 153 180
133 154 181
135 155 181
134 154 181
134 155 181
133 154 181
134 154 181
134 154 181
134 154 180
133 154 181
133 154 180
133 153 180
133 154 181
134 154 181
133 153 180
134 154 181
133 153 180
134 154 180
133 154 180
134 154 181
133 154 180
134 155 181
134 154 180
134 154 181
134 154 181
133 154 181
132 153 180
134 154 181
133 154 181
133 154 180
133 154 181
133 154 181
133 153 179
133 154 180
133 154 180
133 154 181
134 154 181
134 154 181
132 153 180
133 154 180
133 153 180
133 154 180
134 154 180
133 154 181
134 154 180
134 154 181
133 153 180
133 153 180
134 154 181
133 154 181
133 154 180
133 154 181
135 155 181
133 153 180
134 154 181
135 155 181
133 154 181
133 154 181
134 154 181
133 154 180
134 154 181
133 154 181
134 154 181
134 154 180
134 154 180
134 154 181
133 154 181
135 155 181
134 154 181
134 154 181
134 154 180
134 154 181
133 153 180
134 154 181
133 154 181
134 154 181
134 154 181
134 154 181
134 154 181
132 153 180
135 155 181
133 153 180
132 153 181
133 153 180
133 154 181
134 154 181
133 154 180
133 154 181
134 154 180
133 154 181
134 154 181
133 154 181
133 153 180
134 154 181
133 154 181
134 154 180
133 154 181
133 152 179
134 154 181
134 154 180
134 154 181
133 153 180
134 154 181
133 154 181
134 154 180
134 154 181
133 154 180
134 154 180
134 154 181
134 154 180
133 153 179
133 154 181
134 154 181
134 154 181
134 154 181
134 154 181
133 154 180
134 154 181
134 154 181
133 154 181
133 154 180
133 154 181
134 154 181
133 154 181
134 154 181
134 154 181
134 154 180
134 154 181
135 155 181
133 154 181
134 154 181
135 155 181
133 154 181
134 154 181
134 154 181
134 154 181
133 154 181
134 154 181
134 154 181
134 154 181
135 155 181
134 154 181
134 154 180
133 154 181
134 154 181
135 154 180
133 154 181
133 154 181
134 154 181
133 154 181
134 154 181
134 154 181
133 154 180
134 155 181
133 154 180
134 154 181
135 155 181
134 154 181
133 154 181
134 154 181
133 154 181
133 154 181
134 154 181
134 154 181
134 154 181
134 154 181
134 154 181
133 154 181
133 154 181
134 154 181
134 154 181
134 154 181
134 154 181
134 154 181
133 154 181
134 154 181
134 154 180
133 154 181
134 154 181
133 154 181
133 154 180
134 154 181
134 154 181
134 154 181
134 154 181
133 154 181
132 153 181
134 154 181
134 155 181
134 154 181
134 154 181
134 154 181
134 154 181
134 154 181
134 154 181
134 154 181
133 154 181
133 154 181
134 154 181
134 155 181
134 154 181
133 154 181
134 154 181
134 154 181
133 154 181
133 154 181
134 154 181
133 154 181
132 153 180
134 154 181
134 154 180
133 153 180
134 154 181
133 154 181
134 154 181
134 154 181
133 154 181
134 154 181
134 154 181
134 154 181
134 154 181
134 154 180
134 154 181
133 154 181
134 154 181
134 154 181
134 154 181
134 154 180
134 154 181
133 154 181
134 154 181
133 154 181
134 154 181
133 154 181
133 154 181
133 154 181
134 154 181
134 155 181
133 154 181
133 154 181
133 154 181
133 154 181
133 154 181
134 154 181
133 154 180
134 154 181
133 154 181
134 154 181
134 154 181
134 154 181
134 154 181
133 154 181
135 155 181
134 154 181
134 154 181
133 154 181
134 154 181
133 154 181
133 154 181
134 154 181
134 154 181
134 154 181
134 154 181
134 154 181
133 154 181
134 154 181
134 154 181
133 153 180
134 154 181
134 154 181
133 154 181
133 154 181
133 154 181
135 155 181
133 154 181
136 155 181
134 154 181
134 154 181
133 154 181
133 154 181
133 154 181
135 154 180
133 154 181
133 154 181
134 154 181
134 154 181
134 154 181
134 154 181
134 154 181
133 154 180
134 154 181
133 154 181
133 154 181
134 154 181
134 154 180
133 154 181
134 155 181
132 153 181
134 154 181
132 153 180
134 154 181
134 154 181
134 154 181
134 154 181
133 154 181
134 154 181
134 154 181
134 154 180
134 154 181
133 154 181
133 154 181
133 154 181
134 154 181
134 154 180
134 154 181
133 153 180
134 154 181
133 153 180
134 154 181
133 154 181
134 154 181
133 154 181
134 154 181
134 154 181
133 154 181
134 154 181
134 154 181
134 154 181
134 154 181
133 154 181
133 154 181
133 154 181
133 154 181
134 154 181
133 154 181
133 154 181
133 154 181
134 154 181
134 154 181
133 154 181
134 154 180
134 154 181
133 153 180
134 154 180
133 154 181
134 154 180
133 154 181
133 154 180
134 154 181
134 154 181
134 154 181
134 153 180
134 154 180
134 154 181
133 154 181
134 154 181
133 154 180
133 154 181
134 154 181
133 154 181
134 154 181
134 154 181
133 153 180
133 154 181
134 154 181
134 154 181
133 153 180
134 154 181
133 154 181
134 154 181
133 153 180
133 154 180
133 154 181
133 154 181
134 154 181
134 154 180
133 154 181
134 154 180
133 153 180
134 154 180
133 154 181
134 154 180
133 153 180
134 154 181
133 154 180
134 154 181
133 153 180
134 154 181
134 154 180
134 154 181
133 154 180
132 153 180
133 154 180
133 154 181
133 154 181
134 154 181
133 154 181
134 154 181
134 154 181
134 154 181
134 154 181
133 154 180
133 153 180
133 153 180
134 154 180
133 154 180
134 154 181
131 152 179
133 153 180
133 154 181
133 154 180
134 154 181
133 153 179
134 154 181
133 154 180
134 154 181
134 154 181
134 154 180
134 154 180
133 154 180
133 154 181
134 154 181
134 154 181
134 154 181
134 154 181
133 154 181
134 154 181
133 153 180
133 154 181
133 154 180
133 154 181
133 153 180
134 154 180
133 154 181
133 154 181
135 155 181
133 154 181
133 154 180
134 154 181
134 154 180
134 154 181
133 154 180
133 154 180
134 154 181
133 153 180
133 154 181
133 153 180
133 154 180
133 154 181
133 154 181
133 154 181
133 154 181
134 154 181
135 155 181
133 153 180
134 153 180
133 154 181
134 154 180
134 154 181
134 154 181
133 153 180
134 154 181
133 153 180
134 154 181
133 154 181
134 154 181
134 154 181
134 154 180
133 154 181
133 154 181
134 154 181
133 154 181
133 154 181
134 155 181
133 154 181
134 154 181
133 154 181
134 154 181
133 153 180
134 154 181
132 153 180
134 154 180
133 154 181
134 154 181
133 154 181
133 154 181
133 154 180
133 154 181
133 154 181
133 154 181
134 154 180
134 154 180
134 154 181
133 153 180
134 154 180
134 154 181
134 154 181
134 154 181
134 154 181
134 154 181
134 154 181
134 154 181
133 153 180
133 154 181
134 154 181
133 154 181
134 154 181
134 154 181
134 155 181
134 155 181
134 154 181
134 154 181
133 154 181
134 154 181
134 154 181
135 155 181
133 153 180
133 154 180
134 154 181
134 154 181
135 155 181
134 154 181
134 154 181
134 154 181
134 154 181
134 154 181
133 154 181
134 154 181
134 154 181
134 154 181
133 153 180
133 154 181
133 154 181
134 154 181
133 154 180
133 153 180
134 154 181
134 154 181
134 154 181
135 155 181
134 154 181
134 154 181
134 154 181
134 155 181
134 154 181
134 154 181
135 155 181
134 154 181
135 155 181
133 154 181
133 154 181
134 154 181
134 154 180
133 154 180
134 154 181
135 155 181
133 154 181
134 154 181
134 154 181
134 154 181
134 154 181
133 154 181
134 154 181
133 154 181
134 155 181
134 154 181
134 154 181
133 154 181
133 154 181
133 154 181
134 154 181
134 154 181
133 154 181
134 154 181
134 154 181
133 154 181
134 154 181
134 154 181
135 155 181
134 154 181
135 155 181
134 154 181
135 155 181
134 154 181
134 154 181
134 154 181
135 155 181
133 154 181
133 154 181
134 154 181
134 154 180
134 154 181
134 154 181
134 154 181
134 154 181
134 154 181
134 154 181
133 154 181
135 155 181
134 154 181
133 154 181
133 154 181
133 154 181
134 154 181
134 154 181
134 154 181
133 153 180
133 154 181
134 154 181
134 154 180
133 153 180
134 154 181
133 153 180
133 154 181
133 154 181
134 154 181
134 154 181
134 154 181
134 154 181
134 154 181
134 154 181
134 154 181
133 154 180
134 154 181
134 154 181
134 154 181
135 155 181
133 154 180
133 154 181
134 154 181
134 154 181
134 154 180
133 154 180
134 154 181
134 154 181
134 154 181
134 154 181
134 154 181
134 154 181
134 154 181
134 154 181
133 154 181
134 154 181
134 154 181
134 154 181
133 154 181
133 154 181
134 154 181
133 154 181
134 154 181
133 154 181
133 154 181
134 154 181
134 154 181
134 154 181
133 154 181
134 154 181
134 154 181
133 153 180
133 154 181
135 155 181
133 154 181
133 154 181
133 154 181
133 154 181
133 154 181
134 154 181
134 154 180
133 154 181
134 154 181
133 154 181
134 154 181
134 154 181
133 154 181
134 154 180
134 154 181
134 154 180
134 154 180
134 154 181
133 154 181
134 154 181
134 154 181
134 154 180
133 153 180
134 154 181
133 154 181
133 154 181
135 155 181
133 154 181
135 154 180
134 154 181
133 154 181
134 154 181
135 155 181
133 154 181
134 154 180
134 154 181
134 154 180
135 155 181
134 154 180
134 154 181
134 154 181
134 154 181
134 154 181
134 154 181
134 154 181
134 154 181
134 154 181
134 154 181
133 154 181
133 154 181
135 155 181
135 155 181
134 154 181
133 154 181
134 154 181
134 154 181
135 155 181
134 154 181
134 154 181
134 154 181
134 154 181
133 154 181
134 154 181
134 154 181
133 154 181
134 154 181
134 154 181
133 154 181
134 155 181
134 154 181
134 154 181
134 154 181
134 155 181
134 154 181
134 154 181
133 153 180
133 154 181
133 154 181
133 153 180
134 154 181
133 154 180
135 155 181
133 154 181
134 154 180
134 155 181
133 154 181
135 155 181
134 154 181
133 153 180
133 154 181
133 154 181
133 153 180
133 154 181
134 154 180
133 154 180
134 154 181
134 154 181
134 154 181
134 154 180
132 153 180
134 154 180
133 154 181
133 153 180
134 154 180
133 154 180
134 154 181
134 154 181
133 154 181
133 154 181
134 154 180
134 154 181
133 154 181
134 154 181
133 154 181
134 154 181
133 154 181
134 154 180
134 154 181
134 154 181
134 154 181
133 154 181
135 154 180
133 154 181
134 154 181
134 154 181
133 154 180
133 154 181
134 154 180
134 154 180
134 154 181
133 154 181
133 154 181
134 154 181
133 154 180
135 155 181
133 154 181
134 154 181
134 154 181
133 154 181
134 154 181
133 154 180
134 154 180
134 154 181
133 154 180
134 154 181
134 154 181
133 154 181
133 154 180
134 154 181
133 153 180
134 154 181
135 155 181
134 154 181
134 154 181
134 154 181
134 154 181
133 154 181
134 154 181
133 154 181
133 153 180
134 155 181
133 154 181
133 153 180
134 154 181
134 154 181
133 154 181
134 154 181
133 154 180
133 154 181
133 153 180
134 154 181
133 154 181
134 154 180
133 154 181
133 154 181
133 153 180
132 153 180
133 154 181
133 154 181
133 154 181
134 155 181
135 155 181
134 154 181
133 154 180
134 154 181
134 155 181
135 155 181
134 154 181
134 154 180
134 154 181
133 154 181
134 154 181
134 154 181
134 154 181
134 154 181
134 154 181
133 154 181
133 154 181
134 154 181
134 154 181
133 153 179
133 154 180
133 154 181
134 154 181
133 154 180
134 154 181
134 154 181
134 154 181
134 154 181
134 155 181
132 153 180
134 154 181
134 154 181
134 154 180
133 154 181
134 154 181
134 154 180
134 154 181
134 154 180
134 154 180
133 153 180
135 155 181
135 155 181
134 154 181
133 153 180
134 154 181
133 154 180
134 154 180
134 154 181
134 155 181
133 154 181
134 154 181
134 154 181
134 154 181
133 153 180
133 154 181
134 154 181
134 154 180
133 153 180
134 154 181
134 154 181
134 153 179
133 154 181
134 154 181
134 154 180
134 155 181
133 154 181
134 154 181
134 154 181
133 154 180
133 154 181
133 153 180
134 154 181
134 154 181
135 155 181
133 154 181
133 154 181
134 154 181
134 154 181
134 155 181
134 154 181
133 154 181
134 154 181
135 155 181
133 154 181
134 154 180
134 154 181
133 154 181
134 154 181
134 154 181
134 154 181
133 153 180
134 154 181
134 154 181
134 154 181
134 154 181
134 154 180
133 154 181
134 154 181
133 154 181
134 154 181
134 154 181
134 154 181
133 154 181
134 154 181
133 154 181
133 154 181
134 154 181
134 154 181
134 154 181
135 155 181
135 155 181
133 154 181
133 154 181
134 154 181
134 154 181
134 154 180
134 154 181
134 154 181
133 154 181
134 154 181
134 154 181
134 154 181
134 154 181
134 154 181
133 154 181
134 154 181
134 154 181
135 155 181
134 154 181
134 154 181
134 154 181
133 154 181
133 154 181
134 154 181
133 154 181
133 154 181
134 154 181
134 154 181
134 154 181
135 155 181
134 155 181
134 154 181
132 153 180
134 154 181
133 154 181
134 154 181
134 154 181
133 154 181
133 154 181
134 154 181
135 155 181
134 154 181
135 155 181
133 154 181
134 154 181
134 154 181
134 154 181
134 154 181
133 153 180
133 154 181
134 154 181
134 154 181
134 154 181
134 154 181
134 154 181
134 154 181
134 154 181
134 154 181
134 154 181
134 154 181
134 154 181
134 154 181
134 154 181
134 154 181
132 154 181
133 154 180
133 154 181
133 153 180
134 154 181
134 154 181
133 154 181
134 155 181
133 154 181
134 154 181
134 154 181
134 154 181
134 154 181
134 154 181
133 154 181
134 154 181
133 154 181
133 154 181
135 155 181
133 154 181
134 154 180
134 155 181
133 154 181
134 154 181
134 154 181
134 154 181
133 154 181
134 154 181
134 154 181
134 154 181
134 154 181
135 155 181
133 154 180
135 155 181
133 154 181
133 154 181
134 154 181
135 155 181
133 154 181
134 154 181
133 154 181
135 155 181
134 154 181
133 154 181
134 154 181
134 154 181
134 154 181
132 153 180
134 154 181
134 154 181
134 154 181
133 154 180
135 155 181
134 154 181
133 154 181
134 154 181
133 154 181
132 153 180
133 154 181
134 154 181
133 154 181
133 153 180
134 154 181
133 154 181
133 154 181
134 154 181
133 154 180
133 153 179
133 154 180
134 155 181
133 154 181
134 154 181
133 154 180
133 154 181
133 154 181
133 154 181
135 154 180
134 154 181
134 154 181
134 154 181
133 154 181
134 154 181
134 154 181
133 154 181
133 154 180
134 154 181
134 154 181
134 154 181
134 154 181
133 154 181
134 154 181
133 154 181
134 154 181
135 155 181
133 153 180
134 154 181
134 154 181
133 153 180
133 154 181
134 154 181
133 154 181
134 154 181
134 154 180
134 154 181
133 154 181
134 154 181
134 154 181
134 154 181
133 154 180
134 154 181
134 154 181
134 154 181
133 153 180
133 154 181
133 154 180
134 154 181
134 154 181
135 155 181
134 154 180
133 154 181
133 154 181
134 154 181
133 154 181
133 154 181
133 154 181
133 153 180
134 154 181
135 155 181
134 154 181
134 154 181
133 154 180
134 154 181
134 154 181
133 153 180
133 153 180
134 154 181
134 154 181
134 154 181
134 154 181
134 154 181
134 154 180
134 154 181
133 153 180
133 154 181
133 153 180
133 154 180
133 154 181
133 154 181
133 154 181
133 154 181
134 154 180
133 154 181
134 154 181
133 154 180
133 154 180
134 154 181
133 154 181
133 154 181
135 154 180
132 153 179
134 154 181
133 154 181
134 154 181
133 154 181
134 154 181
133 154 180
134 155 181
133 153 180
134 154 181
134 154 181
133 154 181
133 153 180
133 154 181
134 154 181
134 154 180
133 154 181
133 154 180
134 154 181
133 154 180
134 154 180
134 154 180
134 154 181
134 154 181
134 154 181
134 154 181
133 154 181
134 154 181
135 155 181
134 154 181
133 154 180
134 154 181
134 154 181
134 154 181
133 154 181
133 154 181
134 154 181
133 154 181
133 153 179
133 153 180
133 154 181
134 154 181
134 154 180
135 155 181
133 153 180
134 154 181
133 154 181
133 154 181
134 154 181
133 154 181
133 154 181
134 154 181
134 154 180
134 154 181
133 154 181
134 154 180
134 154 181
133 154 181
134 154 181
132 153 180
133 154 181
134 154 181
133 153 180
133 153 180
133 154 181
133 153 180
132 153 180
134 154 181
133 154 181
134 154 181
133 153 180
134 154 181
133 154 180
132 153 181
133 154 181
134 154 180
134 154 181
134 154 181
134 154 181
133 154 181
133 154 181
133 153 180
134 155 181
134 154 181
133 154 181
134 154 181
133 154 181
134 154 181
133 154 181
134 154 180
134 154 180
134 154 181
133 154 181
134 154 181
133 153 180
132 153 180
133 153 180
135 155 181
133 154 180
134 154 181
134 154 181
133 154 181
134 154 180
133 154 181
133 153 180
133 154 180
134 154 181
134 154 181
133 154 181
134 154 180
134 154 181
133 154 180
133 154 180
134 154 181
133 154 181
134 154 181
134 154 181
134 154 181
133 154 180
134 154 181
133 154 180
134 154 181
133 153 180
133 153 180
134 154 181
134 154 181
134 154 180
134 154 181
133 154 180
133 154 181
134 154 181
133 154 181
133 154 181
134 154 181
134 154 181
134 154 181
134 154 181
134 154 181
134 154 181
134 154 181
134 154 181
134 154 181
134 154 181
133 154 181
134 154 181
133 154 181
134 154 181
134 154 181
134 154 181
133 154 181
134 154 181
134 154 181
134 154 181
134 154 181
134 154 181
133 154 181
133 154 181
133 154 181
133 154 181
134 154 181
134 154 181
134 154 181
133 154 181
134 154 181
134 154 181
134 154 181
133 154 181
133 154 181
133 154 181
134 154 181
134 154 181
133 154 181
133 154 181
135 155 181
134 154 181
134 154 181
134 154 181
133 154 181
134 154 181
134 154 181
134 155 181
134 154 181
134 154 181
134 154 181
134 154 181
134 154 181
133 154 181
134 154 181
133 154 181
133 154 181
134 154 181
133 154 181
134 154 181
134 154 181
134 154 181
134 154 181
134 154 181
134 154 181
134 154 181
134 154 181
134 154 181
134 154 181
134 154 181
133 154 181
134 154 181
134 154 181
133 154 181
134 154 181
134 154 181
133 154 181
133 154 181
133 154 181
133 154 181
134 154 181
134 154 181
134 154 181
134 154 181
134 154 181
134 154 181
133 154 181
133 154 181
134 154 181
134 154 181
134 154 181
134 154 180
134 154 181
134 154 181
133 153 180
133 154 180
133 154 181
133 154 181
133 154 181
133 154 181
134 154 181
133 154 181
132 153 181
134 154 181
134 154 181
133 154 181
133 154 181
133 154 181
133 154 181
134 154 181
134 154 181
133 154 181
133 153 180
134 154 181
133 154 181
134 154 181
133 154 181
134 154 180
134 154 181
135 155 181
134 154 181
134 154 181
133 153 180
135 155 181
134 154 181
133 153 180
133 154 181
134 154 181
134 154 181
133 154 181
134 155 181
133 154 181
133 154 181
133 154 181
133 154 181
133 154 180
134 154 181
133 154 181
134 155 181
133 154 180
134 154 180
134 154 181
133 154 181
133 154 181
134 154 181
133 154 181
133 153 180
134 154 181
134 154 181
134 154 181
132 153 180
135 155 181
135 155 181
133 153 180
133 154 181
134 154 180
134 154 181
133 154 181
134 154 181
134 154 181
134 154 181
134 154 181
134 154 181
133 154 181
134 154 181
134 154 181
133 154 181
133 154 181
133 154 180
134 154 181
133 154 181
133 153 180
133 154 181
133 153 179
134 154 181
133 153 180
133 154 181
132 153 180
134 154 181
134 154 181
133 153 180
134 154 180
133 154 180
135 155 181
133 154 181
132 153 180
133 154 181
134 154 181
133 153 180
134 154 181
133 153 180
134 154 181
134 154 181
133 153 180
134 154 181
135 155 181
133 154 181
133 154 181
133 154 181
133 154 180
134 155 181
134 154 181
133 154 181
135 155 181
133 154 181
133 154 181
133 154 181
134 154 181
134 154 181
133 154 181
134 154 180
134 154 181
134 154 181
133 154 181
133 154 181
134 154 181
134 154 181
134 154 181
134 154 181
133 154 181
134 154 181
133 154 180
133 154 181
133 153 180
133 154 181
134 154 181
134 154 181
134 154 181
134 154 181
133 154 181
134 154 181
134 154 181
134 154 181
134 154 181
134 154 181
134 154 181
134 154 181
135 155 181
133 154 181
134 155 181
135 155 181
134 154 181
134 154 180
133 154 181
134 154 181
134 154 181
135 155 181
134 154 181
134 154 181
134 154 181
133 154 181
134 154 181
134 154 180
133 154 180
133 153 180
133 154 181
133 154 181
133 154 181
134 154 181
134 154 180
133 153 180
134 154 181
134 154 181
134 154 181
133 154 181
134 154 181
133 154 180
134 154 181
134 154 181
133 154 180
133 154 180
134 154 181
133 154 181
134 154 181
134 154 181
133 154 181
133 153 180
134 154 181
133 154 180
134 154 181
133 154 181
133 154 181
134 154 181
132 153 181
133 154 181
134 154 181
134 154 181
132 153 180
134 155 181
134 154 181
134 155 181
135 155 181
134 154 181
133 154 181
133 154 181
133 154 181
132 153 180
133 153 180
135 155 181
134 154 181
134 154 181
133 153 180
133 153 180
133 154 181
133 153 180
134 154 180
133 153 180
133 154 181
134 154 181
134 154 180
133 153 180
133 154 181
134 154 180
133 153 180
133 154 181
133 153 180
134 154 181
135 155 181
133 154 181
134 154 181
133 154 181
134 154 181
134 154 181
134 154 180
134 154 181
133 154 181
134 154 181
134 154 180
133 154 181
134 154 181
134 154 181
134 154 181
134 154 181
134 154 181
134 154 181
133 154 181
133 154 181
134 154 181
134 154 181
134 154 180
133 154 180
134 154 181
134 154 181
133 153 180
134 154 181
134 154 181
134 154 181
133 154 181
133 154 181
133 154 181
135 155 181
133 153 180
133 153 180
134 154 181
134 154 181
133 153 179
134 154 181
134 154 181
134 154 181
133 154 181
134 154 181
133 154 181
133 154 181
133 154 181
134 154 181
134 154 181
134 154 181
133 154 181
133 153 180
133 154 181
134 154 181
133 154 181
133 154 181
134 154 180
134 154 181
133 154 181
134 154 180
133 154 180
133 154 181
133 153 180
133 154 181
133 154 181
134 154 181
134 154 180
134 154 181
134 154 181
133 154 181
134 154 181
135 155 181
133 153 180
133 154 181
134 154 181
134 154 181
133 153 180
133 154 181
134 154 181
133 154 181
133 154 181
134 154 181
134 155 181
133 154 181
134 154 181
134 154 180
133 154 181
134 154 181
133 154 181
133 154 181
134 154 181
133 154 181
135 155 181
133 154 181
134 154 181
133 154 181
134 154 181
133 154 181
134 154 181
133 154 180
133 154 181
134 154 181
133 154 180
134 154 181
134 154 181
134 154 181
134 154 181
134 154 181
134 154 181
133 154 181
134 154 181
133 154 181
133 154 181
134 154 181
133 154 181
134 154 181
133 154 181
133 154 181
134 154 181
134 154 181
134 154 180
134 154 181
133 154 181
134 154 181
134 154 181
133 154 181
134 154 181
134 154 180
134 154 181
134 154 181
134 154 181
133 154 181
134 154 181
133 154 181
134 154 181
134 154 181
133 154 181
135 155 181
134 154 181
134 154 181
134 154 181
134 154 181
133 154 181
134 154 181
134 154 181
133 154 181
133 154 181
134 154 181
133 154 181
133 154 181
133 154 181
134 154 181
134 154 181
134 154 181
134 154 181
133 154 181
135 155 181
134 154 181
134 154 181
134 154 181
134 154 181
134 154 181
133 154 181
134 154 181
135 155 181
133 154 180
133 154 181
134 154 181
134 154 181
134 154 180
133 154 181
134 154 181
134 154 181
134 155 181
133 154 181
134 154 181
134 154 181
134 154 181
134 154 181
134 154 181
132 153 181
133 154 181
134 154 181
134 154 181
134 154 181
134 154 181
134 154 181
134 154 180
133 154 181
134 154 181
134 154 181
134 154 181
133 154 180
134 154 181
133 154 181
134 154 181
134 154 181
134 154 181
134 154 181
134 154 181
134 154 181
134 154 181
133 154 181
134 154 181
134 154 181
134 154 181
133 154 181
133 153 180
134 154 181
134 154 181
133 154 181
133 154 181
134 154 181
134 154 181
134 154 181
133 154 181
134 155 181
134 154 181
134 154 181
135 155 181
133 154 181
134 154 181
134 154 181
133 154 180
134 154 180
133 154 181
134 154 181
133 154 181
133 154 181
134 154 181
133 154 181
135 155 181
134 154 181
134 154 181
133 154 180
134 154 181
134 154 181
134 154 181
134 154 181
133 154 181
133 154 181
133 154 180
135 155 181
134 154 181
135 155 181
133 154 181
134 154 181
134 154 181
134 154 181
134 154 181
134 153 179
133 154 181
133 153 180
135 155 181
133 154 181
133 154 181
134 154 181
134 154 181
134 154 181
133 154 180
134 154 181
134 154 181
134 154 181
133 154 180
134 154 181
135 155 181
133 154 181
134 154 181
133 154 181
134 154 180
134 154 181
134 154 181
133 153 180
133 154 181
133 153 180
133 154 181
134 154 181
133 154 181
133 154 181
133 154 181
134 154 181
134 154 180
134 154 181
133 154 181
134 154 181
134 154 181
134 154 181
134 154 181
134 154 181
134 154 181
134 154 180
134 154 180
133 154 180
134 154 180
134 154 181
134 154 181
133 154 181
134 154 180
134 154 181
134 154 181
134 154 181
133 154 181
134 154 181
134 155 181
133 154 181
134 154 181
133 154 181
134 154 181
133 154 180
132 154 181
133 154 181
134 154 181
133 154 181
134 154 181
133 153 180
133 154 181
133 154 181
134 154 181
133 154 181
134 154 181
134 154 181
135 155 181
133 154 180
133 154 181
133 154 181
134 154 181
134 154 180
134 154 181
134 154 181
134 154 181
134 154 180
133 154 181
134 154 180
135 155 181
134 154 180
134 154 181
134 154 181
134 154 180
133 154 181
134 154 181
134 154 181
133 154 181
134 154 181
134 154 181
134 154 181
134 154 181
133 154 181
134 154 181
134 154 181
132 153 181
133 154 181
133 154 181
134 154 181
134 154 181
134 154 181
134 154 180
134 154 181
132 153 180
134 154 181
134 154 181
133 154 181
133 153 180
133 154 181
134 154 181
134 154 181
133 153 180
133 153 180
134 154 181
133 153 180
134 154 180
134 154 181
134 154 181
134 154 181
134 154 181
133 154 181
133 153 180
134 154 181
133 154 181
133 154 181
134 154 181
134 154 181
134 154 181
133 154 180
134 154 181
133 154 181
134 154 181
134 154 181
134 154 181
134 154 181
133 154 181
134 154 181
134 154 180
134 154 181
134 154 181
134 154 181
133 154 181
132 153 180
133 154 181
134 154 181
134 154 181
134 155 181
134 154 180
134 154 181
135 155 181
133 154 181
134 154 180
134 154 180
133 153 180
134 154 181
134 154 181
134 154 181
133 153 180
133 154 180
133 154 180
133 154 180
133 154 181
134 154 181
134 154 181
134 154 181
133 154 180
133 154 181
133 154 181
133 154 181
134 154 181
134 154 181
134 154 181
134 154 181
134 154 181
133 154 181
133 154 181
132 153 179
133 154 181
134 154 181
134 154 181
134 154 181
133 154 181
134 154 180
134 154 181
134 154 180
134 154 181
133 154 180
134 154 181
133 154 181
134 154 181
133 154 181
134 154 181
134 154 181
133 154 180
134 154 181
133 153 180
134 154 181
133 154 181
134 154 181
134 154 181
134 154 180
133 154 181
133 153 180
133 154 181
134 154 181
134 154 181
134 154 181
134 154 181
134 154 181
133 154 181
133 154 181
134 154 180
134 154 181
133 154 181
134 154 181
133 154 181
134 154 181
133 153 180
133 154 181
133 154 180
134 154 181
133 154 180
133 154 181
134 154 181
134 154 180
135 155 181
133 154 181
134 154 181
134 154 180
133 154 181
133 154 181
133 153 180
133 154 181
133 154 181
134 154 181
134 154 181
134 154 181
134 155 181
134 154 181
134 154 181
133 154 181
133 154 181
133 153 180
135 155 181
134 154 180
134 154 181
135 155 181
134 154 181
134 154 181
134 154 181
133 154 181
134 154 181
134 154 181
134 154 181
135 155 181
134 154 181
133 154 181
134 155 181
134 155 181
134 154 181
133 154 181
134 154 181
134 154 181
133 154 181
134 154 181
134 154 181
134 154 181
134 154 181
134 154 180
133 154 181
134 154 181
134 154 181
134 154 181
133 154 181
133 154 181
135 155 181
134 154 181
133 154 181
133 153 180
134 154 180
135 155 181
134 154 181
134 154 181
135 155 181
134 154 181
134 154 181
134 155 181
133 154 180
134 154 181
134 154 181
133 154 181
133 154 181
134 154 181
133 154 181
133 153 180
134 154 181
134 154 181
134 154 181
134 154 181
134 154 181
133 154 181
134 154 181
133 154 181
133 154 181
133 154 181
133 154 181
134 154 181
134 154 181
135 155 181
135 155 181
134 154 181
133 154 181
133 154 181
133 154 181
134 154 181
134 154 181
134 154 181
133 154 181
134 154 181
135 155 181
134 154 181
133 154 181
135 155 181
134 154 181
134 154 180
134 154 181
133 154 181
134 154 181
134 154 181
134 154 181
134 154 181
134 154 181
134 154 181
134 154 181
133 154 181
133 154 181
133 154 181
133 153 180
133 154 181
134 154 181
134 154 181
135 155 181
133 154 181
133 154 181
134 154 181
134 154 181
134 154 181
133 154 181
133 154 181
133 154 181
133 153 180
133 154 181
133 154 181
134 154 181
134 154 181
133 154 181
134 154 181
133 154 181
134 154 181
133 154 180
134 154 181
133 154 181
134 154 181
133 154 181
134 154 180
134 154 181
134 154 181
134 154 181
133 154 181
134 154 181
134 154 181
134 154 181
133 154 181
134 154 181
134 154 181
133 154 181
134 154 181
133 154 181
134 154 181
133 154 181
133 153 180
134 154 181
134 154 181
133 154 181
134 154 181
133 154 181
134 154 181
134 154 181
133 154 180
134 154 181
134 154 181
133 154 180
134 154 181
133 154 181
135 155 181
135 155 181
133 154 181
133 154 181
133 154 181
133 154 181
133 154 181
133 153 180
134 154 181
134 154 181
134 154 181
134 154 181
133 154 181
134 154 181
134 154 181
133 154 181
133 154 181
133 154 181
134 154 181
134 154 181
134 154 180
135 155 181
133 154 180
134 154 181
134 154 181
134 154 181
133 154 181
133 153 180
135 155 181
134 154 181
133 154 181
133 154 180
134 154 180
134 154 181
133 154 181
134 154 180
134 154 181
133 153 180
134 155 181
134 154 181
134 154 181
134 154 181
133 154 180
133 154 181
134 154 181
134 154 181
134 154 180
134 154 181
134 154 180
134 154 181
133 153 180
133 153 180
134 154 181
133 154 181
133 153 180
133 154 181
134 154 181
135 155 181
133 153 180
134 154 181
134 154 181
133 154 181
134 154 181
134 154 181
134 154 181
133 154 181
134 154 181
133 154 181
134 154 181
133 154 181
134 154 181
134 154 181
134 154 181
133 154 181
134 154 181
134 154 181
133 154 181
134 154 181
134 154 180
133 154 181
134 154 181
134 154 181
134 154 181
134 154 180
134 154 181
134 154 181
134 154 181
133 153 180
134 155 181
133 153 180
133 154 181
133 154 181
133 153 179
133 154 180
133 153 180
133 154 181
135 155 181
134 154 181
134 154 181
134 154 181
134 154 180
134 154 181
133 154 180
134 154 180
134 154 181
134 154 181
134 154 181
133 154 181
134 154 181
134 154 181
134 154 181
134 154 180
134 154 181
133 154 181
134 154 181
134 154 180
134 154 181
133 154 181
134 154 181
134 154 181
134 154 180
134 154 180
135 155 181
134 154 181
134 154 181
133 154 181
134 154 181
134 154 181
133 154 181
133 154 181
134 154 181
134 154 181
134 154 180
133 154 181
135 155 181
133 153 180
133 154 180
133 154 181
135 155 181
133 154 181
134 154 181
135 155 181
134 154 181
133 154 181
133 154 181
133 154 181
134 155 181
134 154 181
134 154 180
133 154 181
135 155 181
134 154 181
134 154 181
133 154 181
134 154 181
133 154 181
133 154 181
134 154 181
134 154 181
134 154 181
134 154 181
134 154 181
134 154 180
133 153 180
133 154 181
134 154 181
134 155 181
134 155 181
134 154 181
134 154 181
134 154 181
133 154 180
133 153 180
133 153 180
134 154 181
134 154 180
133 154 181
133 153 180
134 154 181
134 154 181
134 154 180
134 154 181
134 154 181
135 155 181
134 154 181
133 154 181
133 153 180
133 153 180
134 154 180
134 154 181
133 154 181
133 154 181
133 154 181
133 154 181
134 154 181
133 154 181
134 154 180
134 154 181
133 154 180
134 154 181
134 154 181
135 155 181
134 154 181
134 154 181
134 154 181
133 154 181
133 154 181
134 154 181
133 154 180
135 155 180
133 153 180
134 155 181
133 154 181
134 154 181
133 154 181
133 154 181
134 154 181
133 154 181
134 154 181
134 154 181
134 154 181
133 154 181
134 155 181
134 154 181
134 154 181
134 154 181
133 154 181
133 154 181
133 154 181
133 154 180
133 153 180
134 154 181
133 154 180
134 154 180
134 154 181
134 154 181
134 154 181
134 154 181
133 154 181
135 155 181
134 154 181
134 154 181
134 154 181
134 154 181
134 155 181
134 154 181
134 154 180
134 154 181
134 154 181
134 154 181
134 154 181
134 154 181
134 154 181
134 155 181
133 154 181
134 154 181
134 154 181
133 154 181
134 154 181
134 154 181
134 154 181
134 154 181
134 154 181
134 154 181
133 153 180
133 154 181
134 154 181
134 154 181
134 154 181
133 154 181
134 155 181
134 154 181
135 155 181
133 154 181
133 154 181
134 154 181
133 154 180
135 155 181
134 154 181
134 154 181
133 154 181
134 154 181
134 154 181
134 154 181
133 154 181
134 154 181
133 154 180
133 154 181
134 154 181
133 154 181
134 154 181
133 154 181
134 154 181
133 154 181
134 154 181
135 155 181
133 154 181
135 155 181
134 154 180
134 154 181
133 154 181
133 154 181
134 154 181
133 154 181
134 155 181
133 154 181
133 154 181
133 154 181
134 154 181
133 154 181
134 154 181
134 154 181
133 154 181
134 154 181
134 154 181
133 154 181
134 154 181
134 154 181
134 154 181
133 154 181
134 154 181
134 154 181
134 154 181
134 154 181
134 154 181
135 155 181
133 154 181
134 154 181
134 154 181
134 154 181
134 154 180
133 154 181
134 155 181
133 154 181
134 154 180
133 154 181
134 154 181
134 154 181
133 154 181
134 154 181
134 154 181
133 154 181
134 154 181
134 154 180
134 154 181
135 155 181
134 154 181
134 154 181
134 154 181
134 154 181
134 154 180
134 154 181
134 154 181
133 154 181
134 154 181
133 154 181
134 154 180
135 154 180
134 155 181
134 154 180
134 154 181
133 154 181
134 154 181
134 154 181
134 154 181
134 154 181
134 154 180
134 154 181
134 154 181
133 153 180
133 154 181
134 154 181
134 154 181
135 155 181
133 154 181
134 154 180
134 154 181
134 154 181
133 154 181
133 154 180
133 154 180
134 154 181
133 154 181
134 154 181
133 154 181
134 154 181
135 155 181
134 154 181
134 154 181
133 154 180
134 154 181
134 154 181
132 153 181
134 154 181
134 154 181
134 154 181
134 154 181
134 154 181
133 154 181
134 154 181
134 154 181
135 155 181
134 155 181
133 153 180
134 154 180
133 154 181
134 154 181
133 154 180
134 154 181
134 154 181
133 154 181
134 154 181
133 154 181
133 154 181
133 154 181
134 154 181
135 155 181
133 154 181
134 154 181
134 154 181
134 154 181
134 154 181
133 154 180
134 155 181
134 154 181
134 154 181
132 153 180
134 154 181
134 154 181
133 154 181
134 154 181
133 153 180
134 154 181
133 154 180
133 154 181
134 154 181
134 154 181
134 154 181
134 154 181
134 154 181
134 154 181
134 154 181
134 154 180
133 154 181
133 154 181
133 154 181
134 154 181
134 154 181
133 154 181
133 154 181
133 154 181
133 154 181
134 154 181
134 154 181
133 154 181
135 155 181
132 154 181
133 154 181
134 154 181
134 154 181
133 153 180
133 154 181
134 154 181
134 154 181
133 154 180
134 154 181
134 154 181
134 154 181
133 153 180
133 154 181
133 154 180
134 154 181
133 154 181
133 153 180
134 154 181
134 154 181
134 154 181
134 154 181
134 154 180
133 154 181
134 154 181
133 154 181
133 154 181
134 154 181
134 154 181
134 154 181
133 154 180
133 154 180
135 155 181
134 154 181
134 154 181
134 154 181
134 154 181
133 154 180
134 154 181
133 154 181
134 154 181
134 154 181
134 154 181
133 154 181
134 154 180
134 154 180
133 153 180
134 154 180
132 153 180
134 154 181
133 154 180
133 154 181
134 154 181
134 154 181
133 153 180
135 155 181
133 153 180
134 154 181
132 153 180
133 154 181
134 154 180
134 154 181
133 154 180
133 154 181
133 153 180
134 154 181
134 154 181
134 154 181
133 154 181
134 154 180
134 154 181
133 154 180
134 154 181
133 154 180
133 154 181
134 154 181
134 154 181
135 155 181
135 155 181
134 154 181
133 154 181
133 154 181
134 154 181
133 153 180
134 154 181
133 154 181
134 154 180
134 154 180
134 154 181
133 154 181
132 153 180
134 154 181
135 155 181
134 154 181
134 154 181
133 153 180
134 154 181
133 154 181
134 154 181
133 153 180
134 154 181
133 154 181
132 153 180
134 154 181
134 154 181
133 154 181
133 154 181
133 154 181
134 154 181
133 154 181
134 154 180
133 154 181
133 154 181
134 154 180
134 154 181
134 154 181
134 154 181
134 154 181
134 154 181
134 154 181
134 154 181
133 154 181
133 153 180
134 154 181
133 154 181
133 153 180
135 154 180
135 155 181
133 154 181
134 154 181
133 154 181
133 154 181
133 153 180
134 154 180
134 154 181
134 154 181
134 154 181
134 154 181
134 154 181
133 154 181
134 154 181
134 154 180
134 154 181
133 154 181
134 154 181
133 154 181
134 154 181
134 154 181
133 154 181
134 154 181
134 154 181
134 154 181
134 154 181
134 154 181
133 153 180
133 154 180
134 154 181
133 154 180
134 154 181
133 154 181
134 154 181
134 154 181
133 154 181
133 154 180
134 154 181
133 154 181
134 153 179
134 154 181
134 154 180
133 154 181
134 154 181
133 154 181
134 154 180
134 154 181
134 154 180
133 154 181
134 154 180
134 154 181
133 154 181
133 153 179
134 154 181
133 154 181
135 155 181
133 154 181
134 154 181
133 154 181
134 154 181
134 154 181
134 154 181
134 154 181
134 154 180
134 154 181
133 154 181
134 154 181
134 154 181
133 154 181
133 154 181
135 155 181
134 154 180
134 154 181
133 154 181
133 154 181
135 155 181
134 154 181
133 154 180
134 154 181
134 154 181
134 154 181
134 154 181
133 154 181
133 154 181
134 154 181
134 154 181
134 154 181
134 154 181
134 154 181
134 154 181
134 154 181
134 154 181
134 154 181
134 154 181
134 154 181
134 154 181
133 154 181
134 154 181
134 154 181
134 154 181
134 154 181
134 154 181
133 154 181
133 154 181
134 154 181
134 154 181
134 154 181
134 154 181
134 154 181
135 155 181
133 154 181
134 154 181
134 154 181
134 154 181
133 154 181
134 155 181
134 154 181
134 154 181
134 154 181
133 154 181
134 154 181
134 154 181
133 154 181
134 154 181
134 154 181
134 154 181
133 154 181
134 154 181
134 154 181
134 154 181
134 154 181
133 153 180
134 154 181
134 154 181
134 154 181
134 154 181
134 154 181
134 154 181
134 154 181
133 154 181
134 154 181
134 155 181
133 154 180
134 154 181
135 155 181
133 154 181
134 154 181
134 154 181
133 154 181
134 155 181
135 155 181
133 154 181
134 154 181
134 154 181
134 154 181
134 154 181
134 154 181
133 154 181
134 154 181
133 154 181
134 154 181
133 154 181
134 154 181
134 154 181
134 154 181
133 154 181
134 154 181
134 154 181
133 153 180
134 154 181
134 154 181
134 154 181
133 154 181
134 154 181
134 154 181
134 154 181
134 154 181
133 153 180
134 154 181
134 154 181
134 154 181
133 154 181
135 155 181
133 154 180
133 154 181
133 154 181
134 154 181
133 154 181
133 154 181
134 154 180
134 154 180
133 154 180
133 154 181
134 154 181
134 154 181
134 154 181
133 154 181
133 154 181
134 154 181
133 154 181
134 154 181
134 155 181
133 154 181
134 154 181
133 154 181
134 154 180
134 154 181
135 155 181
134 154 181
134 154 181
133 154 181
134 154 181
134 155 181
134 154 181
134 154 181
134 154 181
134 154 181
133 154 181
133 154 181
134 154 181
133 153 180
134 154 181
133 154 181
133 154 180
133 154 181
133 154 181
133 153 180
135 155 181
133 154 181
134 154 181
133 154 181
134 154 181
133 153 180
134 154 181
134 154 181
134 154 181
133 154 181
134 154 181
134 154 181
135 155 181
134 154 181
133 154 181
134 154 181
133 154 181
133 154 180
134 154 181
134 154 180
133 154 181
135 155 181
133 154 181
134 154 181
134 155 181
134 154 181
134 154 181
133 154 181
133 154 181
135 155 181
133 153 180
133 153 180
134 154 181
134 154 181
134 154 181
133 154 181
133 153 180
134 154 180
134 154 181
134 155 181
134 154 181
134 154 181
134 154 181
134 154 181
133 154 180
133 154 181
133 154 181
134 154 181
134 154 181
133 153 180
134 154 181
133 154 181
134 154 180
134 154 181
134 154 181
134 154 181
133 154 180
134 154 181
133 154 181
134 154 181
133 154 181
134 154 181
134 154 181
134 154 181
134 154 181
133 154 181
134 154 180
133 154 181
135 154 180
133 154 181
134 154 181
134 154 180
133 154 180
133 153 180
133 154 181
134 154 180
133 154 180
134 154 181
134 154 181
133 154 181
134 155 181
134 154 181
133 154 181
133 153 180
133 154 180
134 154 181
133 154 180
134 154 181
133 154 181
134 154 181
135 155 181
134 154 181
133 154 180
132 153 180
133 154 180
133 154 181
134 154 181
134 154 181
134 154 181
134 154 181
134 154 181
134 154 181
133 154 181
134 154 181
133 154 181
133 154 180
134 155 181
133 153 180
132 153 180
134 154 181
133 154 181
133 154 181
134 154 181
134 154 181
134 154 181
132 153 180
134 154 181
134 154 180
133 154 180
135 155 181
133 153 180
134 154 181
133 153 180
134 155 181
133 153 180
134 154 181
133 154 181
133 154 181
134 154 181
133 154 181
133 154 181
134 154 181
134 154 180
133 153 180
134 154 181
134 154 181
134 154 181
134 154 181
133 154 181
135 155 181
134 154 181
135 155 181
133 154 180
134 154 181
134 154 181
134 154 181
134 154 181
134 154 181
134 154 181
135 155 181
134 154 181
134 154 180
134 154 181
134 154 181
134 154 181
133 154 181
134 154 181
133 154 181
133 154 181
134 154 181
134 154 180
133 154 181
133 154 181
133 154 181
134 154 181
134 154 181
134 154 181
133 154 181
134 154 181
133 154 181
133 154 180
134 154 181
134 154 181
133 154 181
133 154 181
134 153 179
134 154 180
134 154 180
134 154 181
135 155 181
133 154 181
134 154 181
133 154 181
134 154 181
132 153 180
133 154 181
133 154 181
133 154 181
135 155 181
134 154 181
134 154 181
134 154 181
133 154 181
133 153 180
133 154 181
134 154 180
133 154 181
135 155 181
134 154 181
133 154 181
134 154 181
133 154 181
133 154 181
134 155 181
133 154 181
133 154 181
134 154 181
133 154 181
134 154 181
133 154 181
133 153 179
135 155 181
133 154 181
133 154 181
134 154 180
133 153 180
134 154 181
134 154 181
135 155 181
133 153 180
133 154 181
133 154 181
134 154 181
133 154 181
134 154 181
134 154 181
133 154 181
133 154 181
134 154 181
134 154 181
133 154 181
133 154 181
134 154 181
133 154 181
135 155 181
133 153 180
134 154 181
134 154 181
133 154 181
133 154 181
134 154 181
133 154 181
133 154 181
134 154 181
133 154 181
133 154 181
133 154 180
133 154 180
133 154 181
134 154 181
134 154 181
135 155 181
134 154 181
133 154 181
134 154 181
134 154 181
133 154 181
134 154 180
133 154 181
133 154 181
133 154 181
134 154 181
134 154 181
133 154 181
134 154 181
134 154 180
133 154 181
133 154 181
134 154 181
134 154 181
133 154 181
134 154 181
133 154 181
134 154 181
134 154 181
133 154 181
134 154 181
134 154 180
135 155 181
134 154 181
133 154 181
134 154 181
134 154 181
134 154 180
133 154 181
134 154 181
133 154 181
133 154 181
134 154 181
135 155 181
134 154 181
134 154 181
134 154 181
134 154 181
133 154 181
133 154 181
133 154 181
133 154 180
133 154 181
134 154 181
134 154 180
134 154 181
134 154 181
133 154 181
134 154 181
134 154 181
134 154 181
134 154 181
134 154 181
133 154 180
133 154 181
133 153 180
134 154 181
133 154 181
133 154 180
134 154 181
135 155 181
134 154 181
134 154 180
134 154 181
134 154 181
134 154 181
134 154 181
134 154 181
133 154 181
134 154 181
134 154 181
134 154 181
134 154 181
134 154 181
135 155 181
134 154 181
134 154 181
135 155 181
133 154 181
134 154 181
134 154 181
134 154 181
134 154 181
133 154 181
133 154 181
134 154 181
132 153 180
134 154 181
133 154 181
134 154 181
134 154 181
133 154 181
134 154 181
133 154 181
134 154 181
134 154 181
134 154 180
134 154 181
134 154 181
134 154 181
133 154 181
134 154 181
134 153 179
134 154 181
134 154 181
134 154 181
134 154 181
133 154 180
133 154 180
133 154 181
133 154 181
133 154 181
134 154 181
134 154 181
134 154 181
134 154 181
133 154 181
133 153 180
134 154 181
133 154 181
135 155 181
134 154 180
134 154 181
133 154 181
134 154 181
134 154 181
134 154 181
134 154 181
133 154 181
134 154 181
135 155 180
133 154 181
134 154 181
133 154 181
134 154 181
134 154 180
133 153 180
133 154 180
134 154 181
133 154 181
134 154 181
134 154 181
134 154 181
134 154 181
133 153 180
133 154 181
133 154 181
134 154 181
133 154 180
135 155 181
133 154 181
134 154 181
133 154 181
134 154 181
134 154 181
134 154 181
134 154 181
133 154 181
132 153 180
133 154 181
134 154 181
133 154 181
133 154 181
134 154 181
134 154 181
134 154 181
135 155 181
134 154 181
134 154 181
133 154 181
134 154 180
134 154 181
133 154 181
135 155 181
133 154 181
134 154 181
134 154 181
133 154 181
134 154 181
134 154 181
135 155 181
134 154 181
133 154 181
134 154 181
133 154 181
134 154 180
135 155 181
135 155 181
134 154 181
134 154 181
133 154 181
134 154 180
133 154 181
133 154 181
134 154 181
134 154 180
134 154 181
134 154 181
133 154 181
133 154 181
134 154 181
133 154 181
132 153 180
133 154 180
134 154 181
134 154 181
134 154 180
133 154 181
135 155 181
133 154 181
133 154 181
133 154 181
134 154 181
133 154 181
134 154 181
134 154 181
134 154 181
133 153 180
134 154 181
134 154 181
133 154 181
133 154 181
134 154 181
134 154 181
134 154 181
134 154 181
134 154 181
135 155 181
134 154 181
134 154 180
133 154 181
134 154 180
134 154 180
134 154 181
133 154 181
134 154 181
133 154 181
134 154 181
134 154 181
133 154 181
133 154 181
134 154 180
134 154 181
134 154 181
133 154 181
133 154 180
134 154 181
134 154 181
133 154 181
134 154 180
134 154 180
134 154 181
134 154 180
134 154 181
134 154 181
134 154 180
134 154 181
134 154 181
132 153 179
133 154 181
134 154 180
133 154 181
134 154 181
134 154 181
133 154 181
134 154 181
133 153 180
133 154 180
133 154 181
134 154 181
134 155 181
133 154 181
133 154 181
135 154 180
133 154 181
133 154 181
133 153 180
133 154 181
133 154 181
134 154 181
134 154 181
134 154 181
134 154 180
134 154 181
134 154 180
133 154 181
135 155 181
132 153 180
134 154 181
134 154 181
134 154 180
133 154 181
134 154 181
134 154 181
132 153 180
134 155 181
134 154 181
134 154 181
134 154 181
134 154 180
135 155 181
134 155 181
133 154 181
133 154 181
133 154 181
133 154 181
133 154 181
134 154 181
133 154 181
134 154 181
133 154 181
133 153 179
133 154 181
134 154 181
133 154 181
133 153 180
134 154 181
133 154 181
133 154 181
133 154 181
134 154 181
133 154 181
134 154 181
134 154 181
133 154 181
133 153 180
133 154 181
135 155 181
135 155 181
134 154 181
134 154 181
134 154 181
133 154 181
133 154 181
133 154 181
134 154 181
133 153 180
134 154 181
133 154 181
133 154 181
134 154 181
134 154 181
134 154 181
133 154 181
134 154 181
133 154 181
134 154 181
134 154 181
134 154 180
134 154 181
134 154 180
132 153 180
134 154 181
135 155 181
134 154 181
134 154 181
133 154 181
134 154 181
134 154 181
134 154 181
133 154 180
133 154 181
134 154 180
134 154 181
133 154 180
135 155 181
134 154 181
132 153 181
134 154 181
133 154 181
133 154 181
133 154 181
134 154 181
134 155 181
134 154 181
134 154 181
133 154 181
134 154 181
133 154 180
133 154 181
135 155 181
133 154 181
133 154 181
134 154 181
134 154 181
134 154 181
134 154 181
135 155 181
133 154 181
134 154 181
135 155 181
134 154 181
133 154 181
134 154 181
133 154 181
135 155 181
134 154 181
134 154 181
134 154 181
134 154 181
133 154 181
133 154 181
134 154 181
134 154 181
134 154 181
134 154 181
133 154 181
133 154 181
134 155 181
133 154 180
134 154 181
133 154 181
133 154 181
134 154 181
133 154 180
133 154 181
134 154 181
133 154 181
134 155 181
134 154 181
134 154 181
134 154 181
133 154 181
134 154 181
133 154 181
133 154 181
133 154 181
134 154 181
134 154 181
133 154 180
133 154 181
134 154 181
134 154 181
134 154 181
134 154 181
134 154 181
134 154 181
133 154 181
134 154 181
133 154 181
133 154 180
134 154 181
134 154 180
133 153 180
134 154 181
134 154 181
134 154 181
134 154 181
134 154 180
134 154 181
133 154 181
134 154 181
134 154 181
133 154 181
133 153 180
134 155 181
133 154 181
135 155 181
133 154 181
133 154 181
134 154 181
133 154 181
134 154 181
135 155 181
134 154 181
134 154 181
133 154 181
134 154 181
134 154 181
134 154 180
134 154 181
134 154 180
134 154 181
134 154 181
134 154 181
134 154 181
134 154 181
133 154 181
135 155 181
134 154 181
133 154 181
133 154 181
134 154 181
134 154 181
133 154 180
134 154 181
134 155 181
134 154 181
135 155 181
134 154 181
134 154 181
134 154 180
134 154 181
134 154 181
134 154 181
133 154 181
133 154 180
133 154 181
134 154 181
133 154 181
133 154 181
134 154 181
134 154 181
134 154 181
134 154 180
134 154 181
134 154 181
134 154 181
133 154 180
133 154 181
134 154 181
133 153 180
133 154 181
134 154 181
134 154 181
134 154 181
134 154 181
134 154 181
134 154 181
134 154 181
133 154 181
133 154 181
134 154 181
134 154 181
133 154 181
134 154 180
134 154 181
134 154 181
134 154 181
134 154 181
134 154 181
134 154 181
134 154 181
134 154 181
134 154 181
133 154 181
133 154 181
135 155 181
134 154 181
134 154 181
134 154 181
134 154 181
134 154 181
134 154 181
134 155 181
133 154 180
133 153 180
133 154 181
133 154 181
134 154 181
134 154 181
134 154 180
136 155 181
134 154 181
134 154 181
134 154 181
134 154 181
133 154 181
133 154 180
133 154 181
134 155 181
134 154 181
134 154 181
134 154 181
133 153 180
134 154 181
134 154 181
134 154 181
134 154 181
134 154 181
134 154 181
133 154 180
134 154 181
133 154 181
134 154 181
133 154 181
135 155 181
133 154 181
133 154 181
134 154 181
133 154 181
133 154 181
133 154 180
134 154 181
133 153 180
133 154 181
133 153 180
134 154 181
133 154 181
133 154 181
134 154 181
134 154 181
133 154 181
134 154 181
133 154 181
133 154 180
134 154 180
134 154 181
134 154 181
134 154 181
134 154 181
133 153 180
134 154 181
134 154 181
133 154 181
133 154 181
134 154 181
134 154 181
134 154 181
133 154 181
135 154 180
134 154 181
134 154 181
134 154 181
134 154 181
133 154 181
134 155 181
134 154 181
133 154 181
134 154 180
134 154 181
133 154 181
133 154 181
134 154 181
133 154 181
133 153 180
133 154 181
134 154 180
133 154 181
134 154 181
134 154 181
134 154 181
134 154 181
133 154 180
134 154 180
134 154 180
134 154 181
134 154 181
134 154 181
134 154 181
134 154 181
133 153 180
132 153 180
134 154 181
134 154 181
134 154 181
134 154 181
134 154 181
133 154 181
134 154 181
134 154 181
133 154 180
134 154 181
134 154 181
133 154 181
134 154 181
133 154 181
133 154 181
133 154 181
134 154 181
133 154 181
133 154 181
133 154 181
134 154 181
134 154 181
133 154 181
134 154 180
134 154 181
134 154 181
134 154 181
133 153 180
134 154 181
133 154 181
135 155 181
133 154 181
134 154 181
134 154 181
134 154 181
134 154 181
133 154 181
133 154 180
134 155 181
134 154 181
133 153 180
134 154 181
135 155 181
134 154 181
134 154 181
133 153 180
134 154 181
133 154 180
135 155 181
134 154 181
133 153 180
133 154 180
134 154 181
133 154 180
134 154 180
134 154 181
133 154 181
134 154 181
134 154 180
133 153 180
134 154 180
135 155 181
133 154 181
134 154 181
133 154 181
134 154 181
134 154 181
133 153 180
134 154 181
134 154 181
134 154 181
135 155 181
135 155 181
134 154 181
134 154 181
133 154 181
134 154 181
134 154 180
133 154 181
134 154 181
133 154 181
134 154 181
134 154 181
133 154 181
134 154 181
134 154 181
134 154 181
135 155 181
134 154 181
134 154 181
134 155 181
134 154 181
133 154 181
133 154 181
133 154 181
134 154 181
134 155 181
134 154 181
133 154 181
134 154 181
134 154 181
133 154 181
133 154 181
133 154 181
135 155 181
133 153 180
133 153 180
133 154 181
133 154 181
134 154 181
133 154 181
134 155 181
134 154 181
134 154 181
134 154 180
134 154 181
134 154 181
134 154 181
134 154 181
134 154 181
133 154 181
133 154 181
135 154 180
134 154 181
134 154 181
134 154 181
134 154 180
134 154 181
134 154 180
134 154 181
134 154 181
134 154 181
133 154 181
133 154 181
133 154 181
134 154 181
134 154 181
135 155 181
134 154 181
134 154 181
134 154 181
134 154 180
133 154 181
133 154 181
133 154 181
134 154 181
134 154 181
133 154 181
133 154 181
133 154 181
133 154 181
134 154 181
133 154 181
134 154 181
134 155 181
133 154 181
134 154 181
134 154 181
133 154 181
133 154 181
134 154 181
134 154 181
133 154 181
134 154 181
132 153 180
133 154 181
134 154 181
135 155 181
133 154 181
135 155 181
134 154 181
133 154 181
134 154 181
133 154 181
134 155 181
134 154 181
133 154 181
133 154 181
134 154 181
134 154 181
134 154 181
133 154 181
134 154 181
134 154 181
134 154 181
133 153 179
133 154 180
134 154 181
133 154 181
134 154 181
134 155 181
134 154 181
134 154 181
134 154 181
135 155 181
134 154 181
135 155 181
134 154 181
133 154 181
134 154 181
134 154 181
133 154 181
133 154 181
133 154 181
134 155 181
134 154 181
133 154 181
134 154 181
134 154 181
134 154 181
133 154 181
134 154 181
134 154 181
134 154 181
134 154 181
133 154 181
134 154 181
133 154 181
133 154 181
133 154 180
133 154 181
133 154 181
134 154 181
134 154 181
134 154 181
134 154 181
134 154 181
134 154 181
133 154 181
133 154 181
134 154 181
133 154 181
134 154 181
134 154 181
134 154 181
133 154 181
134 154 181
133 154 181
133 154 180
133 154 181
134 154 181
134 154 181
133 154 181
134 154 181
134 154 181
134 154 181
134 154 181
134 154 180
134 154 180
134 154 181
133 153 180
134 154 181
134 155 181
134 154 181
134 154 181
133 154 181
134 154 181
133 154 181
134 154 181
134 154 181
134 154 181
134 154 181
133 154 180
133 154 181
134 154 181
133 154 181
134 154 181
133 154 181
134 154 181
133 153 180
134 154 181
133 154 180
134 154 181
133 154 181
134 154 181
134 155 181
134 154 181
134 154 181
134 154 181
134 154 181
132 153 181
133 154 181
134 154 181
133 153 180
133 154 181
134 154 181
134 154 181
134 154 181
134 154 181
134 154 181
134 154 181
134 154 181
135 154 180
133 154 181
134 154 181
133 154 181
134 154 181
134 154 181
133 154 181
134 154 181
133 154 180
134 154 181
132 153 180
133 154 181
134 154 180
135 155 181
134 154 181
133 154 181
134 154 181
134 154 181
134 154 181
134 154 181
134 154 181
134 154 180
134 154 181
134 154 180
134 154 181
134 154 181
133 154 181
134 154 180
134 154 181
133 154 181
134 154 181
134 154 180
133 154 181
133 154 180
134 154 181
134 154 181
134 154 181
135 154 180
133 154 181
133 153 180
134 154 181
134 154 181
133 154 181
133 154 181
133 154 181
134 154 181
135 155 181
133 154 181
134 154 180
134 154 181
133 153 180
133 154 181
134 154 181
133 153 180
133 154 181
133 154 181
133 154 181
133 154 181
134 154 181
134 154 181
135 155 181
133 154 180
133 154 181
133 153 180
134 154 180
133 154 181
134 154 181
132 153 180
134 154 181
135 155 181
133 154 181
134 154 180
133 154 181
133 154 181
134 154 181
133 154 181
134 154 181
134 154 181
134 154 181
134 154 181
133 154 181
134 154 180
133 154 181
133 153 180
133 154 181
133 154 181
133 154 181
134 154 181
134 154 181
134 154 180
133 154 181
133 154 181
133 153 180
134 154 181
134 154 180
134 154 181
134 154 181
133 153 180
134 154 181
133 154 181
132 153 180
134 154 181
134 154 181
134 154 180
135 154 180
134 154 181
133 154 181
134 154 181
134 154 181
133 154 181
134 154 181
133 154 181
133 153 180
133 154 181
134 154 181
134 154 181
133 154 181
134 154 181
133 154 181
134 154 181
134 154 181
134 154 180
134 154 181
134 154 181
134 154 181
134 154 181
133 154 181
134 154 181
133 154 181
134 154 181
134 154 181
133 154 181
134 154 181
134 154 181
133 154 180
133 154 181
134 154 181
134 154 181
133 154 181
135 155 181
135 155 181
133 153 179
133 154 181
134 154 181
133 154 181
134 154 181
134 154 181
133 153 180
134 154 181
134 155 181
133 154 181
133 154 181
134 154 180
134 154 181
133 154 180
134 154 181
134 154 180
134 154 181
134 154 181
135 155 181
134 154 180
133 153 180
134 154 181
133 154 181
133 154 180
134 154 180
134 154 181
134 154 180
134 154 181
133 154 181
135 155 181
134 154 180
134 154 181
134 154 181
133 154 181
134 154 181
132 153 180
133 154 181
134 154 181
135 155 181
134 154 181
133 154 181
134 154 181
134 154 180
134 154 181
133 154 181
134 154 181
134 154 181
133 153 180
134 154 180
134 154 181
134 154 181
133 154 181
133 154 181
134 154 181
134 154 181
133 154 181
133 154 181
134 154 181
134 154 181
133 154 181
134 154 181
133 153 179
133 154 180
135 155 181
134 154 180
134 154 181
134 154 181
133 153 180
134 154 181
135 155 181
133 154 181
133 154 181
134 154 181
135 155 181
134 154 181
133 153 180
133 153 180
133 154 181
133 154 181
133 154 181
134 154 181
134 154 180
134 154 180
134 154 181
133 154 181
134 154 181
133 154 181
134 155 181
135 154 180
133 153 180
134 154 181
134 154 181
134 154 181
133 154 181
133 154 181
134 155 181
134 154 181
134 154 181
134 154 181
134 154 181
134 154 181
134 154 180
133 154 181
134 154 181
133 154 181
133 154 181
134 154 181
133 154 181
134 154 181
134 154 181
134 154 181
134 154 181
134 154 181
134 154 181
134 154 181
134 154 181
134 154 181
134 154 180
134 154 181
133 154 181
133 154 181
134 154 181
134 154 181
135 155 181
134 154 181
134 154 181
133 154 180
134 154 181
132 153 181
134 154 181
134 154 181
135 155 181
133 154 181
134 154 181
133 154 181
133 154 181
134 154 181
134 154 181
133 154 181
134 154 181
134 154 181
134 154 180
133 154 180
134 154 181
134 154 181
134 154 181
134 154 181
134 154 181
133 154 181
134 154 181
134 154 181
135 155 181
134 154 181
134 154 181
133 154 181
134 155 181
133 153 180
134 154 181
134 154 181
134 154 181
134 155 181
134 154 181
134 154 181
134 154 181
134 154 181
133 154 181
134 154 181
134 154 181
135 155 181
134 154 181
133 154 181
134 154 181
133 154 180
134 154 181
134 154 181
133 154 181
134 154 181
134 154 181
134 154 181
133 154 181
133 154 181
133 153 180
133 154 181
134 154 181
134 154 181
134 154 181
134 155 181
133 154 181
133 154 181
135 155 181
134 154 181
134 154 181
133 154 181
134 154 181
134 154 181
134 154 180
133 154 180
133 154 181
135 155 181
134 154 181
134 154 181
134 154 181
134 154 181
134 154 181
134 154 181
133 154 181
134 154 180
134 154 181
134 154 181
134 154 180
134 154 181
133 154 181
134 154 181
132 154 181
134 154 181
135 155 181
134 154 181
133 154 181
134 154 181
134 154 181
133 154 181
133 154 181
134 154 181
133 154 181
134 154 181
134 154 181
135 155 181
134 154 180
133 154 181
134 154 181
135 155 181
133 154 181
134 154 181
134 154 181
134 154 181
133 154 181
133 154 181
133 154 181
134 154 181
135 155 181
133 154 181
134 154 181
134 154 181
133 154 180
133 154 181
133 154 180
134 155 181
133 154 181
133 154 181
135 155 181
134 154 181
133 154 180
134 154 181
134 154 181
134 154 181
134 154 181
133 154 181
134 154 181
134 154 181
134 154 180
134 154 181
132 153 179
133 154 180
134 154 181
132 153 180
134 154 181
135 155 181
134 154 181
134 154 181
134 154 181
134 154 181
133 154 180
134 154 181
133 154 181
134 154 181
133 154 181
133 154 181
133 154 181
133 154 181
133 154 181
133 154 181
133 154 181
134 154 181
134 154 181
134 154 181
134 154 181
134 154 181
133 154 181
134 154 181
134 155 181
134 154 181
135 155 181
133 154 181
133 154 181
134 154 181
134 154 181
134 154 181
134 154 181
134 154 181
134 154 180
134 154 180
134 154 181
134 154 181
134 154 181
134 154 180
134 154 180
133 154 180
134 154 181
134 154 181
134 154 181
134 154 181
134 154 181
134 154 181
132 153 180
134 154 181
133 154 181
134 154 181
134 154 181
133 154 181
134 154 181
133 154 181
134 154 181
133 154 181
133 154 181
134 154 181
135 154 180
134 154 180
133 154 181
134 154 181
133 154 180
134 154 181
133 154 181
133 153 180
134 154 181
134 154 181
133 154 181
134 154 181
133 154 180
134 154 181
133 153 180
134 154 181
134 154 180
134 154 181
134 154 181
133 154 180
133 154 181
134 154 181
134 154 181
134 154 181
133 153 180
134 154 181
134 154 180
133 154 180
133 154 181
133 154 180
133 154 180
133 154 181
133 154 181
134 154 181
134 154 181
134 154 180
133 154 180
133 154 181
134 154 181
134 154 181
134 154 180
134 154 181
134 154 181
134 154 180
134 154 181
134 154 181
133 154 181
134 154 181
134 154 181
134 154 181
134 154 181
134 154 181
134 154 181
133 153 180
134 155 181
133 154 181
134 154 181
133 154 181
133 153 180
133 153 180
134 154 181
134 154 181
134 154 180
134 155 181
133 153 180
134 154 181
133 154 181
134 153 180
135 155 181
133 154 181
134 154 181
133 154 181
133 154 181
134 154 181
134 154 181
134 154 181
134 154 181
133 154 181
133 154 181
134 154 181
134 154 181
134 154 181
134 154 181
134 154 180
133 154 181
134 153 179
135 155 181
133 154 181
134 154 180
133 154 180
133 154 181
134 154 181
135 155 181
134 154 181
133 153 180
134 154 181
134 154 181
134 154 181
133 154 181
133 154 181
134 154 181
133 154 181
134 154 181
134 154 180
134 154 181
134 154 180
134 154 181
134 154 181
133 154 181
133 154 181
133 154 181
134 154 180
133 154 180
134 154 181
133 154 181
134 154 181
134 154 181
134 154 181
133 153 180
133 154 181
134 154 181
133 154 181
133 154 181
134 154 181
134 154 181
133 154 181
134 153 179
133 154 180
134 154 181
134 154 181
134 154 181
133 154 180
134 155 181
134 154 181
135 155 181
134 154 181
134 154 181
133 154 180
135 155 181
133 154 181
135 155 181
134 154 181
133 154 180
133 154 181
133 154 180
133 154 181
133 154 181
134 154 181
133 154 181
134 154 181
134 154 181
133 154 180
133 153 180
133 154 180
133 154 180
133 154 181
133 153 180
134 154 181
134 154 181
134 155 181
134 154 181
134 154 181
132 153 180
135 155 181
133 154 181
134 154 180
134 154 180
133 154 181
133 154 181
133 154 180
134 154 181
134 154 181
133 154 181
134 154 181
133 154 181
134 154 181
134 154 181
134 154 181
134 154 181
133 154 181
133 154 181
134 154 181
133 154 181
134 154 181
134 154 180
133 154 181
134 154 181
134 154 181
134 154 181
134 154 181
134 154 181
134 154 181
133 154 181
133 154 181
134 154 181
135 155 181
134 154 181
133 154 181
134 154 181
133 154 181
133 154 181
134 154 181
133 154 180
134 154 181
134 154 181
133 154 181
134 154 181
134 154 181
133 154 181
134 155 181
134 154 181
134 154 181
134 154 181
134 154 181
134 154 181
134 154 181
133 154 181
134 154 181
134 154 181
134 154 181
134 154 181
133 154 181
133 154 181
134 154 181
134 154 181
134 154 181
134 154 181
134 154 181
133 154 181
133 154 181
133 154 181
135 155 181
133 154 181
134 154 181
135 155 181
134 154 181
133 154 181
134 155 181
134 154 181
134 154 181
134 154 181
133 153 180
133 154 181
134 154 181
134 154 181
133 154 181
134 154 181
135 155 181
134 154 181
134 154 181
133 154 181
133 154 181
134 154 181
134 154 181
133 154 181
134 154 181
134 154 181
133 154 181
133 153 180
134 154 181
134 154 181
135 155 181
134 155 181
134 154 181
134 154 181
134 154 181
134 154 181
133 153 180
134 154 181
133 154 181
134 154 181
134 154 181
134 154 181
133 153 180
133 154 181
134 154 181
134 154 181
133 154 181
133 154 181
133 154 181
134 154 181
134 154 181
133 154 181
134 154 181
134 154 181
135 155 181
134 154 181
133 154 181
133 154 181
133 154 181
134 154 181
133 154 181
134 154 181
133 154 181
134 154 181
135 155 181
133 154 181
134 154 181
133 153 180
134 154 181
134 154 181
134 154 181
134 154 181
133 153 180
134 154 181
134 154 181
134 154 181
134 154 181
134 154 181
133 154 180
134 154 181
134 154 181
133 154 181
134 154 181
134 154 181
135 155 181
134 154 181
134 154 181
133 153 180
134 154 181
134 154 181
133 153 180
134 154 181
133 154 181
134 154 181
134 154 181
133 154 181
132 153 180
134 154 181
134 154 181
134 154 181
132 153 181
133 154 181
134 154 181
133 154 181
133 154 180
133 154 180
133 154 181
134 154 181
134 154 180
134 154 181
134 154 180
134 154 181
133 153 180
133 154 181
133 154 181
134 154 181
134 154 181
134 154 180
134 154 181
133 154 181
134 154 181
134 154 181
133 154 180
133 154 181
134 154 181
134 154 180
133 154 181
133 154 181
134 154 181
134 154 181
134 154 181
134 154 181
134 154 181
133 154 181
134 154 181
134 154 180
134 154 181
134 154 181
134 154 181
133 154 181
133 154 181
134 154 181
133 154 181
133 154 181
133 153 180
134 154 181
133 154 181
134 154 181
133 154 181
134 154 181
134 154 180
134 154 181
134 154 181
134 154 180
133 154 181
134 154 180
133 154 181
133 154 181
133 153 180
134 154 181
134 154 181
134 154 181
134 154 181
134 154 181
133 154 180
133 154 181
133 154 181
133 154 180
134 154 181
133 154 181
134 154 181
134 154 181
134 154 181
133 154 181
132 153 180
133 154 181
133 154 181
133 154 181
134 154 181
134 154 180
135 155 181
133 154 180
134 154 181
133 153 180
134 154 181
134 154 181
134 154 181
134 154 181
133 154 181
133 154 181
134 154 180
133 154 181
133 154 181
134 154 181
133 154 180
134 154 181
133 154 181
133 154 181
134 154 180
134 154 181
135 155 181
133 154 181
133 153 180
134 154 181
133 154 180
134 154 180
134 154 181
133 154 180
133 154 181
133 153 179
135 155 181
134 154 181
134 154 180
133 154 180
133 154 181
134 154 181
134 154 181
134 155 181
133 154 180
134 155 181
134 154 181
134 154 181
133 154 181
134 154 181
133 154 181
134 154 181
134 154 181
133 154 181
134 154 181
134 154 180
133 154 180
134 154 180
134 154 181
135 155 181
134 154 180
133 154 181
134 154 181
133 153 180
133 154 181
134 154 181
134 154 181
133 154 181
134 154 181
134 154 181
134 155 181
135 155 181
134 154 181
133 154 181
133 153 180
133 153 180
133 154 180
134 154 181
133 153 180
134 154 181
135 155 181
133 154 181
134 154 180
133 154 180
133 154 180
133 154 181
132 153 181
134 154 180
133 154 181
134 154 181
134 154 181
132 153 180
134 154 181
133 154 181
135 154 180
134 154 181
133 154 181
134 154 181
134 154 180
134 154 181
134 154 181
133 153 180
134 154 181
134 154 181
134 154 181
134 154 181
134 154 181
133 154 180
133 154 181
135 155 181
135 155 181
133 154 181
133 154 180
135 155 181
134 154 181
134 154 181
134 154 181
134 154 181
135 155 181
133 154 181
133 154 180
134 154 181
134 154 181
134 154 181
134 154 180
134 154 181
134 154 181
134 154 181
134 154 181
134 154 181
134 154 181
134 154 181
134 154 181
133 154 181
134 154 180
134 154 180
133 154 180
133 154 180
135 155 181
134 154 181
133 154 181
134 154 181
134 154 181
134 154 181
134 154 180
134 154 181
133 153 180
134 154 181
134 154 181
134 154 181
133 154 181
134 154 181
134 154 181
133 154 181
134 154 181
134 154 181
134 154 181
134 154 181
134 154 180
133 153 179
134 154 181
134 154 181
134 154 181
134 154 181
133 154 180
133 154 180
134 154 181
134 154 180
135 155 181
134 154 181
133 154 181
133 154 181
135 155 181
134 154 181
133 154 181
134 154 181
133 154 180
135 155 181
133 154 181
134 154 181
134 154 181
134 154 181
133 154 181
134 154 181
133 154 181
134 154 181
134 154 181
133 154 181
134 154 181
135 155 181
134 154 181
132 153 180
134 154 181
134 154 181
133 154 181
134 154 181
134 154 181
134 154 181
133 154 181
133 154 181
134 154 181
135 155 181
134 154 181
135 155 181
134 154 181
134 154 181
134 155 181
133 154 181
134 154 181
134 154 181
134 154 181
133 154 181
134 154 181
134 154 181
134 154 180
134 154 181
134 154 181
134 154 181
134 154 181
134 154 181
134 154 181
134 154 181
134 154 181
134 154 181
134 154 181
134 155 181
134 154 181
134 154 181
133 154 181
134 154 181
133 154 181
133 154 181
134 154 181
134 154 180
134 154 181
134 154 181
133 154 181
134 155 181
134 155 181
134 154 180
134 154 181
134 154 181
133 154 181
134 154 181
133 154 181
134 155 181
134 154 181
134 154 181
133 154 181
133 154 181
133 154 181
134 154 181
133 154 181
133 154 180
133 154 180
133 154 181
133 154 181
134 154 181
134 154 181
134 154 181
134 154 181
133 154 181
134 154 181
134 154 181
133 154 181
133 154 181
133 154 181
134 154 180
134 154 181
134 154 181
133 154 181
133 154 181
134 154 181
134 154 181
134 154 181
133 154 181
135 155 181
134 154 181
134 154 181
134 154 181
134 154 181
133 154 181
134 154 181
134 154 180
134 154 181
134 154 181
133 154 181
134 154 181
133 154 181
133 154 181
134 154 181
134 154 180
134 154 181
134 154 181
134 154 181
135 155 181
134 155 181
135 155 181
134 154 181
133 154 181
134 154 181
133 154 181
133 154 180
134 154 181
134 154 181
134 154 181
134 154 181
134 154 181
133 153 180
134 154 181
133 154 181
134 154 181
134 154 181
134 154 181
134 154 181
134 154 181
134 154 181
134 154 180
134 154 181
133 154 180
134 154 181
133 154 181
134 154 180
134 154 181
133 154 181
134 154 181
134 154 181
134 154 181
134 154 181
133 154 181
134 154 181
133 154 181
133 154 180
133 154 181
134 154 181
134 154 181
134 154 181
134 154 181
134 154 181
134 154 181
134 154 181
133 153 180
134 154 181
134 154 181
135 155 181
133 153 180
133 154 181
134 154 181
133 153 180
133 154 181
133 154 181
133 154 181
133 154 181
133 154 181
133 154 181
134 154 181
134 154 181
133 154 181
134 154 181
134 154 181
134 154 181
134 154 181
134 154 181
133 154 181
132 154 181
135 155 181
134 154 181
134 154 181
134 154 181
133 153 180
134 154 181
134 154 181
133 154 180
134 154 181
134 154 181
133 154 181
134 154 180
133 154 180
133 154 181
134 154 181
133 154 181
134 155 181
133 154 181
134 154 181
133 154 180
134 154 181
134 154 181
133 154 181
134 154 181
133 154 180
135 155 181
134 154 181
134 154 181
134 154 181
133 154 181
134 154 181
134 154 181
134 154 181
134 154 181
133 154 181
134 154 181
134 154 180
133 154 180
134 154 181
134 154 181
133 154 180
134 154 181
134 154 181
135 155 181
134 154 180
134 154 181
134 154 181
133 154 181
134 154 181
133 154 181
133 154 181
133 154 180
133 154 181
134 154 181
135 155 181
134 154 181
134 154 181
133 153 180
134 154 180
134 154 181
134 154 181
133 154 181
133 154 180
134 154 181
133 154 181
133 153 180
134 154 181
134 154 181
133 154 181
134 154 181
134 154 181
133 154 181
132 153 180
134 154 181
133 153 180
134 155 181
134 154 180
133 153 179
134 154 180
134 154 180
133 154 180
135 155 181
133 154 181
134 154 181
133 154 181
133 154 181
133 154 181
133 154 181
133 154 181
134 154 181
133 154 181
133 154 180
133 154 181
134 154 180
134 154 181
134 154 181
134 154 181
133 153 180
134 154 181
133 154 181
134 154 180
134 154 181
134 154 181
133 154 181
134 154 181
134 154 181
133 154 180
133 154 181
133 154 181
134 154 181
134 154 181
134 154 181
133 153 180
134 154 180
134 154 181
133 154 181
135 155 181
134 154 181
134 154 181
134 154 181
134 154 180
133 154 180
133 154 181
134 154 181
134 154 181
133 154 180
134 154 181
133 154 181
134 154 181
135 155 181
133 154 181
133 154 181
134 154 180
134 154 181
134 154 181
133 154 181
134 154 181
133 154 181
133 154 181
134 154 181
134 154 181
132 152 179
134 154 181
133 154 181
133 154 180
134 154 181
134 154 181
133 153 180
133 154 181
133 154 180
134 154 181
132 153 180
134 154 181
134 154 181
133 153 180
134 155 181
133 154 181
133 154 181
134 154 181
134 154 181
134 154 180
133 154 181
134 154 181
133 153 180
133 154 181
135 154 180
134 154 181
134 154 181
133 153 180
133 154 181
133 153 180
133 153 180
134 154 181
134 154 181
133 154 181
134 154 181
134 154 181
134 154 181
134 154 181
133 154 181
134 154 181
133 154 181
134 154 181
132 153 181
133 153 180
134 154 181
135 155 181
133 154 180
133 154 181
132 153 181
133 154 181
134 154 181
134 154 181
134 154 180
133 154 181
133 154 181
134 154 181
134 154 181
134 154 181
133 154 180
134 154 181
134 154 181
134 155 181
134 154 181
133 154 181
134 154 181
133 154 181
134 154 181
133 154 181
134 154 181
133 154 181
133 154 181
133 154 181
134 154 181
134 154 181
134 154 181
134 154 180
135 155 181
133 154 180
134 154 181
134 154 181
134 154 181
135 155 181
135 155 181
135 155 181
134 154 181
133 154 181
134 154 181
134 154 181
135 155 181
134 154 181
134 154 181
134 154 181
133 154 181
134 154 181
135 155 181
134 154 181
133 154 181
134 154 181
134 155 181
134 154 181
134 154 181
134 154 181
134 154 181
134 154 181
133 154 181
134 154 181
134 154 181
134 154 181
133 154 181
133 154 181
134 154 181
134 154 181
133 154 181
135 155 181
134 154 181
134 154 181
134 154 181
134 154 181
134 154 181
133 154 181
134 154 181
133 154 180
133 154 181
134 155 181
134 154 181
134 154 181
134 154 181
134 154 181
134 154 181
134 155 181
133 154 181
133 154 181
133 154 180
133 154 181
134 154 181
133 154 181
133 154 181
134 154 181
134 154 181
134 154 181
133 154 180
134 154 180
134 154 181
134 154 181
134 154 181
133 154 181
133 154 181
133 154 181
134 155 181
134 154 181
134 154 181
133 154 181
135 155 181
133 154 181
133 154 181
134 154 181
134 155 181
134 154 181
134 154 181
133 153 180
134 154 181
134 154 181
134 154 181
134 154 181
133 154 181
133 154 181
133 154 180
134 154 181
134 154 181
133 154 180
134 154 181
133 154 181
134 154 181
134 154 180
133 154 181
133 154 181
133 154 181
134 154 181
133 153 180
134 154 181
133 154 181
134 154 181
133 154 181
133 154 181
133 154 180
133 154 181
134 154 181
134 154 181
135 155 181
134 154 181
134 154 181
134 154 181
133 154 181
134 154 180
134 154 181
134 154 181
134 154 180
133 154 181
134 154 181
134 154 181
134 154 181
134 154 181
133 154 181
133 154 181
135 155 181
134 154 181
134 154 181
133 153 180
134 154 181
134 154 181
134 154 181
133 154 180
134 155 181
134 154 181
133 154 181
134 154 181
134 154 181
134 154 181
134 154 181
134 154 181
134 154 181
133 154 181
134 154 181
134 154 181
133 154 181
134 154 181
135 155 181
134 154 181
133 154 181
133 153 180
133 154 181
134 154 181
134 154 181
134 154 181
133 153 180
135 155 181
134 154 181
134 154 181
134 154 181
134 154 181
134 154 181
134 154 181
133 153 180
134 154 181
134 155 181
134 155 181
134 154 181
134 154 181
133 154 180
134 154 181
134 154 181
134 154 181
134 154 181
133 154 180
134 154 181
133 154 181
133 154 180
134 154 181
134 154 181
133 153 180
133 154 181
133 154 181
134 154 181
133 154 181
134 154 181
133 154 181
133 154 181
133 154 181
132 153 180
132 153 179
133 154 181
133 154 181
133 154 181
133 153 180
134 154 181
133 154 181
133 154 181
134 154 181
133 154 181
133 154 180
134 154 181
134 154 181
133 153 180
133 154 181
133 154 181
135 155 181
134 154 181
133 154 180
134 154 180
133 154 180
134 154 181
133 154 181
133 153 180
133 154 181
133 153 180
134 154 181
134 154 181
133 154 180
134 154 181
133 154 181
133 154 181
133 154 180
133 154 181
134 154 181
133 154 181
135 155 181
134 154 181
134 154 180
133 154 181
134 154 180
133 154 181
133 154 181
133 154 181
134 154 181
133 153 180
134 154 181
134 154 180
134 154 181
134 154 181
134 154 181
134 154 181
133 154 181
135 155 181
135 154 180
134 154 181
134 154 180
133 154 181
134 154 181
134 154 181
133 154 181
133 154 180
133 154 181
133 154 181
133 153 180
133 154 181
133 154 181
134 154 181
134 154 181
133 154 181
134 154 181
134 154 181
134 154 181
133 154 181
133 154 181
133 154 181
133 154 180
134 154 181
134 154 181
134 154 180
133 153 180
134 154 181
134 154 181
134 154 181
134 154 180
134 154 181
134 154 181
133 154 180
134 154 181
133 153 180
133 154 181
134 154 181
134 154 181
133 154 181
134 154 181
133 154 181
133 154 181
135 155 181
134 154 181
133 154 181
133 154 181
134 155 181
133 154 181
133 154 181
133 154 181
133 154 181
134 154 181
133 153 180
134 154 181
133 154 181
133 153 180
133 154 181
133 154 181
133 154 181
133 154 180
135 155 181
134 154 181
133 154 181
134 155 181
134 154 181
134 154 181
134 154 180
133 153 180
134 154 181
135 155 181
134 154 181
134 154 181
134 154 181
134 154 181
134 154 181
134 154 181
133 154 181
134 154 181
133 154 180
133 154 181
134 154 181
133 154 181
134 154 181
133 154 180
133 154 181
134 154 181
134 154 181
134 154 181
134 154 181
135 155 181
133 154 181
134 154 181
133 154 181
134 154 181
133 154 181
135 155 181
133 153 180
132 153 180
133 154 181
133 153 180
134 154 181
134 154 181
133 154 180
134 154 180
135 155 181
133 153 180
134 154 180
133 154 180
134 154 181
134 154 181
134 154 181
134 154 181
133 154 181
133 154 181
133 154 181
133 154 181
133 154 180
132 153 179
133 154 181
133 153 180
134 154 181
134 155 181
134 154 181
133 154 181
133 154 181
133 154 180
133 154 181
134 154 181
133 153 180
134 154 181
134 154 180
134 154 181
134 154 181
133 153 180
134 154 181
134 154 180
134 154 181
134 154 181
134 154 181
133 154 181
134 154 181
134 154 181
134 154 181
133 154 181
134 154 181
135 155 181
133 154 180
133 154 181
134 154 181
135 155 181
133 154 181
133 154 180
135 155 181
133 154 181
134 154 181
134 154 181
134 154 181
133 154 181
134 154 181
134 154 181
134 154 181
134 155 181
134 155 181
134 155 181
134 155 181
134 154 181
134 154 181
134 154 181
133 154 181
134 154 181
133 154 181
134 154 181
133 154 181
133 154 181
133 154 181
134 155 181
133 154 181
134 154 181
134 154 181
133 154 181
134 154 180
135 155 181
134 154 181
133 154 181
133 154 181
133 154 181
133 154 181
134 154 181
134 154 181
133 154 180
133 154 181
134 154 181
133 154 181
134 154 181
133 154 181
134 154 181
134 154 181
134 154 181
134 154 181
134 154 181
134 154 181
134 154 181
134 154 181
133 154 181
134 154 181
134 154 181
134 154 181
133 154 181
134 154 180
133 153 180
133 154 181
133 154 181
134 154 181
134 154 181
134 154 181
134 154 181
134 154 181
134 154 180
134 154 181
135 155 181
133 154 181
134 154 181
133 154 181
134 154 181
134 154 181
134 154 181
134 154 181
134 154 181
134 154 181
133 154 181
134 154 181
133 154 181
133 154 181
134 154 181
133 154 181
134 154 180
134 154 181
134 154 181
134 154 181
133 154 181
134 154 181
134 154 181
135 155 181
134 154 181
133 154 180
133 154 181
134 154 181
134 155 181
134 154 181
134 154 181
134 154 181
134 154 181
132 153 180
134 154 181
134 154 181
134 154 180
134 154 180
133 154 181
133 154 181
133 154 181
135 155 181
134 154 181
134 154 180
133 153 180
134 154 181
134 154 181
134 154 181
135 155 181
134 154 181
134 154 181
134 154 181
134 154 181
133 154 181
134 154 181
133 154 181
134 154 181
134 154 181
133 154 181
134 154 181
135 155 181
135 155 181
134 154 181
134 154 181
134 154 181
134 154 181
134 154 181
134 155 181
134 154 181
134 154 181
134 154 181
134 154 181
134 154 181
133 154 181
134 154 181
132 153 180
133 154 181
134 154 181
133 154 180
133 154 181
134 154 181
134 154 181
134 154 181
133 154 181
134 154 181
134 154 181
134 154 181
134 154 181
134 154 181
135 155 181
133 154 181
134 154 181
134 154 181
133 154 181
133 154 181
133 154 181
133 154 181
134 154 181
133 154 180
133 154 181
133 154 181
133 154 181
133 154 181
135 155 181
134 154 181
133 154 181
134 154 181
133 154 180
135 155 181
133 154 181
134 154 181
133 154 181
134 154 181
133 154 181
134 154 181
133 153 180
133 154 181
134 154 181
134 155 181
133 154 181
133 154 181
135 155 181
134 154 181
133 154 181
134 154 181
134 154 181
133 154 180
134 154 181
133 154 181
134 154 181
132 153 180
134 154 180
133 154 181
133 153 180
133 154 181
134 154 181
133 154 181
133 154 181
134 154 181
133 154 181
134 154 180
133 154 180
133 154 181
134 154 180
134 154 181
133 154 181
133 154 180
133 154 180
134 154 181
134 154 181
134 154 181
134 154 181
133 153 180
134 154 180
133 154 180
134 154 181
133 154 181
134 154 181
134 154 181
134 154 181
133 154 181
134 154 181
134 154 181
134 154 181
133 153 180
133 154 180
133 154 181
133 153 180
133 154 181
134 154 181
133 154 181
133 154 181
134 155 181
133 154 181
133 153 180
133 153 180
133 153 180
134 154 180
133 154 181
133 154 181
134 154 181
134 154 181
133 154 181
134 154 181
134 154 181
134 154 181
133 154 180
134 154 181
134 154 181
133 154 181
134 154 181
133 154 181
133 154 181
134 155 181
135 155 181
134 154 181
133 154 181
133 154 181
133 153 180
134 154 181
134 154 181
134 154 181
134 154 180
133 154 181
135 155 181
134 154 181
134 154 181
134 154 181
133 154 180
133 154 181
134 154 181
134 154 180
134 154 181
133 153 180
134 154 181
134 154 180
134 154 180
133 154 181
134 154 181
134 154 181
134 154 181
134 154 180
133 154 181
134 154 181
133 153 180
134 154 181
133 154 181
133 154 181
134 154 181
133 154 181
133 153 180
134 154 181
133 154 181
133 154 181
132 153 180
134 154 181
133 154 180
133 153 180
133 153 180
134 154 181
134 154 181
133 154 181
134 154 181
133 154 181
134 154 181
134 155 181
135 155 181
134 154 181
134 154 180
134 154 181
134 154 181
134 154 181
133 153 180
134 154 181
133 154 181
133 153 180
133 154 181
134 155 181
134 154 181
134 154 181
133 154 180
134 154 180
134 154 181
135 155 181
133 153 180
133 154 181
133 154 181
134 154 180
133 154 181
134 154 181
134 154 181
134 154 181
134 154 181
134 154 181
134 154 181
134 154 181
133 154 181
133 154 181
133 154 181
134 154 181
134 154 181
134 154 181
134 154 181
133 154 181
134 154 181
134 154 181
133 154 181
135 154 180
134 154 181
134 154 181
134 154 181
135 155 181
133 153 180
133 154 181
133 154 181
133 154 181
134 154 181
133 154 181
134 154 181
133 154 181
134 154 181
132 153 181
134 154 181
133 154 181
134 154 181
134 154 181
133 154 181
134 154 181
134 154 181
134 154 181
133 154 181
133 153 180
133 154 181
133 154 180
134 154 181
134 154 181
134 154 180
134 154 181
134 154 180
133 154 181
134 154 181
134 154 181
134 154 181
134 154 181
134 154 181
134 154 181
134 154 181
134 154 181
134 154 181
134 154 181
133 154 181
134 155 181
134 154 181
134 154 181
134 154 181
134 154 181
133 154 181
133 154 181
133 154 181
134 154 181
133 154 180
133 154 181
134 154 181
133 154 181
133 154 181
134 154 181
134 154 181
134 154 181
133 154 181
134 154 181
134 154 181
134 154 181
133 154 181
133 154 181
134 154 181
135 155 181
135 155 181
133 154 181
134 154 181
134 154 181
133 154 181
134 154 181
134 154 181
135 155 181
133 154 181
136 155 181
134 154 180
133 154 181
134 154 181
134 154 181
133 154 181
133 154 181
134 154 181
134 154 181
135 155 181
134 154 181
133 154 181
135 155 181
133 154 181
134 154 181
134 154 181
134 154 181
134 154 181
134 154 181
134 154 181
133 154 181
134 154 181
134 154 181
134 155 181
134 154 181
134 154 181
132 153 180
133 154 181
134 154 181
134 154 181
134 155 181
134 154 181
134 154 181
133 154 181
135 155 181
133 154 181
133 154 181
133 154 181
134 154 181
134 154 181
133 153 180
133 154 181
133 154 181
134 154 181
134 154 181
134 154 181
135 155 181
135 155 181
133 154 181
135 155 181
132 153 180
134 154 181
133 154 181
134 154 181
135 155 181
134 154 181
134 154 181
134 154 181
133 154 181
134 154 180
133 154 181
134 154 181
134 154 181
133 154 181
135 155 181
132 153 181
134 154 181
135 155 181
133 154 181
134 154 181
134 154 181
133 154 180
133 153 180
134 154 181
134 154 181
134 154 181
133 154 181
134 154 181
134 154 181
135 155 181
132 153 181
134 154 181
134 154 181
133 154 180
134 154 181
134 155 181
134 154 181
134 154 181
134 154 181
133 154 181
134 154 181
134 154 180
133 154 181
133 154 181
135 155 181
134 154 181
133 153 180
133 154 181
134 154 181
134 154 181
134 154 181
134 154 181
134 154 181
134 154 181
134 154 181
133 154 181
133 154 181
134 154 181
134 154 181
135 155 181
134 154 181
134 154 181
134 154 181
134 154 181
134 154 180
134 154 181
133 154 181
132 153 180
134 154 180
133 153 180
134 154 181
134 155 181
133 154 181
133 153 180
133 154 181
134 154 181
134 154 181
133 154 180
133 154 181
134 154 180
134 154 181
133 154 181
134 154 181
134 154 180
133 154 181
134 154 181
134 154 181
134 154 181
134 154 181
134 154 181
133 154 181
135 155 181
134 154 181
134 154 181
135 155 181
133 154 181
134 154 181
134 154 181
133 154 181
133 154 181
134 154 181
134 154 181
133 154 181
133 153 180
134 155 181
133 154 181
133 154 180
134 154 180
133 154 181
134 154 181
132 153 181
135 155 181
133 153 180
134 154 181
134 154 181
134 154 181
134 154 181
134 154 181
134 154 181
133 154 181
133 154 181
133 154 181
134 154 181
134 154 181
134 154 181
134 154 181
133 154 181
134 154 181
133 154 181
133 154 180
134 154 181
134 154 181
132 153 180
133 154 180
132 153 180
134 154 181
134 154 181
133 154 180
134 154 180
133 154 181
133 154 180
133 154 181
133 154 181
134 154 181
134 154 181
134 154 181
134 154 181
134 154 181
134 154 181
133 154 180
134 154 180
135 155 181
133 154 181
133 154 181
133 154 181
134 154 181
134 154 181
133 153 180
134 154 181
134 154 181
134 154 181
134 154 181
134 154 181
133 154 181
134 154 181
134 154 181
133 154 181
134 154 181
134 154 181
133 154 181
133 154 180
133 153 180
134 154 181
133 154 181
134 154 181
133 154 181
133 154 181
135 155 181
133 154 181
133 154 181
133 154 181
134 154 181
133 154 181
134 154 181
134 154 181
134 154 181
134 154 181
134 154 181
134 154 181
133 154 181
133 154 181
134 154 181
133 154 180
134 154 181
134 155 181
134 154 181
133 154 181
134 154 181
133 154 181
133 153 179
133 154 181
133 153 180
134 154 181
134 154 181
134 154 180
133 153 180
134 154 181
134 154 180
134 154 181
134 154 181
133 154 181
134 154 181
134 154 181
134 154 181
133 154 181
133 153 180
134 154 181
134 154 181
133 153 180
134 154 181
134 154 180
133 154 181
134 154 180
134 154 181
134 154 180
133 154 181
132 153 180
134 154 180
134 154 181
134 154 181
133 154 181
134 154 181
133 154 181
134 154 181
134 154 181
133 154 181
133 154 181
134 153 179
134 154 180
134 155 181
134 154 181
134 154 181
133 154 181
133 154 181
134 154 181
133 154 181
134 154 181
134 154 181
133 153 180
133 154 181
133 154 181
134 154 181
134 154 180
134 154 181
134 154 181
133 153 180
134 154 180
133 154 181
134 154 181
133 153 180
133 154 181
134 154 180
134 154 181
134 154 181
134 154 181
134 154 181
133 153 180
134 154 181
135 155 181
134 154 180
132 153 180
134 154 181
133 154 180
133 154 181
134 154 181
134 154 180
135 155 181
133 154 181
134 154 181
134 154 181
134 154 181
134 154 181
133 154 181
134 154 181
134 154 181
134 154 181
134 154 181
134 154 181
133 153 179
134 154 181
133 154 181
135 155 181
134 154 181
134 154 181
134 154 181
134 154 180
134 154 181
134 154 181
133 154 181
134 154 181
133 154 181
134 154 181
133 154 181
134 154 181
134 154 181
134 154 180
134 154 181
133 154 181
133 154 181
133 154 181
134 154 181
134 154 181
135 155 181
134 154 181
134 154 181
134 154 181
134 154 181
134 154 180
133 154 181
134 154 181
134 154 181
134 154 181
134 154 181
133 153 180
134 154 181
133 154 181
133 154 181
134 154 181
134 154 181
133 154 181
134 154 181
134 154 181
134 154 181
134 154 181
134 154 181
134 154 181
134 154 181
133 154 181
133 154 181
134 154 181
134 154 181
134 154 181
133 154 180
134 154 181
133 154 180
134 154 181
134 155 181
134 154 181
134 154 181
134 154 181
134 154 181
133 154 181
135 155 181
134 154 180
134 154 181
133 154 181
134 154 181
134 154 181
134 154 181
134 154 181
134 154 181
134 155 181
134 154 181
134 154 181
133 154 181
133 154 181
134 154 181
134 154 181
133 154 181
134 154 181
134 155 181
133 154 181
133 154 181
134 154 181
134 154 181
133 154 181
134 154 181
134 154 181
134 154 181
134 154 181
133 154 180
135 155 181
134 154 181
134 154 181
134 155 181
135 154 180
134 155 181
133 154 180
134 154 181
134 154 181
133 154 181
135 154 180
134 154 181
134 154 181
134 154 181
134 154 181
134 154 181
134 154 181
133 154 181
134 154 181
134 154 181
133 154 181
134 154 181
133 154 181
133 154 181
133 154 181
134 154 181
134 154 181
134 154 181
134 154 180
135 155 181
133 154 181
134 154 181
133 154 181
134 154 181
133 154 181
134 154 181
134 154 181
134 154 181
134 154 181
133 154 181
134 154 181
133 154 181
135 155 181
134 154 180
134 154 181
133 154 181
135 155 181
133 154 181
133 154 181
135 155 181
133 154 181
133 154 181
133 154 181
134 154 181
134 154 181
134 154 181
133 154 181
134 154 181
134 155 181
134 154 181
134 154 181
133 154 181
133 154 181
133 154 180
134 155 181
134 154 181
134 154 181
133 154 181
134 154 181
134 154 181
132 153 180
133 154 181
133 154 181
133 154 181
133 154 181
134 154 181
133 154 181
133 154 181
133 154 181
133 154 181
134 154 181
133 154 180
134 154 181
134 154 181
134 154 181
134 154 181
133 154 181
134 154 181
134 154 181
134 154 181
134 154 181
134 154 181
133 154 181
134 154 181
133 154 181
134 154 181
134 154 181
133 154 181
134 154 181
133 154 181
135 155 181
133 153 180
134 154 181
134 154 181
133 154 181
133 154 181
134 154 181
135 155 181
133 153 180
133 154 181
134 154 181
133 154 181
134 154 181
134 154 181
133 154 181
134 154 181
134 154 181
134 154 181
134 154 181
133 154 180
135 155 181
134 154 181
133 154 181
133 154 181
134 154 181
132 153 180
135 155 181
133 154 181
134 154 181
133 153 180
134 154 181
133 154 181
133 154 180
134 154 181
134 154 180
132 153 181
134 154 181
133 154 181
133 154 181
134 154 181
133 154 181
134 154 181
134 154 181
133 153 180
134 154 181
134 154 181
133 154 181
133 154 180
133 153 180
134 154 181
133 154 181
134 154 180
134 154 181
134 154 181
134 154 181
134 154 181
133 154 180
134 155 181
135 154 180
133 154 181
134 154 181
134 154 180
134 154 180
133 154 181
133 154 181
134 154 181
133 154 180
132 153 180
134 154 181
134 154 181
134 154 181
133 154 181
134 155 181
133 154 181
134 154 181
134 154 180
134 154 180
134 154 181
134 154 181
134 154 181
133 154 181
135 155 181
133 153 180
134 154 181
134 154 180
134 154 181
134 154 181
134 154 180
134 155 181
132 153 180
133 153 180
133 154 181
133 154 181
134 154 181
133 154 181
132 154 181
134 154 181
134 154 181
134 154 181
134 154 181
133 154 181
134 154 181
134 154 181
134 154 181
133 154 181
134 155 181
133 154 181
133 154 181
134 154 181
134 155 181
135 155 181
134 154 180
133 153 180
133 154 181
134 154 181
134 154 181
133 153 180
134 154 181
133 154 181
133 154 181
134 154 180
133 154 181
133 153 180
133 154 180
133 154 180
133 153 180
134 154 181
133 154 181
134 154 181
133 154 180
134 154 181
133 154 181
134 154 181
133 154 181
133 154 181
134 155 181
133 154 181
133 154 181
134 154 181
134 154 181
134 154 181
134 154 181
134 154 180
134 154 181
133 154 181
133 154 181
134 155 181
133 154 180
133 154 181
134 154 181
134 154 181
134 154 181
134 154 181
134 154 181
133 154 181
134 154 181
133 154 181
134 154 181
134 154 180
134 154 181
133 154 181
134 154 181
133 153 179
134 154 181
133 154 181
133 154 181
134 154 181
133 154 181
134 154 181
134 154 181
133 154 181
133 154 181
134 154 181
134 154 181
134 154 181
134 154 181
133 154 181
133 154 181
134 154 181
134 154 181
133 154 180
133 154 181
134 154 181
134 154 181
135 155 181
134 154 181
133 154 181
133 153 180
133 154 181
134 154 181
134 154 181
134 154 180
134 154 181
133 154 181
134 154 181
134 154 181
134 154 181
134 154 181
134 154 181
134 154 180
134 155 181
135 155 181
133 154 180
133 154 181
133 154 181
134 154 181
134 154 180
134 154 181
133 154 180
134 154 180
133 154 180
133 154 180
134 154 181
133 154 181
134 154 181
134 154 181
134 154 181
133 154 181
133 153 180
133 153 180
134 154 181
134 154 181
134 154 181
133 153 180
133 154 181
134 154 181
134 154 181
134 154 181
134 154 181
134 155 181
134 154 181
133 154 181
135 155 181
133 154 181
133 154 180
133 154 181
134 154 181
134 154 181
134 154 181
134 154 181
134 154 180
134 154 181
135 155 181
134 154 181
134 154 181
133 154 181
133 154 181
133 154 181
133 154 181
133 154 181
134 154 181
134 154 181
134 155 181
134 154 180
133 154 181
134 154 181
134 154 181
134 154 181
134 154 181
134 154 181
135 155 181
134 154 181
134 154 181
134 154 181
134 154 181
133 154 181
133 154 181
133 154 181
133 154 181
134 154 181
133 154 181
134 154 181
133 154 180
134 154 181
134 154 181
134 155 181
134 154 181
133 154 181
134 154 181
133 153 180
134 154 181
134 154 181
134 154 181
134 154 181
134 154 181
133 154 181
133 154 180
134 154 181
134 154 181
134 154 181
135 155 181
134 154 181
134 154 181
134 154 181
133 154 181
134 154 181
134 154 181
133 154 181
133 154 181
134 154 181
135 155 181
134 154 181
133 154 181
133 154 181
134 154 181
134 154 181
133 154 181
133 154 181
133 154 181
134 154 181
134 154 181
133 154 181
133 154 181
133 154 181
134 154 181
133 154 181
133 154 180
134 154 181
134 154 181
134 154 181
134 154 181
133 154 181
133 154 181
134 154 181
134 154 181
135 155 181
133 154 181
133 153 180
134 154 181
134 154 181
134 154 181
134 154 181
133 154 181
134 154 181
135 155 181
134 154 181
133 154 181
134 154 181
134 154 181
133 154 181
134 154 181
134 154 181
134 154 181
134 154 181
133 154 181
134 154 181
134 154 181
134 154 181
133 154 181
134 154 181
134 154 181
134 154 181
134 154 181
134 154 181
133 154 180
133 154 180
134 154 181
133 154 180
133 154 181
134 154 181
134 154 181
133 154 181
134 154 181
133 154 181
133 154 181
134 154 181
133 154 181
134 154 181
134 154 181
134 154 181
133 154 181
134 154 181
133 154 180
133 154 181
133 154 181
134 154 181
133 154 180
134 154 181
134 154 181
134 154 181
135 155 181
133 154 181
133 154 181
134 154 181
133 154 181
133 154 181
132 153 181
135 155 181
133 154 181
134 154 181
133 154 181
133 154 181
134 154 181
134 154 181
133 154 181
134 154 181
133 153 180
132 153 181
134 154 181
133 154 181
134 154 181
134 154 181
134 154 181
134 154 181
134 154 181
134 154 180
133 154 181
134 154 181
134 154 181
133 154 180
134 154 181
134 154 181
133 154 181
135 155 181
134 154 181
134 154 181
134 154 181
135 155 181
134 154 181
132 153 180
134 154 181
134 154 181
134 154 181
134 154 181
134 154 181
133 154 181
133 154 181
134 154 181
133 154 181
134 154 181
134 154 181
134 154 180
133 154 181
133 154 181
133 154 180
134 154 181
134 154 181
133 154 181
133 154 181
134 154 181
133 154 181
134 154 181
133 154 181
133 154 181
134 154 181
133 153 180
133 154 181
133 154 180
133 154 181
134 154 181
134 154 181
133 154 181
133 154 181
133 154 180
134 154 181
134 154 181
133 154 181
134 154 180
133 153 180
133 154 181
134 154 181
133 154 181
133 153 180
134 155 181
134 154 181
133 154 181
134 154 181
135 155 181
134 154 181
133 154 180
133 154 180
134 154 180
133 154 181
133 153 180
134 154 181
134 154 181
134 154 181
134 154 180
133 154 181
134 154 181
134 154 181
133 154 181
133 154 181
133 154 181
133 154 181
134 154 181
133 153 180
134 154 181
133 154 181
134 154 181
134 154 181
133 153 180
134 154 181
135 155 181
133 154 181
133 154 180
134 154 181
134 154 181
132 153 180
134 154 181
133 154 181
133 153 180
133 154 180
134 154 181
133 154 181
133 153 180
133 154 181
134 155 181
134 154 181
134 154 181
134 154 180
134 154 181
134 154 181
134 155 181
134 154 181
133 154 181
134 154 180
133 154 181
134 154 181
133 154 181
134 154 180
134 154 181
133 154 181
133 154 180
134 154 181
133 154 181
134 154 181
133 154 180
134 154 181
133 154 181
135 155 181
133 153 180
134 154 180
134 154 181
134 154 181
133 154 181
133 154 181
135 155 181
134 154 181
133 154 181
135 155 181
134 154 181
132 153 180
134 154 181
133 154 181
133 154 181
133 154 181
134 154 180
133 154 180
133 154 180
134 154 181
134 154 181
133 154 181
134 154 181
135 155 181
134 154 181
133 154 180
134 154 181
133 154 181
133 154 181
134 154 181
134 154 181
133 154 181
132 153 181
133 154 181
134 154 181
134 154 181
134 154 181
133 154 180
133 154 181
133 153 180
134 154 181
133 154 181
133 154 181
133 153 180
134 154 180
133 154 181
134 154 181
134 154 181
134 155 181
134 154 181
133 154 181
134 154 181
133 153 180
134 154 181
133 154 181
134 154 181
134 154 181
133 154 181
134 154 181
134 154 181
134 154 181
134 154 181
134 154 181
133 154 181
134 154 180
134 154 181
134 154 181
133 154 181
132 153 181
133 154 181
133 154 181
134 154 181
134 155 181
134 154 181
134 154 181
134 154 181
133 154 181
133 154 181
133 153 180
133 153 180
134 154 181
133 153 180
134 154 181
135 155 181
133 153 180
133 154 181
134 154 181
134 154 181
133 154 181
134 154 180
134 154 180
133 154 181
134 154 181
134 154 181
133 154 181
135 155 181
133 154 180
134 154 181
134 154 181
134 154 181
133 154 181
134 154 181
133 154 181
134 154 181
133 154 181
134 154 181
134 154 181
134 154 181
134 154 181
133 154 180
134 154 181
134 154 181
134 154 181
134 154 181
135 155 181
133 154 181
133 154 181
134 154 181
134 155 181
134 154 181
134 154 181
134 154 181
134 154 181
134 154 181
133 154 181
134 154 181
134 154 181
133 154 181
134 154 181
133 154 181
133 154 181
134 154 181
134 154 181
133 154 180
133 154 181
134 154 180
134 154 181
134 154 181
134 154 181
134 154 181
134 154 181
133 154 180
135 155 181
134 154 181
133 154 181
133 154 181
134 154 181
133 154 181
134 154 181
133 154 180
133 154 181
134 154 181
133 154 181
134 154 181
133 154 181
133 154 180
134 154 181
133 154 181
133 154 181
133 154 181
134 154 181
133 154 181
133 154 181
134 154 181
133 154 181
133 154 180
134 154 181
133 154 181
134 154 181
133 153 180
134 154 181
134 154 181
134 154 181
134 154 181
135 155 181
134 155 181
134 154 181
134 154 181
134 154 181
133 154 181
134 154 181
135 155 181
134 154 181
134 154 181
134 154 181
134 154 181
134 154 181
134 154 181
134 154 181
133 154 181
134 154 181
133 154 180
134 154 181
134 154 181
134 154 180
134 154 181
134 154 181
134 154 181
133 154 181
134 154 181
134 154 181
133 154 181
134 154 181
133 154 181
135 155 181
133 154 181
134 154 181
134 154 181
134 154 181
135 155 181
134 154 181
133 154 181
134 154 181
134 154 181
134 154 181
133 154 181
134 154 181
134 154 181
133 154 181
134 154 181
134 154 181
133 154 181
134 154 181
134 154 181
134 155 181
134 154 181
134 154 181
135 155 181
134 154 181
133 154 181
134 154 181
134 154 181
134 154 180
133 154 181
134 154 181
133 154 181
134 154 181
134 154 181
133 154 181
135 155 181
135 155 181
134 154 181
133 154 181
134 154 181
134 154 181
134 154 181
134 154 181
134 154 181
133 154 181
134 154 181
133 154 181
134 154 181
134 154 181
135 155 181
133 154 181
134 154 181
134 154 181
133 154 181
133 154 181
133 154 181
134 154 181
133 154 181
134 154 181
135 155 181
134 154 181
134 154 181
134 154 181
132 153 180
134 154 181
134 154 181
134 154 181
134 154 181
134 154 181
134 154 181
134 154 181
133 154 180
134 154 181
134 154 181
134 154 181
134 154 180
134 154 181
133 154 181
133 154 181
133 154 181
134 154 181
133 154 180
133 154 181
134 154 181
133 154 181
134 154 181
133 153 180
134 154 180
133 154 181
134 154 181
134 154 181
133 154 180
134 154 181
133 153 180
134 154 181
134 154 181
133 154 180
133 154 181
134 154 181
134 154 181
134 154 181
133 154 181
133 154 181
134 154 181
133 154 181
133 153 180
133 154 181
133 154 180
134 154 181
133 154 181
133 154 181
134 154 181
133 154 180
134 154 181
133 154 181
134 154 181
134 154 181
134 154 180
133 154 180
133 154 181
134 154 181
134 154 181
134 154 181
134 154 181
134 154 181
134 154 181
134 154 180
135 155 181
133 154 181
133 154 181
133 154 181
133 154 180
134 154 181
134 154 180
134 154 181
133 154 181
134 154 181
133 154 181
134 154 181
133 154 181
133 154 180
134 154 181
132 153 180
133 154 181
134 154 181
134 154 181
135 155 181
133 154 181
133 154 181
133 154 180
134 154 180
134 155 181
134 154 181
134 154 181
134 154 181
133 154 181
134 154 181
133 153 180
133 154 181
134 154 181
134 154 181
134 154 181
133 154 181
133 154 181
133 154 181
134 154 181
134 154 181
134 154 181
134 154 181
134 154 181
134 154 181
133 154 181
133 153 180
133 154 181
134 154 181
133 154 181
134 154 181
134 154 181
133 154 181
134 154 181
133 154 181
134 154 181
133 154 181
133 154 181
133 154 181
133 154 180
134 154 181
134 154 181
133 154 181
134 154 181
135 155 181
134 154 181
134 154 181
133 153 180
134 154 181
134 154 181
133 154 180
135 155 181
134 154 181
133 153 180
134 154 181
135 155 181
133 154 181
135 155 181
133 154 181
134 154 181
134 154 181
133 154 181
133 154 181
133 154 181
134 154 181
134 154 181
134 154 181
134 154 181
133 154 181
134 154 181
133 154 180
133 154 180
133 154 181
134 154 181
133 153 180
134 154 181
133 154 181
133 154 181
133 154 181
134 154 181
133 154 180
134 154 181
133 154 181
134 154 181
133 154 181
134 154 181
134 154 181
134 154 181
133 154 181
134 154 180
133 154 181
133 154 181
133 154 181
134 154 181
133 154 181
133 154 181
133 154 181
134 154 181
134 154 181
134 154 181
134 154 181
133 154 181
135 155 181
134 154 181
134 154 181
134 154 181
133 154 180
134 154 181
134 154 181
134 154 181
133 154 181
133 154 181
133 154 181
133 154 181
135 155 181
133 154 181
134 154 181
134 155 181
135 155 181
135 155 181
133 154 181
134 154 181
133 154 181
133 154 181
134 154 181
134 154 181
134 154 181
133 154 181
134 154 181
134 154 181
133 154 181
132 153 180
134 154 181
134 154 181
134 154 181
134 154 181
134 154 180
133 153 179
134 154 181
134 154 181
134 154 181
134 154 181
133 154 181
133 154 181
134 154 181
133 153 180
134 154 181
134 154 180
134 154 181
135 155 181
134 154 181
134 154 181
134 154 181
134 154 181
134 154 181
135 155 181
134 154 181
135 155 181
133 154 181
135 155 181
133 154 181
133 154 180
134 154 181
134 154 181
133 154 181
133 154 181
133 154 181
133 154 181
135 155 181
135 155 181
134 154 181
134 154 181
133 154 181
134 154 181
133 154 181
134 154 181
133 154 181
134 154 181
134 154 181
134 154 181
134 154 181
134 154 181
134 154 181
134 154 181
133 154 180
133 154 181
134 154 180
133 154 181
134 155 181
133 154 181
134 154 181
134 154 181
134 154 181
133 154 181
133 154 181
134 154 181
134 154 181
134 154 181
135 155 181
134 154 181
134 154 181
135 155 181
135 155 181
135 155 181
134 154 181
134 154 181
134 154 181
134 154 181
135 155 181
134 154 181
134 154 181
134 154 181
133 154 181
134 154 181
135 155 181
134 154 181
134 154 181
134 155 181
133 154 181
133 154 181
134 154 181
133 154 181
134 154 181
134 154 181
133 154 181
134 154 181
134 154 181
134 154 181
134 154 180
134 154 180
134 154 181
134 154 181
134 154 181
135 155 181
134 154 181
134 154 181
134 154 181
134 154 181
133 154 181
134 154 181
133 154 181
133 154 181
134 154 181
135 155 181
133 154 180
134 154 181
134 154 181
133 154 181
134 154 181
133 154 181
133 154 181
134 154 181
134 154 181
134 154 181
133 154 181
133 154 181
134 154 181
134 154 181
133 154 180
133 154 181
134 154 180
134 154 181
134 154 181
133 154 181
133 153 180
134 154 181
134 154 181
132 154 181
133 154 181
134 154 181
134 154 181
134 154 181
134 154 181
134 154 181
134 154 181
133 154 181
134 154 180
134 154 181
133 154 181
133 154 181
134 154 181
133 154 181
133 154 181
134 154 181
134 154 181
134 154 181
134 154 181
134 154 181
134 154 181
134 155 181
133 154 181
134 154 181
134 154 181
133 154 181
135 154 180
133 154 181
133 154 181
134 154 181
134 154 181
132 153 180
133 153 180
134 154 180
133 154 181
134 154 181
133 154 181
134 154 181
134 154 181
133 154 181
134 154 181
134 154 181
134 154 181
135 155 181
133 154 181
134 154 181
135 155 181
134 154 181
134 154 180
133 154 180
133 154 181
134 154 181
134 154 180
133 154 181
134 154 181
134 154 180
134 154 180
133 154 181
133 154 181
134 154 181
135 155 181
134 154 181
134 154 181
135 155 181
134 154 181
132 153 180
134 154 181
135 155 181
134 154 181
133 154 181
134 155 181
134 154 181
134 154 181
134 154 181
134 154 181
134 154 181
134 154 181
134 154 181
134 154 181
134 154 181
133 154 181
132 153 180
134 154 181
134 154 181
134 154 181
133 154 180
134 154 181
134 154 181
133 154 181
133 153 180
133 154 181
135 155 181
134 154 181
133 153 180
133 154 181
134 154 181
135 155 181
134 154 181
133 154 181
134 154 181
134 154 181
133 154 181
134 154 181
133 154 181
134 154 181
134 154 181
134 154 181
133 154 181
134 154 181
133 154 181
134 155 181
134 154 180
133 154 181
134 154 181
134 154 180
134 154 181
132 153 180
133 154 181
133 154 181
134 154 180
133 154 180
134 154 181
134 154 181
134 154 180
135 155 181
134 155 181
133 154 181
133 154 181
135 155 181
133 153 180
135 155 181
133 154 181
134 154 181
134 154 181
134 154 181
135 155 181
133 154 181
134 154 180
134 154 181
134 154 181
133 153 180
134 154 181
134 154 181
134 154 181
134 154 180
134 154 181
134 154 181
134 154 181
134 154 181
134 154 181
134 154 181
134 154 181
134 154 181
133 154 181
134 154 181
134 154 180
133 154 181
134 154 180
134 154 181
134 154 181
134 154 181
133 154 181
134 154 181
134 154 181
133 154 181
134 154 180
134 154 181
134 154 181
134 154 181
134 154 180
134 154 181
134 154 181
134 154 181
132 153 180
133 154 181
132 153 179
134 154 181
134 154 181
133 154 181
134 154 181
133 153 180
133 154 181
133 154 181
134 154 181
133 154 180
134 154 181
134 154 181
134 154 181
134 154 181
134 154 181
134 154 181
133 154 181
134 154 180
133 154 181
133 154 181
133 154 181
133 153 180
134 154 181
133 154 181
133 154 181
132 153 179
134 154 181
134 154 181
134 154 181
134 154 181
133 153 180
134 154 181
133 154 181
135 155 181
134 154 180
133 154 181
134 154 181
134 154 180
133 154 181
134 154 181
133 154 181
135 155 181
134 153 179
133 154 180
133 154 181
133 154 181
133 154 181
133 154 180
134 154 181
133 153 180
134 154 181
134 154 181
134 154 180
134 154 180
135 154 180
134 154 181
134 154 181
134 154 181
133 154 181
134 154 181
134 154 181
133 154 180
133 154 181
134 154 181
134 154 181
134 154 181
133 154 181
133 154 181
134 154 181
133 154 181
134 154 180
134 154 181
134 154 181
134 154 181
134 154 181
135 155 181
134 154 181
134 154 181
133 154 181
133 154 180
135 155 181
134 154 181
133 154 181
134 154 181
135 155 181
133 154 181
134 154 181
133 154 180
134 154 181
133 154 181
133 154 181
134 154 181
133 154 181
133 154 181
134 154 181
133 154 181
133 154 181
133 154 181
134 154 181
134 154 181
134 154 181
134 154 181
134 154 181
133 154 181
134 154 181
134 154 181
135 155 181
134 154 181
133 154 181
134 154 181
133 154 181
134 154 181
134 154 181
134 154 181
132 153 180
134 154 181
134 154 181
134 154 181
134 154 181
134 154 181
134 154 181
133 154 181
133 154 181
135 155 181
134 154 181
134 154 181
134 154 181
134 154 181
133 154 181
134 154 181
134 154 181
134 154 181
134 154 181
134 154 181
134 155 181
133 154 181
134 154 181
134 154 180
134 154 181
134 154 181
133 154 181
132 153 181
133 154 181
133 154 181
134 154 181
134 154 181
134 154 180
133 154 181
134 154 181
134 154 181
134 154 181
133 153 180
133 154 181
134 154 181
134 154 181
133 154 181
134 154 181
134 154 181
133 154 180
134 154 181
134 154 181
133 154 181
134 154 181
134 154 181
133 154 181
134 154 181
134 154 181
134 154 181
134 154 181
134 154 181
134 154 181
134 154 181
133 154 181
134 154 181
134 154 181
133 154 181
134 154 181
134 154 181
134 154 181
134 154 181
134 154 181
133 154 181
135 155 181
133 154 181
134 154 181
134 154 181
134 154 181
134 154 181
133 153 180
135 155 181
134 154 181
134 154 181
133 154 181
134 154 181
133 154 181
133 154 181
132 153 181
133 154 181
134 154 181
134 154 181
133 154 181
134 154 181
134 154 181
134 154 180
134 155 181
134 154 181
134 154 181
134 154 181
134 154 181
134 154 181
133 154 181
134 154 181
133 153 180
133 154 181
133 154 181
134 154 181
135 155 181
134 154 181
133 154 181
133 154 180
133 154 181
133 154 181
134 154 181
134 154 181
133 154 181
134 154 181
133 154 181
134 154 181
134 155 181
133 154 181
134 154 181
134 154 181
134 154 180
134 154 181
133 154 181
133 153 180
134 154 181
133 154 181
134 154 181
134 154 181
133 154 180
133 153 180
134 154 181
134 154 180
134 154 181
134 154 181
134 154 180
134 154 181
134 154 181
134 154 180
134 154 181
133 154 181
134 154 181
134 154 181
134 154 181
133 154 181
134 154 181
133 154 181
134 154 181
134 154 181
134 154 181
134 154 181
133 154 181
134 154 181
133 154 181
134 154 181
133 154 181
133 154 181
134 154 181
134 154 181
135 155 181
134 154 181
134 154 181
134 154 181
134 154 181
133 154 181
134 154 181
134 154 181
133 154 181
133 154 181
133 154 181
134 154 181
134 154 181
134 154 181
134 154 181
133 153 180
132 153 181
133 154 181
134 154 181
133 154 181
135 155 181
133 154 181
133 154 181
134 154 181
133 153 180
133 154 181
134 154 181
134 154 181
134 154 181
133 153 180
133 154 181
133 154 181
133 154 181
133 154 180
133 154 181
133 154 181
134 154 181
134 154 180
134 154 181
134 154 181
134 154 181
134 154 181
133 153 180
133 153 180
133 154 180
134 154 181
132 153 180
134 154 181
134 154 181
134 154 181
133 154 180
133 154 181
134 154 181
133 154 181
133 154 181
133 154 180
134 154 181
134 155 181
133 154 181
133 154 181
134 154 181
134 154 181
133 154 181
133 154 181
133 154 181
135 155 181
134 154 181
133 153 180
133 154 181
133 154 180
134 154 181
134 154 181
134 154 181
134 154 181
134 154 180
133 154 180
135 155 181
135 155 181
134 155 181
134 154 181
134 154 181
134 154 181
133 154 180
134 154 181
134 154 181
134 154 181
134 154 181
134 155 181
133 153 180
134 154 181
133 154 180
133 153 180
134 154 181
133 154 181
134 154 181
134 154 181
133 154 181
134 154 181
134 154 181
133 154 181
132 153 180
134 154 181
134 154 181
134 154 181
133 154 180
133 154 181
133 154 181
133 154 181
134 154 180
133 154 181
134 154 181
134 154 181
134 154 181
134 155 181
134 154 181
134 154 181
134 154 181
134 154 181
133 154 181
134 154 181
134 154 181
134 154 181
133 154 181
133 154 181
133 154 180
133 154 181
133 154 181
135 155 181
134 154 181
134 154 181
133 154 181
134 154 181
133 154 181
134 154 181
134 154 181
134 154 181
134 154 180
134 154 180
134 154 181
133 153 180
133 154 181
134 154 180
135 155 181
134 154 181
133 154 181
134 154 181
133 154 181
134 154 181
134 154 181
134 154 181
133 154 181
134 154 180
133 153 180
134 154 181
133 154 181
133 153 180
133 153 180
134 154 181
134 154 181
134 154 181
134 154 181
133 154 180
133 154 181
134 154 181
133 153 180
133 154 181
134 154 181
134 154 181
135 155 181
134 154 181
134 154 181
133 154 181
133 154 181
135 155 181
133 154 180
132 153 180
134 154 181
134 154 181
134 154 181
134 154 181
132 153 180
134 154 181
134 154 181
133 153 180
133 153 180
134 154 181
133 154 181
134 154 181
134 154 181
133 154 180
134 154 180
134 154 181
134 154 181
134 154 181
134 154 181
134 154 181
134 154 181
133 154 180
133 154 180
134 154 181
134 154 181
134 154 181
133 154 181
133 153 180
134 154 181
134 154 181
134 154 181
133 154 181
135 155 181
133 154 181
134 154 181
134 155 181
133 154 181
134 154 181
133 154 181
135 155 181
134 154 181
134 154 181
133 153 180
133 154 181
134 154 181
134 154 181
134 154 180
134 154 181
133 154 181
134 154 181
134 154 181
134 154 181
133 154 181
133 154 181
134 154 181
133 154 181
134 154 181
133 154 181
134 154 181
134 154 181
134 154 181
134 154 181
134 154 181
134 154 181
134 154 181
134 154 181
132 153 179
134 154 181
134 154 181
134 154 181
133 154 181
133 154 181
134 155 181
133 154 181
134 154 181
134 154 181
134 154 181
134 154 181
134 154 181
133 154 181
133 154 181
134 154 181
134 154 181
134 154 181
133 154 181
133 154 181
134 154 181
133 154 181
133 154 181
134 154 181
133 154 181
133 153 180
134 154 181
133 154 181
134 154 181
134 154 181
134 154 181
134 154 181
134 155 181
134 154 181
135 155 181
133 154 181
134 154 181
134 154 181
133 154 181
134 154 181
133 154 181
134 154 181
134 154 181
135 155 181
133 154 181
134 154 181
134 154 181
134 154 181
133 154 180
134 154 181
133 154 181
134 154 181
134 154 181
134 154 181
134 154 181
133 154 181
134 154 181
133 154 181
133 153 180
134 154 181
134 154 181
135 155 181
134 154 181
133 154 180
133 154 181
133 154 181
135 155 181
134 154 181
134 154 181
134 154 181
134 154 181
134 154 181
134 155 181
134 154 181
134 154 181
134 154 181
133 154 181
134 154 181
133 154 181
133 154 181
134 154 181
133 154 181
134 154 181
134 154 181
133 154 181
134 154 181
133 154 181
134 154 181
133 154 180
134 155 181
133 154 181
134 154 181
134 154 181
134 154 181
135 155 181
134 154 181
134 154 181
134 154 180
134 154 181
133 154 180
134 155 181
134 154 181
133 154 181
134 154 181
133 154 181
134 154 181
134 154 181
133 153 180
133 154 181
134 154 181
134 154 181
133 154 181
133 154 180
134 154 181
134 154 181
133 154 180
133 154 181
133 154 180
133 154 181
134 154 181
134 154 181
134 154 181
133 154 181
134 154 181
134 154 181
134 154 181
134 154 181
134 154 181
133 154 180
132 153 181
135 155 181
134 154 180
134 154 180
134 154 180
133 154 181
134 154 181
134 154 181
134 154 181
133 154 181
134 154 181
133 153 180
134 154 181
134 154 181
134 154 181
133 154 181
135 155 181
133 154 181
133 154 181
133 154 180
134 154 181
134 154 181
134 154 181
134 154 181
134 154 181
133 154 181
134 154 181
134 154 181
134 154 181
134 154 181
133 153 180
133 154 181
133 154 181
134 154 181
133 154 181
133 154 181
134 154 181
134 154 181
134 154 181
133 154 181
133 154 181
134 154 181
134 154 181
133 154 180
134 154 181
134 154 181
133 154 181
133 153 180
133 154 181
133 154 181
134 154 181
134 154 181
134 154 181
133 154 181
133 154 181
133 154 181
135 155 181
133 154 181
134 154 181
134 154 180
134 154 181
133 154 181
134 154 181
134 154 180
134 154 181
134 154 181
133 154 181
133 153 180
134 154 181
133 154 180
133 154 181
134 154 181
133 154 180
134 154 181
134 154 181
133 154 181
133 154 181
134 154 180
134 154 180
134 154 181
133 154 181
134 154 181
134 154 181
134 154 181
134 154 181
132 153 180
133 154 181
134 154 180
133 154 180
134 154 181
133 154 181
133 154 180
133 154 181
134 154 181
134 154 181
134 154 181
134 155 181
134 154 181
134 154 181
134 154 180
133 153 180
135 155 181
134 154 181
135 155 181
134 154 181
134 154 181
133 154 181
134 155 181
133 154 181
135 155 181
133 154 181
134 154 181
134 154 181
135 155 181
134 154 180
133 154 181
131 152 180
134 154 181
134 154 181
135 155 181
135 155 181
133 154 181
133 154 181
133 154 181
133 154 181
134 154 181
134 154 181
133 154 180
133 154 180
134 154 181
134 154 181
134 154 181
135 155 181
133 154 181
134 154 181
134 154 180
134 154 181
133 154 181
133 154 181
134 154 181
134 155 181
133 153 180
133 154 181
134 154 181
135 155 181
133 154 180
133 154 181
134 154 181
134 154 181
133 154 181
133 153 180
134 154 180
134 154 181
134 154 181
133 153 180
133 154 181
133 154 181
134 154 181
133 154 180
134 155 181
133 154 181
134 154 181
133 154 180
134 154 181
134 155 181
134 154 180
133 154 181
133 154 181
134 154 181
133 154 180
134 154 181
134 154 181
133 154 181
133 154 181
133 154 180
133 153 180
133 153 180
133 154 181
134 154 180
133 153 180
134 154 181
133 154 181
133 154 181
133 154 181
134 154 181
134 154 181
134 154 181
134 154 181
134 154 181
133 154 181
134 154 181
134 154 181
133 154 181
133 154 181
134 154 181
133 154 181
134 154 181
133 153 180
133 154 181
134 154 181
134 154 180
134 154 181
133 154 181
134 154 181
134 154 181
134 154 181
134 155 181
134 154 181
134 154 181
133 154 181
133 154 181
134 154 181
134 154 181
134 154 180
133 154 181
133 154 181
134 154 180
133 154 180
133 154 181
133 153 180
133 154 181
133 154 181
133 154 181
134 154 181
133 154 181
134 154 181
134 154 181
134 154 181
133 154 181
134 154 181
133 153 180
134 154 181
133 153 180
133 154 181
133 154 181
133 153 180
133 154 181
134 154 181
135 155 181
134 154 181
133 153 180
134 154 181
133 154 181
133 154 181
134 154 180
134 154 181
134 154 181
135 155 181
134 154 181
133 153 180
134 154 180
133 153 180
134 154 181
134 154 181
134 154 181
134 154 181
134 154 181
134 154 181
133 154 181
133 154 181
134 154 181
133 154 181
134 154 181
134 154 181
133 154 181
134 154 181
134 154 181
133 154 181
134 155 181
133 154 181
134 154 181
134 154 181
134 154 181
135 155 181
135 155 181
134 154 180
133 154 181
133 154 181
134 154 181
135 155 181
134 155 181
134 154 181
134 154 181
134 154 181
134 154 181
134 154 181
135 155 181
134 154 181
134 154 181
134 154 181
133 154 181
135 155 181
133 153 180
134 154 181
135 155 181
134 154 181
135 155 181
133 154 180
133 154 181
134 154 181
134 154 181
134 154 181
134 154 181
133 154 181
133 154 181
134 155 181
134 154 181
134 154 181
135 155 181
135 155 181
133 154 181
134 154 181
133 154 181
134 155 181
134 154 181
134 154 181
134 154 181
133 154 181
134 154 181
133 154 181
135 155 181
134 154 181
134 154 181
133 154 181
134 154 181
134 154 181
134 154 181
133 154 181
134 154 181
135 155 181
134 154 181
133 154 181
134 154 181
133 154 181
133 154 181
135 155 181
133 154 181
134 154 181
134 154 181
134 154 181
134 154 181
133 154 181
133 154 181
134 154 181
134 154 181
134 154 181
134 154 181
134 154 181
133 154 181
133 153 180
133 154 181
132 153 180
134 154 181
133 154 181
134 155 181
133 154 181
134 154 181
134 154 181
134 154 181
133 154 181
134 154 181
134 154 181
134 154 181
134 155 181
134 154 181
134 154 181
134 154 181
135 155 181
133 153 180
134 154 181
134 154 181
133 153 180
134 154 181
134 154 181
133 154 181
133 154 181
134 154 181
134 154 181
134 154 181
135 155 181
133 154 181
133 154 181
133 154 181
133 154 181
134 154 181
134 154 181
134 154 181
133 154 180
134 155 181
134 154 181
133 154 181
134 154 181
134 154 181
133 154 181
133 154 180
134 154 181
134 154 181
133 154 180
134 154 181
134 154 181
133 154 181
134 154 180
134 154 180
133 154 181
135 155 181
134 154 181
133 154 181
134 154 181
133 154 181
133 154 181
133 154 181
133 154 181
133 154 181
133 154 181
134 155 181
133 154 181
134 154 181
133 154 181
134 154 181
134 154 181
134 154 181
134 154 180
133 154 180
134 154 181
132 153 180
134 154 181
134 154 181
134 154 181
134 154 181
133 154 181
133 154 181
133 154 181
134 154 181
134 154 180
133 154 180
133 154 181
135 155 181
134 154 181
133 153 180
133 154 181
133 154 181
134 154 181
134 154 181
135 155 181
133 154 181
133 154 181
134 154 180
133 154 181
133 154 181
134 154 181
133 154 181
134 154 181
134 154 181
134 154 181
133 154 181
134 154 181
134 154 181
133 153 180
134 154 181
133 154 181
134 154 180
134 154 181
133 154 181
134 154 181
134 154 181
134 154 181
134 154 181
134 154 181
134 154 180
134 154 180
134 154 181
134 154 181
134 154 181
135 155 181
133 154 181
134 154 181
134 154 181
133 154 181
134 154 180
133 154 181
133 154 181
134 154 180
133 154 181
133 154 181
134 154 181
133 154 181
134 155 181
133 153 180
134 154 181
135 155 181
132 153 180
133 154 181
134 154 181
134 154 181
133 154 181
134 154 181
134 154 180
133 154 181
134 154 181
134 154 181
134 154 181
133 154 181
134 154 181
133 154 181
133 154 181
134 154 181
134 154 181
134 154 181
134 155 181
134 154 181
134 154 181
133 154 180
134 154 181
134 154 181
134 154 180
134 154 180
134 154 181
133 154 181
133 154 181
134 154 181
134 154 180
132 153 180
134 154 181
134 154 181
134 154 181
134 154 181
134 154 181
134 154 181
133 154 180
134 154 181
134 154 180
133 154 181
134 154 181
134 154 181
133 154 180
134 154 181
133 153 180
134 154 180
133 153 180
134 154 181
134 154 180
133 154 181
133 153 180
135 155 181
133 154 181
134 154 181
133 154 181
134 155 181
134 154 181
134 154 181
134 154 181
134 154 181
133 154 180
133 154 181
133 154 181
134 154 181
134 154 181
133 154 181
134 154 181
134 154 181
134 154 181
133 154 180
134 154 181
133 154 181
133 154 181
134 154 181
133 154 180
133 153 180
134 154 181
134 154 181
134 154 181
134 154 181
133 154 181
133 153 180
133 154 181
133 154 181
134 154 181
134 155 181
133 154 181
134 154 181
134 154 181
134 154 181
134 155 181
133 154 181
133 154 181
134 154 181
134 154 181
135 155 181
133 154 181
134 154 181
132 153 181
133 154 181
133 154 181
135 155 181
133 154 181
133 154 180
134 154 181
133 154 181
134 154 180
133 153 180
134 154 181
134 154 181
134 154 181
133 154 180
133 154 181
134 154 181
134 154 181
134 154 181
133 154 180
133 153 180
134 154 181
133 154 181
134 154 181
133 154 181
134 153 179
133 153 180
133 153 180
133 153 179
134 154 181
133 154 181
134 154 181
134 154 181
133 154 181
134 154 181
133 154 181
133 154 181
134 154 181
133 154 181
133 154 180
134 154 181
134 154 181
134 154 181
133 154 181
133 154 181
134 154 181
134 154 181
133 154 181
134 154 181
134 154 180
134 154 181
133 154 181
133 154 181
134 154 181
134 154 181
133 154 181
133 154 181
134 155 181
134 154 181
134 154 180
132 153 180
133 154 181
134 154 181
133 154 181
134 154 181
134 154 181
133 154 181
134 154 181
133 154 181
134 154 181
134 154 181
133 154 181
135 155 181
134 154 181
135 155 181
134 154 181
133 154 181
134 154 181
134 154 181
134 154 180
133 154 181
134 154 181
133 154 181
134 154 181
135 155 181
134 154 181
133 154 181
134 154 181
133 154 181
134 154 181
135 155 181
133 154 181
134 154 181
133 154 181
134 154 181
134 154 181
134 154 181
134 154 181
134 154 181
134 154 181
134 154 181
133 154 181
134 154 181
133 154 181
134 154 180
134 154 181
133 154 181
133 154 181
133 154 181
134 154 181
134 154 181
133 154 181
134 154 181
134 154 181
134 154 181
134 154 181
134 154 181
134 154 181
135 155 181
133 154 181
134 154 181
133 154 181
133 153 180
134 154 181
133 154 180
133 153 180
133 154 181
134 154 181
133 154 181
133 154 181
134 154 181
134 154 181
134 154 181
134 154 181
134 154 181
133 154 180
133 154 181
134 154 181
133 154 181
134 154 181
133 154 181
134 154 181
135 155 181
134 154 181
133 154 181
134 154 181
133 154 181
134 154 181
133 154 181
134 154 181
134 154 181
133 154 181
132 153 181
134 154 181
134 154 181
133 154 180
133 154 181
134 154 181
134 154 180
134 154 181
133 154 181
134 154 181
134 154 181
133 153 180
133 154 181
133 154 181
134 154 181
133 154 181
134 154 181
134 154 181
134 154 181
134 154 181
134 154 181
134 154 181
133 154 181
134 155 181
134 154 181
133 154 181
134 154 181
134 154 181
133 154 180
133 154 181
134 154 181
133 154 181
134 154 181
133 154 181
134 154 181
134 154 181
134 154 181
134 154 181
134 154 181
134 154 181
134 154 181
133 154 181
134 154 181
134 154 181
134 154 181
133 154 181
133 154 180
133 154 181
133 154 181
133 153 180
134 154 181
134 154 181
133 154 181
134 154 181
134 154 181
134 154 181
134 154 181
135 155 181
134 154 181
133 154 181
133 154 180
134 154 181
134 154 181
134 154 181
134 154 181
134 154 180
135 155 181
133 154 181
134 154 181
134 154 181
135 155 181
133 154 181
134 154 181
135 155 181
134 154 181
133 154 181
135 155 181
134 154 181
134 154 181
134 154 181
134 154 180
134 154 181
133 154 181
134 154 181
134 154 181
134 154 181
133 154 181
134 154 181
134 154 181
134 154 181
133 154 180
132 153 180
134 154 181
134 154 181
134 154 181
133 154 181
133 154 181
134 154 181
134 154 181
133 154 181
134 154 181
133 154 181
134 154 181
133 154 181
134 154 181
134 154 180
134 154 181
135 155 181
134 154 181
134 154 181
133 154 181
134 154 181
134 154 181
134 154 181
134 154 181
133 154 181
133 153 180
134 154 181
133 153 180
134 154 181
134 154 181
134 155 181
134 154 181
133 154 181
135 155 181
133 154 181
134 154 181
135 155 181
134 154 181
134 154 181
134 154 181
132 153 179
135 155 181
133 154 180
133 154 181
133 154 180
133 154 181
134 154 181
134 154 181
133 154 181
134 154 181
134 154 181
134 154 181
134 154 181
134 154 181
135 155 181
133 154 181
133 154 180
135 155 181
134 154 181
134 154 181
133 154 181
134 154 181
134 154 181
134 154 180
134 154 181
134 154 180
134 154 181
134 154 181
133 154 181
134 154 181
134 154 181
135 155 181
133 153 180
134 154 180
134 154 181
133 153 180
133 154 181
134 154 181
134 154 181
133 154 181
134 154 181
134 154 181
133 154 181
133 154 181
134 154 181
135 155 181
134 154 181
134 154 181
133 154 181
133 154 181
134 154 181
133 154 181
134 154 181
133 154 181
134 154 180
133 154 181
134 154 181
133 154 181
134 154 181
134 154 181
134 154 181
133 154 181
133 154 181
133 154 181
134 154 181
133 153 180
133 153 180
133 153 180
133 154 180
134 154 181
133 154 181
134 154 181
134 154 181
132 153 180
134 154 180
133 154 180
134 154 180
132 153 180
133 154 181
133 153 180
133 154 180
133 153 180
134 154 181
134 154 181
134 154 181
134 154 181
134 154 180
134 154 181
133 154 181
133 154 181
134 154 180
133 153 180
132 153 180
135 155 181
134 154 181
134 154 181
134 154 181
134 154 181
133 154 181
134 154 181
134 154 181
133 154 181
133 154 180
134 154 181
134 154 180
133 154 181
134 154 181
134 154 181
134 154 181
134 154 181
134 154 181
134 154 181
135 154 180
133 154 181
134 154 181
134 155 181
132 153 181
132 153 180
134 154 180
133 154 181
133 154 180
134 154 181
133 154 181
134 155 181
132 154 181
134 154 180
134 154 181
133 154 180
133 154 181
133 154 181
134 154 181
133 154 181
134 154 181
133 154 181
134 154 181
134 154 181
133 154 181
135 155 181
134 154 181
134 154 181
134 154 180
134 154 181
133 154 180
133 154 180
133 154 181
134 154 181
133 154 181
134 154 180
133 153 180
134 155 181
134 154 181
135 155 181
133 153 180
133 153 180
133 154 181
133 154 181
133 154 180
133 154 181
133 153 180
134 154 181
134 154 181
133 154 181
134 154 181
133 154 181
133 154 181
133 154 180
135 155 181
134 154 181
134 154 181
133 154 181
133 154 181
133 154 181
134 154 181
133 154 180
133 154 180
133 154 181
134 154 180
133 154 181
134 154 181
134 154 181
133 154 181
134 154 181
133 154 180
133 154 180
134 154 181
134 154 181
133 154 181
133 154 181
134 154 181
133 154 181
134 154 181
134 154 181
134 154 181
134 154 181
135 155 181
133 154 181
134 154 181
134 154 180
134 154 181
134 154 181
134 154 181
133 154 181
134 154 181
134 154 181
134 154 181
134 154 181
134 154 181
134 154 181
134 154 181
134 154 181
135 155 181
134 154 181
134 155 181
134 154 181
134 154 181
135 155 181
133 154 181
133 154 181
134 154 181
134 154 181
133 154 181
134 154 181
134 154 181
134 154 181
134 154 181
134 154 181
133 154 181
134 154 181
133 154 181
134 154 181
133 154 181
134 154 181
134 154 181
134 154 181
134 154 181
134 154 181
133 154 181
134 154 181
133 154 181
134 154 181
134 154 181
134 154 181
134 155 181
134 154 181
133 154 181
133 154 181
134 154 181
134 154 180
135 155 181
134 154 181
133 154 181
134 154 181
134 154 181
134 154 181
134 154 181
134 154 181
133 154 181
133 154 181
134 154 181
134 154 181
134 154 181
134 154 181
134 154 181
133 154 181
135 155 181
134 154 181
134 154 181
133 154 181
134 154 181
134 154 181
134 154 181
134 154 181
133 154 180
133 154 181
133 154 181
133 154 181
134 154 181
134 154 181
133 154 181
133 154 181
133 154 181
134 154 181
134 154 181
133 154 181
134 154 181
135 155 181
134 154 181
134 154 181
134 154 181
134 155 181
134 154 181
134 154 181
134 154 181
134 154 181
134 154 181
132 153 180
133 154 180
134 154 181
133 154 181
134 154 181
133 154 180
134 154 181
133 154 181
133 154 181
135 155 181
134 154 181
134 154 181
134 154 181
134 154 181
134 154 181
135 155 181
134 154 181
134 154 180
133 154 180
134 154 181
134 155 181
134 154 181
134 154 181
134 154 181
133 154 181
133 154 181
134 154 181
133 154 180
134 154 181
134 154 181
134 154 181
134 154 181
133 154 180
134 154 181
134 154 181
133 154 181
133 154 181
134 154 181
134 154 181
134 154 180
134 155 181
133 154 181
134 154 181
133 153 180
134 154 181
133 154 181
132 153 180
134 154 181
133 153 180
134 154 181
134 154 181
134 154 181
134 154 181
133 154 181
133 154 181
134 154 181
134 154 181
133 154 180
134 154 181
135 155 181
133 154 181
134 154 180
134 154 181
134 154 181
133 154 181
134 154 181
133 154 181
134 154 181
134 154 181
133 154 181
134 154 181
133 154 181
133 154 181
133 154 181
134 154 181
135 155 181
133 154 181
133 154 181
134 154 181
134 154 180
133 154 180
132 153 181
134 154 181
134 154 181
133 154 181
134 154 181
133 154 181
134 154 181
134 154 181
134 155 181
134 154 181
134 154 181
133 153 179
134 154 181
134 154 181
134 154 181
133 154 180
134 154 181
134 154 181
135 155 181
134 154 181
133 154 181
133 154 181
134 154 181
133 154 181
133 154 181
135 155 181
134 154 181
134 154 181
134 154 181
134 154 181
134 154 181
134 154 181
134 154 181
133 154 181
135 155 181
134 154 180
134 154 181
134 154 181
134 154 181
134 154 181
133 154 181
134 154 181
134 154 181
133 154 181
133 154 181
133 154 181
133 154 181
134 154 181
134 154 181
134 154 181
134 154 181
134 154 181
133 153 180
134 154 181
133 154 181
133 153 180
133 154 181
134 155 181
134 154 181
134 154 181
133 154 181
133 154 181
134 154 181
134 154 181
134 154 181
134 154 180
133 154 181
134 154 181
134 154 181
134 155 181
133 153 180
133 154 181
133 154 181
134 154 180
134 154 181
133 154 181
134 154 181
133 154 181
133 154 181
133 154 181
135 154 180
135 155 181
134 154 181
135 155 181
133 154 181
133 153 180
133 154 180
134 154 180
134 154 181
134 154 181
134 154 180
135 155 181
134 154 181
134 154 181
134 154 181
133 154 181
134 154 181
134 155 181
133 154 181
133 154 181
134 154 181
134 155 181
134 154 181
134 154 181
135 155 181
134 154 181
134 154 181
134 154 181
134 154 181
134 154 181
133 153 180
134 154 181
134 154 181
133 154 181
134 154 181
133 154 181
133 153 180
133 154 180
134 154 180
134 154 181
133 154 181
134 154 181
133 154 180
134 155 181
133 154 180
134 154 181
133 153 180
133 153 180
133 153 180
134 154 180
134 154 180
133 154 181
135 155 181
134 154 181
133 154 181
134 154 181
134 154 181
134 154 181
134 154 181
133 154 181
133 154 181
134 154 181
133 154 181
133 154 181
133 154 181
134 154 181
133 154 181
135 155 181
133 153 180
134 154 181
133 154 181
134 154 181
134 154 181
134 154 181
134 154 180
134 154 181
135 155 181
134 154 181
134 154 181
134 154 181
132 153 181
134 154 181
133 154 181
133 153 180
133 154 181
134 154 181
134 154 181
134 154 181
133 154 181
134 154 181
134 154 181
135 155 181
134 154 180
133 154 181
133 154 181
133 154 181
134 154 181
134 154 181
133 154 180
134 154 181
134 154 181
133 154 181
134 154 181
134 154 181
134 154 181
133 153 180
134 154 181
134 154 181
134 154 181
133 154 181
134 154 180
133 154 180
134 154 181
133 154 181
133 154 181
134 154 180
134 154 181
134 154 181
134 154 181
134 154 181
134 154 180
133 154 181
133 154 181
133 154 181
134 154 181
135 155 181
133 153 180
133 153 180
134 154 181
133 154 181
133 154 181
134 154 181
133 154 181
134 154 181
133 154 181
134 154 181
134 154 181
133 154 181
133 154 181
134 154 181
134 154 181
134 154 181
134 154 181
134 154 181
133 154 181
133 154 181
133 154 181
133 154 181
134 154 181
134 154 181
134 154 181
133 154 181
133 154 181
134 154 181
134 154 181
134 154 181
133 154 181
134 154 181
134 154 181
134 154 181
134 154 181
133 154 181
134 154 181
133 154 181
133 154 181
134 154 181
133 154 181
134 154 181
133 154 181
133 154 181
134 154 181
133 154 181
134 154 181
134 154 181
134 154 181
133 154 181
135 155 181
134 154 181
134 154 181
133 154 181
133 154 181
134 154 181
134 154 181
134 155 181
133 154 180
134 154 181
134 154 181
134 154 181
134 154 181
134 154 181
134 154 181
133 154 181
134 154 180
133 154 181
134 154 181
133 154 181
134 154 180
133 154 181
134 154 181
134 154 181
135 155 181
134 154 181
134 154 181
134 154 181
133 154 181
133 154 181
134 154 181
134 154 181
133 154 180
134 154 181
134 154 181
134 154 181
134 154 181
134 154 181
132 154 181
134 155 181
133 154 180
134 154 181
134 154 181
133 154 181
133 154 181
134 154 181
134 154 181
134 154 180
134 154 181
133 154 181
133 154 181
134 154 181
133 154 181
133 154 181
133 154 181
134 154 181
133 154 180
134 154 181
133 154 181
133 154 181
133 154 181
133 154 181
134 154 180
134 154 181
133 154 180
134 154 181
134 154 181
134 154 181
134 154 181
133 154 180
133 154 181
133 154 181
134 154 180
134 154 181
134 154 181
133 154 181
133 154 181
134 154 181
134 154 181
134 154 181
134 154 181
133 154 181
134 154 181
134 154 181
134 154 181
134 154 181
135 155 181
135 155 181
133 154 180
134 154 181
133 154 181
133 154 181
134 154 181
134 154 181
133 154 181
133 154 181
133 154 181
134 154 181
134 155 181
133 154 181
134 154 181
134 154 181
133 154 181
133 154 181
133 154 181
133 154 181
133 154 181
133 154 181
133 154 181
133 153 180
133 154 181
134 154 181
134 154 181
134 154 181
135 155 181
135 155 181
133 154 181
134 154 181
134 154 180
133 154 181
134 154 181
133 154 181
133 154 181
134 154 181
133 154 181
134 154 181
134 154 181
133 154 181
134 154 181
132 153 180
134 154 181
133 153 180
134 154 181
133 154 181
134 154 181
134 154 181
134 154 180
134 154 181
134 154 181
134 154 180
133 154 181
135 155 181
134 154 181
134 154 181
134 154 181
134 154 181
134 154 181
133 154 181
134 154 181
133 154 181
134 154 181
133 154 181
134 154 181
134 154 180
133 154 181
134 155 181
134 154 181
135 155 181
134 154 181
134 154 181
134 154 181
133 153 180
135 155 181
134 154 181
134 154 181
134 154 181
134 154 180
133 154 181
134 154 181
134 154 181
133 154 180
134 154 181
133 154 181
133 154 181
134 154 181
133 154 181
134 154 180
134 154 181
134 154 181
133 154 181
133 154 181
134 154 181
134 154 181
135 155 181
134 154 181
134 154 181
134 154 181
133 154 181
132 153 180
133 154 181
134 154 181
134 154 181
134 154 181
133 154 181
134 154 181
134 154 181
133 154 181
133 154 181
133 154 181
133 154 180
133 154 180
134 154 181
133 154 181
135 155 181
133 154 181
134 154 181
133 153 179
134 154 181
133 154 180
133 154 181
134 154 181
133 154 181
133 154 181
133 153 180
133 154 181
133 154 181
133 154 181
134 154 180
135 155 181
134 154 181
134 154 181
134 154 181
134 154 181
133 154 181
134 154 181
134 154 181
133 153 180
134 154 180
133 154 181
133 154 181
133 154 181
134 154 181
134 154 181
133 154 181
133 154 181
134 155 181
133 154 181
133 154 181
134 154 181
133 154 181
134 154 181
133 154 181
134 154 181
134 154 181
134 154 181
133 154 181
134 154 181
134 154 181
133 154 181
133 154 181
134 154 181
134 154 181
134 154 181
134 155 181
133 154 181
134 154 181
134 154 181
134 154 181
133 153 180
133 154 181
133 154 180
134 154 181
133 153 180
134 154 181
133 154 181
134 154 180
135 155 181
134 154 181
133 154 181
133 153 180
133 153 180
133 154 180
133 154 181
134 154 181
134 154 181
133 154 181
134 154 181
133 154 180
133 154 181
134 154 181
134 154 181
134 154 180
134 154 181
133 154 181
133 154 181
134 154 181
134 154 181
134 153 180
134 154 181
134 154 181
133 154 181
134 154 181
134 154 181
134 154 181
134 154 181
134 154 181
134 154 180
134 154 181
134 154 181
134 154 181
134 154 181
134 154 181
133 154 181
132 153 180
134 154 181
134 154 181
134 154 181
134 154 181
133 153 180
133 154 181
133 154 181
134 154 181
134 154 181
134 154 181
133 153 180
134 154 181
134 154 181
133 154 181
134 154 181
133 154 181
133 154 181
133 154 181
134 154 181
135 155 181
134 154 181
134 154 181
134 154 181
133 154 181
134 154 181
133 154 181
134 154 181
133 154 180
133 154 181
135 155 181
134 154 181
134 154 181
133 154 180
133 154 181
133 154 181
134 155 181
133 154 180
133 154 181
134 154 181
133 154 181
134 154 181
134 154 181
134 154 181
133 154 181
133 154 181
134 154 181
134 154 181
134 154 181
133 154 181
134 154 181
132 153 181
134 154 181
134 154 181
133 154 181
134 154 181
134 154 181
133 154 181
133 154 181
134 154 181
133 154 181
134 154 181
134 154 181
134 154 181
133 154 181
133 154 181
133 153 180
134 154 181
134 154 181
133 154 181
133 154 181
134 154 181
133 153 180
134 154 181
133 154 181
134 154 181
134 154 181
134 154 181
134 154 181
134 154 181
134 154 181
134 154 181
133 154 181
133 154 181
133 154 181
134 154 181
134 154 181
133 154 181
133 154 181
133 154 181
133 154 181
133 154 181
134 155 181
132 153 181
134 154 181
134 154 181
134 154 181
134 154 181
134 154 181
133 154 181
133 154 181
133 154 181
134 154 181
133 154 181
133 154 181
133 154 181
134 154 181
134 154 181
133 154 181
134 154 181
134 154 181
133 154 181
133 154 181
134 154 181
134 154 181
134 154 181
135 155 181
134 154 181
133 154 180
134 154 181
134 154 181
133 154 181
135 155 181
134 154 181
134 154 181
134 154 181
133 154 181
133 154 181
133 154 181
134 154 181
134 154 181
133 154 181
134 154 181
134 154 181
133 154 181
134 154 181
134 154 181
134 154 181
133 154 181
134 154 180
133 154 181
134 154 181
134 154 181
134 154 181
135 155 181
134 154 181
134 154 181
134 154 181
133 154 181
133 154 181
134 154 180
133 154 181
134 154 181
133 154 181
133 154 181
134 154 181
133 154 181
134 154 181
134 154 181
134 154 181
133 154 180
134 154 181
134 155 181
134 154 181
133 154 181
134 154 181
134 154 181
134 154 181
134 154 181
134 154 181
134 154 181
134 154 181
133 154 181
134 154 181
133 154 180
133 154 181
134 154 181
134 154 181
134 154 181
133 153 180
134 154 181
134 154 181
134 154 181
133 154 181
134 154 181
134 154 181
133 154 181
133 154 181
133 154 180
134 154 181
134 154 181
133 154 181
134 154 181
134 154 181
134 154 181
134 154 181
133 154 181
135 155 181
134 155 181
133 154 181
133 154 181
133 154 181
133 154 181
134 154 181
134 154 181
133 154 181
133 153 180
133 154 181
133 154 181
135 155 181
134 154 181
134 154 181
134 154 181
134 154 181
134 154 180
133 154 181
134 154 181
134 154 181
134 154 181
134 154 181
134 154 181
134 154 181
135 155 181
133 154 180
135 155 181
134 154 181
134 154 181
133 154 181
134 155 181
133 154 181
134 154 181
133 154 181
134 154 181
134 154 181
134 154 181
134 154 181
134 155 181
132 153 180
133 154 181
134 155 181
133 154 181
134 154 180
133 154 181
134 154 181
134 154 181
134 154 181
134 154 180
134 154 181
134 154 181
134 154 181
134 154 181
134 154 181
134 154 181
134 154 181
134 154 181
134 154 181
132 153 179
133 154 180
135 155 181
133 154 181
134 154 181
133 154 180
135 155 181
134 155 181
133 154 181
133 154 181
133 153 180
134 154 181
135 155 181
134 154 181
133 154 181
134 154 181
134 154 181
134 154 181
132 153 180
134 154 181
134 154 181
133 154 181
133 154 181
134 154 181
133 154 181
134 154 181
134 154 181
133 154 181
133 154 181
133 154 181
134 154 181
133 154 181
134 154 181
133 154 180
135 155 181
134 154 181
134 154 181
135 155 181
134 154 181
134 154 181
133 154 181
134 154 181
134 154 181
133 154 181
133 154 181
133 153 180
134 154 181
134 154 180
134 154 181
135 155 181
134 154 181
133 154 181
134 154 181
132 152 179
133 154 181
135 155 181
134 154 181
133 154 181
134 154 180
133 154 181
134 154 181
134 154 180
134 154 181
134 154 181
134 154 180
133 154 181
134 154 181
134 154 181
133 154 181
133 154 181
134 154 181
133 154 181
133 153 180
134 154 181
134 154 181
134 154 181
133 154 181
132 153 180
133 154 181
134 154 181
133 154 181
133 154 180
134 154 180
133 154 181
133 153 180
134 154 181
134 154 181
134 154 181
133 154 181
133 154 181
134 154 181
134 154 181
133 154 180
133 153 180
133 154 181
133 153 180
133 154 181
134 154 181
133 154 180
135 155 181
133 154 181
134 154 181
134 154 181
133 154 181
133 154 181
134 154 181
134 154 181
133 154 181
133 154 181
133 154 181
133 154 181
133 154 181
134 154 181
133 154 181
134 154 181
133 154 181
135 155 181
133 154 181
133 154 181
133 154 181
134 154 181
134 154 181
133 154 181
134 154 181
133 153 180
134 154 181
135 155 181
134 154 181
133 154 181
134 154 181
135 155 181
134 154 181
134 154 181
134 154 181
133 154 181
133 153 180
134 154 181
134 154 181
134 154 181
133 154 180
133 154 181
134 154 181
134 154 181
134 154 181
133 153 180
133 154 180
132 153 180
134 154 181
133 153 180
134 154 181
133 154 181
134 154 181
134 154 181
134 154 181
134 154 181
133 154 181
134 154 180
133 154 180
134 154 181
133 153 180
134 154 181
134 154 181
134 154 181
134 154 181
134 154 181
133 154 181
133 154 181
133 154 181
134 154 181
134 154 181
133 154 181
133 154 181
134 153 179
133 154 181
133 154 181
134 154 181
133 154 180
134 154 181
134 154 181
134 154 181
133 154 181
134 154 181
133 154 181
134 154 180
135 155 181
133 154 181
134 154 181
134 154 181
133 154 181
134 154 181
132 153 179
134 154 181
133 154 181
134 154 181
134 154 181
134 154 181
133 154 181
134 154 181
134 155 181
134 154 181
133 154 181
134 154 181
133 154 181
133 154 181
134 154 181
134 154 181
133 154 181
133 154 180
134 154 181
134 154 181
133 154 181
133 154 181
133 154 181
134 154 181
134 154 181
134 154 180
134 154 181
133 154 181
133 154 181
133 154 181
133 154 181
133 154 181
133 154 181
134 154 181
133 154 181
134 154 181
134 154 181
134 154 181
133 154 181
133 154 181
134 154 181
134 154 181
134 154 181
134 154 181
134 154 181
135 155 181
134 154 181
133 154 180
134 155 181
134 154 181
133 154 181
133 154 180
134 154 181
134 154 181
133 154 181
134 154 181
133 154 181
134 154 181
134 154 181
134 154 181
134 154 181
133 154 181
134 154 181
134 154 181
134 154 181
133 154 181
134 154 181
133 154 181
134 154 181
133 154 181
134 154 181
134 154 181
134 154 181
133 154 180
134 154 181
134 154 181
133 154 180
133 154 180
135 155 181
134 154 181
133 154 181
133 154 181
133 154 180
134 154 181
133 154 181
133 154 181
133 154 181
133 154 181
132 153 181
133 154 181
134 154 181
134 154 181
133 154 181
134 154 181
134 155 181
133 154 181
133 154 181
134 154 181
133 154 181
134 154 181
134 154 181
133 154 181
134 154 180
134 154 181
134 154 181
134 154 180
134 154 181
134 154 181
133 154 181
133 154 181
133 154 181
134 154 181
134 154 181
133 154 181
133 154 181
134 154 181
134 154 181
134 154 180
135 155 181
134 154 181
133 154 181
133 154 180
134 154 181
134 154 181
134 154 181
133 154 181
133 154 181
132 153 180
134 154 181
134 154 181
133 154 181
133 154 181
133 154 181
134 154 181
134 154 181
134 154 181
133 154 181
133 154 181
134 154 181
133 154 180
133 154 181
134 154 181
134 154 180
134 154 181
134 154 181
133 154 181
134 154 181
134 154 181
134 154 181
134 154 181
134 154 181
133 154 181
133 154 181
133 154 181
134 154 181
133 154 181
134 154 180
134 155 181
134 154 181
134 154 181
134 154 181
133 154 180
134 154 181
134 154 181
135 155 181
134 154 181
133 154 181
133 154 181
134 154 180
134 155 181
134 154 181
133 154 181
134 154 181
134 154 181
133 154 181
133 154 181
133 154 181
134 154 181
133 154 180
134 154 181
135 155 181
134 154 181
134 154 181
133 154 181
133 154 181
134 154 181
135 155 181
133 154 180
132 153 180
133 154 181
134 154 181
134 154 180
135 155 181
133 154 181
133 154 181
133 154 180
134 154 181
133 154 180
134 154 181
134 154 181
133 154 181
134 154 181
134 154 181
134 154 181
134 154 181
133 153 180
133 154 180
134 154 181
133 154 180
133 153 180
134 154 181
134 154 181
134 154 181
133 154 180
133 154 181
133 154 181
134 154 181
133 153 180
133 154 181
133 154 181
133 154 181
133 154 180
135 155 181
134 154 180
133 153 180
134 154 181
134 154 181
133 154 180
134 154 181
134 154 181
133 154 180
133 154 181
133 154 180
132 153 180
133 154 181
134 154 181
133 154 180
134 154 181
134 154 181
134 154 181
134 154 181
134 154 181
134 154 181
134 154 181
134 154 181
134 154 181
133 153 180
134 154 181
134 154 180
134 154 181
133 154 181
133 154 181
131 152 180
134 154 180
133 154 181
133 154 181
134 154 181
135 155 181
133 153 180
132 153 180
133 154 181
133 154 181
133 154 181
133 154 181
133 154 180
134 154 181
134 154 181
133 153 180
133 154 181
133 154 181
134 154 181
133 154 181
134 154 181
133 154 181
134 154 181
133 154 181
134 154 181
134 154 181
133 154 181
133 154 181
133 154 181
134 154 181
134 154 181
133 154 181
135 155 181
134 154 181
134 154 181
133 153 180
134 154 181
133 154 181
134 154 181
134 154 181
133 154 181
134 154 181
133 153 180
133 154 181
133 154 181
134 154 181
134 154 181
134 154 181
134 154 181
133 154 180
133 154 181
133 153 180
134 154 181
133 154 181
134 154 181
134 155 181
133 154 181
134 154 181
134 154 181
135 155 181
133 153 180
134 154 181
134 154 181
134 154 181
133 154 181
134 154 180
134 154 181
134 154 181
134 154 181
134 154 180
134 154 181
133 153 180
135 155 181
134 154 180
134 154 181
134 154 180
133 154 181
133 154 181
135 155 181
134 154 181
133 154 181
134 153 179
134 154 181
134 154 181
133 154 181
134 154 181
134 154 181
134 154 181
134 154 181
134 154 181
133 154 181
134 154 181
133 154 180
135 155 181
133 154 181
134 154 180
133 154 181
134 154 181
133 154 181
134 154 180
134 154 181
135 154 180
134 155 181
134 154 180
134 154 181
133 154 181
133 154 180
134 154 181
133 154 181
133 154 181
134 154 181
134 154 181
134 154 181
134 154 181
134 154 181
133 154 181
134 154 181
135 155 181
134 154 181
133 154 181
133 153 180
134 154 181
134 154 181
134 154 181
134 155 181
134 154 180
133 153 180
133 154 181
133 154 180
134 154 181
133 154 181
134 154 181
134 154 180
134 155 181
133 154 181
134 154 181
133 154 181
133 154 181
134 154 181
134 154 181
133 154 181
133 154 181
134 154 181
133 154 180
134 154 181
133 154 180
134 154 181
133 154 181
133 154 181
134 154 181
134 154 181
133 154 181
134 154 181
134 154 181
135 155 181
134 154 181
135 155 181
133 154 181
133 154 181
135 155 181
134 154 181
134 154 181
134 154 181
133 154 181
134 154 181
133 154 181
133 154 181
134 154 181
134 154 181
134 154 181
133 154 181
133 154 181
134 154 181
135 155 181
134 154 181
134 154 181
134 154 181
134 154 181
133 154 181
134 154 181
133 154 181
134 154 181
133 154 181
134 154 181
134 154 181
133 154 181
134 154 181
134 154 181
133 154 181
133 154 181
133 154 181
133 154 181
133 154 181
133 154 181
134 154 180
133 154 181
134 154 181
133 154 181
134 154 181
134 154 181
135 155 181
134 154 181
134 154 181
132 153 180
133 154 181
133 154 181
134 154 181
133 154 181
134 154 181
133 154 181
134 154 181
134 154 181
134 154 181
134 154 181
134 154 180
134 154 181
133 154 181
134 154 181
134 154 181
134 154 181
135 155 181
134 154 181
133 154 180
133 154 181
134 154 181
134 154 180
133 154 181
133 154 181
134 154 181
134 154 181
134 154 181
134 154 181
133 154 181
133 154 181
134 154 181
133 154 181
133 154 180
133 154 181
133 154 181
134 154 181
134 154 181
133 154 181
134 154 181
133 154 181
134 154 181
134 154 181
134 154 181
134 154 181
135 155 181
133 154 181
133 154 181
132 153 180
133 154 180
134 154 181
133 154 181
134 154 181
133 154 181
134 154 181
133 154 181
133 154 181
134 154 181
134 154 181
133 154 181
133 153 180
134 154 181
134 154 181
133 154 181
133 154 181
134 154 181
134 154 181
134 154 181
134 155 181
134 154 181
133 154 181
133 154 181
134 154 181
134 154 181
134 154 181
133 154 180
135 155 181
134 154 181
133 154 180
134 154 181
134 154 181
134 154 181
133 153 180
133 154 181
134 154 181
134 154 181
134 154 181
134 154 181
133 154 181
134 154 181
134 154 181
134 154 181
134 154 181
134 154 181
134 154 181
133 154 180
133 154 181
134 154 181
134 154 181
134 154 180
135 155 181
133 154 180
133 154 181
133 153 180
133 154 181
134 154 181
134 154 181
134 154 180
134 154 181
134 154 181
134 154 181
134 155 181
133 154 181
134 154 181
135 155 181
134 154 181
134 155 181
133 154 181
134 154 181
134 154 181
134 154 181
134 154 181
134 154 181
133 154 181
135 155 181
134 154 181
133 154 180
134 154 181
133 154 181
133 154 181
134 154 181
134 154 181
133 153 180
133 154 181
134 154 181
134 154 181
134 154 181
134 154 181
135 155 181
134 155 181
134 154 181
134 154 181
134 154 181
133 154 181
134 154 181
133 154 181
134 154 181
134 154 181
134 154 181
135 155 181
134 154 181
134 154 181
133 154 181
135 155 181
134 154 181
132 153 181
133 154 181
134 154 181
134 154 181
135 155 181
133 154 181
133 153 180
134 154 181
133 154 181
134 154 181
134 154 181
134 154 181
133 154 181
134 154 181
134 154 181
133 154 181
134 154 181
133 154 181
134 154 181
135 155 181
133 154 180
133 154 181
133 154 180
133 154 181
134 154 181
135 155 181
134 154 181
133 154 180
133 154 181
133 154 180
134 154 181
134 154 181
133 154 180
133 154 180
133 154 181
133 153 180
134 154 181
134 154 181
133 154 181
133 154 181
134 154 181
134 154 181
133 154 181
134 154 181
133 154 181
134 154 181
135 155 181
133 153 180
134 154 180
134 154 181
133 154 181
134 154 181
134 154 181
134 154 181
133 154 181
134 154 181
133 154 181
133 154 181
134 154 181
134 154 181
134 154 181
134 154 181
133 154 181
133 154 181
135 155 181
134 154 181
135 155 181
133 154 180
133 154 181
134 154 181
134 154 181
134 154 181
134 154 181
134 154 180
134 154 180
134 154 181
133 154 181
133 154 181
133 154 181
133 154 181
134 153 180
135 155 181
133 154 180
134 154 181
134 154 181
134 154 181
134 154 181
133 154 181
134 154 181
134 154 181
134 154 181
133 153 180
133 154 181
134 154 181
134 154 181
133 154 181
134 154 181
135 155 181
134 154 181
134 154 181
133 154 181
134 154 180
134 154 181
134 154 181
133 154 181
133 154 181
134 154 181
133 154 181
133 154 181
134 154 181
134 154 181
133 154 181
134 154 181
134 154 180
134 154 181
133 154 181
133 154 181
134 154 181
133 154 181
133 154 181
133 153 180
134 154 180
133 154 180
134 154 181
133 154 181
134 154 181
134 154 181
134 154 181
134 154 181
133 154 181
135 155 181
134 154 181
134 154 181
134 154 181
134 154 181
133 153 180
133 154 181
134 154 181
133 154 181
133 154 181
134 154 181
134 154 181
133 154 180
134 154 181
133 154 181
133 153 180
134 154 181
134 154 181
133 154 181
134 154 181
133 154 180
133 154 181
133 154 181
134 154 181
132 152 179
135 155 181
134 154 181
134 154 181
134 154 181
134 154 181
134 154 181
134 154 180
134 154 181
133 153 180
133 153 180
133 154 181
134 154 181
133 154 181
134 154 181
133 154 180
134 154 180
134 154 181
133 154 181
134 154 181
134 154 181
134 154 181
134 154 180
134 154 181
134 154 181
133 154 181
134 154 181
134 154 181
134 154 181
134 154 181
134 154 181
134 154 181
132 153 180
134 154 181
134 154 181
133 154 181
133 154 181
133 154 181
133 153 179
134 154 181
135 155 181
134 154 181
133 154 181
134 154 181
134 154 181
133 154 181
134 154 181
134 154 181
133 154 181
133 154 181
133 154 181
134 154 181
134 154 181
134 154 181
133 154 181
134 154 181
133 154 181
133 154 181
134 154 181
134 155 181
134 154 181
134 154 181
134 155 181
134 154 181
133 154 181
134 155 181
134 154 181
134 154 181
133 154 181
134 154 180
134 154 181
134 154 181
133 154 181
134 154 181
134 154 181
133 154 181
134 154 181
134 154 181
134 154 181
134 154 181
134 154 181
134 154 180
134 154 181
133 154 181
133 154 181
134 154 181
133 154 181
134 154 181
134 154 181
133 154 181
134 154 181
133 154 181
134 154 181
134 154 181
134 154 181
134 154 180
134 154 181
134 154 181
134 154 181
134 154 181
134 154 181
133 154 181
134 154 180
134 154 181
134 154 181
134 154 181
133 154 181
134 154 181
134 154 181
134 154 181
134 154 181
134 154 180
133 154 181
134 154 181
134 154 181
134 154 181
134 154 181
135 155 181
133 154 181
134 154 181
134 155 181
134 154 181
133 154 181
134 154 181
134 154 181
133 154 181
134 154 181
133 154 181
133 154 181
133 154 181
134 154 181
134 154 181
133 154 180
133 154 181
133 154 181
134 154 181
134 154 181
134 154 181
135 155 181
133 154 181
134 155 181
134 154 181
134 154 181
134 154 181
134 154 180
134 154 181
134 154 181
134 155 181
133 154 181
133 154 181
133 153 180
133 154 181
134 154 181
134 154 181
134 154 181
134 154 181
134 154 181
133 154 181
134 154 181
133 154 181
134 154 181
134 154 181
134 154 181
134 154 181
133 154 181
134 154 180
132 154 181
134 154 181
134 154 181
133 154 181
133 153 180
133 154 181
134 154 181
134 154 181
134 154 181
134 154 181
133 154 181
134 154 181
133 154 180
134 154 181
134 154 181
134 154 181
133 154 181
133 154 181
134 154 180
134 154 181
134 154 181
132 153 180
134 154 181
133 154 181
133 154 180
134 154 181
134 154 181
133 154 181
134 154 181
134 154 181
134 154 180
133 154 181
133 154 181
134 154 181
134 154 181
134 154 181
134 154 181
133 154 181
134 154 181
133 154 181
133 154 180
134 154 181
134 154 181
134 154 181
133 154 181
134 154 181
134 154 181
134 154 181
134 154 181
134 154 181
135 155 181
133 154 181
134 154 181
134 154 181
133 154 181
133 154 181
133 154 180
134 154 181
134 154 181
135 155 181
135 155 181
134 154 180
134 155 181
133 153 180
134 154 181
134 154 181
133 154 181
134 154 181
134 154 181
133 153 180
134 154 181
133 154 181
134 155 181
134 154 181
133 154 181
134 154 181
134 154 181
134 154 181
134 154 181
135 155 181
134 154 181
134 154 181
133 154 180
134 154 181
134 154 181
134 154 181
134 154 181
133 154 181
133 153 180
134 154 181
134 154 180
134 154 181
134 154 181
134 154 181
134 154 181
133 154 181
133 154 181
134 154 180
133 153 180
134 154 180
134 154 181
133 154 180
134 154 181
133 154 181
134 154 180
134 154 181
134 154 181
133 153 180
133 153 180
134 154 181
133 154 181
134 155 181
133 154 181
134 154 181
134 154 181
133 154 181
134 154 181
134 154 181
135 155 181
133 154 180
134 154 180
134 154 181
134 154 181
134 154 181
133 153 180
134 154 181
134 154 181
133 153 180
134 154 181
134 154 181
134 154 181
134 154 181
134 154 181
134 154 181
134 154 181
134 154 181
133 154 180
133 154 181
134 154 181
134 154 181
134 154 180
134 154 181
134 154 181
134 154 181
134 154 181
134 155 181
134 154 181
135 155 181
134 154 181
134 155 181
134 154 181
134 154 181
134 154 181
134 154 181
133 154 181
134 154 180
133 154 181
135 155 181
134 154 181
134 154 181
134 154 181
133 154 181
133 154 181
133 154 181
134 154 181
133 154 181
134 154 180
134 154 181
134 154 181
134 154 181
134 154 180
134 154 180
133 154 181
134 154 181
134 154 180
134 154 180
134 154 181
133 154 180
133 154 181
134 154 180
134 154 181
133 153 180
134 154 181
133 154 181
133 154 181
134 154 181
133 154 181
134 154 181
135 155 181
134 154 181
133 154 181
134 154 181
133 154 181
134 154 181
133 154 181
133 154 180
133 154 180
134 154 181
134 154 181
133 154 181
134 154 181
134 154 181
132 153 180
134 154 181
133 154 181
132 153 181
134 154 181
134 154 181
134 154 180
134 154 181
134 154 181
134 154 181
134 154 181
134 154 181
133 154 181
134 154 181
133 154 180
134 154 181
134 154 181
134 154 181
134 154 180
133 154 181
133 154 181
134 155 181
134 155 181
133 154 181
135 155 181
134 154 181
134 154 181
134 154 180
134 154 181
133 154 180
133 154 181
133 154 180
134 154 181
133 154 181
134 154 181
134 154 181
134 154 181
133 154 181
134 154 180
134 154 181
133 153 180
133 154 181
134 154 181
134 154 181
135 155 181
134 154 181
134 153 180
133 154 181
133 154 181
133 154 181
135 155 181
134 154 181
133 154 181
134 154 180
133 153 180
133 154 181
134 154 181
134 154 181
134 154 181
134 154 181
133 154 181
133 154 181
134 154 180
134 154 181
133 154 181
134 154 181
133 154 181
134 153 180
133 154 181
134 154 181
133 154 181
133 154 181
133 154 181
135 155 181
133 154 181
133 154 181
133 154 181
133 154 181
133 154 181
134 154 181
133 154 181
134 154 181
133 154 180
134 155 181
133 154 181
134 154 181
134 154 181
134 154 181
134 154 181
133 154 181
134 154 181
133 154 181
133 154 180
135 155 181
135 155 181
134 154 181
134 154 181
133 154 181
133 154 181
134 154 181
134 154 181
133 154 181
134 154 181
134 154 181
133 154 180
133 154 180
133 154 181
133 154 181
133 154 181
133 154 181
134 154 181
134 154 181
133 154 181
134 154 181
134 154 181
134 154 181
134 154 181
133 154 181
134 154 181
134 154 181
134 154 181
134 154 181
134 154 181
133 154 181
134 154 181
134 154 181
134 154 181
134 154 181
133 154 181
133 154 181
133 154 181
135 155 181
134 154 181
134 154 180
133 154 181
134 154 181
133 154 181
134 154 181
134 154 181
134 154 181
133 154 180
133 154 181
134 154 181
134 154 181
133 154 181
134 154 180
134 154 181
134 154 181
134 154 181
134 154 181
135 155 181
135 155 181
133 154 181
133 154 180
134 154 181
134 154 181
134 154 181
134 154 181
134 154 181
135 155 181
134 154 181
133 154 181
134 154 181
134 154 181
134 154 181
134 154 181
134 154 181
134 154 181
134 154 181
134 154 181
133 154 180
133 154 181
133 154 181
134 154 181
133 154 181
134 154 180
134 154 181
133 154 181
134 154 181
134 154 181
134 154 181
134 154 181
134 154 180
134 154 181
134 154 181
133 154 181
134 155 181
133 154 181
134 154 181
134 154 181
134 154 181
133 154 181
134 154 181
132 153 181
133 154 181
133 154 181
134 154 181
134 154 181
134 154 180
133 154 181
133 154 181
134 154 181
135 155 181
134 154 181
134 154 181
134 154 181
133 154 181
134 154 181
133 154 180
134 154 181
133 154 181
134 154 181
134 154 181
134 154 181
133 154 181
133 154 181
134 154 181
133 154 181
134 154 181
133 154 181
134 154 181
134 155 181
134 154 181
134 154 181
133 154 180
135 155 181
134 154 181
133 154 181
134 154 181
134 154 181
134 154 181
134 154 181
134 154 181
134 155 181
134 154 181
134 154 181
134 154 181
134 154 181
132 153 180
133 154 181
134 154 181
134 154 181
133 154 181
133 154 181
134 154 181
133 154 181
133 154 181
134 154 181
134 154 181
133 154 181
133 154 181
133 154 180
135 155 181
134 154 180
133 154 181
133 154 181
134 154 181
132 153 180
135 155 181
134 154 181
134 154 181
134 154 180
134 154 181
132 153 180
133 154 181
134 154 181
134 154 181
134 154 181
134 154 181
133 154 181
134 154 181
135 155 181
135 155 181
133 154 180
135 155 181
134 154 180
135 155 181
134 154 181
133 153 180
133 154 181
134 154 181
134 154 181
133 153 180
133 153 180
134 154 181
134 154 181
134 154 181
133 154 181
133 154 181
134 154 181
133 154 181
134 154 181
134 154 181
134 154 181
135 155 181
134 154 181
133 154 181
134 154 180
133 154 181
133 154 181
134 154 180
133 154 181
134 154 181
134 154 181
134 154 181
135 155 181
133 154 181
134 154 181
134 154 181
134 154 181
135 155 181
133 154 180
133 153 180
134 155 181
134 154 181
134 155 181
133 154 180
134 155 181
133 153 180
133 154 180
133 154 181
134 154 180
133 154 181
133 154 181
134 154 181
134 154 180
134 154 180
134 154 181
133 154 181
133 154 181
133 153 180
134 154 181
133 154 181
134 154 181
133 153 180
133 154 181
134 154 180
133 154 180
133 154 181
134 154 181
134 154 181
134 154 181
134 154 180
134 154 180
135 154 180
135 155 181
134 154 181
133 154 181
133 154 181
133 154 181
133 154 181
134 154 181
134 154 181
134 154 181
133 154 180
134 154 180
134 154 181
133 154 181
134 154 181
133 154 181
134 154 181
135 155 181
134 154 181
134 154 181
132 153 180
134 154 181
134 154 181
134 154 181
134 154 181
134 154 181
134 154 181
134 154 181
134 155 181
133 154 181
133 153 180
134 154 181
134 154 181
133 154 181
134 155 181
134 154 181
134 154 181
133 154 181
133 154 181
134 154 181
134 154 181
134 154 181
134 155 181
134 154 181
134 154 181
134 154 181
133 154 181
133 154 181
134 154 181
134 154 181
134 154 181
135 155 181
134 154 181
133 154 180
134 154 181
133 154 180
134 153 180
134 154 181
133 154 181
134 154 181
134 154 180
134 154 181
133 154 180
134 154 181
134 154 180
134 154 181
134 154 180
133 154 181
134 154 181
134 154 181
133 154 181
133 153 180
135 155 181
134 154 181
134 154 181
133 154 181
133 154 180
133 154 181
134 154 181
133 154 180
133 154 181
133 154 181
134 154 181
134 154 181
134 154 181
133 154 181
134 154 181
134 154 181
134 154 181
134 154 180
133 154 181
134 154 181
133 153 180
133 154 181
133 154 181
134 154 181
133 154 181
133 154 180
134 154 180
133 154 181
134 154 181
133 154 181
134 154 181
135 155 181
134 154 181
133 154 181
134 155 181
134 155 181
133 154 181
134 154 181
133 154 181
134 154 181
134 154 181
133 153 180
134 154 181
133 154 180
134 154 180
134 154 181
134 154 181
134 154 180
133 154 181
133 154 181
133 154 180
134 154 181
133 154 181
134 154 181
134 154 181
134 154 181
135 155 181
134 154 181
134 154 181
134 155 181
134 154 181
133 154 181
134 154 181
134 154 181
134 154 181
133 154 181
134 154 181
133 154 181
132 154 181
133 154 181
134 154 181
133 154 181
134 154 181
133 154 181
133 154 180
134 154 181
133 154 181
133 154 181
133 154 181
133 154 181
134 154 181
134 154 181
133 154 181
134 154 181
134 154 181
134 154 181
134 154 181
135 155 181
134 154 181
134 154 181
133 154 181
134 154 181
134 154 181
134 154 181
133 154 181
134 154 181
133 154 181
133 154 181
134 154 181
134 154 181
134 155 181
134 154 181
134 154 181
133 154 181
134 154 181
134 154 181
134 154 181
134 154 181
134 154 181
134 154 181
134 154 181
134 154 181
134 154 181
135 155 181
134 154 181
134 154 181
133 154 181
133 154 181
134 155 181
133 154 181
134 154 181
134 154 181
134 154 181
134 154 181
134 154 181
134 154 181
133 154 181
134 154 181
134 154 181
134 154 181
133 154 180
133 154 181
133 154 181
134 154 181
133 154 181
134 154 181
134 154 181
134 154 181
133 154 181
133 154 181
134 154 181
134 154 181
133 154 181
134 154 181
133 154 180
134 154 181
133 154 181
133 154 181
134 154 181
134 154 181
134 154 181
135 155 181
134 154 181
133 154 181
134 154 181
134 154 181
134 154 181
133 154 181
134 154 181
134 154 181
134 154 180
135 155 181
134 154 181
134 154 181
134 154 181
135 155 181
134 154 181
133 154 181
133 154 180
134 154 181
133 154 180
133 154 181
134 154 180
134 154 181
134 155 181
135 155 181
134 154 181
134 154 181
134 154 181
133 154 181
133 154 181
134 155 181
133 154 181
134 154 181
132 153 181
134 154 180
134 154 181
134 154 181
133 154 181
132 153 181
134 154 181
135 155 181
134 154 181
134 154 180
133 153 180
134 154 181
133 154 181
134 154 181
134 154 181
133 154 181
134 154 181
135 155 181
133 154 181
134 154 181
133 154 180
134 154 181
134 155 181
134 155 181
134 154 181
135 155 181
134 154 181
134 154 181
134 154 181
135 155 181
134 154 181
134 154 181
134 154 181
132 153 180
135 155 181
134 154 181
134 154 181
133 154 181
133 154 181
133 153 180
134 154 181
134 154 181
133 154 180
133 154 181
134 154 181
134 154 180
133 154 181
133 154 181
134 154 180
134 154 181
134 154 180
134 154 181
133 154 181
135 155 181
134 154 181
134 154 180
134 154 181
134 154 181
134 154 181
134 154 181
133 154 181
133 154 181
134 154 181
134 154 181
134 154 181
133 154 181
133 154 181
135 155 181
134 154 181
134 154 181
134 154 181
134 154 181
134 154 181
133 154 180
134 154 181
134 154 181
134 154 180
135 155 181
133 154 180
134 154 181
134 155 181
133 154 181
134 154 181
134 154 181
133 154 181
133 154 180
134 154 181
133 154 181
134 154 181
133 154 181
133 154 181
134 154 181
133 154 180
133 154 181
134 154 181
133 154 181
133 153 180
133 154 181
133 154 181
134 154 181
134 154 181
134 154 181
134 154 181
134 154 181
134 154 181
133 154 181
134 154 181
134 154 181
135 155 181
133 154 181
134 153 179
133 154 180
134 154 181
134 154 180
133 154 181
134 154 181
134 154 181
134 154 180
134 154 181
134 154 181
133 154 181
133 154 181
133 154 181
134 154 181
134 154 181
135 155 181
133 154 180
134 154 181
133 154 180
133 154 181
134 154 181
133 154 181
135 155 181
134 154 181
135 154 180
133 154 181
133 154 180
134 154 181
134 154 181
133 154 181
134 154 180
134 154 181
133 154 181
133 154 181
134 154 181
134 154 181
133 154 180
132 153 181
134 154 181
134 154 181
134 154 181
133 154 181
134 154 181
134 154 181
134 154 181
134 154 181
134 154 180
134 154 180
133 154 181
134 154 181
134 154 181
133 153 180
133 153 180
134 154 181
134 154 181
134 154 181
133 153 180
134 154 181
135 155 181
134 154 181
133 154 181
134 154 181
134 154 181
134 154 181
134 154 181
134 154 181
134 154 181
134 154 181
133 154 181
134 154 181
133 154 181
134 154 181
133 154 181
134 154 181
134 154 181
134 154 181
134 154 181
133 154 181
134 154 181
133 154 181
134 154 180
133 154 181
134 154 181
133 154 181
133 154 181
135 155 181
134 154 180
133 154 181
133 154 181
133 154 180
133 154 180
134 154 181
134 154 181
133 154 181
133 154 181
134 154 181
133 154 181
133 153 179
133 154 181
133 154 181
133 154 181
134 154 181
133 154 180
133 154 181
133 154 181
134 154 181
133 154 181
133 153 180
134 154 181
133 154 181
133 154 181
133 153 180
133 154 180
134 154 181
133 154 181
134 154 181
133 154 181
133 154 181
133 154 181
134 154 181
134 154 181
134 154 181
133 154 181
134 154 181
134 155 181
134 154 181
134 154 181
133 154 181
133 154 181
135 155 181
134 154 181
134 154 181
133 154 181
134 154 181
133 154 181
134 154 181
134 154 181
133 154 181
133 154 181
134 154 181
134 154 181
134 154 181
134 154 181
134 154 181
134 154 181
134 154 181
133 154 181
134 154 181
133 154 181
134 154 181
133 154 181
134 154 180
133 154 181
133 154 181
133 154 181
134 154 181
134 154 181
133 154 181
134 154 181
134 154 181
134 154 181
135 155 181
134 154 181
134 154 181
134 154 181
134 154 181
134 154 181
134 154 181
133 154 181
134 154 181
134 154 181
134 154 181
134 154 181
134 154 181
134 154 180
133 154 181
134 154 181
134 154 181
133 154 181
134 154 181
133 154 181
134 154 181
134 154 181
135 155 181
134 154 181
134 154 181
133 154 181
133 154 181
134 154 181
133 154 181
134 154 181
134 154 181
133 154 181
134 154 181
134 154 181
133 154 181
133 154 181
134 154 181
134 154 181
134 154 181
133 154 181
134 154 181
134 154 181
134 154 181
133 154 181
133 153 180
134 154 181
132 153 181
135 155 181
134 154 181
135 155 181
134 154 181
134 154 181
134 154 180
134 154 181
133 153 180
133 153 180
134 155 181
134 155 181
134 154 181
134 154 181
133 154 181
133 154 181
133 154 181
134 154 181
134 154 181
134 154 181
134 154 180
134 155 181
134 154 181
134 154 181
134 154 181
134 154 181
133 154 181
134 154 181
134 154 181
134 154 181
133 154 181
133 154 181
134 154 181
133 154 181
134 154 181
134 154 181
134 154 181
134 154 181
135 155 181
134 154 181
133 154 181
133 154 181
133 154 181
134 154 181
134 154 181
134 154 181
133 154 181
133 154 181
134 154 181
134 154 181
133 154 181
133 154 181
134 154 181
133 154 181
134 154 181
135 155 181
133 154 181
134 154 181
134 154 181
134 154 181
133 154 181
135 155 181
133 154 181
134 154 181
133 154 181
134 154 181
135 155 181
135 155 181
133 153 180
134 154 181
133 154 181
133 154 181
133 154 181
134 154 181
134 154 181
134 154 181
133 154 181
134 154 181
133 154 181
134 154 180
133 154 181
133 154 181
134 154 181
133 154 181
134 154 181
133 154 181
134 154 181
133 154 181
134 154 181
134 154 180
134 154 181
134 154 180
134 154 180
134 154 181
134 154 181
134 154 181
134 154 181
135 155 181
133 154 181
134 154 181
133 153 180
134 154 181
133 154 181
133 154 181
134 154 181
133 154 181
133 154 181
134 154 181
134 154 181
133 154 181
133 154 181
134 154 181
134 154 181
134 154 181
134 154 181
133 154 181
134 154 181
134 154 181
133 154 181
134 155 181
134 154 181
134 154 181
133 153 180
134 154 181
133 154 181
134 154 181
134 154 181
134 154 181
133 154 180
134 154 181
134 154 181
134 154 181
133 154 181
134 154 181
133 154 180
133 154 181
134 154 180
135 155 181
133 154 181
133 154 180
133 154 180
133 154 181
132 153 181
133 154 181
134 155 181
133 154 181
134 154 181
134 154 181
134 154 181
132 153 180
134 154 181
134 154 181
134 154 181
133 154 181
133 154 180
134 154 181
132 153 180
134 154 181
135 155 181
135 155 181
133 153 180
134 154 181
133 154 181
134 154 181
133 154 180
133 154 181
133 153 180
133 154 181
134 154 181
133 154 181
134 154 181
134 154 181
133 154 180
133 154 181
134 154 181
133 154 181
134 154 180
133 154 181
134 154 181
133 154 181
134 154 181
133 154 181
133 154 181
134 154 181
134 154 181
133 154 181
134 154 181
133 154 181
134 154 181
134 154 181
134 154 181
134 154 181
134 154 181
134 154 180
133 154 180
134 154 181
134 154 181
134 154 181
135 155 181
134 154 181
133 154 181
133 154 181
133 154 181
134 154 181
134 154 181
132 153 180
133 154 181
134 154 181
134 154 181
135 155 181
134 154 181
134 154 181
133 154 181
133 154 181
134 154 181
133 154 181
133 154 181
133 154 181
134 154 181
134 155 181
133 154 181
135 155 181
133 154 181
135 155 181
134 154 180
134 154 181
133 154 181
134 154 181
133 154 181
134 154 181
134 154 181
134 154 181
134 154 181
134 154 180
133 154 180
134 154 181
133 154 180
133 153 180
134 154 181
134 154 181
133 154 181
134 154 181
134 154 181
134 154 181
133 154 181
133 154 181
134 154 181
134 154 181
135 155 181
134 154 181
134 154 181
133 154 180
134 154 181
134 154 181
134 154 181
133 154 181
134 155 181
133 153 180
134 154 181
133 154 181
134 154 181
134 154 181
133 154 180
134 154 181
134 154 180
133 154 180
133 154 181
134 154 181
133 153 180
134 154 181
135 155 181
133 154 180
134 154 181
133 154 181
134 154 181
134 154 181
133 154 181
134 154 181
133 154 181
134 154 181
134 154 180
133 154 180
134 154 181
132 153 181
134 154 181
134 154 181
133 154 181
134 154 180
134 154 181
134 154 181
133 154 181
133 154 181
134 154 180
133 154 181
134 154 181
134 154 181
134 155 181
134 154 181
134 154 181
134 154 181
133 153 180
133 154 181
134 154 181
134 154 181
133 154 181
133 154 181
134 154 180
133 154 181
133 154 180
133 154 181
133 153 180
135 154 180
133 154 181
135 155 181
133 153 180
134 154 181
133 153 180
134 154 181
134 154 181
133 153 180
134 154 181
133 154 181
135 155 181
133 153 180
133 153 180
133 154 181
133 154 181
133 153 180
134 154 181
132 153 181
134 154 181
134 154 181
134 154 181
134 154 181
134 154 181
134 154 181
134 154 181
134 155 181
133 154 181
134 154 181
133 154 181
134 154 181
134 154 180
134 154 181
134 154 181
134 154 181
133 154 181
134 154 181
133 154 180
134 154 180
133 154 181
134 154 181
134 154 181
133 154 181
133 154 180
133 154 181
135 155 181
134 154 181
134 154 181
133 154 181
134 154 181
133 154 181
133 154 181
134 154 181
134 154 181
133 154 180
134 154 181
132 153 181
134 154 181
133 154 181
135 155 181
134 154 181
133 154 181
134 154 181
134 154 181
134 154 181
133 154 181
133 154 181
134 154 181
134 154 181
134 154 181
135 155 181
134 154 181
134 154 181
134 154 181
133 154 181
134 155 181
134 154 181
134 154 181
133 153 180
133 154 181
135 155 181
134 154 181
134 154 181
133 154 181
133 154 181
134 154 180
133 154 181
133 154 181
134 154 181
134 154 181
133 154 181
134 154 180
134 154 181
134 154 181
133 154 181
133 154 181
134 154 181
133 154 181
133 154 181
134 154 181
133 154 181
133 154 181
134 154 181
133 154 181
134 154 181
134 154 181
133 154 181
133 154 181
134 154 181
134 154 181
134 154 181
133 154 181
134 154 181
135 155 181
134 154 181
134 154 181
134 154 181
134 154 181
134 154 181
133 154 181
134 154 181
133 154 181
134 154 180
135 155 181
134 154 181
135 155 181
134 154 181
135 155 181
133 154 181
134 154 181
134 154 180
134 154 181
133 153 180
134 154 181
134 154 181
135 155 181
133 154 181
133 154 180
134 154 181
134 154 181
134 154 181
133 154 181
134 154 181
134 154 181
134 154 181
134 154 181
134 154 181
133 154 181
133 153 180
133 154 181
133 154 181
134 154 181
134 154 181
134 154 181
133 154 181
133 154 181
133 154 180
133 153 180
134 154 181
134 154 181
134 154 181
134 154 181
133 154 181
133 154 181
132 153 180
134 155 181
134 154 181
133 154 181
134 154 181
134 154 181
134 154 181
134 154 181
134 154 181
134 154 181
134 154 181
133 154 181
133 154 181
134 154 181
133 154 181
135 155 181
133 154 181
134 154 180
133 153 180
133 154 181
134 155 181
135 155 181
133 154 181
133 154 181
134 154 181
134 154 181
134 154 181
134 154 181
133 153 180
134 154 180
134 154 181
134 154 181
134 154 181
134 154 180
133 154 181
134 155 181
134 154 180
134 154 181
133 154 181
135 155 181
134 154 181
134 154 181
133 154 181
133 154 181
135 155 181
134 154 181
135 155 181
134 154 181
134 154 181
134 154 181
133 153 180
134 154 181
134 154 181
134 154 181
133 154 181
134 154 181
133 154 181
134 154 181
134 154 181
133 154 181
134 154 181
133 154 181
133 154 180
133 154 181
134 154 181
133 154 181
134 154 180
134 154 181
134 154 181
134 154 181
133 154 181
134 154 181
133 153 180
133 154 181
134 154 181
134 154 181
133 154 181
134 154 180
133 154 181
133 154 181
134 154 181
133 154 181
134 154 181
134 154 181
134 154 181
133 154 181
134 155 181
134 154 181
133 154 180
133 154 181
133 154 181
134 154 180
134 154 181
135 155 181
134 154 181
134 155 181
134 154 181
134 154 180
133 154 181
134 154 181
134 154 181
134 154 181
133 154 181
134 154 181
134 154 181
134 154 180
134 154 181
135 155 181
134 154 181
134 154 181
133 154 181
133 154 181
133 154 181
132 153 181
134 154 181
134 155 181
133 154 181
134 154 181
133 154 181
134 154 181
133 154 181
134 154 181
134 154 180
134 154 181
134 154 181
133 154 181
133 153 180
133 154 181
135 155 181
134 154 181
134 154 181
133 154 181
135 155 181
134 154 181
134 154 181
134 154 181
134 154 181
134 154 181
135 155 181
133 154 181
133 154 181
134 154 181
134 154 181
133 154 181
133 154 181
134 154 181
134 154 181
134 154 181
133 154 181
133 154 181
133 154 180
133 154 180
134 154 181
134 154 181
134 154 181
133 154 181
135 155 181
134 154 181
132 153 180
134 154 181
133 154 181
134 154 181
134 154 181
134 154 181
134 154 180
133 154 181
134 154 181
134 154 180
133 154 181
135 155 181
134 155 181
133 154 181
134 154 181
134 154 180
134 154 181
133 154 181
134 154 181
134 154 181
133 154 181
134 154 181
134 154 181
134 154 181
134 154 180
134 154 181
134 154 181
134 154 181
134 154 181
134 154 181
133 154 181
134 154 181
134 154 180
133 153 180
133 154 181
134 154 180
134 155 181
133 154 180
134 154 181
134 154 181
134 154 181
133 154 181
134 154 181
134 154 181
133 153 180
133 154 181
134 154 181
134 154 181
134 154 181
134 154 180
135 155 181
133 153 180
133 154 181
134 155 181
134 154 181
134 154 181
133 154 181
135 155 181
133 154 181
133 154 180
134 154 181
134 154 181
134 154 181
133 153 180
134 154 181
134 154 181
132 152 179
134 154 181
133 154 181
135 155 180
134 154 181
134 154 181
134 154 181
134 154 181
134 154 181
134 154 181
133 154 181
133 154 181
134 154 181
134 154 181
134 154 181
134 154 181
134 154 181
134 154 181
133 154 181
134 154 181
133 154 181
134 154 181
134 154 181
133 154 181
133 154 181
134 154 181
133 154 181
134 154 181
134 154 181
133 154 180
133 153 180
134 154 181
134 154 181
134 154 181
133 154 181
134 154 181
133 154 181
134 154 181
133 154 181
134 155 181
134 155 181
134 154 181
133 154 181
134 154 181
134 154 181
134 154 181
133 154 181
133 154 180
134 154 180
133 154 181
134 154 181
134 154 181
133 154 181
133 154 181
133 154 180
134 154 181
133 154 181
133 154 181
133 154 181
133 154 181
134 154 181
135 155 181
134 154 181
134 154 181
134 154 181
134 154 181
133 154 181
134 154 181
133 154 181
134 154 181
133 154 180
134 154 181
133 154 181
134 154 180
133 154 181
134 154 181
134 154 181
134 154 181
134 154 181
134 154 181
134 154 181
133 154 181
133 154 181
134 154 181
134 154 181
134 154 181
134 155 181
134 154 181
133 154 181
134 154 181
134 154 181
133 154 180
134 154 181
133 154 181
134 154 181
134 154 181
133 154 181
134 154 181
133 154 180
134 155 181
133 154 181
134 154 181
134 154 181
134 154 181
133 154 181
134 154 181
134 154 181
134 154 181
133 154 181
134 154 181
133 154 181
134 155 181
134 154 181
134 154 181
134 154 181
134 154 181
134 154 181
134 154 181
134 154 181
134 154 181
134 154 181
133 154 181
134 154 181
133 154 181
134 154 181
134 154 181
133 154 181
134 154 181
134 154 181
134 154 181
134 155 181
133 154 181
135 155 181
134 154 181
134 154 181
133 154 181
134 154 181
134 155 181
134 154 181
133 154 181
133 154 181
132 153 180
134 154 180
133 154 181
134 154 181
133 154 181
133 154 181
134 154 181
133 154 181
133 154 181
133 154 181
133 154 181
135 155 181
134 154 181
133 154 181
134 154 181
134 154 181
133 154 181
134 155 181
134 154 181
135 155 181
133 154 181
132 153 180
134 155 181
133 154 181
133 154 181
134 154 181
134 154 181
134 154 181
134 154 181
133 154 181
134 154 181
134 154 181
133 154 181
134 154 181
133 154 181
133 154 181
134 154 180
134 154 181
133 154 181
134 154 181
134 154 181
133 154 181
135 155 181
134 154 181
133 154 181
133 154 181
133 154 181
134 154 181
134 154 180
133 154 181
133 154 181
134 154 180
134 154 181
133 154 181
133 154 180
134 154 181
133 154 181
133 153 180
133 154 180
134 154 181
133 154 181
134 154 180
134 154 181
134 154 181
134 154 181
134 154 181
133 154 180
135 155 181
134 154 181
134 154 180
135 155 181
134 154 181
134 155 181
134 154 181
134 154 181
135 155 181
134 154 181
133 154 181
133 154 181
133 154 181
134 154 181
134 154 181
134 154 181
134 154 181
133 154 181
133 154 181
133 154 181
133 154 181
134 154 181
133 154 181
133 154 181
134 154 181
133 154 181
133 154 181
133 154 180
133 154 181
134 154 181
135 155 181
133 153 180
133 154 181
134 154 181
134 154 181
133 154 181
134 154 181
133 154 181
133 154 181
134 154 181
134 155 181
135 155 181
134 154 181
133 154 180
134 154 180
133 154 181
133 154 181
134 154 181
134 154 181
134 154 181
134 154 181
134 154 181
133 154 181
134 154 181
133 154 181
134 154 181
134 154 181
133 154 181
133 153 180
134 154 181
133 154 181
133 153 180
135 155 181
133 154 181
133 154 181
133 154 181
133 153 180
134 154 180
134 154 181
132 153 180
134 154 181
134 154 181
134 154 181
133 154 181
134 154 181
134 154 181
133 154 181
133 154 181
134 154 181
134 154 181
134 154 181
134 154 181
134 154 181
134 154 181
134 154 181
132 153 180
133 154 181
134 154 181
133 154 181
133 154 181
134 154 181
134 154 181
134 154 181
135 155 181
133 154 180
135 155 181
134 154 181
134 154 181
133 153 180
135 155 181
132 153 180
134 154 181
134 154 181
134 154 180
134 154 181
133 153 180
133 154 181
134 154 181
134 154 180
133 154 181
134 154 181
133 154 181
133 154 181
133 154 181
135 155 181
133 154 181
133 154 181
134 154 181
133 154 181
135 155 181
134 154 181
133 154 181
133 154 181
133 154 181
133 154 180
134 154 180
133 154 181
134 154 181
133 154 181
134 154 181
133 153 180
134 154 181
133 154 180
134 154 181
134 154 181
134 154 181
134 154 181
134 154 181
133 154 181
134 154 181
134 154 180
134 154 181
134 154 180
133 154 181
134 154 180
134 154 180
134 154 181
134 154 181
133 154 181
134 154 181
133 153 180
134 154 180
135 155 181
134 154 181
134 154 181
133 154 180
134 154 180
133 154 181
134 154 180
134 154 181
134 155 181
134 154 181
134 154 181
134 154 181
133 153 180
134 154 181
132 153 180
133 154 180
135 155 181
134 154 181
133 154 181
135 155 181
134 154 181
135 155 181
134 154 181
134 154 180
133 154 180
134 154 180
134 154 181
134 154 181
134 154 181
133 154 181
134 154 181
134 154 181
134 154 181
134 154 181
134 154 181
133 154 181
133 154 181
134 154 181
133 154 181
134 154 181
135 155 181
133 154 181
133 154 181
133 154 181
134 154 181
134 154 181
134 154 181
133 154 180
133 154 181
134 154 181
133 154 181
134 154 181
134 154 180
133 154 181
134 154 180
135 155 181
134 154 180
134 154 181
133 154 181
134 154 181
134 154 180
134 154 181
134 154 181
134 154 180
132 153 180
135 155 181
133 153 180
134 154 181
133 154 181
133 154 181
133 153 180
134 154 181
134 154 181
134 155 181
134 154 181
134 154 181
134 154 181
134 154 180
134 154 181
134 154 181
133 154 181
134 154 181
134 154 181
134 154 180
134 154 181
133 154 181
134 154 181
133 154 181
134 154 181
134 154 181
135 155 181
133 154 181
133 154 181
134 154 181
134 154 180
134 154 181
133 154 181
133 154 181
134 154 181
134 154 181
133 154 181
134 154 181
133 154 180
134 154 181
134 154 181
135 155 181
134 154 181
134 154 181
133 154 181
134 154 181
134 154 181
133 154 180
134 154 181
134 154 181
134 154 181
134 154 181
133 154 181
134 154 181
133 154 180
133 154 181
134 154 181
134 154 181
134 154 181
134 154 181
134 154 181
134 154 181
133 154 181
133 154 181
133 154 181
134 154 181
134 154 181
133 154 181
134 154 181
133 154 180
134 154 181
133 154 181
134 154 181
135 155 181
135 155 181
134 154 181
133 154 181
134 154 181
134 154 181
134 154 181
134 154 181
133 154 181
135 155 181
133 154 181
134 154 181
134 154 180
134 154 181
134 154 181
133 154 181
134 154 181
133 154 181
134 154 181
134 154 180
134 154 181
133 154 181
133 154 181
134 154 181
134 154 181
134 154 181
134 154 181
133 154 181
133 154 181
133 154 181
134 154 181
136 155 181
133 154 181
133 154 181
134 154 181
134 154 181
133 154 181
134 155 181
133 154 181
134 154 181
134 154 181
133 154 181
134 154 181
134 154 181
134 154 181
134 154 181
133 154 181
134 154 181
134 154 181
133 154 181
133 154 181
134 154 181
134 154 181
134 154 181
134 154 180
134 154 181
133 154 181
135 155 181
134 154 181
133 154 180
134 154 181
133 154 181
134 154 181
134 154 181
134 155 181
133 154 181
134 154 181
133 154 180
135 155 181
134 154 181
134 154 181
134 154 181
133 154 181
134 154 181
133 154 181
134 154 181
134 154 181
133 154 181
134 154 181
134 154 181
133 154 181
133 153 180
134 154 181
134 154 181
134 154 181
135 155 181
133 154 181
134 154 180
133 154 180
133 154 181
135 155 181
134 154 181
134 154 181
135 155 181
134 154 181
134 154 181
132 153 181
134 154 181
133 154 181
133 154 180
133 154 181
134 154 181
134 154 181
133 154 181
134 154 181
133 154 181
133 154 181
134 154 181
133 154 181
133 154 181
134 154 181
133 154 181
134 154 181
134 154 181
133 154 181
133 154 181
134 154 181
134 155 181
134 154 180
134 154 181
134 154 181
134 154 180
134 154 180
133 153 180
133 154 181
133 154 181
134 154 181
135 155 181
134 154 181
134 154 181
134 154 181
135 155 181
134 154 181
134 155 181
134 154 181
134 154 181
134 154 181
133 154 181
133 154 181
133 154 181
134 154 181
133 154 180
134 154 181
134 154 180
134 154 181
134 154 181
133 154 181
134 154 181
134 154 181
134 154 181
133 154 181
134 154 181
133 154 181
133 154 181
134 154 181
133 154 181
134 154 181
134 154 181
134 154 181
133 154 181
134 155 181
133 154 181
134 155 181
133 154 181
134 154 181
134 154 181
134 154 181
133 154 181
134 154 181
133 154 181
133 154 181
133 154 181
134 154 181
134 154 181
134 154 181
133 154 181
134 154 181
133 154 181
134 154 181
133 154 181
134 154 181
134 154 181
135 155 181
133 153 179
134 154 181
132 153 180
134 154 181
134 154 181
133 154 181
135 155 181
134 154 180
135 155 181
133 154 181
134 154 180
134 154 181
133 154 181
132 153 180
134 154 181
134 154 181
133 153 180
134 154 181
134 154 181
133 154 181
133 154 181
133 154 181
135 154 180
134 154 181
134 154 181
133 154 181
133 154 181
133 154 180
134 154 181
134 154 180
134 154 180
134 154 181
134 154 181
133 153 180
134 154 181
134 154 181
133 154 181
133 153 180
135 155 181
133 154 180
134 154 181
134 154 181
134 154 181
134 154 180
133 154 181
134 154 181
134 154 181
134 154 180
132 153 180
134 154 181
133 154 181
134 154 181
134 154 181
133 153 180
134 154 181
134 154 181
134 154 181
133 154 181
134 154 181
134 154 181
133 154 180
134 154 181
133 154 181
133 154 181
134 154 181
133 154 181
134 154 181
134 154 181
134 154 180
133 153 179
135 155 181
134 154 181
134 154 181
134 154 180
134 154 181
134 154 181
133 154 181
133 154 181
134 154 181
133 154 180
134 154 181
134 154 181
133 154 181
134 154 181
133 154 181
134 154 180
134 154 181
132 153 180
133 153 180
135 155 181
134 154 181
134 154 181
133 154 181
134 154 181
134 154 181
135 155 181
134 154 181
133 153 180
133 154 181
134 154 181
134 154 181
133 154 181
133 154 181
134 154 181
133 154 181
133 154 181
134 154 181
133 153 180
134 154 181
134 154 181
133 154 181
134 154 181
133 154 181
134 154 180
133 154 181
134 154 181
134 154 180
134 154 181
134 154 181
134 154 181
133 154 181
133 154 181
134 154 181
134 154 181
134 154 181
134 154 180
134 154 181
134 154 181
134 154 181
134 154 181
133 153 180
134 154 181
134 153 179
134 154 181
134 154 180
133 154 181
133 154 181
133 154 181
133 154 181
134 154 181
134 154 180
134 154 180
134 154 181
134 154 181
134 154 181
134 155 181
134 154 181
133 154 180
134 154 181
133 154 181
134 154 181
134 154 181
134 154 181
134 154 181
133 154 181
135 154 180
132 153 180
134 154 181
134 154 181
134 154 181
134 154 181
133 153 180
134 154 181
134 155 181
134 154 181
134 154 181
134 154 180
133 153 180
134 154 181
133 154 181
133 154 181
133 154 181
134 154 181
133 154 180
134 154 181
134 154 181
133 154 181
135 155 181
135 155 181
134 154 181
134 154 181
133 154 181
134 154 180
134 154 181
134 154 181
134 154 181
134 154 181
134 154 181
134 154 181
133 154 181
133 154 181
133 154 181
133 154 180
133 154 181
134 154 181
134 154 181
134 154 181
135 155 181
134 154 181
133 154 181
133 154 181
134 154 181
134 154 181
133 154 181
133 154 181
133 154 181
133 154 181
133 154 181
133 154 181
134 154 181
133 154 181
134 154 181
133 154 181
134 154 181
133 154 180
135 155 181
134 154 181
134 154 181
133 154 181
134 155 181
134 154 181
133 154 181
133 154 181
133 154 181
135 155 181
134 154 181
134 154 181
134 154 180
134 154 181
133 154 181
133 154 181
134 154 181
134 154 181
134 154 181
134 154 181
134 154 181
134 154 180
134 154 181
134 154 181
135 155 181
133 154 181
134 154 181
133 154 181
132 153 181
134 154 181
134 154 181
133 154 181
134 154 181
135 155 181
134 154 181
133 154 181
134 154 181
134 154 181
134 154 181
134 154 181
134 154 181
133 154 181
135 155 181
134 154 181
133 154 181
133 154 181
134 154 181
133 154 181
134 154 181
133 154 181
134 154 181
133 154 181
134 155 181
134 154 181
133 154 181
133 154 181
134 154 181
134 154 181
134 154 181
134 154 181
133 154 181
133 154 181
134 154 181
134 154 181
133 154 181
135 155 181
134 154 181
134 154 181
133 154 181
133 154 181
133 154 181
133 154 181
135 155 181
133 154 181
135 155 181
134 154 181
133 154 181
133 154 181
134 154 180
133 154 181
132 153 181
134 154 181
134 154 181
133 154 181
133 154 181
134 154 180
133 154 181
134 154 181
133 154 181
133 154 181
133 154 181
133 154 180
133 154 181
133 154 181
133 154 181
133 154 181
134 154 181
134 154 181
133 154 181
134 154 181
134 154 181
134 154 181
134 154 181
134 154 181
133 154 181
134 154 181
133 154 181
133 154 181
134 154 181
134 154 181
133 154 180
133 154 181
133 154 181
134 154 181
133 154 181
134 154 181
133 154 181
134 154 181
134 154 181
133 153 180
134 154 181
133 154 181
133 154 181
133 154 181
134 154 181
133 154 181
133 153 180
133 154 181
134 154 181
134 154 181
133 154 181
134 154 181
134 154 181
134 154 181
133 154 180
134 154 181
133 154 181
134 154 181
133 154 181
134 154 181
133 154 180
133 154 181
134 154 181
134 154 181
134 154 181
134 155 181
133 153 180
134 154 181
133 154 181
133 153 180
133 154 181
134 154 181
133 154 181
133 154 181
134 154 181
133 154 181
135 155 181
133 154 181
133 154 181
134 154 181
133 154 181
133 153 180
134 154 181
134 154 181
134 154 181
133 154 181
134 154 181
134 154 181
134 154 181
134 154 181
133 154 181
135 155 181
134 154 181
134 154 181
133 154 181
133 153 180
133 154 181
134 154 181
134 154 181
133 153 180
134 154 181
134 154 181
133 154 180
134 154 181
133 154 181
133 154 181
134 154 181
134 154 181
134 154 181
134 154 181
133 154 180
133 154 180
134 154 180
134 154 181
134 154 181
134 154 181
133 154 181
134 154 181
134 154 181
134 154 181
134 154 180
134 154 181
133 154 181
133 154 181
133 153 180
133 154 181
133 153 180
133 154 181
134 154 181
134 154 180
134 154 181
134 154 181
134 154 180
133 154 181
133 154 181
133 153 180
133 154 181
135 155 181
134 154 180
134 154 181
133 154 181
134 154 181
133 154 181
134 154 181
134 154 181
134 154 181
134 154 181
134 154 181
134 154 181
134 154 181
134 154 181
134 154 181
133 154 180
133 154 181
134 154 181
133 154 181
134 154 181
134 154 181
135 155 181
134 155 181
133 154 181
135 155 181
133 154 181
133 154 181
134 154 180
134 154 181
133 154 181
133 154 181
133 154 181
133 154 181
134 154 181
133 154 181
134 154 181
133 154 181
135 155 181
134 154 181
134 154 181
134 154 181
135 155 181
134 154 181
134 154 181
133 154 180
134 154 181
134 154 181
133 154 181
134 154 181
134 154 181
134 154 180
134 154 181
135 155 181
133 154 181
133 153 180
134 154 181
134 154 181
134 154 181
134 154 181
133 153 180
135 155 181
133 154 181
134 154 180
134 154 181
134 155 181
135 155 181
133 154 180
133 154 181
134 154 181
134 154 181
134 154 181
133 154 181
133 154 181
133 154 181
133 154 181
134 154 180
133 153 180
133 154 181
134 154 181
135 155 181
134 154 181
133 154 181
134 154 181
134 154 181
133 154 181
133 154 181
134 154 181
133 154 181
133 154 181
134 154 181
134 154 181
134 154 181
134 154 181
133 154 181
135 155 181
134 154 181
134 154 181
134 154 181
133 154 181
133 154 181
133 154 181
134 154 181
134 154 181
133 153 180
134 154 181
134 154 181
134 154 181
134 154 180
133 154 181
133 153 180
135 155 181
134 154 181
133 154 181
134 154 181
134 154 181
134 154 181
133 154 181
133 153 180
134 154 181
134 154 181
134 154 180
133 154 181
134 154 180
134 154 181
133 154 181
135 155 181
134 154 181
134 154 181
133 154 181
134 154 180
134 154 181
135 155 181
133 154 181
133 154 181
134 154 181
135 155 181
133 153 180
134 154 181
134 154 180
134 154 181
133 153 180
134 154 181
133 154 181
134 154 181
133 154 181
133 154 181
134 154 181
135 155 181
133 154 181
134 154 181
133 154 180
134 154 181
134 154 181
133 154 181
134 154 181
133 154 181
133 154 181
133 154 181
133 154 181
134 154 181
133 154 181
134 154 181
133 154 181
134 155 181
134 154 181
134 154 181
134 154 181
134 154 181
134 154 181
134 154 181
133 154 181
134 154 181
134 154 181
133 154 181
134 154 181
133 154 181
134 154 181
134 154 181
135 155 181
134 154 181
133 154 181
134 154 181
132 153 180
133 154 181
133 154 181
134 154 181
133 154 181
133 154 181
133 154 181
134 154 181
133 154 180
134 154 181
134 154 181
134 154 181
134 154 181
134 154 181
134 154 181
134 154 181
134 155 181
135 155 181
134 154 181
133 154 181
134 154 181
134 154 181
133 154 181
133 154 181
133 154 181
133 154 181
133 154 181
133 153 180
133 154 181
134 154 181
134 154 181
133 154 180
134 154 181
134 154 181
134 154 181
133 154 181
134 154 181
133 154 181
133 154 181
134 154 181
133 154 181
134 154 181
134 154 181
133 154 181
134 154 181
133 154 181
133 154 181
134 154 181
133 154 181
134 154 181
132 153 180
133 154 181
133 154 181
134 154 181
134 154 181
133 154 181
134 154 181
134 154 181
133 154 181
133 154 181
134 154 181
133 154 181
134 154 181
134 154 181
134 154 181
134 154 181
134 154 181
134 154 181
134 154 181
133 154 181
134 154 181
133 154 181
133 154 181
134 154 181
134 154 181
133 154 181
133 154 181
135 155 181
134 154 181
134 154 181
133 154 181
134 154 180
134 154 181
133 154 181
133 154 181
133 154 181
134 154 180
133 154 181
134 154 181
134 154 181
133 154 181
134 155 181
134 154 181
132 153 179
134 154 181
134 154 181
134 154 181
134 154 181
134 154 181
134 154 181
134 154 181
133 154 180
134 154 181
134 154 181
133 154 181
134 154 181
135 155 181
133 154 180
134 154 181
134 154 181
134 154 181
133 153 180
135 155 181
133 154 180
134 154 181
134 154 181
134 154 181
133 154 181
134 154 181
133 154 181
133 153 180
133 154 181
133 154 181
133 154 181
134 154 181
134 154 181
133 153 180
133 153 180
133 154 180
134 154 181
134 154 180
134 154 181
134 154 181
134 154 181
133 154 181
135 155 181
133 154 180
134 154 180
134 154 181
133 154 181
134 154 180
134 154 181
134 154 180
134 154 181
133 154 181
134 154 181
134 154 181
133 153 180
134 154 181
134 154 180
134 154 181
133 154 181
133 154 181
134 154 180
133 154 180
134 154 181
133 154 181
134 154 181
133 154 181
134 154 181
133 154 181
134 154 181
134 154 181
134 154 181
134 155 181
135 155 181
133 154 181
133 154 181
134 154 181
133 154 181
134 154 181
135 155 181
134 154 181
134 155 181
134 154 181
134 154 181
135 155 181
134 154 181
134 154 181
134 154 181
134 154 181
134 154 181
134 154 181
133 154 181
132 153 180
134 154 181
133 154 181
133 153 180
133 153 180
134 154 181
134 154 181
133 154 181
135 155 181
134 154 181
133 154 181
134 154 180
134 154 181
134 154 181
133 154 181
134 154 181
134 154 181
134 154 181
134 154 181
133 154 181
134 154 181
134 154 181
133 154 181
133 153 180
134 154 181
133 154 181
133 154 181
133 154 181
134 154 181
134 154 181
135 155 181
133 154 181
134 154 181
134 154 181
133 154 181
134 154 181
133 154 181
134 154 181
133 153 180
133 154 181
134 154 181
134 154 181
132 154 181
134 154 181
134 154 180
134 155 181
134 154 181
134 154 181
133 154 181
133 154 181
134 154 181
134 154 180
134 154 181
133 154 181
132 153 181
134 154 181
133 154 181
134 154 181
133 154 181
134 154 181
133 154 181
134 154 181
134 154 181
133 153 180
133 154 181
134 154 181
134 154 181
133 153 180
134 154 181
134 154 181
134 154 181
133 154 181
133 154 180
133 154 181
134 154 181
134 154 181
134 154 181
134 154 181
133 154 181
133 154 181
134 154 181
134 154 181
134 154 181
133 154 181
134 154 181
133 154 181
133 154 181
134 154 181
132 153 181
134 154 181
134 154 181
133 154 181
134 154 181
133 154 181
135 155 181
133 154 181
133 154 181
134 154 181
133 154 181
134 154 181
132 153 179
133 154 181
134 154 181
134 154 181
134 154 181
134 154 181
134 154 181
134 154 181
133 154 181
134 154 181
134 154 181
134 154 181
134 154 180
135 155 181
134 155 181
134 154 181
134 154 181
134 154 181
134 154 181
133 154 181
133 154 181
134 154 181
134 154 181
134 154 181
134 154 181
134 155 181
133 153 180
134 154 181
133 154 181
133 153 180
134 154 181
134 154 181
133 154 181
133 154 181
134 154 181
133 153 180
134 154 181
134 154 181
134 154 181
133 154 181
134 154 181
135 155 181
134 154 181
133 154 181
133 154 181
134 154 181
134 154 180
134 154 181
133 154 181
135 155 181
133 154 181
134 154 181
134 154 181
134 154 181
133 154 181
133 154 181
134 154 181
133 153 180
134 154 180
134 154 181
134 154 181
134 154 180
133 154 181
134 154 181
134 154 180
133 154 181
133 153 180
134 154 181
134 154 181
133 154 181
134 154 181
135 155 181
134 154 181
134 154 181
133 154 181
134 154 180
133 154 181
133 154 181
134 154 181
134 154 181
134 154 181
134 154 181
134 154 180
135 155 181
134 154 181
134 155 181
133 154 181
135 155 181
133 154 181
133 154 181
134 154 181
133 154 180
135 155 181
135 155 181
133 154 181
134 154 181
134 154 181
134 154 181
133 154 181
133 154 181
134 154 181
133 154 181
133 154 181
134 154 181
134 154 181
134 154 181
133 154 180
134 154 181
133 154 181
133 154 181
134 154 181
133 154 181
134 154 181
134 154 181
133 154 181
134 154 181
134 154 181
133 154 181
134 154 181
134 154 181
133 154 181
134 154 181
135 155 181
134 154 181
133 154 181
134 154 181
133 154 181
133 154 181
134 154 181
134 154 181
134 154 181
134 155 181
133 153 180
134 154 181
133 154 181
133 154 181
134 154 181
134 154 181
134 154 181
134 154 181
134 154 181
133 154 181
134 154 181
134 154 180
134 154 181
133 154 181
133 153 180
134 154 181
135 155 181
135 155 181
133 154 181
133 154 181
134 154 181
133 154 181
134 154 181
133 154 181
134 154 181
134 154 181
134 154 181
134 154 181
134 154 181
134 154 181
134 154 181
134 154 181
134 154 181
134 154 181
134 154 181
133 154 181
134 154 181
134 154 181
134 154 181
133 154 181
134 154 181
134 154 181
134 154 181
134 154 181
134 154 181
134 154 181
134 154 181
135 155 181
133 153 180
134 154 181
133 154 180
133 154 181
133 154 181
134 154 181
134 154 181
133 154 181
133 154 181
134 155 181
134 154 181
132 153 180
134 154 181
133 154 181
133 154 181
134 154 181
134 154 181
134 154 181
134 154 181
133 154 181
134 154 181
134 154 181
134 154 181
134 154 181
133 154 181
134 154 181
133 154 181
133 154 180
134 154 181
134 154 181
134 154 181
132 153 181
133 154 180
134 154 181
133 154 181
133 154 181
133 154 181
134 154 181
134 154 181
134 154 181
133 154 181
135 155 181
134 154 181
133 154 181
134 154 181
133 154 181
134 154 181
133 154 181
133 154 181
134 154 181
134 155 181
134 154 181
134 154 181
134 155 181
134 154 181
133 154 181
134 154 181
133 153 180
133 154 181
133 154 181
134 154 181
134 154 181
134 154 181
135 155 181
134 154 181
134 154 181
133 154 181
134 154 181
134 154 181
133 154 180
134 155 181
133 154 181
133 154 181
134 154 181
134 154 181
134 154 181
134 154 181
135 155 181
134 154 181
133 154 181
133 153 180
133 154 181
134 154 181
134 154 181
134 154 181
133 154 181
133 153 180
133 154 181
133 154 181
134 154 181
134 154 181
134 154 181
134 154 181
134 154 181
133 154 180
133 154 181
134 154 181
133 154 180
133 154 181
134 154 181
133 154 181
133 154 180
135 155 181
134 154 180
134 154 181
133 153 179
133 154 181
134 154 181
133 154 180
134 154 181
134 154 181
134 154 181
134 154 180
134 154 180
133 154 181
133 153 180
134 154 181
134 154 181
134 154 181
134 154 181
134 154 181
133 153 180
133 154 181
133 153 180
134 154 181
134 154 181
134 154 181
133 154 181
133 154 181
134 154 181
134 154 181
133 154 181
135 155 181
133 154 181
133 154 180
134 154 180
134 154 181
134 154 181
134 154 181
134 154 181
133 154 180
133 154 181
133 154 181
134 154 181
134 154 181
133 154 181
134 154 181
135 155 181
133 154 181
134 154 181
133 153 180
134 154 181
134 154 181
134 154 181
133 153 180
133 154 181
134 155 181
134 154 181
134 154 181
133 154 181
134 154 180
134 154 181
134 154 181
134 154 181
134 154 181
134 154 181
134 154 181
135 155 181
135 155 181
135 155 181
132 153 180
134 154 181
134 154 181
134 154 181
134 154 181
133 154 181
132 153 180
134 154 181
134 154 180
134 155 181
134 154 181
133 154 181
133 154 181
133 154 181
133 154 181
135 155 181
133 153 180
134 154 181
133 154 181
135 155 181
134 154 181
133 154 181
134 154 181
134 154 181
134 154 181
134 154 181
134 154 181
133 154 181
133 154 180
134 154 181
133 153 179
134 154 181
133 153 180
134 154 181
134 154 181
134 154 181
134 154 180
134 154 181
134 154 181
132 153 181
133 154 181
134 154 181
133 154 180
134 154 181
133 154 181
135 155 181
133 154 181
134 154 181
134 154 181
133 154 181
133 154 180
134 154 181
134 154 181
134 154 181
134 154 181
133 153 180
133 154 181
134 154 181
133 154 181
133 154 181
134 154 181
134 154 181
134 154 181
132 153 179
133 153 180
134 155 181
134 154 181
133 154 181
134 154 181
134 154 181
133 154 181
135 155 181
133 154 181
134 154 181
133 154 181
134 154 181
134 155 181
133 154 181
134 154 181
135 155 181
134 154 180
133 154 181
134 154 181
133 154 181
134 154 180
134 154 181
134 154 180
134 154 181
134 154 181
134 154 181
134 154 181
134 154 181
133 154 181
134 155 181
133 154 181
134 154 181
134 154 181
133 154 181
133 154 181
134 154 181
133 154 181
134 154 181
134 154 181
134 154 181
133 153 180
134 154 181
133 154 181
134 154 181
134 154 181
134 154 181
133 153 180
134 154 180
134 154 181
134 154 181
134 154 180
134 154 180
134 154 180
133 154 181
133 154 181
134 154 181
134 154 181
134 154 181
134 154 181
133 154 181
135 155 181
134 154 180
133 154 181
134 154 181
134 154 181
134 154 181
133 154 181
134 154 181
133 154 181
133 154 181
133 154 181
134 154 181
134 154 181
134 154 181
133 154 181
133 154 181
134 154 181
133 154 181
135 155 181
134 154 181
133 153 180
134 154 181
134 154 181
134 154 181
133 154 181
134 154 181
134 154 181
133 154 181
134 154 181
134 155 181
134 154 180
134 154 181
133 154 181
133 154 181
134 154 181
134 154 181
134 154 181
133 153 180
133 154 181
134 154 181
135 155 181
134 154 181
134 154 181
133 154 181
134 154 181
133 154 181
133 154 181
133 153 180
134 154 181
133 154 181
134 154 180
133 154 181
134 154 181
134 154 181
135 155 181
134 154 181
134 154 181
134 154 181
134 154 181
134 154 181
134 154 181
134 154 181
134 154 181
134 154 181
133 154 180
134 154 181
134 154 181
133 154 181
133 154 181
133 154 181
134 154 181
134 154 181
133 154 181
133 154 181
132 153 181
133 154 181
134 154 181
134 154 181
134 154 181
134 154 181
134 154 181
134 154 181
134 155 181
134 155 181
134 154 181
134 154 181
134 154 181
134 154 181
134 154 181
134 154 181
134 154 181
134 154 181
133 154 181
134 154 181
134 154 181
134 154 181
134 154 181
134 154 181
134 154 181
134 154 181
133 154 180
134 154 181
133 154 181
135 155 181
133 154 181
134 154 181
134 155 181
134 154 181
134 154 181
134 154 181
134 154 181
133 153 180
134 154 181
134 154 180
133 154 181
133 154 181
134 154 181
134 154 181
134 154 180
134 154 181
134 154 181
133 154 181
134 154 181
134 154 181
134 154 181
133 153 180
134 154 181
134 155 181
135 155 181
133 154 181
134 154 181
133 154 180
134 154 181
134 154 181
134 154 181
134 154 181
134 154 181
134 154 181
134 155 181
133 154 181
133 154 180
133 154 181
133 154 181
134 154 181
134 154 181
134 154 181
133 154 181
134 154 180
134 154 181
134 154 181
134 154 181
134 154 181
134 154 180
134 155 181
134 154 181
133 154 181
133 154 181
134 154 181
134 154 181
134 154 181
134 154 181
135 155 181
133 154 181
134 154 181
133 154 180
133 153 180
133 154 181
133 154 181
134 155 181
134 154 181
134 154 180
133 154 180
134 154 181
133 154 181
134 154 181
134 154 181
134 154 181
134 154 181
133 154 181
134 154 181
134 154 181
133 154 181
133 154 181
134 154 181
134 154 181
134 154 181
134 154 181
134 154 181
134 154 180
135 155 181
133 154 181
134 154 181
134 154 181
134 154 181
134 154 181
134 154 181
134 154 181
134 154 180
134 154 181
134 154 181
133 154 181
134 154 181
134 154 181
133 154 181
135 155 181
133 154 181
133 154 181
134 154 181
134 154 181
134 154 181
133 154 181
134 154 181
134 154 180
134 154 181
133 154 181
133 153 180
134 155 181
133 154 181
135 155 181
133 154 181
134 155 181
135 155 181
134 154 181
135 155 181
133 154 181
133 154 181
133 154 181
134 154 181
133 153 180
134 154 181
134 154 181
134 154 181
133 154 181
133 153 180
134 155 181
132 153 180
134 154 181
135 155 181
134 154 181
135 155 181
134 154 181
133 153 180
133 154 181
134 154 180
133 154 180
132 153 179
133 154 181
133 154 181
133 154 181
134 154 181
133 154 181
133 154 181
134 154 181
135 155 181
135 155 181
133 154 181
134 154 181
133 154 180
134 154 181
133 154 181
134 154 180
134 155 181
134 154 181
133 154 181
134 154 181
134 154 181
133 154 181
134 154 181
133 154 181
134 154 181
133 154 181
133 154 181
133 154 181
133 154 181
134 154 181
134 154 181
134 154 181
134 154 181
134 154 181
134 154 181
134 154 181
133 154 181
134 155 181
134 154 181
134 154 181
134 154 181
133 154 181
135 155 181
133 154 181
134 154 181
133 154 181
133 154 181
134 154 181
134 154 181
134 154 180
133 154 180
134 154 181
133 154 181
134 154 181
134 154 181
134 154 181
134 154 181
134 154 181
133 154 181
134 154 181
133 154 181
135 155 181
134 154 181
133 154 181
134 154 181
134 154 181
134 154 181
133 154 181
133 154 180
134 154 181
134 154 181
134 154 181
134 154 181
134 154 181
133 154 181
133 154 181
134 154 181
133 154 181
134 154 181
134 154 181
134 154 181
135 155 181
134 154 181
134 154 181
134 154 181
133 154 180
134 154 181
133 154 180
134 154 181
134 154 181
134 154 181
134 154 181
133 154 181
134 154 181
134 154 181
133 154 181
134 154 181
134 154 181
134 154 181
133 154 181
134 154 181
133 154 180
134 154 180
134 154 181
134 154 181
134 154 181
134 154 181
134 154 181
134 154 181
134 154 181
134 155 181
134 154 181
133 154 180
133 154 181
135 154 180
134 154 181
134 154 181
134 154 181
134 154 181
134 154 181
134 154 180
133 154 180
135 155 181
133 154 181
133 153 180
133 154 181
133 154 181
133 154 181
134 154 181
134 154 181
133 154 181
134 154 181
134 154 181
134 154 181
134 154 181
133 154 181
134 154 181
134 154 181
133 154 181
133 154 181
134 154 181
134 155 181
134 154 181
134 155 181
134 154 181
135 155 181
133 154 181
134 154 181
134 154 181
134 154 181
134 154 181
133 154 180
135 155 181
133 154 180
134 154 180
134 154 180
134 154 181
134 154 181
134 154 181
133 153 180
134 155 181
133 154 181
133 154 181
134 154 181
134 154 181
134 154 181
133 154 181
133 154 181
134 154 181
134 154 181
133 154 181
134 155 181
133 154 181
133 154 181
134 154 181
133 154 181
133 154 181
133 154 180
133 154 181
133 154 180
135 155 181
134 154 181
134 154 181
133 154 181
134 154 181
134 154 181
134 154 181
134 154 181
134 154 181
134 154 181
133 154 181
134 154 181
133 154 181
134 154 181
133 154 180
134 154 181
134 154 181
134 155 181
134 154 181
134 154 181
133 154 181
133 154 181
133 154 181
134 154 181
133 154 181
134 154 181
134 154 181
133 154 181
134 154 181
134 154 181
133 153 180
133 154 181
134 154 181
133 154 181
133 154 181
133 154 181
133 154 181
133 154 181
134 154 181
133 154 181
134 154 181
133 154 181
133 154 181
134 154 181
134 154 181
134 154 181
133 153 180
133 154 181
134 154 181
134 154 181
134 154 181
134 155 181
134 154 181
134 154 181
133 154 181
133 154 181
134 154 181
134 154 181
134 154 181
134 154 181
133 154 181
133 154 181
133 154 181
133 154 181
133 154 181
134 154 180
134 154 181
134 154 181
134 154 181
134 154 181
134 154 181
134 154 181
133 154 181
134 154 181
133 154 181
134 154 180
134 154 181
134 154 181
133 154 181
133 154 181
134 154 181
133 154 180
134 154 181
134 154 181
134 154 181
133 154 181
134 154 181
134 154 181
133 154 181
135 155 181
134 154 181
133 154 181
133 154 181
133 154 180
133 154 181
134 154 181
133 154 181
134 154 181
134 154 181
134 154 180
134 154 181
134 154 180
133 154 181
134 154 181
133 154 181
134 154 181
134 154 181
133 154 181
134 154 180
134 154 181
133 154 181
134 154 181
133 154 181
134 154 181
134 154 181
134 154 181
134 154 181
133 154 181
133 154 180
134 154 180
134 154 181
134 154 181
134 154 181
134 154 181
133 154 181
134 154 181
134 154 181
134 154 181
134 154 181
133 154 181
134 154 181
134 154 181
133 154 181
133 154 181
134 154 181
133 154 181
134 154 181
134 154 181
134 154 181
133 154 180
134 154 181
134 154 181
134 154 181
134 154 180
133 154 181
134 154 181
134 154 181
133 154 180
133 154 181
134 154 181
134 154 181
134 155 181
133 154 181
134 154 181
134 154 181
134 154 181
134 154 181
134 154 181
134 154 181
133 154 181
134 154 181
135 155 181
134 154 181
134 154 181
134 154 181
133 154 181
135 155 181
134 154 180
134 154 181
133 154 181
133 154 180
133 154 181
133 154 181
133 154 180
134 154 181
133 154 181
134 154 181
134 154 181
133 154 181
132 153 180
134 154 181
134 154 181
134 154 181
134 154 181
134 154 181
132 153 180
133 154 181
134 154 181
133 153 180
133 154 181
134 154 181
134 154 181
133 154 181
134 154 181
133 154 181
134 154 181
133 154 181
134 155 181
133 154 181
133 154 180
133 154 181
133 154 181
133 154 181
134 155 181
134 154 181
134 154 181
133 154 181
133 154 181
134 154 181
133 154 180
134 154 181
134 154 180
134 154 181
133 154 180
133 154 181
134 154 181
133 154 181
134 154 181
133 154 181
134 154 181
133 154 181
134 154 181
133 154 181
134 154 181
133 154 181
133 154 181
133 154 181
134 154 181
134 154 181
133 154 181
134 154 181
134 154 180
133 154 181
135 155 181
134 154 181
133 154 180
134 154 181
133 154 181
133 154 180
134 154 181
134 154 181
134 154 181
133 154 181
133 154 181
134 154 181
134 154 181
133 153 180
134 154 181
133 154 181
133 154 181
134 154 181
134 154 181
134 154 181
133 154 181
133 154 181
133 154 181
133 154 181
134 154 181
133 154 181
134 154 181
134 154 181
134 154 180
134 154 181
133 154 181
134 154 181
134 154 181
134 154 181
133 154 181
134 154 181
133 154 181
134 154 181
134 154 181
133 153 180
133 154 181
133 154 181
134 154 181
133 154 181
134 154 181
133 154 181
134 154 181
134 154 181
133 154 181
134 154 181
134 154 181
134 154 181
133 154 181
133 154 181
133 154 180
134 154 181
134 154 181
133 154 181
133 153 180
134 154 181
133 153 180
134 154 181
134 154 181
134 154 181
134 154 181
133 154 181
134 154 181
134 154 181
134 154 181
134 154 181
134 154 181
133 154 181
134 154 181
134 154 181
135 155 181
134 154 181
134 154 181
133 154 180
134 154 181
135 155 181
134 154 180
134 154 181
135 155 181
133 154 181
133 154 181
133 154 181
134 154 180
134 154 181
133 154 181
134 154 181
135 155 181
134 154 181
134 154 181
133 154 181
134 155 181
134 155 181
133 154 181
133 154 181
134 154 181
133 154 181
134 154 181
134 154 181
134 154 181
133 154 181
134 154 181
133 153 180
133 153 180
134 154 181
133 153 180
134 154 181
134 154 181
133 153 180
133 154 181
134 154 181
134 154 181
134 154 181
133 154 180
135 155 181
133 154 181
133 154 181
134 154 181
134 154 181
134 154 181
133 154 180
134 154 181
134 154 181
134 154 181
134 154 181
133 154 181
133 154 181
134 154 181
133 154 181
133 153 180
134 154 180
134 154 181
133 154 180
133 154 181
134 154 181
133 153 180
134 154 180
133 154 181
134 154 181
134 154 181
133 154 181
134 154 181
135 155 181
134 154 181
134 154 181
133 154 181
134 154 181
134 154 181
134 154 180
134 154 181
133 154 181
134 154 181
133 154 181
133 154 181
134 155 181
134 154 181
134 154 181
134 154 181
134 154 181
133 154 181
133 153 180
134 154 181
134 154 181
134 154 181
134 154 181
133 154 181
133 154 181
135 155 181
134 154 181
134 154 181
134 154 181
132 153 181
133 154 181
134 154 181
134 154 181
134 154 181
133 154 181
133 153 180
134 154 181
135 155 181
133 154 181
134 154 181
134 154 181
133 154 181
134 154 181
132 153 181
133 154 181
134 154 181
134 154 181
135 155 181
134 154 181
134 154 181
134 154 181
134 154 181
135 155 181
134 154 181
134 154 181
134 155 181
134 154 181
133 154 181
134 154 181
134 154 181
134 154 181
133 154 181
134 154 181
134 154 181
134 154 181
134 154 181
134 154 181
134 154 181
134 154 181
134 154 181
134 154 181
134 154 181
133 154 181
134 154 181
133 154 181
133 154 181
134 154 181
134 154 181
134 154 181
134 154 181
134 154 181
133 154 181
134 154 181
134 154 180
134 154 181
134 154 181
134 154 181
133 154 181
133 154 181
133 154 181
134 154 181
134 154 181
133 154 181
135 155 181
134 155 181
134 154 181
134 154 180
133 154 181
133 154 181
134 154 181
134 154 181
134 154 181
133 154 181
133 154 181
132 153 181
134 154 181
134 154 181
134 154 181
135 155 181
134 154 181
134 154 181
134 154 181
134 154 181
133 154 181
135 155 181
133 154 181
134 154 181
133 154 181
134 154 181
133 154 181
133 154 180
133 154 181
134 154 181
133 154 181
135 155 181
133 154 181
133 154 181
134 154 181
135 155 181
134 154 181
134 154 181
134 154 181
135 155 181
133 154 181
132 153 181
133 154 181
134 154 181
134 154 181
133 154 181
134 155 181
134 154 181
133 154 181
134 154 181
134 155 181
134 154 181
133 154 181
134 154 181
133 154 181
133 154 180
133 154 181
133 154 180
134 154 181
133 154 180
135 155 181
134 154 181
133 153 180
133 154 180
134 154 181
134 154 181
134 154 181
134 154 181
134 154 181
134 154 181
132 153 181
134 154 181
134 154 181
134 154 181
134 154 181
133 154 181
133 154 181
133 154 181
134 154 181
133 154 181
133 154 180
134 154 181
134 154 181
134 154 181
134 154 181
134 154 181
134 154 181
133 154 180
133 154 181
133 154 181
134 154 181
133 154 181
133 154 180
134 154 181
134 154 181
134 155 181
134 154 181
134 154 181
133 154 181
134 154 181
134 154 181
133 154 181
134 154 181
134 154 181
134 154 181
134 154 181
134 154 180
133 154 181
134 154 181
133 154 181
133 154 181
134 154 181
134 154 181
133 154 181
134 154 181
134 154 181
134 154 181
134 154 181
134 154 181
133 153 180
134 154 181
134 154 181
135 155 181
133 154 181
133 153 180
134 154 181
133 154 180
134 154 181
133 154 181
134 154 181
133 154 180
134 154 180
134 154 181
134 154 181
134 154 181
134 154 181
135 155 181
134 154 181
134 154 181
134 154 181
134 154 180
134 154 181
134 154 181
133 154 181
133 154 181
134 154 181
134 154 181
135 155 181
134 154 181
134 154 181
134 154 181
134 154 181
134 154 181
133 154 181
133 154 180
135 155 181
134 154 180
134 154 181
134 154 181
134 154 181
133 154 180
134 154 181
133 153 180
134 154 181
135 155 181
133 154 180
134 154 181
134 154 181
134 154 181
134 154 181
133 154 181
135 155 181
134 154 181
134 154 181
133 153 180
134 155 181
135 155 181
134 154 181
134 154 181
134 155 181
134 154 180
133 154 181
134 155 181
134 154 181
134 154 181
133 153 180
132 153 181
134 154 181
134 155 181
134 155 181
135 155 181
134 154 181
135 155 181
134 154 181
134 154 181
134 154 181
133 154 181
134 154 180
133 153 180
134 154 181
133 154 181
133 154 180
134 154 181
134 154 181
134 155 181
133 154 181
134 154 181
134 154 181
133 154 181
134 154 181
134 154 181
134 154 181
134 154 180
134 154 181
134 154 181
133 154 181
134 154 181
134 154 181
134 154 181
134 154 181
133 154 180
134 154 181
135 155 181
133 154 180
134 154 180
135 155 181
134 154 181
134 154 181
133 154 181
133 154 181
134 154 181
133 154 181
135 155 181
134 154 180
134 154 181
134 154 181
134 154 180
134 154 181
134 154 181
134 154 181
134 154 180
133 153 180
134 154 181
134 154 181
135 155 181
134 154 181
134 154 181
133 154 181
133 154 181
133 154 181
134 154 181
134 154 181
134 154 181
134 154 181
133 154 180
134 154 181
134 154 181
134 154 181
135 155 181
134 154 181
134 154 181
135 155 181
134 154 181
134 154 181
134 154 181
134 154 181
134 154 181
133 154 181
134 154 181
134 154 181
133 154 181
133 154 181
133 154 181
134 154 181
134 154 181
132 153 181
134 154 181
133 154 181
133 154 181
134 154 181
133 154 181
134 154 181
134 154 180
134 154 181
134 154 181
134 154 181
134 154 181
134 154 181
133 154 181
133 154 181
134 154 181
134 154 181
133 154 181
133 154 181
133 153 180
135 155 181
134 154 181
133 154 181
134 154 181
133 154 181
134 154 181
134 154 181
133 154 181
134 154 181
134 154 181
133 154 181
134 154 181
133 154 181
133 154 181
134 154 181
133 154 181
133 154 181
133 154 181
133 154 181
134 154 181
133 154 181
134 155 181
134 154 181
133 154 180
133 154 181
133 154 181
134 154 181
133 154 181
134 154 181
134 154 181
134 154 181
134 154 181
133 154 181
133 154 181
133 154 181
134 154 181
133 154 180
133 154 181
134 154 181
133 154 181
133 154 181
134 154 181
133 154 181
133 154 181
134 154 180
133 154 181
133 154 181
135 155 181
134 154 181
133 154 181
133 154 181
133 154 181
134 154 181
133 154 181
133 154 181
135 155 181
133 154 181
133 154 181
133 154 181
133 154 181
134 154 181
133 154 181
134 154 181
134 154 181
134 154 181
133 153 180
134 154 181
134 154 181
134 154 181
134 154 180
135 155 181
133 154 181
134 154 181
132 154 181
135 155 181
133 154 180
134 154 181
133 154 181
134 154 181
133 154 181
135 155 181
134 154 181
135 155 181
134 154 181
133 154 181
134 154 181
134 154 181
133 154 181
134 154 181
134 154 181
134 154 181
135 155 181
134 154 181
134 154 181
134 154 181
133 154 181
134 154 181
133 154 180
134 154 181
134 154 181
134 154 181
133 154 181
134 154 181
134 154 181
134 155 181
134 154 181
134 154 181
132 153 181
134 154 181
134 154 181
134 154 181
134 154 181
134 154 181
134 154 181
134 154 181
134 154 181
134 154 181
134 154 181
133 154 181
134 154 180
134 154 181
134 154 181
133 154 181
134 154 181
133 154 180
133 154 181
134 154 181
133 154 181
135 155 181
134 154 181
134 154 181
134 155 181
134 154 181
133 154 181
133 154 181
134 154 181
134 154 181
133 154 181
135 155 181
134 154 181
134 154 181
134 154 181
133 154 180
133 154 181
134 154 181
133 153 180
133 154 181
134 154 180
134 154 181
133 154 181
134 154 181
134 154 181
134 154 181
135 155 181
133 154 181
134 154 180
133 154 181
134 154 181
133 153 180
134 154 181
134 154 181
134 154 181
134 154 180
134 155 181
134 154 181
133 154 180
133 154 181
133 153 179
134 154 181
134 154 181
134 154 181
134 154 181
135 155 181
134 154 181
134 154 181
134 154 181
134 154 181
133 154 180
134 154 181
133 153 180
133 154 181
133 154 181
133 154 181
133 154 180
134 154 181
134 154 181
134 155 181
133 154 181
134 154 181
134 154 181
133 154 181
134 154 181
133 154 181
134 154 181
133 154 181
134 154 181
133 154 181
133 154 181
133 154 181
134 154 181
134 154 181
134 154 181
134 154 181
133 153 180
133 154 181
133 154 181
134 154 181
134 154 181
135 155 181
133 154 181
133 154 181
133 154 181
134 154 181
133 154 181
133 154 181
134 154 181
134 154 181
134 154 181
134 154 181
134 154 181
133 154 181
133 154 181
133 154 181
133 154 180
132 153 179
133 154 181
134 154 181
134 154 181
134 154 181
133 154 181
133 154 180
133 154 181
133 154 181
134 154 181
135 155 181
134 154 181
133 154 181
133 154 181
134 154 181
133 154 181
133 154 181
134 154 181
134 154 181
133 154 181
134 154 181
134 154 180
134 154 181
134 155 181
134 154 181
134 154 181
133 154 181
134 154 181
133 154 181
133 154 180
134 154 181
134 154 181
134 154 181
134 154 181
134 154 181
133 154 181
134 154 181
135 155 181
133 154 181
133 153 180
135 155 181
134 154 181
134 154 180
134 154 181
134 154 181
134 154 181
134 154 181
133 154 181
133 154 181
133 154 181
133 153 180
133 154 181
133 153 180
134 154 181
134 154 181
132 153 181
133 154 181
134 154 181
133 154 181
135 155 181
134 154 181
134 154 181
133 154 181
134 154 181
134 154 181
134 154 181
133 154 181
133 154 181
133 154 181
134 154 180
134 154 181
133 154 181
134 154 181
134 154 181
134 154 181
133 154 180
134 154 181
133 154 180
133 153 180
133 154 181
134 154 181
133 154 181
135 155 181
134 154 181
133 154 181
134 154 181
133 154 181
134 154 181
134 154 181
135 155 181
134 154 181
134 154 181
134 155 181
133 154 181
133 154 181
133 154 181
134 154 180
132 153 180
134 154 181
133 154 181
134 154 181
133 154 181
133 154 181
134 154 181
134 154 181
133 154 181
134 154 181
133 154 181
134 154 180
134 154 181
134 154 181
133 154 181
134 154 181
133 154 180
134 154 181
133 153 180
133 154 180
134 154 181
133 154 181
133 154 181
134 154 180
134 154 181
133 154 181
133 154 181
134 154 181
132 153 181
134 154 181
134 154 180
134 154 181
134 154 181
134 154 181
134 154 181
134 154 181
133 154 180
133 154 181
133 154 181
133 154 181
134 154 181
135 155 181
134 154 181
133 154 181
134 154 181
133 154 181
134 154 180
134 154 181
133 154 181
134 154 181
133 154 181
134 154 181
134 154 181
134 154 181
134 154 181
134 154 181
134 153 180
134 154 181
133 154 180
134 154 181
134 154 181
134 154 181
133 154 181
133 154 181
133 154 181
133 154 181
133 154 181
134 154 181
133 154 181
133 153 180
134 154 181
134 154 181
134 154 181
133 154 181
134 154 180
133 154 181
134 154 181
134 154 181
134 154 181
133 153 180
134 154 181
133 154 180
133 154 181
133 154 181
134 154 181
133 154 181
133 154 181
134 154 181
134 154 181
134 154 181
133 154 181
133 154 181
134 154 181
134 154 181
133 154 181
133 154 181
133 154 180
134 154 181
134 154 181
133 154 181
134 154 181
134 154 181
133 154 181
134 154 181
134 154 181
134 154 180
134 154 181
134 154 181
134 154 181
133 154 181
133 154 181
134 154 181
134 155 181
134 154 181
133 154 181
134 154 181
134 154 181
133 154 181
134 154 181
134 154 181
134 154 181
134 154 181
133 154 181
134 154 181
133 154 181
134 154 181
134 155 181
134 154 181
134 154 181
134 154 181
133 154 181
133 154 181
133 154 180
134 154 181
133 154 181
134 154 181
134 154 181
133 154 181
134 154 181
133 154 180
134 154 181
133 154 181
134 154 181
134 154 181
133 154 181
133 154 181
134 154 181
134 154 181
133 154 181
134 154 181
133 154 181
135 155 181
134 154 181
133 154 181
134 154 181
134 154 181
134 154 181
134 154 181
134 154 181
134 154 181
133 154 181
134 154 181
133 154 181
134 154 181
134 154 181
134 154 181
133 154 181
134 154 181
134 154 181
133 154 181
133 154 181
134 154 181
134 154 181
133 154 181
134 154 181
134 155 181
134 154 181
135 155 181
134 154 181
134 154 181
134 154 181
134 154 181
133 154 181
134 154 181
133 154 181
133 154 181
134 154 180
135 155 181
133 154 181
134 154 181
133 154 181
133 154 181
133 154 181
134 154 181
133 154 181
134 154 181
133 154 181
134 154 181
134 154 181
134 154 181
133 154 181
134 154 181
134 154 181
134 154 181
134 154 180
134 154 181
135 155 181
134 154 180
133 154 181
134 154 181
134 154 181
135 154 180
134 154 181
135 155 181
134 154 181
133 154 181
134 154 181
134 155 181
134 155 181
133 154 180
134 154 180
133 154 181
133 154 181
133 154 181
133 154 181
134 154 181
134 154 180
134 155 181
134 154 181
133 154 181
134 154 181
134 154 181
134 154 181
134 154 181
133 154 181
134 154 181
134 154 181
133 154 181
134 154 180
134 154 181
133 154 181
134 154 181
133 154 181
134 154 181
134 154 181
133 154 181
133 154 180
134 154 181
133 154 181
134 154 181
134 154 181
133 154 181
134 154 181
135 155 181
134 154 180
134 154 181
135 155 180
133 154 180
134 154 181
134 154 181
133 154 181
135 155 181
133 154 181
134 154 181
134 154 181
133 153 180
134 154 181
133 154 181
133 154 181
134 154 181
133 154 181
134 154 181
133 154 181
134 154 181
134 154 181
134 154 181
133 154 181
133 154 181
134 154 181
134 154 181
134 154 181
133 154 181
133 153 180
134 154 181
134 154 181
134 154 181
134 154 181
134 154 181
133 154 181
134 154 181
134 154 180
135 155 181
134 154 181
133 154 181
134 154 181
133 154 181
134 154 181
134 154 181
134 154 181
133 154 181
134 154 181
134 154 181
133 154 180
134 154 181
134 154 181
134 154 181
133 154 181
134 154 181
133 153 180
134 154 181
134 154 181
134 154 181
135 155 181
134 154 181
134 154 181
134 155 181
133 154 181
133 154 181
134 154 180
134 154 181
134 154 181
134 154 181
133 154 181
134 154 181
135 155 181
135 155 181
135 155 181
133 154 181
133 154 181
133 154 181
134 154 181
134 154 181
134 154 181
133 154 180
134 154 181
133 154 180
134 154 181
135 155 181
134 154 181
134 154 180
134 154 181
134 154 181
133 154 181
133 154 181
134 154 181
134 154 181
133 154 181
134 154 181
134 154 181
134 154 181
134 154 181
133 154 181
134 154 181
134 154 181
133 154 181
134 154 181
133 154 181
134 154 181
133 154 181
133 154 181
133 154 181
133 154 181
134 154 181
134 154 181
132 153 179
134 154 181
133 154 181
134 154 181
134 154 181
133 153 180
133 154 181
133 154 181
133 154 181
134 154 181
133 154 181
133 154 181
134 154 181
134 154 181
134 155 181
133 154 181
133 154 181
133 154 180
133 154 181
134 154 181
133 154 180
134 154 181
134 155 181
134 155 181
134 154 181
134 154 181
135 155 181
134 154 181
134 154 181
133 154 181
134 154 181
133 154 181
133 154 181
133 154 181
132 153 180
134 154 181
134 154 180
133 153 180
133 153 180
134 154 181
133 154 181
132 153 181
134 154 181
134 154 181
133 154 181
134 154 181
134 154 181
134 154 181
134 154 181
133 154 181
133 154 181
134 154 180
134 154 181
135 155 181
133 154 181
135 155 181
133 154 181
134 154 181
134 154 181
133 154 181
135 155 181
133 154 181
134 154 181
133 154 181
134 154 181
134 154 181
133 154 180
134 154 181
133 154 181
134 154 181
135 155 181
134 154 181
133 153 180
133 154 181
134 154 181
134 154 181
133 154 181
133 154 181
133 154 181
134 154 181
134 154 181
133 154 181
135 155 181
134 155 181
134 154 181
134 154 181
134 154 181
134 154 181
134 154 181
134 154 181
134 154 181
133 153 180
134 154 181
134 154 181
134 154 180
134 154 181
134 154 181
134 154 181
134 154 181
135 155 181
134 154 181
134 154 180
133 154 181
132 153 180
134 154 180
134 154 180
134 154 181
134 154 181
134 154 181
134 154 181
134 154 180
135 154 180
134 154 181
134 154 181
134 154 181
134 154 181
134 154 181
134 154 181
134 154 181
133 154 181
134 154 181
133 154 181
133 154 181
133 154 181
134 154 180
134 154 180
134 154 181
134 154 181
134 154 181
134 154 181
134 154 181
134 154 181
134 154 181
133 154 181
134 154 181
134 154 181
134 154 181
134 154 181
134 154 181
134 154 181
133 154 181
134 154 181
134 154 180
133 154 181
133 154 181
133 154 181
134 154 181
133 154 181
134 154 181
133 154 181
134 154 181
134 154 181
133 154 181
133 153 180
134 154 181
134 154 181
134 154 181
134 154 181
134 154 181
134 154 181
134 154 181
135 155 181
133 154 181
133 154 181
134 154 181
134 154 181
134 154 181
134 154 181
134 154 180
133 154 181
134 154 181
134 154 181
134 154 181
134 155 181
134 154 181
135 155 181
134 154 181
135 155 181
134 154 181
132 153 181
134 154 181
133 154 181
133 154 181
134 154 181
134 154 181
133 154 181
133 154 181
134 154 181
133 154 181
134 154 181
133 154 181
134 154 181
134 154 181
134 154 181
133 154 181
134 154 181
134 154 181
134 154 181
134 154 181
133 154 181
133 154 181
134 154 181
134 154 181
134 154 181
134 154 181
133 154 181
134 154 181
134 154 180
133 154 181
134 154 181
134 154 181
133 154 181
134 154 181
134 154 181
134 154 181
133 154 181
134 154 181
135 155 181
134 154 181
134 154 181
134 154 181
133 154 181
134 154 181
133 154 181
134 154 181
134 154 181
134 154 181
133 154 181
133 153 180
134 154 181
133 154 181
134 154 181
134 154 181
134 154 181
133 154 181
133 154 181
135 155 181
134 154 181
134 154 181
133 154 181
134 154 181
132 153 180
132 153 180
134 154 181
134 154 181
133 154 181
134 154 181
134 154 181
134 154 181
134 154 181
133 154 181
134 154 181
134 155 181
135 155 181
134 154 181
133 154 181
133 154 181
133 154 181
133 154 181
133 154 181
134 154 181
134 154 181
133 154 180
134 154 181
133 154 181
133 154 181
134 154 180
133 154 181
133 154 181
134 154 181
134 154 181
134 154 181
134 154 181
133 154 181
133 154 181
134 154 180
133 154 181
135 155 181
133 154 181
134 154 180
134 154 181
134 154 181
133 154 181
134 154 181
134 154 180
134 154 181
133 154 181
133 153 180
134 154 181
133 153 180
133 154 181
133 154 181
133 154 181
134 155 181
134 154 181
134 154 181
134 154 180
133 154 181
134 154 181
134 154 181
134 154 181
134 154 181
134 154 181
134 154 181
134 154 181
134 154 181
133 154 181
134 154 181
134 154 181
133 154 181
134 154 181
134 154 181
134 154 181
134 154 181
133 154 181
133 154 181
134 154 181
134 154 181
133 154 180
134 154 181
134 154 181
133 154 181
134 155 181
134 154 181
134 154 180
133 154 181
133 154 181
134 154 180
134 154 181
134 154 181
134 154 180
134 154 181
133 154 181
133 154 180
133 154 181
133 153 180
133 154 181
133 153 180
133 154 181
134 154 181
134 154 181
133 154 181
133 154 181
135 155 181
134 154 180
133 154 181
134 154 181
134 155 181
133 154 181
133 154 181
135 155 181
134 154 181
133 154 181
134 154 181
134 154 181
133 153 180
133 153 180
134 154 181
134 154 181
134 154 181
133 154 181
134 154 181
134 154 181
134 154 181
133 154 181
134 154 180
133 154 181
133 154 181
133 154 180
135 155 181
134 154 181
134 154 181
134 154 181
134 154 180
134 154 180
134 154 181
134 154 181
134 154 181
133 154 181
134 154 181
134 154 181
134 154 181
133 154 181
133 154 181
133 154 180
134 154 181
134 154 181
134 154 181
134 154 181
134 154 181
132 153 180
134 154 181
133 154 181
134 154 181
133 154 181
133 154 181
134 154 181
134 154 181
133 154 180
133 154 180
134 154 181
134 154 181
133 154 181
133 154 181
133 154 181
134 154 180
133 154 181
134 154 181
133 154 181
135 155 181
133 154 181
135 155 181
134 154 181
134 154 181
133 154 181
133 154 181
134 154 180
134 154 181
133 154 181
133 154 180
134 154 181
133 154 181
134 154 181
134 154 181
134 154 180
134 154 181
134 154 181
134 154 181
133 154 181
133 154 181
134 154 180
133 154 181
134 154 181
134 154 181
134 154 181
133 153 179
134 154 181
134 154 181
134 154 181
134 154 180
133 154 181
134 154 181
133 154 181
134 154 181
134 154 181
133 154 180
134 154 181
134 154 181
132 153 180
134 154 181
134 154 181
134 154 181
134 154 180
133 154 181
134 154 180
134 154 181
134 154 180
134 154 181
133 154 181
133 154 181
134 154 181
133 153 180
134 154 181
134 154 181
133 154 181
134 154 181
134 154 181
133 153 180
134 154 181
133 154 181
134 154 181
133 154 181
133 154 181
134 154 181
134 154 181
134 154 181
134 154 181
135 155 181
134 154 181
135 155 181
134 154 181
134 154 181
134 154 181
134 153 179
134 154 180
134 154 181
134 154 180
134 154 181
133 154 181
133 154 181
134 154 181
134 154 181
133 154 181
134 154 181
133 154 181
133 154 181
133 154 181
133 154 181
134 154 181
133 153 180
133 154 181
133 154 181
133 154 180
134 154 181
134 154 181
134 154 181
133 154 181
133 154 181
134 154 181
133 154 181
134 154 181
134 154 181
134 154 180
134 154 181
134 154 181
134 154 181
134 154 181
134 154 181
133 153 180
134 154 181
133 154 181
134 154 181
134 154 181
133 154 181
133 154 181
133 154 181
134 154 181
135 155 181
134 154 181
134 154 181
133 154 181
134 154 181
134 154 180
134 154 181
134 154 181
133 154 181
134 154 181
132 153 181
133 154 181
133 154 181
133 154 181
134 154 181
134 154 181
134 154 180
134 154 181
135 155 181
134 154 181
134 154 181
134 154 181
133 153 180
133 154 181
133 154 181
133 154 181
135 155 181
134 154 181
134 154 181
134 154 181
133 154 181
133 154 181
134 154 181
133 154 181
134 154 181
134 154 181
133 154 180
134 154 181
133 154 180
134 154 181
134 154 181
133 154 181
134 154 181
134 154 181
134 154 181
133 154 181
133 154 181
134 154 181
134 154 181
133 154 181
134 154 181
134 154 181
133 154 181
133 154 181
135 155 181
134 154 181
133 154 181
134 154 181
133 154 181
134 154 181
134 154 181
134 154 181
134 155 181
134 154 181
133 154 181
134 154 181
134 154 181
133 154 180
134 154 181
133 154 181
134 154 181
134 154 181
134 154 180
133 154 181
134 154 181
133 154 181
134 154 181
134 154 181
134 154 181
134 154 181
133 153 180
133 154 181
133 154 181
133 154 181
135 155 181
134 154 181
134 154 181
133 154 181
134 154 181
133 154 181
134 154 181
134 154 181
134 154 181
133 154 181
134 154 181
133 153 180
133 154 181
134 154 181
134 154 181
134 154 181
134 154 181
134 154 181
133 154 180
134 154 181
134 155 181
133 154 181
134 154 181
134 154 181
133 154 181
132 153 181
134 154 181
134 154 181
133 154 181
133 154 181
133 154 181
133 154 181
134 154 181
134 154 181
133 154 181
134 154 181
134 154 181
133 154 180
133 154 181
133 154 181
133 154 181
133 154 181
133 154 181
133 154 181
134 154 181
134 154 181
133 154 181
134 154 181
133 154 181
134 155 181
133 154 181
134 154 181
134 154 181
135 154 180
133 154 181
135 155 181
133 154 180
134 154 180
134 154 181
134 154 181
133 154 181
134 154 181
134 154 181
134 154 181
133 154 181
134 154 181
134 154 181
134 154 181
134 154 181
134 154 181
133 154 181
134 154 181
134 154 181
134 154 181
134 154 181
133 154 181
134 154 181
134 154 181
133 154 181
134 154 181
133 154 181
134 154 181
134 154 181
134 154 181
133 154 181
133 154 181
134 154 181
133 154 181
134 154 181
134 154 181
134 154 181
134 154 181
132 153 181
134 154 181
134 154 181
133 154 181
134 154 181
133 154 181
133 154 181
134 154 181
134 154 181
133 154 181
134 154 181
134 154 181
133 154 181
134 154 181
134 154 181
134 154 181
135 155 181
134 154 181
134 154 181
135 155 181
133 154 180
134 155 181
133 154 181
135 155 181
134 155 181
135 155 181
135 155 181
133 154 181
135 155 181
132 153 181
134 154 181
134 154 181
134 154 181
133 154 181
134 154 180
134 154 181
134 154 181
134 154 181
134 154 181
133 153 180
133 154 181
134 154 181
134 154 181
134 154 181
134 154 181
134 154 181
133 154 181
134 154 181
134 154 181
133 154 181
133 154 181
133 154 181
134 154 181
134 154 181
133 154 181
134 154 181
133 154 181
134 154 181
134 154 181
133 154 181
134 154 181
134 154 181
134 154 181
134 154 180
134 154 181
134 154 181
134 154 181
134 155 181
134 154 180
133 153 180
133 154 181
134 154 180
134 154 181
134 154 181
134 154 181
133 154 181
134 154 181
133 154 181
133 154 181
133 154 181
134 154 180
134 154 181
134 154 181
134 154 181
133 154 181
133 153 180
133 154 181
134 154 181
133 154 181
134 154 181
134 154 181
134 154 181
133 154 180
133 154 181
134 154 181
134 154 181
133 154 181
133 154 181
134 154 181
134 154 180
133 154 181
134 154 180
134 154 181
133 153 180
132 153 180
133 154 181
134 154 181
135 155 181
133 154 180
134 154 181
134 154 181
133 154 180
133 154 181
134 154 181
133 153 180
134 154 181
134 155 181
134 154 181
133 154 180
133 154 181
135 155 181
134 154 181
134 154 181
134 154 181
133 154 181
134 154 181
133 153 180
134 154 181
133 154 180
134 154 181
134 154 181
134 154 181
133 154 181
133 154 181
134 154 181
134 155 181
134 154 181
133 154 180
134 154 181
133 154 180
133 154 181
134 154 181
134 154 180
134 154 181
134 154 181
134 154 181
134 154 181
134 154 181
135 155 181
133 154 181
134 154 181
134 154 181
133 154 181
135 155 181
133 154 180
134 154 181
134 154 181
133 154 181
133 154 181
133 154 181
134 154 181
134 154 181
134 154 181
133 154 181
134 154 181
134 154 181
133 154 181
135 155 181
133 154 181
134 154 180
134 154 181
133 154 181
134 154 181
134 154 181
135 155 181
133 154 181
134 154 181
134 154 181
133 154 181
134 154 181
134 154 181
134 154 181
134 154 181
133 154 180
134 154 181
134 154 181
134 154 181
133 154 181
134 154 181
134 154 181
134 154 181
134 154 181
134 154 181
133 154 181
133 154 181
134 154 181
134 154 181
134 154 180
133 154 181
134 154 181
133 154 181
134 154 181
133 154 181
133 154 181
134 154 181
133 154 181
135 155 181
134 155 181
133 154 181
133 154 181
133 154 181
133 154 181
134 154 181
134 154 181
134 154 181
134 154 181
134 154 181
134 154 181
134 154 181
134 154 181
134 154 181
134 155 181
134 154 181
133 153 180
134 154 181
134 154 181
134 155 181
133 154 181
135 155 181
133 154 181
133 154 181
135 155 181
133 154 180
134 154 181
134 154 181
134 154 181
133 154 181
133 154 181
134 154 181
134 154 181
133 154 181
133 154 181
135 155 181
134 154 181
134 154 181
133 154 181
134 154 181
133 154 181
134 154 181
133 154 181
134 154 181
134 154 181
133 154 181
134 154 181
133 154 181
134 154 181
134 154 180
133 154 181
134 154 181
133 154 181
134 155 181
134 154 181
134 154 181
133 154 181
135 155 181
134 154 181
134 154 181
133 154 181
134 154 180
133 154 181
134 154 181
134 154 181
134 154 181
133 154 181
134 154 181
134 154 181
133 154 181
134 154 181
133 154 181
133 154 181
134 154 181
134 154 181
134 154 181
134 154 181
134 154 181
133 154 181
134 154 181
133 154 181
133 154 181
134 154 181
134 154 181
134 154 181
133 154 181
133 154 181
133 154 181
134 154 181
133 154 181
134 154 181
134 154 181
133 153 180
133 154 181
135 155 181
134 154 181
133 154 180
134 154 181
134 154 181
134 155 181
133 154 181
132 153 181
134 154 181
134 154 181
134 154 181
134 154 181
134 154 181
134 154 181
134 154 181
133 154 181
134 154 181
134 154 181
133 154 181
134 154 181
134 154 181
133 154 181
134 154 181
135 155 181
133 154 181
133 154 181
133 154 181
133 154 181
134 155 181
133 154 181
134 154 181
134 154 181
135 155 181
134 154 181
134 154 181
134 154 181
134 154 181
134 154 181
133 154 181
134 154 181
133 154 181
134 154 181
134 154 181
133 154 181
133 154 181
135 155 181
134 154 181
133 154 181
134 154 180
134 154 181
134 154 181
134 154 181
134 154 181
134 154 181
133 154 181
135 155 181
133 154 181
133 154 181
134 154 181
133 154 181
135 155 181
135 155 181
134 154 181
133 154 181
134 154 181
134 154 181
134 154 181
134 154 181
133 154 181
134 154 181
134 154 181
134 154 181
133 154 181
134 154 181
134 154 181
133 154 181
133 154 180
134 154 181
134 154 181
134 154 181
134 154 181
134 154 181
134 154 181
134 154 181
134 154 181
133 154 180
135 155 181
134 154 181
134 154 181
134 154 181
134 154 181
134 154 181
135 155 181
134 154 181
133 154 180
133 153 180
134 154 180
133 154 181
134 154 181
134 154 181
134 154 181
133 154 181
133 154 181
134 154 181
134 154 181
134 154 181
133 154 181
134 154 181
134 155 181
134 154 181
134 154 181
134 154 181
134 154 181
133 154 181
134 154 181
135 155 181
135 155 181
133 154 181
133 154 181
134 154 181
134 154 181
133 154 181
134 154 181
135 155 181
134 154 181
133 154 181
133 154 181
134 154 181
135 155 181
133 154 181
135 155 181
133 153 180
134 154 181
134 154 181
133 153 180
133 154 180
134 154 180
135 154 180
134 154 181
133 154 181
134 154 181
134 154 181
133 153 180
134 154 181
133 154 181
133 153 180
132 153 180
134 154 181
134 155 181
133 154 181
134 154 180
133 154 181
133 154 181
132 154 181
134 154 181
134 154 181
133 154 181
134 154 180
134 154 180
134 154 181
134 154 181
133 154 181
134 154 181
134 154 181
134 154 181
134 154 181
134 154 181
135 155 181
133 154 180
133 154 181
133 154 181
133 154 181
134 154 181
134 154 181
133 154 181
133 153 180
133 154 180
133 154 181
134 154 181
134 154 181
134 154 181
134 154 181
133 154 181
134 154 181
133 154 181
134 154 181
134 154 181
134 154 180
134 154 181
133 154 181
134 154 181
134 154 181
133 154 181
133 154 181
134 154 181
133 154 181
133 154 181
134 154 181
134 154 180
134 154 181
134 154 181
134 154 181
134 154 181
133 154 181
135 155 181
134 154 181
134 154 181
134 154 181
134 154 181
133 154 181
134 154 181
133 154 181
133 154 181
133 154 181
134 154 181
133 154 180
133 153 180
133 153 180
134 154 181
133 154 181
133 154 181
134 154 181
133 154 181
133 154 181
133 154 181
134 154 180
134 154 181
134 154 181
134 154 180
134 154 181
133 154 181
134 154 181
134 154 181
133 154 181
134 154 181
133 153 180
134 154 181
133 154 181
134 154 181
133 154 181
133 154 181
134 154 181
133 154 180
133 154 181
133 154 181
134 154 181
134 154 181
134 154 181
134 154 181
134 154 181
133 154 181
134 154 181
134 154 181
134 154 180
133 154 181
133 154 181
134 154 180
134 154 181
134 154 181
133 154 181
134 154 181
134 154 181
134 154 181
134 155 181
135 155 181
135 154 180
133 154 181
133 154 181
134 154 180
133 154 180
133 153 179
134 154 180
134 154 181
133 154 181
134 154 181
133 154 181
134 154 181
134 154 181
133 154 181
134 154 181
134 155 181
134 154 181
134 154 181
133 154 180
134 154 181
134 154 181
134 154 181
134 154 181
133 154 181
134 154 181
133 153 180
133 154 181
134 154 181
133 154 181
134 154 181
133 154 180
134 154 181
134 154 180
133 154 181
133 154 181
134 154 181
134 154 181
134 154 180
134 154 180
133 154 181
134 154 181
134 154 181
133 154 181
133 154 181
134 154 181
134 154 181
134 154 181
134 154 181
133 154 181
133 154 181
134 154 181
134 154 181
134 154 181
134 154 181
134 154 181
134 154 181
133 154 181
133 154 181
134 154 181
133 154 181
133 154 181
133 154 181
134 154 181
134 154 181
134 154 181
133 154 181
133 154 181
133 154 181
132 153 181
133 154 181
134 154 181
133 154 180
134 154 181
134 154 181
134 155 181
133 154 181
134 154 181
133 154 180
133 154 181
133 154 181
134 154 181
135 155 181
134 154 181
134 154 181
134 154 181
133 154 181
134 154 181
133 154 181
134 154 181
133 154 181
134 154 181
134 154 181
133 154 181
134 154 181
133 154 181
134 154 181
134 154 181
135 154 180
133 154 181
134 155 181
134 154 181
134 154 181
133 154 181
134 154 181
133 154 181
134 154 181
133 154 181
133 154 181
133 154 181
133 154 181
133 154 181
134 154 181
134 154 181
133 153 180
134 154 181
134 154 181
134 154 181
134 154 181
133 154 181
134 154 181
134 154 181
133 153 180
133 154 181
134 154 181
134 154 181
134 154 181
133 154 181
134 154 181
133 154 181
133 154 181
134 154 181
135 155 181
135 155 181
134 154 181
134 154 181
134 154 180
133 154 180
134 154 181
134 154 181
134 154 181
133 154 180
133 154 181
133 154 181
135 155 181
133 154 181
134 154 181
133 154 181
133 154 181
133 154 181
133 154 180
134 154 180
133 154 181
134 154 181
134 154 181
134 154 181
133 154 181
133 154 180
135 155 181
133 154 181
135 155 181
134 154 181
133 154 181
134 154 181
135 155 181
134 154 181
133 154 180
134 154 181
134 154 180
134 154 181
135 155 181
133 154 181
134 154 181
134 154 181
133 153 179
134 154 181
134 154 181
134 154 181
133 154 181
133 154 181
133 154 181
134 154 181
134 155 181
134 154 181
133 154 181
134 154 181
134 154 181
133 154 180
133 154 181
135 155 181
134 154 181
134 154 181
134 154 181
133 154 181
134 154 181
134 154 180
134 154 181
134 154 181
134 154 181
134 154 181
134 154 181
133 153 180
134 154 181
133 154 181
134 154 181
133 154 181
133 154 181
134 154 181
134 154 180
134 154 181
134 154 181
133 154 181
134 154 181
133 154 181
134 154 181
134 154 181
134 154 181
133 154 181
133 153 180
133 154 181
133 154 181
134 154 181
135 155 181
134 154 181
133 154 181
133 154 181
134 154 181
134 154 181
134 154 181
135 155 181
134 155 181
133 154 181
133 154 181
133 154 180
133 154 181
135 155 181
134 154 181
135 155 181
134 154 181
133 154 181
133 154 180
134 154 181
134 154 181
134 154 181
134 154 181
134 154 181
134 154 181
134 154 181
134 154 181
134 154 181
133 154 181
133 154 181
134 154 181
133 153 180
133 154 181
134 154 181
134 154 181
133 154 181
135 155 181
133 153 180
134 154 181
134 154 181
134 154 181
134 154 181
134 154 181
134 154 181
134 154 181
134 154 181
134 155 181
134 154 181
135 155 181
134 154 181
134 154 181
135 155 181
133 154 181
134 154 181
134 154 180
133 154 181
132 153 180
134 154 181
134 154 181
133 154 181
133 154 181
134 154 181
134 154 180
133 154 181
134 154 181
133 154 181
134 154 181
133 154 181
133 154 181
134 154 181
134 154 180
134 155 181
134 154 181
133 154 181
133 154 181
132 153 180
134 154 181
133 154 181
133 154 181
134 154 181
135 155 181
134 154 181
134 154 181
134 154 181
133 154 181
134 155 181
134 154 181
133 154 181
133 154 181
134 154 181
133 154 181
134 154 181
134 154 181
134 154 181
134 154 181
134 154 181
134 154 180
134 154 181
134 154 181
134 154 181
134 154 181
133 154 181
134 154 181
134 154 181
134 155 181
133 154 181
134 154 181
133 154 181
133 154 181
133 154 181
134 154 181
134 154 180
134 154 181
133 154 181
135 155 181
134 154 181
134 154 181
134 154 181
133 154 181
133 154 181
133 154 181
133 154 181
133 154 180
133 153 180
134 154 181
134 154 181
133 154 181
134 154 181
133 154 181
134 154 181
133 153 180
134 155 181
133 154 181
133 154 181
134 154 181
134 154 181
134 154 181
134 154 180
134 154 181
133 154 181
134 154 181
134 154 181
134 153 180
134 155 181
133 154 181
134 154 181
133 154 181
134 154 181
133 154 181
134 154 181
134 154 181
134 154 181
134 154 181
134 154 181
134 154 181
133 154 181
134 154 181
134 154 181
134 154 181
133 153 180
134 154 181
134 154 181
133 154 181
134 154 181
134 154 180
134 154 181
134 154 181
134 154 181
134 154 181
133 154 181
134 154 181
133 154 181
134 154 181
134 155 181
134 154 181
133 154 180
134 154 181
133 154 181
134 154 181
134 154 181
134 154 180
133 154 181
133 154 181
134 154 180
134 154 180
134 154 180
134 154 181
134 154 181
134 154 181
134 154 181
133 154 181
134 154 180
132 153 181
133 154 181
132 153 180
134 154 181
134 154 181
133 154 181
134 154 181
134 154 181
134 154 181
133 154 181
133 154 181
134 154 181
134 154 181
134 154 181
134 154 181
133 154 181
134 154 181
134 154 181
135 155 181
134 155 181
133 153 180
134 154 181
133 154 181
133 153 180
134 154 181
134 154 181
134 154 181
134 155 181
135 155 181
134 154 181
134 154 181
133 154 181
134 154 181
135 155 181
134 154 181
135 155 181
135 155 181
133 153 180
134 154 181
135 155 181
134 154 181
134 154 180
133 154 181
133 154 181
134 154 181
134 154 181
133 154 181
133 154 181
134 154 181
134 154 181
133 154 181
133 154 181
134 154 181
133 154 181
132 153 180
134 154 181
134 154 181
133 154 181
135 155 181
134 154 181
134 154 181
133 154 181
133 154 181
133 154 181
134 154 181
133 154 181
134 154 181
133 154 181
133 154 181
134 154 181
134 154 181
134 154 181
133 154 181
134 155 181
134 154 181
133 154 181
134 154 181
134 154 181
133 154 181
134 154 181
134 154 181
134 154 181
133 154 180
134 154 181
133 154 181
134 154 181
133 154 181
133 154 181
134 154 181
134 154 181
134 154 181
133 154 181
134 154 181
133 154 181
133 154 181
133 154 181
133 154 181
134 154 181
133 154 181
133 154 181
134 154 181
133 154 181
133 154 181
134 154 181
133 154 181
133 154 181
134 154 181
133 154 181
134 154 181
133 154 181
133 154 181
133 153 180
135 155 181
134 154 181
133 154 180
134 154 181
134 154 181
133 154 181
134 154 181
134 154 181
134 154 180
135 155 181
134 154 181
134 154 181
135 155 181
134 154 181
134 154 181
133 154 181
134 154 181
133 154 180
134 154 181
135 155 181
134 154 181
134 154 180
134 155 181
133 154 181
133 154 181
134 154 181
134 154 181
134 154 181
135 155 181
134 154 181
133 154 181
134 154 181
133 154 181
133 154 181
133 154 180
134 154 181
134 154 181
134 154 180
134 154 181
133 154 181
134 154 181
133 154 180
134 154 180
133 154 181
134 154 181
134 154 181
134 154 181
134 154 181
134 154 181
133 154 181
133 154 181
134 154 181
134 154 180
134 154 181
134 154 181
134 154 181
134 154 181
134 154 181
134 154 181
134 154 181
134 154 181
134 154 181
133 154 181
133 154 181
133 154 181
132 153 180
133 153 180
135 155 181
135 155 181
133 154 181
133 154 181
133 154 181
133 154 181
133 154 181
133 154 181
133 154 181
133 154 181
134 154 181
134 154 181
133 154 181
134 154 181
133 154 181
133 154 181
133 154 181
134 154 181
134 154 181
134 155 181
134 154 181
134 154 181
133 154 181
134 154 181
134 154 181
134 154 181
133 154 181
134 154 181
133 153 180
134 154 181
134 154 181
134 154 181
134 154 181
134 154 181
134 154 181
134 154 181
134 154 181
133 154 181
133 154 181
133 154 180
133 154 181
134 154 181
133 154 181
134 154 180
134 154 181
134 154 181
133 154 181
134 154 181
135 155 181
133 154 181
134 154 180
133 154 181
134 154 181
134 154 180
134 154 180
134 154 181
133 154 181
134 154 181
134 154 181
133 154 181
134 154 181
134 154 181
133 154 180
134 154 181
134 155 181
133 153 180
134 154 181
133 153 179
134 154 180
133 154 181
134 154 181
134 154 181
134 154 181
134 154 181
133 154 180
133 154 181
133 154 181
133 154 181
133 154 181
134 154 181
132 153 180
134 154 181
134 154 181
133 154 180
134 154 181
134 154 181
134 154 181
134 154 181
133 154 180
134 154 181
133 154 181
134 154 181
134 154 181
134 154 180
134 154 181
133 154 181
135 155 181
133 153 180
135 155 181
133 154 181
134 154 181
134 154 181
134 154 181
134 154 181
134 154 181
134 154 181
134 154 181
134 154 181
134 154 181
134 154 181
135 155 181
133 154 181
134 155 181
134 154 180
133 154 181
134 154 181
133 154 180
133 153 180
134 154 181
134 154 181
134 154 181
135 155 181
133 154 181
133 154 181
134 154 181
134 154 181
133 154 181
133 154 181
135 155 181
133 154 181
133 154 181
134 154 181
134 154 181
134 154 181
133 153 180
133 154 181
134 154 181
133 154 181
133 154 181
133 154 181
133 154 181
133 153 180
134 154 181
133 154 181
134 154 181
134 154 181
133 154 181
133 154 180
133 154 181
133 154 181
134 154 181
134 154 181
134 154 181
134 154 180
133 154 181
134 154 181
134 154 181
133 154 181
134 154 181
134 154 181
134 154 181
133 154 180
133 154 181
134 154 181
135 154 180
134 154 181
134 154 181
134 154 181
134 154 181
134 154 181
134 154 180
134 154 181
133 154 181
133 153 180
134 154 181
133 154 181
134 154 181
133 154 180
135 155 181
133 154 181
133 154 181
134 154 181
135 155 181
133 154 181
133 154 181
134 154 181
133 154 181
134 154 181
134 154 181
134 154 181
134 154 181
134 154 181
134 154 181
134 155 181
134 154 181
134 154 181
134 154 181
134 154 181
135 155 181
133 154 181
133 153 180
134 154 181
134 154 181
134 154 181
134 154 181
134 154 181
133 154 181
133 154 181
133 154 181
133 154 181
133 154 181
134 154 181
134 154 181
134 154 180
134 154 181
134 154 181
134 154 181
134 154 181
134 154 181
134 154 181
134 154 181
134 155 181
133 154 180
133 154 180
134 154 181
135 154 180
133 154 180
134 154 181
134 154 181
134 154 181
135 155 181
134 154 181
135 155 181
134 154 181
134 154 181
134 154 181
133 154 181
134 154 181
133 153 180
133 153 180
134 154 181
134 154 181
133 154 181
134 154 181
134 154 181
133 154 181
133 154 181
134 154 181
134 154 181
133 154 181
134 153 180
133 154 181
133 154 181
134 154 181
134 154 181
133 154 180
134 154 181
133 154 181
134 154 181
133 154 181
134 154 181
134 154 181
133 154 181
133 154 181
135 155 181
134 154 181
134 154 181
133 154 181
134 154 181
134 154 181
134 155 181
133 153 180
133 154 181
134 154 181
133 154 181
133 153 180
134 154 181
134 155 181
133 154 181
133 154 181
134 154 181
133 154 181
134 154 181
133 154 181
134 154 181
133 154 181
134 154 181
134 154 181
134 154 181
134 154 181
134 154 181
134 154 181
134 154 181
133 153 180
133 154 181
133 154 180
134 154 181
134 154 181
133 154 181
133 154 181
134 154 181
134 154 181
134 154 181
134 154 181
134 154 181
134 154 181
134 154 181
134 154 181
133 154 181
134 154 181
134 155 181
134 154 181
134 154 181
134 154 181
133 154 181
134 154 181
134 154 181
133 154 181
134 154 181
133 154 181
133 154 180
134 154 181
134 154 181
133 154 181
134 154 181
133 154 181
134 154 181
134 154 181
134 154 181
134 154 181
134 154 181
133 154 181
134 154 181
135 155 181
134 155 181
134 154 181
133 154 181
133 154 181
134 154 181
134 154 181
133 154 180
133 154 180
134 154 181
134 154 181
134 154 181
133 154 181
133 154 181
133 154 181
134 154 181
133 154 181
133 154 181
134 154 181
133 154 181
133 154 181
133 154 181
134 154 181
134 154 181
134 154 181
134 154 181
133 153 180
134 154 181
133 154 181
134 154 181
133 154 181
133 154 181
134 154 181
134 154 181
134 154 181
133 154 181
134 154 181
134 154 181
134 154 181
134 154 181
133 154 181
135 155 181
134 154 181
133 154 181
133 154 181
134 154 181
133 154 181
133 154 181
133 154 180
133 154 181
133 154 181
133 154 181
134 154 181
133 154 181
133 154 181
134 154 181
134 154 181
133 154 181
134 154 181
133 154 181
133 153 180
134 155 181
134 154 181
133 154 181
134 154 181
134 154 181
134 154 181
132 153 180
134 154 181
133 153 180
133 154 181
134 154 181
134 154 181
133 154 181
133 154 181
135 155 181
135 155 181
134 154 181
133 154 181
134 154 181
133 154 181
134 154 181
133 154 181
134 154 181
133 154 181
134 155 181
134 154 181
135 155 181
134 154 181
134 154 181
135 155 181
133 154 181
134 154 181
134 154 181
134 154 181
133 154 181
134 154 181
134 154 181
133 154 181
134 154 181
134 154 181
134 154 181
134 154 181
134 154 181
135 155 181
134 154 181
134 154 181
134 154 181
133 154 181
134 154 180
134 154 181
133 153 180
134 154 181
134 154 181
133 154 181
134 154 180
133 154 181
134 154 181
134 154 181
134 154 181
133 154 180
133 154 180
133 154 181
135 155 181
133 154 181
134 154 181
133 154 181
135 155 181
134 154 181
133 154 181
134 154 181
133 154 181
134 154 181
134 154 181
134 154 181
133 154 181
134 155 181
134 154 181
133 154 180
133 154 180
134 154 181
134 154 181
133 154 181
134 154 181
133 154 181
133 154 181
132 153 181
135 155 181
134 154 181
134 154 181
134 154 181
134 154 181
133 154 181
134 154 181
134 154 181
134 154 181
134 154 181
134 154 181
134 154 181
134 154 181
134 154 181
133 154 181
133 154 181
134 154 181
133 154 181
133 154 180
133 154 181
135 155 181
133 154 181
134 154 181
134 154 181
134 154 181
134 154 181
134 154 180
133 154 181
134 154 181
135 155 181
134 154 181
133 154 181
134 154 181
134 154 181
134 154 181
135 155 181
134 154 181
134 154 181
133 154 181
134 154 181
134 154 181
134 154 181
134 154 181
133 154 181
134 154 181
133 154 181
134 154 181
133 153 180
135 155 181
134 154 181
133 154 180
133 154 181
133 154 181
133 154 181
134 155 181
133 154 181
133 153 180
134 154 181
133 154 181
134 154 181
134 154 181
134 154 181
133 154 181
133 154 181
134 154 181
133 154 181
134 154 181
133 154 181
134 154 181
134 154 181
133 154 181
133 154 181
134 154 181
135 155 181
134 154 181
134 154 181
133 154 180
133 154 181
134 154 181
134 154 181
134 154 181
134 154 181
134 154 181
134 154 181
134 154 181
134 154 181
132 153 181
133 154 181
134 154 181
134 154 181
134 154 181
134 154 181
133 154 181
133 154 181
134 154 181
133 154 181
133 154 180
134 154 181
134 154 181
134 154 181
134 154 181
133 154 180
134 154 181
133 154 181
134 154 180
133 154 180
134 154 181
133 154 181
134 154 181
134 154 181
134 154 181
133 154 181
133 154 181
135 155 181
134 154 181
134 154 181
134 155 181
134 155 181
133 154 181
134 154 181
133 154 181
134 154 181
134 154 181
134 154 181
134 154 181
134 154 181
134 154 181
133 154 181
134 154 181
134 154 181
134 154 181
134 154 181
134 154 181
134 154 181
134 154 181
134 154 181
135 155 181
134 154 181
134 154 181
133 154 181
134 154 181
134 154 181
133 154 180
134 154 181
133 154 180
133 154 181
134 154 181
134 154 181
134 154 180
134 155 181
133 154 180
133 154 181
134 154 181
134 154 181
133 154 181
133 154 181
133 154 181
134 154 181
134 154 181
134 154 181
134 154 181
135 155 181
134 154 181
134 154 181
134 154 181
134 154 181
133 153 180
133 154 180
134 154 181
134 154 181
133 154 181
135 155 181
133 154 181
133 153 180
135 154 180
133 154 181
134 154 181
134 154 181
133 154 181
134 154 181
134 154 180
134 154 181
134 154 181
134 154 181
133 154 181
134 154 181
134 154 181
134 154 181
134 154 181
133 153 180
134 154 181
133 154 180
134 154 181
133 154 181
134 154 181
134 154 181
134 154 181
134 154 181
133 154 181
134 154 181
134 154 181
135 155 181
133 153 180
133 154 181
134 154 181
134 154 181
133 154 181
134 154 181
134 154 181
133 154 181
133 154 181
134 154 181
134 154 181
133 154 180
134 154 181
133 154 181
134 154 180
134 154 180
134 155 181
133 154 181
134 154 181
134 154 181
134 154 180
134 154 181
133 154 181
133 154 181
134 154 181
134 154 181
135 155 181
133 154 181
134 154 181
133 154 181
134 154 181
134 154 180
134 154 181
134 154 181
134 154 181
134 154 181
134 154 181
134 154 181
134 154 181
134 154 181
134 154 181
133 154 181
134 154 181
134 154 181
134 154 181
134 154 181
133 153 180
133 154 181
134 154 181
133 154 181
134 154 181
134 154 181
133 154 180
133 154 181
134 154 181
134 154 181
134 154 181
134 154 181
134 154 181
134 154 181
134 154 181
134 154 181
133 154 181
133 154 181
133 154 181
134 154 181
133 154 181
134 154 181
133 154 181
133 154 181
133 154 181
135 155 181
134 154 181
133 153 180
134 154 181
133 154 181
133 154 181
133 154 181
134 154 181
134 154 180
133 154 181
133 154 181
133 154 181
133 154 181
133 154 180
134 154 181
134 154 181
133 154 181
134 155 181
134 154 181
134 154 181
133 154 181
133 154 181
133 154 181
134 154 181
134 154 181
134 154 181
134 154 180
134 154 181
134 154 181
134 154 181
133 154 181
133 153 180
133 154 181
133 154 181
135 155 181
133 154 181
134 154 181
133 154 181
134 154 181
133 154 181
134 154 181
134 154 181
134 154 181
133 154 180
134 154 181
134 154 180
134 154 181
133 154 181
134 154 181
133 154 181
134 154 181
133 154 181
134 154 181
134 154 181
133 154 181
133 154 181
135 155 181
134 154 181
135 155 181
134 154 181
134 154 181
134 154 181
134 154 181
134 154 181
135 155 181
134 154 181
134 154 181
134 154 181
135 155 181
134 154 181
134 154 180
133 154 181
134 154 181
134 154 181
134 154 181
134 154 181
134 154 181
134 154 181
133 154 180
133 154 181
133 154 181
133 154 181
134 154 181
134 154 181
134 154 181
133 154 181
134 154 181
133 154 181
133 154 181
134 154 180
133 154 181
133 154 181
134 154 181
133 154 181
133 154 181
133 154 181
134 154 180
134 154 181
133 153 180
135 155 181
134 154 181
133 154 181
134 154 181
133 154 181
133 154 180
133 154 180
134 154 181
133 153 180
135 155 180
134 154 181
133 154 181
133 154 181
134 154 181
133 154 181
133 154 181
134 154 181
134 154 181
133 154 181
133 154 181
134 154 181
133 154 181
134 154 181
134 154 181
133 154 181
133 154 181
133 154 181
134 154 181
134 154 181
133 154 181
133 154 181
134 154 181
134 154 181
133 153 180
133 154 180
133 154 181
134 154 181
133 154 180
135 155 181
135 155 181
134 154 181
134 155 181
133 153 180
134 154 181
134 154 181
133 154 180
134 154 181
134 154 181
133 154 180
134 154 181
134 155 181
134 154 181
134 154 181
134 154 180
134 154 181
134 154 181
134 154 181
133 154 180
133 154 180
133 154 181
134 154 181
134 154 181
135 155 181
134 154 181
134 154 181
134 154 181
133 154 181
133 154 181
134 154 181
134 154 181
134 154 181
133 154 181
133 154 181
134 154 181
133 154 181
134 154 181
134 154 181
134 154 181
133 154 181
134 154 181
135 155 181
134 154 181
134 154 181
133 154 181
135 155 181
133 154 181
133 154 180
133 154 181
133 154 181
134 154 181
134 154 180
134 154 181
133 154 180
133 154 181
133 154 180
133 154 180
133 153 180
135 155 181
134 154 181
134 154 180
133 154 181
134 154 181
134 154 181
133 154 181
135 155 181
133 154 181
134 154 181
134 154 181
133 154 181
133 154 181
134 154 180
133 154 181
134 154 181
134 154 181
133 154 181
134 154 180
134 154 181
134 154 181
133 154 181
134 154 181
134 154 181
134 154 180
133 154 181
133 154 181
133 154 181
134 154 181
133 154 181
133 154 181
133 154 180
133 154 181
133 154 181
134 154 181
134 154 181
133 154 181
134 154 181
134 154 181
134 154 181
134 154 181
134 154 181
134 154 181
134 154 181
134 154 181
134 155 181
133 154 181
134 154 181
134 154 181
135 155 181
134 154 181
135 155 181
133 154 181
134 154 181
133 154 181
134 154 181
134 154 181
135 155 181
135 155 181
133 154 181
134 154 181
134 154 181
133 154 180
133 154 180
132 153 180
134 154 181
134 154 181
134 154 181
133 154 181
134 154 180
133 154 181
133 154 181
134 154 181
134 154 181
134 154 181
133 154 181
134 154 181
134 154 181
134 154 181
132 153 181
134 154 181
134 154 181
134 154 181
134 154 181
135 155 181
134 154 181
134 154 180
133 154 181
134 154 180
134 154 181
134 154 181
135 155 181
133 154 181
134 154 181
134 154 181
133 153 180
134 154 181
134 154 181
133 154 181
133 154 180
133 154 181
134 154 181
134 155 181
134 154 181
134 154 181
133 154 181
133 154 181
133 154 181
134 155 181
133 154 180
133 154 181
133 154 181
135 155 181
135 155 181
134 154 181
134 154 181
134 154 181
133 154 181
133 154 181
134 154 181
134 154 181
133 154 181
134 154 181
133 154 181
133 154 181
134 154 181
134 154 181
134 154 181
134 154 181
134 154 181
134 154 181
133 154 181
134 154 180
134 154 181
133 154 181
135 155 181
134 154 181
133 154 181
134 154 181
134 154 181
134 154 181
133 154 181
133 154 181
134 154 181
134 154 181
133 154 181
133 154 181
134 154 181
133 154 181
134 154 181
134 154 181
134 154 181
134 154 181
133 154 181
134 154 181
135 155 181
133 154 181
133 154 181
134 154 181
133 154 181
133 154 180
134 154 180
134 154 181
133 154 181
133 154 181
134 155 181
133 154 181
134 154 181
134 154 181
134 154 181
133 154 181
135 155 181
135 155 181
134 154 181
134 154 181
134 154 181
134 154 181
134 154 181
134 154 181
133 154 181
133 154 181
134 154 181
133 154 181
134 154 180
134 154 180
133 154 181
134 154 181
134 154 181
134 154 181
133 154 181
133 154 181
135 155 181
134 154 181
133 154 181
134 154 181
134 154 181
135 154 180
133 154 181
134 154 181
134 154 181
134 154 181
133 154 181
133 154 181
134 154 181
135 155 181
133 154 181
133 154 181
133 154 181
133 154 181
133 154 181
133 154 181
133 153 180
134 154 180
135 155 181
134 154 181
135 155 181
134 154 181
134 154 181
134 154 181
134 154 181
133 154 181
134 154 181
133 154 181
134 154 181
134 154 181
134 154 181
134 154 181
135 155 181
133 154 181
133 154 181
133 154 181
133 154 181
133 154 181
133 154 180
134 154 181
133 154 181
135 155 181
134 154 181
133 154 181
134 154 181
133 154 181
134 154 181
133 154 181
134 154 181
133 154 181
134 154 181
133 154 180
134 154 181
133 154 181
133 154 181
134 154 181
134 154 181
133 154 181
134 154 181
134 154 181
134 154 180
134 154 181
134 154 181
133 154 181
133 154 181
134 154 181
134 154 181
134 154 181
135 155 181
134 154 181
134 154 181
134 154 181
134 154 181
135 155 181
132 153 181
134 155 181
134 154 181
134 154 181
134 154 181
133 154 181
133 154 181
134 154 181
134 154 181
133 154 181
133 154 181
134 154 181
133 154 181
134 154 181
133 154 181
134 154 181
134 154 181
134 154 181
134 154 181
135 155 181
133 154 181
134 154 180
134 154 181
133 154 181
133 154 180
134 154 181
133 154 181
133 153 180
134 154 181
133 154 181
133 154 180
134 154 181
134 154 181
134 155 181
134 155 181
134 154 181
134 154 181
134 154 181
135 155 181
133 154 181
134 154 181
133 154 180
133 154 180
134 154 181
133 154 181
134 154 181
134 154 181
134 154 181
133 153 179
134 154 181
133 154 181
134 154 181
134 155 181
134 154 181
133 154 181
134 154 181
134 154 181
134 154 181
134 154 181
133 154 181
134 154 181
134 153 180
133 154 181
133 154 181
133 154 181
134 154 181
134 154 181
134 154 180
133 154 181
134 154 181
134 154 180
134 154 181
133 154 180
133 154 181
133 153 180
134 154 181
133 154 181
133 154 181
133 153 180
133 153 180
133 154 180
133 153 180
134 154 181
134 154 181
133 154 181
133 154 181
135 155 181
134 154 181
134 154 180
134 154 181
134 154 181
133 154 181
134 154 180
133 154 181
135 155 181
134 154 181
133 154 180
134 154 181
133 153 180
133 153 179
134 154 181
133 154 181
133 154 181
133 153 180
134 154 181
133 154 181
135 155 181
134 154 181
135 155 181
134 154 181
134 154 180
134 154 181
133 154 181
134 155 181
134 154 181
133 153 180
134 154 181
135 155 181
133 154 181
134 154 181
134 154 181
134 154 181
133 154 181
133 154 181
133 154 181
133 154 181
133 153 180
134 154 181
134 154 181
134 154 181
134 155 181
133 154 181
134 154 181
133 154 181
134 154 181
134 154 181
134 154 181
133 154 181
135 155 181
133 154 181
135 154 180
134 154 181
133 154 181
133 154 181
133 154 181
133 154 181
134 154 181
133 154 181
133 154 180
133 154 181
134 154 181
134 154 181
134 154 181
132 153 179
133 154 180
134 154 181
133 154 181
133 154 181
132 153 180
134 154 180
134 154 181
133 154 180
134 154 181
133 154 181
134 154 181
134 154 181
133 154 181
133 154 181
134 154 181
134 154 181
134 154 181
134 154 181
134 154 181
133 153 180
134 154 181
133 154 181
134 154 180
134 154 181
133 154 181
134 154 181
134 154 181
134 154 181
133 154 181
134 154 180
134 154 181
133 154 181
134 154 181
134 155 181
133 154 181
134 154 180
134 154 181
134 154 181
133 154 181
134 155 181
134 154 181
134 154 181
133 154 181
133 154 181
134 154 181
135 155 181
134 154 181
134 154 180
134 154 181
134 154 180
134 154 181
133 154 181
134 154 181
133 154 181
134 154 181
134 154 181
133 153 180
135 155 181
133 154 181
133 154 181
134 154 181
134 154 181
133 154 181
134 154 181
133 154 181
134 154 181
135 155 181
134 154 181
133 154 181
133 154 181
133 154 181
134 154 181
134 154 180
133 153 179
133 154 181
134 154 181
133 154 180
134 154 181
133 154 181
134 154 181
134 154 181
134 154 181
133 154 181
134 154 181
134 154 181
134 154 181
134 154 181
134 154 181
134 154 181
135 155 181
134 155 181
136 155 181
134 154 181
134 154 180
134 154 181
133 154 181
134 155 181
134 154 181
134 154 181
134 154 181
134 154 181
133 154 181
134 154 181
134 154 181
133 154 181
133 154 181
134 154 181
134 154 181
135 155 181
134 154 181
133 154 181
133 154 181
133 154 181
134 154 181
133 154 181
133 153 180
134 154 181
135 155 181
135 155 181
134 154 181
133 154 181
134 154 181
134 154 181
133 154 181
134 154 180
134 154 181
134 154 181
134 154 181
134 154 181
133 154 181
134 154 181
133 154 180
133 154 181
133 154 181
133 154 181
134 154 181
133 154 181
134 155 181
134 154 181
134 155 181
134 154 180
133 154 181
134 154 181
134 154 181
134 154 181
134 154 181
134 154 181
133 154 181
133 154 181
133 154 181
134 154 181
134 154 181
133 154 181
134 154 181
133 154 181
134 154 181
133 154 181
134 154 181
134 154 181
134 154 181
133 154 181
134 154 181
134 155 181
134 154 181
134 154 181
134 154 181
133 154 181
134 154 181
134 154 181
134 154 181
134 154 181
133 154 181
134 154 181
133 154 181
133 154 181
133 154 181
135 155 181
134 154 181
133 154 181
134 154 180
134 154 181
133 154 181
133 153 180
133 154 181
134 154 180
134 154 181
134 154 181
134 154 181
134 154 181
134 154 181
133 154 180
133 154 181
134 154 181
134 154 181
133 154 181
134 154 181
134 154 181
134 154 181
134 154 181
133 154 181
135 155 181
133 154 181
133 154 181
134 154 181
134 154 181
133 154 180
134 154 181
134 154 181
134 154 181
134 154 181
134 154 181
134 154 181
134 154 181
133 154 180
134 154 181
133 154 180
134 154 181
134 154 181
133 154 181
133 154 181
133 154 181
134 154 181
133 154 181
135 155 181
134 154 181
134 154 181
134 154 181
135 155 181
133 154 181
134 154 181
134 154 181
135 155 181
133 154 181
134 154 181
134 154 180
134 154 181
133 154 181
133 154 181
132 153 181
134 154 181
134 154 181
133 154 181
134 154 180
134 154 181
133 154 181
133 154 180
133 154 181
133 154 181
133 154 181
135 155 181
133 154 181
135 155 181
133 154 181
135 155 181
134 154 181
133 154 181
133 154 181
134 154 181
134 154 181
134 154 181
134 154 180
134 154 181
135 155 181
133 154 181
133 154 181
134 154 181
132 153 181
134 154 181
133 154 181
133 154 181
133 154 180
134 154 181
133 154 181
134 154 181
134 154 181
133 154 181
133 154 181
133 154 181
134 154 181
134 154 181
134 154 181
133 154 180
133 154 181
134 154 180
133 154 180
134 154 181
134 154 180
134 154 180
134 154 181
133 154 181
134 154 181
134 154 181
134 154 181
134 154 181
134 154 181
134 154 181
134 154 181
132 153 180
133 154 181
133 154 181
134 154 181
134 154 181
133 154 181
135 155 181
134 154 181
135 155 181
134 154 181
134 154 181
133 154 181
133 154 181
135 155 181
133 154 181
133 154 181
134 154 181
134 154 181
134 154 180
133 154 181
134 154 181
133 154 181
134 154 181
133 154 181
133 154 181
133 154 181
134 154 181
134 154 181
134 154 181
134 154 181
133 154 181
134 154 181
133 154 181
133 154 181
134 154 181
133 154 181
134 154 181
134 155 181
134 154 181
134 154 181
134 154 181
134 154 181
132 153 180
134 154 181
134 154 180
134 154 181
133 153 180
132 153 181
133 154 181
133 154 181
133 154 181
134 154 181
133 154 181
134 154 180
134 154 181
133 154 181
133 154 181
134 155 181
134 155 181
133 154 180
133 153 180
133 153 180
133 154 181
133 154 181
134 154 181
134 154 181
134 154 181
133 153 180
134 154 181
134 154 181
133 154 181
134 154 180
133 154 181
133 154 180
133 154 181
134 154 181
133 154 181
134 154 181
135 155 181
133 154 181
133 154 181
134 154 180
134 154 181
134 154 181
134 154 180
134 154 181
133 154 181
135 155 181
134 154 181
133 154 181
133 154 181
133 154 181
133 154 180
133 154 181
133 154 181
134 154 181
134 154 181
134 154 181
134 154 181
135 155 181
134 154 181
133 154 181
134 154 180
134 154 181
133 154 180
134 154 181
134 154 181
135 155 181
133 154 181
134 154 181
135 155 181
134 154 181
134 154 181
134 154 181
133 154 181
133 154 181
134 154 181
134 154 181
134 154 181
134 154 181
133 154 181
133 154 180
134 155 181
134 154 181
134 154 181
133 154 181
134 154 181
134 154 181
134 154 181
134 154 181
134 154 181
134 154 181
135 155 181
134 154 181
133 153 180
134 154 181
134 154 181
133 154 181
133 154 181
133 154 181
134 154 181
133 154 181
134 154 181
135 155 181
134 154 181
134 154 181
134 154 181
134 154 181
135 155 181
133 153 180
134 154 181
134 154 181
134 154 181
134 154 181
134 154 181
134 154 181
134 154 181
134 154 181
133 154 181
134 154 181
135 155 181
134 154 181
133 154 181
134 154 181
133 154 181
133 154 181
134 154 181
134 154 181
133 154 181
133 154 181
133 154 181
134 154 181
134 154 181
133 154 181
134 154 181
133 154 181
133 154 181
133 154 181
134 154 181
134 154 181
134 154 181
134 154 181
134 154 180
134 154 181
133 154 180
134 154 181
135 155 181
133 154 180
134 154 180
134 154 181
134 154 181
134 154 181
134 154 181
133 154 181
133 154 181
133 154 181
133 154 181
134 154 181
133 154 181
134 154 181
134 154 181
134 154 181
134 154 181
133 154 181
132 153 181
134 154 181
134 154 181
133 154 181
133 154 181
134 154 181
134 154 181
134 154 181
134 154 181
134 154 181
134 154 181
133 154 181
134 154 181
134 154 181
133 154 180
134 154 181
134 154 181
134 154 181
134 154 181
134 154 181
133 154 181
134 154 181
134 154 181
133 153 180
134 154 181
134 154 181
134 154 181
134 154 181
134 154 181
134 154 181
134 154 181
135 155 181
134 154 181
133 154 181
133 154 181
134 154 181
134 154 181
134 154 180
134 154 181
133 154 181
135 155 181
134 154 181
134 154 181
133 154 181
133 154 181
134 154 181
133 154 180
134 154 181
133 154 181
134 154 181
134 154 181
134 154 181
134 154 181
133 154 181
134 154 181
133 154 181
134 154 181
133 154 181
134 154 181
134 154 181
134 154 181
134 154 181
133 154 181
134 154 181
134 154 181
134 154 181
134 154 181
134 154 181
134 154 181
133 154 181
134 154 181
134 154 181
134 155 181
134 154 181
135 155 181
133 154 180
134 154 181
134 154 181
135 155 181
134 154 181
134 154 181
134 154 181
134 154 181
134 154 181
135 155 181
133 154 180
133 154 180
132 153 180
134 154 181
134 154 181
134 154 181
134 154 181
134 154 181
133 154 181
134 154 181
134 154 180
134 154 181
134 154 181
134 154 180
134 154 181
133 154 180
135 155 181
134 154 181
135 155 181
133 154 181
135 155 181
133 154 181
133 154 180
134 154 181
134 154 180
134 154 181
133 154 181
134 154 181
133 154 181
134 154 181
134 154 181
134 154 180
133 154 181
134 154 181
133 154 181
134 154 181
133 154 181
134 154 181
133 154 180
134 154 181
134 154 181
134 154 181
134 154 181
133 154 181
134 154 181
134 154 181
134 154 181
134 154 181
134 154 181
134 154 181
134 154 181
134 154 181
133 154 181
134 154 181
134 154 181
133 154 181
134 154 181
134 154 181
134 154 181
134 154 181
133 154 181
134 154 181
133 154 181
134 154 181
134 154 181
134 155 181
133 154 181
134 154 181
134 154 181
134 154 181
134 154 181
134 154 181
135 155 181
134 154 181
134 154 181
134 154 180
134 154 181
134 154 181
134 154 181
133 154 181
133 154 181
134 154 181
134 154 181
133 153 180
134 154 181
134 155 181
134 154 181
134 154 181
134 154 180
134 154 181
134 154 181
134 154 181
133 154 181
134 154 181
134 154 181
134 154 181
134 154 181
134 154 181
133 154 181
134 154 180
134 154 181
134 154 180
133 154 181
134 154 181
133 154 181
135 155 181
133 154 181
134 154 181
134 154 181
133 154 181
133 154 181
134 154 181
133 154 180
133 154 181
134 154 181
134 154 181
133 154 181
133 154 181
133 154 181
134 154 181
134 154 181
134 154 181
134 154 181
133 154 181
134 154 181
134 154 181
135 155 181
133 154 181
134 154 181
133 153 180
134 154 181
133 154 180
134 154 181
133 154 181
134 154 181
134 154 180
133 154 181
134 154 181
134 154 181
134 154 181
134 154 181
134 154 180
134 154 181
135 155 181
135 155 181
134 154 181
133 153 180
134 154 181
134 154 181
132 153 181
133 153 180
134 154 181
134 154 181
133 154 181
134 154 181
133 154 181
134 154 181
133 154 181
133 154 181
134 154 181
134 154 181
133 154 180
134 155 181
134 154 181
133 154 180
134 154 181
133 154 181
133 153 180
134 154 181
134 154 181
133 153 180
134 154 181
133 154 181
133 154 181
134 154 181
133 154 181
134 154 180
133 154 181
133 154 180
134 154 181
133 154 181
133 154 181
133 154 181
133 153 180
133 154 181
134 154 181
133 154 181
133 154 181
134 154 181
134 154 181
134 154 181
133 154 181
134 154 181
133 154 181
134 154 181
134 154 181
133 154 181
134 154 181
132 153 180
134 154 181
134 154 181
134 154 181
134 154 181
134 154 181
132 153 180
133 154 181
134 154 181
133 154 181
134 154 181
134 155 181
134 154 181
134 154 181
134 154 181
134 154 181
133 154 181
134 154 181
133 154 181
134 154 180
134 154 181
133 154 180
134 154 181
134 154 181
134 155 181
133 154 181
134 154 180
134 154 181
134 155 181
133 154 181
133 153 180
133 154 181
133 154 181
133 154 181
135 155 181
134 154 181
134 154 181
134 154 181
134 154 181
134 154 181
133 154 181
133 154 181
134 154 181
134 154 181
133 154 181
134 154 181
132 153 180
134 154 181
133 153 180
134 154 181
134 154 181
134 155 181
133 153 180
134 154 181
133 154 181
133 154 181
134 154 181
134 154 181
134 154 181
135 155 181
133 154 181
135 155 181
134 154 181
133 154 181
134 154 181
133 154 181
133 154 181
134 154 181
134 154 181
134 154 181
133 154 181
133 154 181
133 153 180
133 154 181
134 154 181
134 154 181
133 154 180
133 154 181
135 155 181
134 154 181
134 154 181
133 154 181
133 154 180
134 154 181
134 154 181
134 154 181
134 154 181
135 155 181
134 154 181
134 154 181
132 153 181
133 154 181
134 154 181
134 154 181
134 154 181
134 154 181
134 154 181
133 154 180
134 154 181
133 154 181
134 154 181
134 154 181
134 154 181
134 154 181
134 154 181
134 154 181
133 154 181
133 154 180
133 154 181
134 154 181
135 155 181
133 154 181
134 154 181
134 154 181
134 154 181
134 154 181
133 154 180
134 154 181
134 154 181
133 154 181
134 154 181
134 154 181
134 154 181
134 154 181
134 154 181
133 154 181
133 154 181
134 154 181
134 154 181
134 154 181
133 154 181
133 154 181
134 154 181
134 154 180
134 154 181
133 154 181
134 154 181
134 154 181
134 154 181
133 154 181
134 154 181
133 154 181
134 154 181
134 154 181
134 154 181
134 154 180
134 154 181
134 154 181
135 155 181
134 154 181
134 154 181
135 155 181
135 155 181
134 154 181
133 154 180
134 154 181
134 154 181
134 154 181
133 154 181
134 154 181
134 154 181
134 155 181
133 154 181
134 154 181
133 154 181
133 154 181
133 154 181
134 154 181
133 154 180
133 154 181
134 154 181
134 154 181
135 155 181
133 154 180
134 154 181
134 154 181
133 154 181
134 154 181
134 154 181
134 154 181
134 154 181
134 154 181
134 154 181
134 154 181
133 154 181
134 154 181
134 154 181
134 155 181
134 154 181
134 154 181
133 154 181
133 154 181
133 154 181
134 154 181
133 154 181
133 154 181
134 154 181
134 154 181
134 154 181
133 154 181
134 154 181
133 154 180
133 153 180
134 154 181
134 154 181
134 154 181
133 154 181
133 154 181
134 154 181
134 154 181
133 154 181
133 154 181
133 154 181
134 154 181
133 154 181
134 154 181
134 154 181
134 154 181
134 154 181
133 154 181
134 154 181
134 154 181
133 154 181
133 153 180
134 154 181
134 154 181
134 154 181
133 154 180
133 154 181
134 154 180
133 154 181
134 154 180
133 154 181
134 154 181
133 154 181
134 154 180
133 153 180
134 154 180
135 155 181
133 154 181
134 154 181
133 154 181
134 154 181
134 154 181
133 154 181
134 154 181
133 154 180
134 154 181
134 154 181
134 154 181
134 154 181
134 154 181
134 155 181
133 154 181
134 154 181
134 154 181
134 154 181
134 154 181
134 154 181
134 154 181
134 154 180
134 154 181
134 154 181
133 154 180
134 154 181
133 154 181
135 155 181
134 154 181
133 154 181
133 154 181
134 154 181
134 154 181
133 154 181
134 154 181
134 154 181
134 154 181
134 154 181
133 154 181
134 155 181
134 154 181
133 154 181
134 154 181
133 153 180
134 154 181
134 155 181
133 154 181
133 154 181
134 154 180
133 154 181
133 154 181
134 154 181
133 154 181
134 154 181
133 154 181
134 154 181
133 154 181
134 154 180
133 154 181
135 155 181
134 154 181
133 154 181
134 154 181
133 154 181
133 154 181
134 155 181
134 154 181
133 154 181
134 154 181
134 154 181
133 154 181
133 154 181
133 154 181
134 155 181
133 154 181
135 155 181
134 154 181
134 154 181
134 154 181
134 154 181
133 154 181
134 154 181
133 154 181
134 154 181
135 155 181
133 154 181
134 154 181
135 155 181
134 154 181
133 154 181
134 154 181
134 154 181
134 154 181
134 154 181
134 154 181
133 154 181
133 154 181
134 155 181
133 154 181
133 154 181
134 154 181
133 154 181
134 154 181
133 154 181
133 154 181
133 153 180
135 155 181
133 154 180
134 154 181
134 154 181
134 154 181
133 154 181
134 154 181
134 154 181
134 154 181
134 154 181
133 154 180
134 154 181
134 154 181
134 154 180
134 154 181
133 154 181
133 154 181
133 154 181
134 154 181
134 154 181
133 154 180
133 154 181
133 154 181
134 154 181
134 154 181
134 154 181
135 155 181
134 154 181
134 154 181
134 154 181
134 154 181
133 154 181
133 154 181
133 154 181
133 153 180
134 154 181
133 154 181
133 154 181
133 154 180
134 154 181
134 154 181
135 155 181
134 154 181
134 154 181
135 155 181
134 154 181
134 154 181
133 153 180
133 153 180
133 154 180
134 154 181
133 153 180
133 154 181
135 155 181
133 154 181
133 154 181
134 154 181
134 154 180
134 154 181
134 154 181
133 154 181
134 154 181
134 154 181
134 154 181
133 154 181
134 154 181
134 154 181
134 154 181
133 154 181
133 154 181
133 154 180
133 154 181
134 155 181
133 154 181
134 154 181
132 153 181
134 154 181
134 154 181
133 154 180
134 154 181
135 155 181
134 154 181
134 154 180
133 154 181
134 154 181
134 154 181
134 154 181
133 154 180
133 154 181
133 154 180
133 154 181
133 153 180
133 154 181
133 154 181
134 154 181
133 154 181
134 153 179
134 154 181
134 154 181
134 154 181
133 154 181
134 154 181
135 155 181
134 154 180
134 154 181
134 154 181
133 154 181
134 154 181
135 154 180
133 154 181
134 154 181
134 154 181
134 154 181
133 154 181
133 153 180
134 154 181
134 154 181
134 154 181
134 154 181
133 154 181
134 154 181
134 154 181
133 154 181
134 154 181
134 154 181
134 154 181
134 154 180
135 155 181
134 154 181
134 154 181
133 154 181
133 154 181
134 154 181
134 154 181
135 155 181
134 154 181
134 154 181
134 154 181
134 154 181
134 154 181
134 154 181
133 154 181
134 154 181
134 154 181
133 154 181
133 153 180
133 154 181
135 154 180
134 154 181
134 154 181
135 155 181
134 154 181
134 154 181
133 153 180
133 153 179
133 153 180
134 154 181
133 154 181
133 154 181
134 154 181
135 155 181
134 154 181
134 154 181
133 153 180
133 154 181
134 154 181
134 154 181
134 154 181
134 154 181
134 154 181
134 154 181
133 154 181
134 154 181
133 154 181
133 154 181
134 154 181
134 154 181
134 154 181
134 154 181
133 154 181
134 154 181
133 154 181
133 154 181
133 154 181
134 154 181
134 154 181
134 154 181
134 154 181
133 154 181
134 154 181
133 154 181
134 154 181
133 154 181
133 154 181
133 154 181
134 154 181
134 154 181
134 154 181
134 154 181
134 154 181
133 154 181
134 154 181
134 154 181
134 154 181
134 154 181
134 154 181
134 154 181
135 155 181
135 155 181
134 154 181
134 154 181
133 154 180
134 154 181
134 154 181
134 154 180
134 154 181
134 154 181
134 154 181
134 154 181
134 154 181
133 154 181
134 154 181
134 154 181
134 154 181
133 154 181
133 154 181
134 154 181
135 155 181
134 154 181
133 154 181
134 154 181
133 154 181
134 154 181
133 154 181
133 154 181
135 155 181
133 154 181
134 154 181
134 154 181
133 154 181
134 154 181
133 154 181
134 154 181
134 154 181
134 154 181
134 154 181
134 154 181
133 154 181
134 154 181
133 154 181
134 154 181
133 154 181
134 154 181
133 154 181
134 154 181
134 154 181
134 154 181
133 154 181
134 154 181
134 154 181
134 154 181
134 154 181
134 154 181
134 154 181
134 154 180
134 154 181
134 154 181
133 154 180
132 153 180
134 154 181
135 155 181
135 155 181
133 154 181
134 154 181
134 154 181
134 154 181
133 154 181
134 154 181
134 154 181
133 154 180
134 154 181
133 154 181
134 154 181
133 154 181
133 154 181
134 154 181
133 154 180
135 155 181
132 152 180
134 154 181
134 154 180
133 154 181
133 154 181
133 154 181
133 154 181
134 154 181
133 154 181
134 154 181
134 154 181
134 154 181
133 154 181
134 154 181
134 155 181
133 154 181
134 154 181
133 154 181
134 154 181
134 154 181
134 154 181
134 154 180
132 153 180
133 154 181
134 154 181
134 154 181
133 154 181
133 154 181
134 154 181
134 154 180
134 154 181
135 155 181
133 154 180
134 154 181
134 154 181
134 154 181
134 154 181
133 154 181
134 154 181
133 154 181
133 154 181
134 154 181
134 154 180
133 154 180
133 154 181
134 154 181
133 153 180
133 154 181
134 154 181
134 154 181
133 154 180
133 154 181
134 154 181
134 154 181
134 154 181
134 154 181
134 154 181
133 154 181
133 154 181
133 154 181
134 154 181
134 154 181
134 154 181
133 154 181
134 154 181
134 155 181
133 154 181
133 154 181
134 154 181
134 154 181
134 155 181
134 154 181
134 154 181
134 154 181
133 154 181
133 154 181
134 154 181
134 154 181
134 154 181
134 154 181
134 154 181
134 154 181
134 154 181
134 154 180
133 154 181
134 154 181
134 154 180
134 154 181
133 154 181
133 153 180
133 154 181
135 155 181
134 154 181
134 154 181
135 155 181
134 155 181
134 154 181
132 153 181
134 154 181
134 154 181
133 154 181
132 153 179
135 155 181
133 153 180
133 154 181
133 154 181
133 154 181
135 155 181
133 154 180
133 154 181
133 154 181
134 154 181
134 154 181
134 154 181
134 154 181
134 154 181
133 154 181
134 154 181
134 154 181
134 154 181
134 154 181
133 154 181
133 154 181
134 154 181
133 153 180
134 154 181
134 154 181
134 154 181
133 154 181
134 154 181
133 154 181
134 154 181
134 154 181
134 154 181
134 154 181
134 154 181
133 154 181
134 154 181
133 153 180
134 154 181
134 154 181
135 155 181
133 154 181
134 154 181
135 155 181
134 154 180
133 154 181
133 154 181
134 154 181
135 155 180
133 154 181
134 154 181
134 154 181
133 154 181
133 154 180
133 153 180
134 154 181
134 154 181
134 154 181
134 154 181
133 154 181
133 154 181
133 153 180
134 154 181
134 154 181
134 154 180
133 154 181
133 154 181
133 154 181
134 154 180
134 154 181
133 154 181
134 154 181
134 154 181
133 154 181
134 154 181
134 154 181
134 155 181
133 154 181
134 154 181
134 154 181
134 154 181
133 154 181
134 154 181
133 154 181
134 154 180
134 154 181
134 154 181
134 154 181
134 154 181
135 155 181
135 154 180
134 154 181
134 154 180
135 155 181
134 154 181
134 154 181
134 154 181
133 154 181
133 153 180
134 154 181
134 154 181
134 154 181
135 155 181
133 154 181
134 154 180
134 154 181
133 154 180
134 154 181
133 154 181
134 154 181
134 154 181
133 154 181
134 154 181
133 154 181
134 154 181
133 154 181
134 154 181
134 154 181
134 154 181
134 154 180
133 154 181
134 154 181
134 154 181
134 154 181
134 154 181
134 154 181
134 154 181
134 154 181
133 154 181
133 154 181
134 154 181
134 154 181
134 154 181
133 154 181
134 154 181
134 155 181
133 154 181
134 154 181
134 154 181
134 154 181
133 154 181
134 154 181
134 154 180
133 154 181
133 154 181
134 154 181
134 154 181
133 154 181
135 155 181
134 154 181
133 153 180
134 154 181
134 154 181
134 154 181
132 153 180
134 154 181
134 154 181
134 154 181
134 154 181
134 154 181
133 154 181
134 155 181
134 154 181
133 154 180
134 154 180
134 154 181
134 154 181
133 154 181
134 154 181
133 154 180
134 154 181
133 154 181
134 154 181
133 154 181
133 154 181
133 154 180
133 154 181
134 154 181
134 154 181
134 154 181
132 153 181
133 154 181
133 154 181
134 154 181
134 154 181
133 154 181
134 154 181
133 154 181
134 154 181
133 154 181
134 154 181
135 155 181
133 154 181
134 154 181
134 154 181
134 154 181
134 154 181
134 154 181
133 154 181
135 154 180
134 154 181
133 154 181
134 154 181
134 154 181
133 154 181
134 154 181
133 154 181
134 154 181
134 154 181
133 154 181
134 154 181
133 154 181
133 154 181
133 154 181
134 154 181
133 154 181
134 154 181
134 154 181
134 154 181
134 154 181
133 154 181
133 154 181
133 154 180
135 155 181
135 155 181
135 155 181
134 154 181
134 154 181
134 154 181
133 154 181
134 154 181
134 154 181
134 154 181
134 154 181
134 154 181
133 154 180
135 155 181
134 154 181
134 154 181
134 154 181
134 154 181
134 154 181
134 154 181
134 154 181
133 154 181
133 154 180
134 154 181
134 154 181
134 154 181
133 154 181
134 154 181
133 154 180
134 154 181
133 154 181
134 154 181
133 154 181
134 154 181
133 154 181
134 155 181
134 154 181
134 154 181
133 154 181
133 154 181
133 154 181
134 154 181
134 154 181
134 155 181
133 154 181
134 154 181
134 154 181
134 154 181
134 154 181
133 154 181
133 153 180
134 154 181
134 154 181
133 154 181
134 154 181
133 154 181
134 154 181
133 153 180
133 154 181
134 154 180
133 154 181
134 154 180
134 154 181
133 153 180
133 154 181
133 154 181
133 154 181
135 155 181
133 153 180
134 154 181
134 154 181
133 154 181
135 155 181
133 154 181
135 155 181
134 154 181
134 154 181
134 154 181
133 154 181
133 154 181
134 154 181
133 154 181
132 154 181
134 154 181
133 154 181
134 154 181
133 154 181
133 154 180
133 154 181
134 154 181
134 154 181
133 154 181
134 154 181
135 155 181
134 154 181
134 154 181
133 154 181
133 154 181
134 154 181
134 154 181
133 154 181
133 154 181
134 154 181
134 154 181
134 154 181
134 154 181
134 154 181
133 154 181
133 154 180
133 153 179
133 154 180
134 154 181
134 155 181
133 154 181
134 154 181
133 153 180
133 154 181
133 154 181
134 154 181
133 154 181
133 154 181
134 154 181
134 154 181
133 154 180
133 154 181
133 154 181
132 153 180
134 154 181
134 154 181
134 154 181
134 154 181
135 155 181
134 154 181
134 154 181
134 154 181
134 154 181
135 155 181
134 154 181
134 154 181
133 154 181
133 154 181
134 154 181
134 154 181
134 154 181
134 154 181
133 154 181
135 155 181
133 154 181
133 154 181
133 154 181
132 153 181
134 154 181
134 154 181
133 154 181
133 154 181
134 154 181
134 154 181
134 154 181
134 154 181
134 154 181
133 154 180
133 154 181
133 154 181
133 154 180
134 154 181
134 154 181
135 155 181
134 154 181
133 154 181
134 154 181
133 154 181
133 154 181
133 154 180
134 154 181
134 154 181
134 154 181
135 155 181
134 154 181
133 154 181
133 154 181
134 154 181
133 154 181
134 154 181
133 154 181
133 154 181
134 154 181
134 154 181
134 154 181
134 154 180
134 154 181
133 154 181
133 154 181
133 154 180
134 154 181
134 154 180
133 154 180
134 154 181
133 154 180
135 155 181
133 154 181
134 154 181
134 155 181
133 154 180
133 154 181
134 154 180
133 153 180
134 154 181
132 153 179
134 154 181
134 154 181
135 155 181
134 154 181
134 154 181
134 154 181
135 155 181
134 154 181
134 154 181
134 154 181
134 154 180
134 154 181
134 155 181
134 155 181
134 154 181
134 154 181
134 154 181
134 154 180
134 154 181
134 154 181
134 154 181
134 154 181
134 154 181
133 153 180
134 154 181
133 154 181
134 154 181
134 154 181
134 155 181
134 154 181
135 155 181
134 154 181
134 154 180
133 154 180
134 154 181
134 154 181
134 154 181
134 154 181
133 154 181
134 154 181
133 154 180
133 154 181
134 154 181
133 154 181
133 154 181
133 154 180
134 155 181
134 154 181
134 154 181
133 153 180
134 154 181
133 154 181
132 153 181
133 154 181
134 154 181
134 154 181
133 154 181
134 154 181
134 154 181
134 154 181
133 154 181
133 154 181
134 154 181
134 154 181
133 154 181
134 154 181
133 154 181
133 154 180
133 153 180
134 154 181
133 154 181
133 154 181
133 154 181
133 154 180
134 154 180
134 154 181
133 154 180
133 154 180
134 154 181
134 155 181
133 154 180
133 154 181
133 154 180
135 155 181
134 154 181
134 154 181
134 154 180
134 154 181
133 153 180
136 155 181
134 154 180
133 154 181
134 154 181
134 155 181
133 154 181
134 154 181
133 154 181
134 154 181
134 154 181
135 155 181
134 154 181
133 154 181
134 154 181
133 154 181
134 154 181
133 154 181
134 154 181
134 154 181
134 154 181
133 154 181
133 154 181
134 154 181
133 154 181
134 154 181
133 154 181
132 154 181
134 155 181
132 153 180
134 154 181
134 154 180
134 154 181
135 155 181
133 154 180
134 154 181
133 154 181
134 154 181
133 154 181
134 154 181
134 154 181
133 154 181
134 154 181
134 154 181
132 153 181
135 155 181
134 154 181
133 153 180
133 154 181
134 154 181
133 154 181
134 154 181
134 154 181
133 154 181
134 154 180
134 154 181
134 154 181
133 154 181
133 154 181
134 154 181
134 154 181
133 154 181
134 155 181
134 154 181
134 154 181
134 154 181
133 154 180
134 154 181
134 154 181
134 154 181
134 154 181
134 154 181
134 154 181
134 154 181
133 154 181
133 154 181
133 154 181
133 154 181
134 154 180
133 154 181
134 154 181
134 154 181
134 154 181
134 154 181
135 155 181
134 154 181
135 155 181
133 154 181
134 154 181
134 154 181
134 154 181
134 154 181
133 154 181
133 154 181
133 154 181
134 154 181
134 154 181
133 154 181
133 154 181
134 154 181
134 154 181
134 154 181
133 154 181
135 155 181
134 154 181
133 154 181
133 154 181
134 154 181
133 154 181
134 154 181
134 154 181
134 154 181
133 154 181
134 154 181
133 153 180
134 154 181
134 154 181
135 155 181
133 154 181
134 154 181
134 154 180
134 154 181
134 154 181
134 154 181
133 154 181
134 154 181
134 154 181
133 154 181
134 154 181
134 154 181
134 154 181
133 154 181
133 154 181
133 154 181
134 154 181
133 154 181
134 154 181
134 154 181
135 155 181
133 154 181
134 154 180
134 154 181
133 154 181
133 154 181
134 154 181
134 154 181
134 154 181
133 154 181
134 154 181
134 154 181
134 154 181
133 154 181
134 154 181
134 154 180
133 154 181
134 154 181
134 154 181
134 154 181
134 154 181
133 154 181
133 154 181
133 154 181
134 154 181
134 154 181
134 154 181
133 154 181
133 154 181
134 154 181
134 154 181
134 154 181
134 154 180
134 155 181
134 154 181
133 154 181
133 154 180
134 154 181
133 154 181
134 154 181
134 154 181
134 154 181
134 154 181
134 154 181
134 154 181
134 154 180
133 154 181
133 154 181
134 154 181
135 155 181
134 154 181
134 154 181
133 154 181
133 154 181
133 154 181
134 154 181
134 154 181
133 154 181
134 155 181
134 154 181
133 154 181
133 153 180
133 154 181
133 154 181
134 154 181
135 155 181
134 154 181
134 154 181
134 154 181
133 153 180
134 154 181
134 154 181
134 154 181
133 154 181
134 154 180
133 154 181
133 154 181
133 154 181
134 154 181
134 154 181
133 153 180
133 154 181
134 155 181
133 154 180
134 154 181
134 154 181
134 154 181
134 154 181
134 154 181
134 154 181
133 154 181
134 154 181
134 154 181
134 154 181
134 154 181
135 155 181
133 154 181
134 154 181
133 154 181
134 154 181
133 154 181
133 154 181
134 154 181
134 154 181
135 155 181
134 154 181
133 154 181
133 154 181
134 154 181
134 154 181
134 154 180
134 154 181
135 155 181
133 154 181
133 154 181
133 154 181
134 154 181
133 154 181
134 154 181
134 154 181
134 154 181
134 154 181
133 154 181
134 154 181
134 154 181
134 154 181
134 154 181
134 155 181
134 154 181
134 154 180
134 154 180
133 154 181
133 154 181
134 154 181
133 154 181
134 154 181
134 154 181
134 154 181
134 154 181
133 154 181
134 154 181
134 154 181
134 154 181
134 154 180
134 154 181
133 154 181
134 154 181
134 154 181
134 154 181
132 153 180
134 154 181
134 154 181
133 154 181
134 154 181
133 153 180
134 154 180
134 155 181
134 154 181
134 155 181
134 154 181
134 154 181
133 154 181
134 154 181
134 154 181
134 154 181
134 154 181
133 154 181
133 154 181
134 154 181
134 154 181
134 154 181
134 154 181
134 154 180
133 154 181
133 154 181
133 154 181
134 154 180
135 155 181
133 154 181
133 154 181
134 154 181
133 154 181
134 154 181
134 154 181
133 154 181
133 154 181
132 153 180
133 154 181
134 154 181
134 154 181
133 154 181
134 154 181
133 154 181
133 154 181
134 154 181
134 154 181
134 154 181
133 154 181
134 154 181
133 154 181
133 154 180
134 154 181
134 154 181
135 155 181
133 154 181
134 154 181
134 154 180
133 153 179
134 154 181
134 154 181
135 155 181
133 154 181
134 154 181
133 154 181
133 154 181
133 154 181
134 154 181
134 154 181
133 154 180
134 154 181
133 154 181
133 154 180
134 154 180
134 154 181
133 154 181
134 154 181
134 154 181
134 154 180
133 154 181
135 155 181
134 154 181
133 154 181
133 154 181
134 154 181
134 154 181
133 154 181
133 154 181
135 155 181
134 154 181
134 154 181
132 153 180
134 154 181
133 153 180
134 154 181
133 154 181
133 154 181
134 154 181
134 154 181
133 154 181
134 154 181
134 154 181
133 154 181
133 154 181
134 154 181
133 154 181
133 154 180
134 154 181
133 154 180
133 154 181
135 155 181
133 154 181
134 155 181
134 154 181
133 154 180
133 154 181
134 154 181
134 154 181
134 154 181
133 153 180
134 154 181
133 154 181
134 154 181
134 154 181
133 154 181
134 154 181
134 154 181
134 154 181
133 154 180
133 154 181
133 154 180
134 154 181
133 154 181
133 154 180
133 154 181
134 154 181
134 154 181
133 154 180
134 154 181
133 154 180
134 154 181
133 154 181
133 154 181
133 153 180
134 154 181
134 154 181
134 154 181
133 154 181
134 154 180
134 154 181
133 154 181
133 154 181
133 154 181
134 154 181
134 155 181
134 154 181
133 154 181
133 154 181
134 154 181
134 154 181
133 154 181
133 153 180
134 154 181
134 154 181
134 154 181
134 154 181
133 154 181
133 154 181
134 154 181
135 155 181
134 154 181
134 154 181
133 153 180
135 155 181
134 154 181
134 154 181
134 154 181
133 154 181
134 154 181
134 154 181
134 154 181
135 155 181
134 154 181
134 154 181
134 154 181
134 154 181
134 154 181
133 154 180
133 154 181
135 155 181
134 154 181
134 154 181
134 154 181
134 154 181
134 154 181
134 154 181
134 154 181
134 154 181
134 154 180
133 153 180
133 154 181
135 155 181
134 154 181
134 155 181
133 154 181
134 154 181
134 154 181
132 153 181
133 154 181
134 154 181
134 154 181
133 154 181
135 155 180
134 154 181
133 154 181
133 154 181
134 154 181
135 155 181
133 154 181
134 154 181
134 154 181
134 154 181
133 154 181
133 154 181
133 154 181
134 154 181
135 155 181
134 154 181
134 154 181
133 154 181
134 154 181
133 154 181
133 153 180
134 154 181
133 153 180
134 154 181
134 154 181
134 154 180
134 154 181
134 154 181
132 153 181
133 154 181
134 154 181
133 154 181
133 153 180
135 155 181
133 154 181
133 154 181
134 154 181
133 154 181
134 154 181
134 154 181
134 155 181
134 155 181
134 154 181
134 154 181
134 154 181
134 154 181
134 154 181
134 154 181
133 154 181
134 154 181
134 154 181
134 154 181
133 154 181
134 154 181
134 154 181
133 154 181
133 154 180
134 154 181
134 154 181
133 154 181
132 152 179
134 154 181
134 154 180
135 155 181
133 154 181
135 155 181
133 154 181
133 154 181
133 154 181
133 154 181
135 155 181
134 154 181
134 154 181
133 154 181
134 154 181
134 154 181
134 154 181
133 154 181
135 155 181
133 154 181
134 154 181
133 154 181
132 153 180
134 154 181
134 154 181
134 154 181
133 154 181
134 154 181
134 154 181
133 154 181
134 154 181
133 154 181
134 154 181
134 154 181
134 154 181
134 154 180
134 155 181
135 155 181
134 154 181
134 155 181
134 154 181
134 154 181
134 154 181
135 155 181
133 154 181
133 154 181
135 155 181
134 154 181
134 154 181
133 154 180
133 154 181
134 154 181
134 154 181
134 154 181
135 155 181
134 154 181
134 154 181
136 155 181
133 154 181
134 154 181
133 154 181
133 154 181
134 154 181
134 154 180
134 154 181
133 154 180
133 154 181
134 154 181
134 154 181
134 154 181
133 154 181
135 155 181
134 154 181
134 154 181
133 154 181
134 154 181
134 154 181
135 155 181
134 154 181
134 154 180
134 154 181
133 154 181
133 154 181
133 154 181
134 154 181
135 155 181
134 154 181
133 154 181
133 154 180
134 154 181
134 154 181
133 154 181
134 154 181
134 154 181
133 154 181
134 154 181
134 154 181
134 154 181
132 153 181
133 154 180
133 154 181
133 154 181
134 154 181
134 154 181
135 155 181
134 154 180
133 154 181
133 154 181
134 154 181
134 154 181
132 153 180
133 154 181
135 155 181
133 154 181
133 154 181
133 154 180
133 154 181
134 154 181
134 154 181
133 154 181
133 154 181
134 154 181
132 153 181
133 154 181
133 153 180
134 154 181
133 154 181
134 154 180
134 154 181
134 155 181
134 154 181
133 154 181
134 154 181
135 155 181
134 154 181
133 154 181
134 154 181
133 154 180
133 154 180
133 154 181
134 154 181
133 154 181
134 154 180
134 154 181
134 154 181
134 154 181
134 154 181
134 154 181
134 154 181
133 154 180
134 154 181
133 154 181
134 154 181
134 154 181
134 154 181
133 154 181
133 154 181
135 155 181
133 154 181
134 154 181
133 154 181
134 154 181
134 154 181
134 154 181
134 154 181
134 154 181
134 154 181
134 154 180
134 154 180
133 154 181
134 154 181
135 155 181
133 154 181
133 154 181
133 153 180
133 154 181
134 154 180
133 154 181
134 154 181
133 154 180
133 154 181
134 154 180
134 154 181
134 154 181
135 155 181
133 154 181
134 154 181
134 154 181
133 154 180
134 154 181
133 154 181
133 154 181
133 154 181
134 155 181
133 154 181
134 154 181
134 154 181
134 154 181
135 155 181
134 154 181
134 154 181
133 154 181
134 154 180
134 155 181
134 154 181
134 154 180
133 154 181
133 154 180
134 154 181
134 154 181
134 154 181
134 154 181
134 154 181
133 154 180
134 154 181
133 154 181
134 154 181
133 154 181
133 154 181
133 154 181
134 154 181
133 154 181
133 153 179
134 154 181
134 154 181
135 155 181
134 154 181
133 154 181
133 154 181
133 154 181
135 155 181
134 154 181
134 154 181
134 154 181
134 154 181
134 154 181
134 154 181
133 154 181
134 154 181
135 155 181
134 154 181
135 155 181
133 154 181
134 154 181
134 154 181
134 154 181
133 153 180
134 154 181
133 154 180
134 154 181
133 154 181
134 154 181
134 154 181
134 154 181
133 154 180
134 154 181
133 154 181
133 154 181
134 154 181
133 154 181
134 154 181
133 154 181
134 154 180
135 155 181
133 154 181
133 154 181
134 154 181
134 154 181
134 154 181
134 155 181
134 154 181
134 154 181
134 154 181
133 154 181
134 154 181
133 154 181
133 154 181
134 154 181
134 154 181
134 154 181
134 154 181
134 154 181
133 154 181
134 154 181
134 154 181
134 154 180
134 154 181
134 154 181
133 154 181
134 154 181
134 155 181
134 154 181
134 154 181
133 154 181
134 154 180
134 154 181
133 154 180
134 154 180
133 153 180
134 154 181
133 154 180
134 154 180
133 154 180
134 154 181
134 154 180
133 154 181
134 154 181
134 154 181
135 155 181
134 154 181
134 154 181
133 154 181
134 154 181
134 154 181
133 154 181
134 154 181
134 154 181
133 154 181
134 154 181
134 154 181
133 154 181
134 154 181
133 154 181
134 154 181
134 154 181
133 154 181
134 154 180
133 154 181
134 154 181
135 155 181
133 154 181
134 154 181
133 154 181
133 154 181
133 154 181
134 154 181
133 154 181
133 154 180
133 154 181
133 154 181
133 154 181
135 155 181
134 154 181
134 154 180
133 154 180
134 154 181
134 154 181
135 155 181
133 154 181
133 154 181
134 154 181
133 154 181
133 154 181
133 154 181
134 154 181
133 154 181
132 153 181
134 154 181
133 154 181
134 154 181
134 154 181
134 154 180
134 154 181
134 154 181
134 154 181
133 153 180
133 154 181
135 155 181
134 154 181
134 154 181
134 154 181
134 154 181
134 154 181
134 154 181
133 154 180
134 154 181
135 155 181
133 154 181
134 154 181
133 154 181
135 155 181
135 155 181
134 154 181
134 154 181
134 154 181
133 154 180
134 154 181
133 154 181
134 154 181
133 154 181
134 154 181
134 154 181
135 155 181
133 153 180
134 154 181
133 154 181
135 155 181
134 154 181
133 154 181
134 154 181
134 154 181
133 154 180
133 154 181
134 154 181
134 154 181
134 154 181
134 154 181
133 154 181
133 154 181
134 154 181
134 154 181
134 155 181
133 153 180
134 154 181
134 154 181
134 154 181
134 154 181
134 154 181
134 154 181
135 155 181
133 154 181
134 154 181
132 153 181
134 154 181
133 153 180
134 154 181
133 154 180
133 154 181
134 154 181
133 154 180
134 154 181
134 154 181
134 154 181
134 154 181
134 154 181
135 155 181
134 154 181
133 154 180
134 154 181
134 154 181
133 154 181
134 154 181
134 154 181
134 154 181
134 154 181
134 154 181
133 154 181
133 154 181
133 154 181
133 154 181
134 154 181
133 154 181
133 154 181
133 154 181
133 154 181
134 154 180
133 154 181
134 154 181
133 153 180
134 155 181
134 154 181
134 154 181
134 154 181
133 154 181
133 154 181
133 154 180
134 154 180
134 154 181
133 154 181
133 154 181
133 154 181
134 154 181
134 154 181
134 154 181
133 154 181
134 154 181
134 154 181
132 153 180
134 154 181
133 154 181
133 154 181
134 154 181
134 154 181
134 154 181
134 154 181
134 154 181
133 154 181
133 154 180
133 154 181
135 155 181
134 154 181
133 153 180
133 154 181
134 154 181
134 154 181
133 154 181
133 154 181
133 154 181
134 154 181
134 154 181
133 154 181
134 154 181
134 154 181
134 155 181
133 154 180
133 154 181
135 155 181
135 155 181
134 154 181
133 154 181
134 154 181
135 155 181
133 154 180
134 154 181
134 154 181
134 154 181
134 154 181
134 155 181
133 154 181
134 154 181
134 154 181
133 154 181
134 154 181
134 154 181
133 154 181
134 154 181
133 154 180
134 154 181
133 154 181
133 154 181
134 155 181
135 155 181
134 154 181
133 154 181
134 154 181
133 154 181
133 154 180
134 154 181
134 154 181
134 154 181
134 154 180
134 154 181
134 154 181
134 154 181
133 154 181
134 154 181
133 154 181
134 154 181
133 153 180
134 154 181
134 154 181
134 154 180
134 154 181
134 154 181
133 154 181
134 154 181
134 154 181
134 154 181
134 154 181
133 154 181
133 154 181
133 154 181
133 154 181
133 154 181
133 154 181
134 154 180
133 154 180
134 155 181
134 154 181
134 154 181
134 154 181
134 154 180
134 154 181
134 154 181
133 154 180
134 154 181
134 154 181
134 154 181
135 155 181
134 154 181
134 154 181
134 154 181
134 154 181
133 154 181
133 154 181
134 154 181
134 154 180
133 154 181
134 154 181
134 154 181
134 154 181
134 154 181
133 154 181
134 154 180
133 154 181
134 154 181
134 154 181
134 154 181
134 154 181
134 154 181
134 154 181
134 154 181
133 154 181
135 155 181
133 154 180
134 154 181
134 154 181
134 154 181
134 154 181
133 154 181
134 154 181
134 154 181
134 154 181
134 155 181
134 154 181
134 155 181
134 154 181
134 154 181
134 154 180
133 154 181
134 154 181
134 154 181
133 154 181
134 154 181
134 154 181
133 154 181
133 154 180
133 154 181
134 154 181
134 154 181
133 154 181
134 154 181
133 154 181
134 154 181
134 154 181
134 154 181
135 155 181
134 154 181
133 154 181
133 154 180
133 154 181
133 154 180
133 154 180
134 154 181
135 155 181
134 154 181
133 154 181
133 154 181
133 154 181
133 154 181
133 154 181
133 154 181
133 154 180
133 154 181
133 154 181
133 153 180
133 154 181
133 154 180
134 154 181
135 155 181
133 154 181
134 154 181
133 154 181
134 154 181
133 154 181
133 154 180
133 154 180
134 154 181
133 154 181
135 155 181
134 154 181
134 154 181
134 154 180
134 154 181
134 154 181
133 154 180
133 154 181
134 154 181
134 154 180
134 154 181
133 154 181
133 154 181
134 154 181
134 154 181
134 154 181
133 154 181
134 154 181
133 154 180
133 154 181
133 154 181
133 154 180
134 154 181
133 154 181
133 154 181
133 154 180
133 154 181
133 154 181
134 154 181
134 154 181
134 154 181
135 155 181
135 155 181
134 155 181
134 154 181
134 154 181
134 154 181
134 154 181
134 154 181
133 154 181
133 154 181
134 154 181
135 155 181
134 154 181
133 154 181
134 154 181
134 154 181
134 154 181
133 154 181
134 154 181
134 154 181
134 154 181
133 154 181
134 154 181
133 154 181
135 155 181
134 154 181
134 154 181
134 154 181
134 154 181
134 154 180
133 154 181
133 154 181
133 154 181
134 154 181
134 154 181
133 154 181
134 154 181
133 154 181
135 155 181
133 154 181
133 154 181
133 154 181
134 154 181
134 154 181
134 154 181
134 154 181
134 154 181
133 154 181
133 154 181
133 154 181
134 154 181
134 154 181
134 154 181
133 154 181
133 154 181
134 154 181
134 154 181
134 154 181
134 154 181
134 154 181
134 154 181
132 153 181
134 154 181
133 154 181
134 154 181
133 154 181
134 154 181
133 154 181
134 154 181
134 154 181
135 155 181
133 154 181
134 154 181
134 154 181
133 154 180
133 154 181
134 154 181
135 155 181
134 154 181
134 155 181
132 153 180
133 154 181
134 155 181
133 154 181
134 154 181
133 154 181
133 154 181
133 154 181
133 153 180
134 154 181
134 154 181
134 154 181
133 154 181
134 154 181
133 154 180
134 154 181
133 154 181
133 154 181
134 154 181
133 154 181
133 154 180
133 154 181
134 154 181
134 154 181
134 155 181
133 154 181
133 154 181
134 154 181
133 154 180
133 154 181
135 155 181
135 155 181
133 154 181
133 154 180
135 155 181
133 154 181
134 154 181
135 155 181
134 154 181
133 154 181
133 154 181
134 154 181
134 154 181
134 154 181
134 154 181
133 154 181
134 154 180
133 154 181
133 154 181
133 154 181
134 154 181
133 154 181
134 154 181
134 154 181
134 154 181
134 154 181
134 154 181
134 154 181
133 154 181
134 154 181
134 154 181
135 155 181
133 153 180
134 154 181
133 154 181
133 154 181
134 154 181
133 154 181
134 154 181
134 154 181
134 154 181
133 154 181
134 154 181
134 154 181
134 154 181
134 155 181
133 154 181
134 154 181
134 154 181
134 154 181
133 154 181
133 154 181
134 154 180
134 154 181
134 154 181
133 153 180
133 154 181
134 154 181
133 154 181
134 154 181
134 154 181
134 154 181
133 154 181
134 154 180
135 155 181
134 154 181
133 154 181
134 154 181
134 155 181
133 154 180
134 154 181
134 154 180
133 154 181
134 154 181
134 154 181
132 153 181
134 154 181
134 154 181
134 154 180
134 154 181
133 154 180
133 154 181
134 154 181
133 154 181
133 153 180
134 154 181
134 154 181
133 154 181
134 154 181
134 154 181
134 154 181
134 154 181
133 153 180
134 154 181
133 154 181
134 154 181
134 154 181
134 154 181
133 154 180
132 153 180
133 153 180
134 154 181
133 154 181
134 154 181
135 155 181
134 154 181
134 154 181
134 154 181
134 154 181
134 154 181
134 154 181
134 154 181
133 154 181
134 154 181
134 154 181
134 154 180
133 154 181
134 154 181
133 154 181
133 154 181
134 154 181
133 154 181
134 154 181
133 154 181
134 154 181
133 154 181
134 154 181
134 154 181
133 154 181
134 154 181
134 154 181
134 154 181
134 154 181
134 154 181
133 154 181
133 154 181
134 154 181
134 154 181
134 154 181
133 154 181
134 154 181
134 154 181
134 154 181
134 154 181
134 154 181
134 154 181
134 154 181
133 154 181
134 154 181
134 154 181
134 154 181
133 154 180
134 154 181
134 154 181
134 154 181
133 154 181
134 155 181
133 154 181
134 154 180
134 154 181
134 154 181
134 154 181
133 154 181
134 154 181
134 155 181
135 155 181
134 154 181
133 154 181
134 154 181
134 154 181
134 154 181
134 154 181
134 154 181
133 154 181
134 154 180
133 154 181
134 154 181
134 154 181
133 154 181
133 154 181
135 155 181
134 154 181
133 154 181
133 154 181
133 154 181
134 154 181
133 153 180
135 154 180
134 154 181
134 154 181
135 155 181
133 153 180
133 154 181
133 154 181
134 154 181
134 154 181
133 154 181
135 155 181
133 154 181
134 154 181
133 154 181
134 154 181
133 154 181
135 155 181
134 154 181
134 155 181
134 154 181
134 154 180
134 154 181
133 154 181
133 154 181
135 155 181
134 154 181
134 154 181
134 155 181
133 154 181
133 154 181
134 154 181
133 154 181
133 154 181
133 154 181
134 154 181
133 154 181
133 154 181
133 154 181
134 154 181
134 154 181
133 154 181
133 154 181
134 155 181
134 154 181
134 154 181
134 154 181
133 154 181
133 154 181
133 154 181
134 154 181
134 154 180
133 154 181
133 154 181
134 154 181
134 154 181
135 155 181
133 154 181
133 154 180
133 154 180
133 154 181
134 154 181
134 154 181
133 154 181
134 154 181
134 154 181
134 154 181
133 154 181
134 154 181
133 154 181
135 155 181
134 154 181
133 154 181
134 154 181
134 154 181
133 154 180
133 154 181
135 155 181
134 154 181
135 155 181
134 154 181
134 154 181
134 154 181
133 154 181
134 154 181
134 154 181
135 155 181
133 154 181
134 154 181
133 154 180
134 154 181
134 154 181
134 154 181
134 155 181
134 154 181
134 154 181
134 154 181
134 154 181
135 155 181
134 154 181
133 154 181
134 154 180
134 154 180
133 154 181
134 154 181
134 154 181
134 154 181
134 154 181
134 155 181
133 154 181
133 154 180
134 154 181
134 154 181
133 154 181
134 154 181
134 154 181
133 154 181
134 154 181
134 154 181
134 154 181
134 154 181
134 154 181
134 154 181
134 154 181
134 154 181
133 154 181
133 154 181
134 154 181
134 154 181
134 154 181
133 154 181
134 154 181
134 154 181
134 154 181
135 155 181
134 154 181
134 154 181
134 154 180
134 154 181
133 154 181
134 154 181
134 154 181
134 154 181
134 154 181
135 155 181
134 154 181
133 154 181
133 154 181
133 154 181
134 154 181
133 154 181
133 154 181
134 154 181
133 154 181
134 154 181
133 153 180
134 154 181
133 154 181
133 154 181
134 154 181
134 154 181
134 154 181
133 154 181
134 154 181
133 154 181
133 154 181
134 154 181
134 154 181
133 154 181
133 154 181
134 154 181
133 154 181
134 154 181
134 154 181
135 155 181
134 154 181
134 154 181
134 154 180
134 154 181
134 154 181
134 154 181
133 154 181
132 153 181
134 154 181
134 154 180
134 154 181
133 154 181
134 154 181
134 154 181
134 155 181
133 154 180
133 154 180
134 154 181
134 154 181
134 154 181
134 154 180
135 155 181
134 154 181
134 154 181
133 154 181
133 154 181
134 154 181
134 154 181
134 154 181
134 154 181
135 155 181
135 155 181
134 154 181
133 154 181
133 154 181
134 154 181
134 154 181
132 153 181
135 155 181
134 154 181
134 154 181
133 154 181
133 154 181
134 154 181
134 154 181
133 154 181
133 154 181
134 154 181
134 154 181
134 154 181
133 154 181
134 154 181
134 154 181
135 155 181
134 154 181
133 154 181
133 154 181
134 154 181
133 154 181
133 154 181
133 154 181
134 154 181
133 154 181
134 155 181
133 154 181
133 154 181
134 154 181
134 154 181
134 154 181
133 154 181
134 154 181
134 154 181
134 155 181
135 155 181
133 154 180
134 154 181
134 154 181
133 154 181
133 154 181
133 154 181
134 154 181
133 154 181
134 154 181
135 155 181
134 154 180
134 154 181
133 154 181
134 154 181
134 154 181
133 154 181
134 154 181
134 154 181
133 154 181
133 154 181
133 154 180
133 154 181
134 154 181
134 154 181
134 154 181
134 154 181
133 154 181
133 154 181
134 154 181
134 154 181
134 154 181
134 154 181
135 155 181
133 154 181
134 154 181
133 154 181
134 154 181
134 154 181
133 154 181
134 154 180
134 154 181
134 154 181
134 154 181
134 154 181
133 154 181
134 154 181
134 154 181
133 154 181
134 154 180
133 154 181
134 154 181
134 154 181
133 154 181
133 154 181
134 154 181
134 154 181
133 153 180
134 154 181
133 154 181
133 154 181
133 154 180
134 154 181
134 154 181
135 155 181
134 154 181
135 155 181
133 154 181
134 154 181
134 154 181
134 154 181
134 154 181
133 154 181
135 155 181
134 154 181
134 154 181
134 154 181
134 154 181
134 154 181
135 155 181
134 154 181
133 154 181
134 154 181
134 154 181
134 154 181
133 153 180
134 154 181
134 154 181
133 154 181
134 154 181
134 154 181
134 154 181
134 154 181
133 154 181
133 153 180
134 154 181
133 154 181
134 154 181
133 154 181
132 154 181
134 154 181
134 154 181
134 154 181
133 154 181
135 155 181
134 154 181
134 154 181
134 154 181
135 155 181
134 154 181
135 155 181
134 154 181
133 154 180
135 155 181
133 154 181
134 154 181
135 155 181
133 153 180
134 154 181
134 155 181
134 154 181
134 154 181
134 155 181
132 153 180
134 155 181
134 154 181
134 154 181
133 154 180
134 154 181
133 154 181
133 154 181
133 154 181
133 154 181
134 154 180
133 154 181
133 154 181
134 154 181
135 155 181
134 154 181
134 154 181
134 154 181
134 154 181
133 154 181
134 154 181
133 154 181
134 154 181
134 154 181
134 154 181
134 154 181
133 153 180
134 154 181
134 155 181
133 154 181
134 154 181
134 154 181
133 154 181
133 154 181
134 154 181
134 155 181
133 154 181
134 154 181
134 154 181
133 153 180
133 154 181
133 154 180
133 154 181
134 154 181
133 154 181
133 154 181
134 154 181
133 154 181
134 154 181
133 154 181
134 154 181
134 154 181
133 154 181
134 154 181
134 154 181
134 154 181
134 154 181
133 154 181
134 154 181
133 154 181
134 155 181
133 154 181
134 154 181
134 154 181
134 154 181
133 154 181
133 154 181
133 154 181
134 154 181
134 154 181
134 154 181
134 154 180
133 153 180
134 154 180
134 154 181
135 155 181
133 154 181
134 154 181
134 154 181
134 154 181
133 154 181
134 154 181
134 154 181
135 155 181
134 154 181
133 154 181
134 154 181
134 154 181
133 153 180
133 154 181
134 155 181
134 155 181
134 154 181
134 154 181
134 154 181
133 153 180
134 154 181
133 154 181
135 155 181
133 154 181
133 154 180
134 154 181
134 154 181
133 154 181
134 154 181
133 154 181
134 154 181
134 154 181
134 154 181
135 155 181
134 155 181
134 154 181
133 154 181
134 154 181
134 154 181
134 154 181
135 155 181
134 154 181
134 154 181
134 154 181
134 154 181
133 154 181
134 154 181
133 154 181
134 154 181
134 154 181
134 154 181
134 154 181
133 153 180
133 154 181
134 154 181
134 154 181
133 154 181
133 154 181
133 154 181
134 154 181
134 154 181
133 154 181
133 154 181
134 154 181
134 154 181
135 155 181
133 154 181
133 154 181
134 154 181
134 154 181
134 154 181
133 154 181
134 154 181
133 154 181
133 154 181
134 154 181
135 155 181
134 154 181
134 154 181
134 154 181
134 154 181
133 154 180
134 154 181
134 154 181
134 155 181
134 154 181
133 154 181
134 154 181
134 154 181
135 155 181
134 154 181
133 154 181
134 154 181
133 154 181
134 154 181
133 154 181
135 155 181
133 154 180
134 154 180
133 154 181
134 154 181
134 154 181
134 154 181
133 154 181
134 154 181
133 154 181
134 154 181
134 154 181
134 154 181
134 154 181
133 153 180
134 154 181
134 154 181
133 154 180
134 154 181
134 155 181
133 154 181
133 154 181
134 154 181
134 154 180
134 154 181
134 154 181
134 154 181
133 154 181
133 154 181
134 154 181
134 154 181
134 154 181
134 154 181
133 154 181
134 155 181
134 154 181
135 155 181
134 154 181
133 154 181
133 154 181
134 154 181
134 154 181
133 154 181
134 155 181
134 154 181
134 154 181
134 154 181
133 154 181
132 153 181
134 154 181
134 154 181
134 154 181
134 154 181
133 154 181
134 154 181
133 154 181
133 154 181
133 154 181
133 154 181
133 154 181
134 154 181
134 154 181
135 155 181
133 154 180
134 154 181
134 154 181
135 155 181
134 154 181
134 154 181
134 154 181
134 154 181
133 154 181
134 154 181
134 154 181
133 153 180
133 154 181
134 154 181
133 154 181
133 154 181
133 154 181
133 154 181
133 154 181
134 154 181
133 154 181
133 154 181
134 154 181
134 154 181
133 154 181
134 154 181
133 154 181
133 154 181
133 154 181
134 154 181
134 154 181
133 154 181
133 154 181
133 154 181
134 154 181
134 154 181
133 154 181
134 154 181
134 154 181
134 154 181
133 154 181
133 154 181
134 154 181
133 154 180
134 154 181
133 154 181
134 154 181
135 155 181
133 154 181
134 154 181
133 153 180
134 154 181
133 154 181
133 154 181
133 154 181
134 154 181
134 154 181
134 154 181
134 154 181
134 154 181
134 154 181
134 155 181
134 154 181
134 154 180
134 154 181
134 154 181
133 154 181
134 154 180
133 154 181
133 153 180
133 154 181
133 154 180
133 154 181
133 154 181
134 155 181
133 154 181
133 154 181
134 154 181
133 154 181
134 154 181
134 154 181
134 154 181
134 154 180
134 154 181
133 154 181
134 154 181
133 154 181
135 155 181
134 154 181
133 154 181
134 154 181
135 155 181
134 154 180
134 154 181
134 154 181
132 153 180
134 154 181
133 154 181
134 154 181
134 154 181
133 154 181
135 155 181
134 154 181
134 154 181
133 154 181
133 154 180
134 155 181
134 154 181
134 154 181
134 154 181
134 154 181
133 154 180
133 154 181
134 154 181
134 154 181
133 154 181
134 154 181
134 154 181
134 154 181
134 154 181
134 154 181
134 154 181
133 154 181
134 154 181
133 154 181
133 154 181
134 154 181
134 154 181
134 154 181
134 154 181
133 154 180
134 154 181
133 154 181
134 154 181
133 154 181
134 154 180
133 154 181
133 154 181
134 154 181
133 154 181
134 154 181
133 154 180
134 154 181
133 153 180
134 154 181
133 154 181
134 154 181
134 154 181
134 154 181
133 154 181
135 155 181
133 154 181
134 154 181
134 155 181
133 154 181
134 154 181
134 154 180
134 154 181
133 154 181
134 154 181
133 154 181
134 154 180
133 154 181
134 154 180
134 154 181
133 154 181
133 154 180
133 154 180
134 154 181
133 154 181
135 155 181
134 154 181
134 154 181
134 154 181
133 154 181
133 154 181
134 154 181
134 154 181
134 154 181
134 154 181
134 155 181
133 154 181
133 153 180
133 154 180
134 154 181
135 155 181
133 154 181
134 154 181
134 154 181
134 154 181
134 154 181
134 154 181
133 154 181
133 153 180
133 154 181
133 154 181
134 154 181
133 154 181
134 154 181
133 154 181
133 154 181
133 154 181
133 153 180
134 154 181
133 154 180
134 154 181
134 154 180
134 154 181
133 154 181
134 154 181
132 153 180
134 154 181
134 154 181
133 154 181
134 154 180
134 154 181
133 154 181
134 154 181
134 154 181
133 154 181
134 154 181
134 154 181
134 154 181
134 154 181
134 154 181
133 154 181
134 154 181
134 154 181
133 154 180
134 154 181
132 153 181
134 154 181
134 154 181
133 154 181
134 154 181
134 154 181
133 153 180
134 154 181
134 154 181
134 154 181
133 154 181
133 154 181
134 154 181
134 154 181
133 154 181
133 154 181
134 154 181
133 154 181
133 154 181
134 154 181
135 155 181
133 154 181
133 154 181
134 154 181
134 154 181
135 155 181
133 154 181
133 154 181
133 154 181
134 154 181
133 154 181
135 155 181
133 154 181
133 154 181
134 154 181
134 154 181
134 154 181
134 154 181
134 154 181
134 154 181
133 153 180
134 154 181
133 154 181
133 154 181
133 154 181
134 154 181
133 154 181
135 155 181
134 154 181
134 154 181
134 154 181
134 154 181
134 154 181
134 154 181
134 154 181
134 154 181
133 154 181
132 153 180
133 154 181
134 154 181
134 154 181
134 154 181
133 154 181
134 154 181
134 154 181
135 155 181
133 154 181
134 154 181
134 154 181
134 155 181
133 154 181
134 155 181
134 154 181
134 155 181
133 154 181
134 154 181
134 154 181
134 154 181
135 155 181
133 154 181
134 154 181
133 154 181
133 154 181
133 154 181
133 154 181
133 154 181
133 154 180
134 155 181
134 155 181
134 154 181
133 154 181
133 154 180
133 154 181
134 154 181
134 155 181
133 154 181
134 154 181
134 154 181
133 154 181
133 154 181
134 154 181
134 154 180
134 154 181
133 154 181
134 154 181
134 154 181
134 154 181
134 154 181
133 154 181
134 154 181
134 154 181
133 154 180
133 154 181
134 154 181
134 154 181
134 154 181
134 154 181
134 154 181
133 154 181
133 154 181
134 154 181
134 154 181
134 154 181
134 154 181
133 154 181
133 154 181
134 154 181
134 154 181
134 154 181
133 154 181
133 154 181
133 154 181
133 154 181
134 154 181
133 153 180
133 154 181
134 154 181
133 154 181
134 154 181
133 154 180
134 154 181
134 154 181
133 154 181
134 154 181
133 154 181
134 154 181
133 154 181
134 154 181
133 154 181
135 155 181
134 154 181
134 154 181
134 154 181
134 154 181
134 154 181
134 154 181
134 154 181
134 154 181
134 154 180
134 154 181
134 154 181
133 154 181
134 154 181
133 154 181
134 154 181
134 154 181
133 154 181
133 154 181
133 154 180
133 154 181
134 154 181
134 154 181
132 153 180
133 154 181
134 154 181
133 154 181
134 154 181
134 154 181
133 154 181
134 154 181
133 154 180
133 154 181
133 154 181
134 154 181
134 154 180
134 154 181
133 154 180
134 154 181
133 154 181
134 154 181
134 154 181
135 155 181
134 154 181
134 154 181
134 154 181
133 154 181
133 154 181
133 154 181
133 154 181
134 154 181
134 154 181
135 155 181
134 154 181
133 154 181
134 154 180
133 154 181
134 154 181
133 154 181
134 155 181
134 154 181
133 154 180
133 153 180
133 154 181
134 154 181
133 154 181
134 154 181
133 154 180
133 154 181
133 154 181
134 154 181
134 154 181
132 153 181
134 154 181
134 154 180
134 154 181
134 155 181
133 154 181
134 154 181
133 154 181
134 154 181
134 154 181
134 154 181
134 154 181
133 154 181
134 154 181
135 155 181
134 154 181
134 154 180
133 154 180
133 154 181
134 154 181
133 154 181
133 154 181
134 154 181
134 154 181
134 154 181
134 154 181
134 154 181
134 154 181
133 154 181
134 154 181
134 154 181
134 154 181
134 154 181
134 154 181
133 154 181
133 154 180
133 154 181
134 154 181
133 154 181
133 154 181
134 154 181
134 154 181
135 155 181
135 155 181
134 154 181
133 154 181
133 154 181
133 154 181
135 155 181
134 154 181
133 154 181
133 154 181
134 154 181
133 154 180
134 154 181
134 154 181
134 154 181
134 154 181
134 154 181
133 154 181
134 154 181
134 154 181
134 154 180
134 154 181
134 154 181
133 154 181
135 155 181
133 154 181
134 154 181
133 154 181
133 154 181
133 154 181
134 154 181
134 154 181
134 154 181
134 154 181
133 154 181
133 154 181
133 154 181
133 154 181
134 154 181
133 154 181
133 154 180
133 154 181
134 154 181
134 154 181
133 154 181
133 154 181
134 154 181
133 153 180
134 154 180
134 154 181
133 154 180
133 154 181
134 154 181
134 154 181
133 153 180
134 154 181
133 153 180
134 154 181
135 155 181
134 154 181
133 154 181
134 154 181
133 154 181
134 154 181
134 154 181
133 154 181
135 155 181
135 155 181
134 154 181
135 155 181
133 154 181
133 154 181
134 154 181
133 153 180
134 154 181
135 155 181
133 154 181
133 154 181
134 154 181
133 153 180
134 154 181
133 154 181
133 154 181
133 154 181
133 154 181
133 154 180
133 154 180
134 154 181
134 154 181
135 155 181
134 155 181
134 154 181
134 154 181
133 153 180
133 154 181
134 154 181
133 154 181
134 154 181
134 154 181
134 154 181
134 154 181
133 154 181
134 154 181
133 154 181
134 154 181
134 154 181
134 154 181
134 154 181
134 154 181
133 153 180
134 154 181
134 154 181
135 155 181
134 154 181
135 155 181
133 154 181
133 153 180
133 154 181
133 154 181
134 154 180
134 154 181
134 154 181
134 154 181
133 154 181
134 154 181
134 154 181
133 154 181
134 154 181
134 154 181
134 154 180
133 154 181
133 153 180
134 154 181
133 154 181
135 155 181
134 154 181
134 154 181
134 154 181
134 154 181
135 155 181
134 154 181
134 154 180
134 154 181
134 154 181
134 154 181
134 154 181
133 154 181
134 154 181
133 154 181
133 154 181
134 154 181
133 154 181
134 154 181
134 154 181
133 154 181
134 154 181
134 154 181
133 154 181
134 154 181
134 154 181
134 154 181
134 154 181
133 154 180
133 154 181
134 154 181
133 154 180
133 154 181
135 155 181
134 154 181
133 154 181
134 154 181
134 154 181
134 154 181
134 154 181
133 154 181
134 154 181
133 153 180
134 154 181
135 155 181
134 154 181
135 155 181
134 154 181
134 154 180
133 154 180
134 154 181
133 154 181
134 154 181
134 154 181
134 154 181
134 154 181
133 154 181
134 154 181
134 155 181
135 155 181
134 154 181
134 154 181
134 154 181
134 154 181
133 154 181
134 154 181
134 154 181
134 155 181
133 154 181
134 154 181
134 154 181
134 154 181
134 154 181
134 154 181
133 154 181
133 154 181
135 155 181
133 154 181
134 154 181
133 154 181
134 154 181
133 154 181
134 154 181
134 154 181
134 154 181
134 154 180
134 154 181
133 154 180
133 154 181
133 154 181
134 154 181
134 154 181
134 154 181
134 154 181
134 154 181
134 154 181
133 154 181
135 155 181
134 155 181
133 154 181
134 154 181
134 154 181
134 155 181
134 154 181
133 154 181
134 154 180
134 154 181
134 154 181
134 154 181
134 154 181
134 154 181
134 154 181
134 154 181
133 154 181
133 154 181
134 154 181
134 154 181
134 154 181
133 154 181
134 154 181
134 154 181
133 154 181
134 154 181
134 154 181
134 154 181
134 154 181
134 154 181
134 154 181
134 154 181
134 154 181
135 155 181
134 154 181
133 154 181
133 154 181
133 154 181
133 154 181
133 154 181
133 154 181
133 154 181
134 154 181
134 154 181
134 154 181
134 154 181
133 154 181
134 155 181
134 154 181
134 154 181
134 154 181
134 154 181
134 154 181
133 154 181
134 154 181
134 154 181
134 154 181
133 154 181
134 154 181
134 154 181
134 154 181
133 154 181
133 153 180
134 154 181
133 154 181
134 154 181
133 154 181
133 154 181
134 155 181
134 154 181
133 154 181
134 154 181
134 154 181
133 154 181
134 154 181
134 154 180
134 154 181
133 154 180
133 154 181
135 155 181
134 154 181
133 154 181
133 154 181
134 154 181
133 154 181
133 154 181
134 154 181
135 155 181
134 154 181
133 154 181
133 154 180
134 154 181
134 154 181
134 154 181
133 154 181
134 154 181
133 154 181
134 154 181
134 155 181
133 154 181
134 154 181
133 154 181
133 154 180
134 154 181
134 155 181
133 154 181
133 154 181
134 154 181
134 154 181
133 154 181
134 154 181
133 154 181
134 154 181
134 154 181
134 154 181
133 154 181
134 154 181
134 154 181
133 154 181
134 154 181
134 154 181
133 154 181
133 154 181
134 154 181
133 154 181
134 154 181
133 153 180
134 154 181
133 154 181
133 154 181
134 155 181
134 154 181
133 154 181
134 154 181
133 154 181
134 154 181
134 154 181
133 154 181
134 154 181
134 154 181
133 154 181
134 155 181
134 154 181
134 155 181
133 154 181
134 154 181
134 154 181
134 154 181
133 154 181
133 154 180
134 154 181
134 154 181
134 154 181
134 154 181
134 154 181
134 154 181
134 154 181
133 154 181
134 154 181
133 154 181
134 154 181
134 154 181
134 154 181
134 154 181
133 154 181
134 154 181
134 154 180
133 154 181
133 153 180
134 154 181
133 154 181
133 153 180
133 154 181
134 154 181
134 154 181
134 154 181
133 154 181
134 154 180
135 155 181
133 154 181
134 154 181
134 154 181
133 154 180
134 154 181
134 154 181
133 154 181
134 154 181
134 154 181
134 154 181
134 154 181
133 154 181
134 154 180
133 154 181
134 154 181
134 155 181
133 154 181
133 154 181
133 154 181
133 154 180
133 154 181
134 154 181
134 154 181
133 154 181
133 154 181
134 154 181
134 154 181
134 154 181
133 153 180
134 154 180
134 154 181
134 154 181
134 154 181
134 154 181
134 154 181
134 154 181
133 154 181
133 154 181
134 154 180
133 154 181
134 154 181
133 154 181
134 154 181
135 155 181
134 154 180
133 154 181
134 154 181
133 154 181
134 154 181
133 153 180
134 154 181
134 154 181
134 154 181
134 154 181
134 154 181
134 154 181
133 153 180
135 155 181
134 154 181
134 154 181
134 154 181
132 153 179
134 154 181
134 154 181
134 154 181
134 154 180
134 154 181
134 154 181
133 154 181
135 155 181
133 154 181
134 154 181
133 153 180
134 154 181
133 154 181
134 155 181
134 154 181
133 154 181
133 154 181
134 154 181
133 154 180
134 154 181
133 154 181
134 154 181
134 154 181
133 154 181
134 154 181
133 154 181
134 154 180
133 154 180
133 154 181
134 154 180
134 154 181
134 154 181
134 154 181
133 154 181
134 154 181
133 153 180
133 154 181
133 153 180
134 154 181
135 155 181
134 154 181
133 154 181
133 154 181
134 154 181
133 154 181
133 154 181
133 154 181
134 154 181
133 154 181
134 154 181
132 153 180
135 155 181
133 154 181
134 154 181
134 154 181
134 154 180
134 154 181
134 154 181
133 154 181
134 154 181
133 154 181
134 154 181
134 154 181
134 154 181
134 154 181
133 154 181
133 154 181
133 154 181
134 154 181
134 154 181
133 154 181
134 154 181
134 154 181
133 154 181
134 155 181
133 154 181
133 154 181
134 154 181
134 154 181
133 154 181
133 154 181
134 154 181
134 154 181
134 155 181
133 154 181
135 155 181
134 154 181
134 155 181
134 154 181
134 155 181
133 154 181
134 154 181
133 154 181
134 154 181
135 155 181
134 154 181
134 154 181
133 154 181
134 154 181
134 155 181
134 154 181
134 154 181
133 154 181
134 154 181
134 154 181
133 154 181
133 154 180
134 154 181
133 154 181
134 154 181
133 154 181
134 154 181
134 154 181
134 154 181
134 154 181
133 154 181
133 153 180
133 154 180
133 154 180
134 154 180
134 154 181
133 154 180
135 155 181
135 155 181
134 154 181
134 154 181
134 154 181
134 154 181
134 154 181
134 154 181
134 155 181
134 154 181
135 154 180
133 154 181
134 154 181
134 154 181
134 154 181
133 154 181
133 154 181
134 154 181
134 154 181
134 154 181
133 154 181
134 154 181
133 154 181
134 154 181
134 154 181
134 155 181
133 154 181
133 154 181
134 154 181
133 154 181
134 154 181
133 154 181
133 154 181
134 155 181
133 154 181
134 154 181
134 154 181
134 154 181
134 154 181
134 154 181
135 155 181
134 154 181
133 154 180
133 154 181
134 154 181
134 154 180
133 154 180
133 154 181
133 154 181
133 154 181
134 154 181
133 154 181
133 154 181
133 154 181
133 153 180
134 154 181
134 154 181
133 154 181
134 154 181
134 154 181
133 153 180
134 154 181
134 154 181
134 154 181
133 154 181
134 154 181
134 154 181
133 154 181
133 154 181
133 154 181
133 154 181
134 154 181
134 154 181
133 154 181
134 154 181
134 154 181
133 154 181
133 154 181
133 154 181
134 154 181
134 154 181
132 153 180
135 155 181
134 154 181
134 154 181
133 154 181
134 154 181
133 154 181
134 154 181
133 154 181
135 155 181
134 154 181
133 154 181
133 154 181
134 154 181
134 154 181
134 154 181
134 154 181
134 154 181
134 154 181
133 154 181
134 154 181
132 153 181
135 155 181
134 154 181
133 154 181
134 155 181
134 154 181
133 154 181
135 155 181
134 155 181
133 154 181
133 154 181
133 153 180
134 154 181
134 155 181
134 154 181
134 154 181
133 154 181
135 155 181
133 154 181
133 154 181
134 154 181
133 154 181
134 154 181
133 154 181
133 154 181
133 154 181
132 153 181
134 154 181
134 154 181
134 154 181
134 154 181
134 154 181
134 154 181
135 155 181
134 154 181
133 154 181
134 154 181
134 154 181
134 154 181
133 154 181
133 154 181
134 154 181
134 154 181
134 154 181
134 154 181
133 154 181
133 154 181
134 154 181
134 154 181
133 154 181
133 154 180
133 154 181
133 154 181
134 154 181
133 153 180
134 154 181
135 155 181
133 154 181
134 154 181
134 154 181
134 154 181
133 154 181
134 154 181
134 154 181
134 154 181
133 154 181
134 154 181
133 154 181
133 154 181
133 154 181
134 154 181
135 155 181
134 154 181
134 154 181
133 154 180
134 154 181
133 154 181
133 154 181
133 154 181
134 154 181
133 154 181
134 154 181
134 154 181
134 155 181
133 154 181
134 154 181
134 154 181
134 155 181
134 154 181
133 154 181
134 154 180
134 154 181
134 154 181
133 154 181
134 154 181
134 154 181
133 154 180
133 153 180
134 154 181
133 154 181
134 154 181
134 154 181
134 154 181
134 154 181
134 154 181
133 154 181
134 154 181
133 154 181
134 154 181
134 154 181
134 154 181
134 154 181
133 154 180
133 154 181
133 154 181
133 154 180
134 154 181
133 154 180
133 153 180
133 154 181
134 154 181
133 154 180
134 154 181
134 154 181
133 154 181
133 154 181
134 154 181
134 154 181
135 155 181
134 154 181
133 154 181
133 154 181
132 153 180
134 154 181
133 154 180
134 154 181
134 154 181
134 154 181
134 154 181
134 154 181
134 154 181
133 154 181
134 154 181
134 154 181
133 154 181
134 154 180
133 154 181
134 154 181
134 154 181
134 154 181
135 155 181
134 154 181
134 154 181
134 154 181
134 154 181
134 154 181
134 153 179
134 154 181
133 154 181
134 154 181
133 154 181
134 154 181
134 154 181
133 154 181
133 154 181
134 154 181
133 154 181
134 154 181
134 155 181
134 154 181
133 154 181
132 153 180
134 154 181
133 154 181
134 154 181
134 154 181
134 154 181
133 154 181
133 154 181
133 154 181
133 154 181
134 154 181
134 154 181
134 154 180
134 154 181
134 154 181
133 154 180
134 154 181
133 153 180
134 155 181
134 154 181
133 154 181
134 154 181
133 154 181
134 154 181
133 154 181
134 154 181
134 154 181
134 154 181
133 154 180
133 154 181
134 154 181
135 155 181
134 155 181
134 154 181
134 154 181
134 154 181
133 154 181
133 154 181
134 154 181
133 154 181
133 154 181
134 154 181
133 154 181
133 154 181
134 154 181
134 154 180
134 154 181
134 154 181
134 154 181
133 154 181
133 153 180
133 154 181
133 153 180
135 155 181
133 153 180
134 154 181
134 154 181
134 154 181
133 154 181
134 154 181
133 154 181
133 154 181
134 154 181
134 154 181
134 154 181
133 154 181
133 154 180
134 154 181
133 154 181
134 154 181
133 154 180
133 153 180
134 155 181
134 154 181
134 154 181
134 154 181
134 154 181
134 154 180
134 154 181
134 154 181
134 154 181
133 154 181
134 154 181
133 154 180
134 154 181
134 154 181
134 154 180
134 154 181
134 154 181
133 154 181
134 154 181
134 154 181
134 154 181
134 154 181
134 154 181
134 154 181
134 154 181
133 154 181
133 154 181
134 154 180
133 154 181
133 154 181
134 154 181
134 154 181
134 154 181
134 154 181
134 154 181
134 154 181
134 155 181
133 154 181
134 154 181
134 154 181
133 154 181
134 154 181
134 154 181
134 154 181
133 153 180
134 154 181
133 154 181
134 154 181
133 154 181
134 154 181
134 154 181
133 153 180
135 155 181
134 154 181
133 154 181
134 154 181
134 154 181
134 154 181
134 154 181
133 154 181
134 154 181
134 154 181
134 154 181
133 154 181
134 154 181
133 154 181
134 154 181
133 154 181
133 154 181
133 154 181
135 155 181
134 154 181
134 154 181
135 155 181
133 154 181
133 154 180
134 154 181
133 154 181
133 154 181
134 154 181
134 154 181
134 154 181
134 154 181
134 154 181
134 154 181
134 154 180
134 154 181
134 154 181
134 154 181
133 154 181
134 154 181
134 154 181
135 155 181
134 154 181
135 155 181
134 154 181
134 154 181
134 154 181
133 154 181
134 154 181
134 154 181
134 154 181
134 154 181
134 154 181
134 154 181
133 154 180
133 154 181
134 154 181
134 154 181
134 154 181
133 154 181
134 154 181
134 154 181
134 155 181
134 154 181
133 154 181
133 154 181
134 154 181
134 154 181
133 154 181
134 155 181
134 154 181
134 154 181
134 154 181
133 154 181
133 154 181
133 154 181
133 154 181
134 154 181
133 154 181
134 154 181
133 154 180
133 154 181
133 154 180
134 154 181
133 154 181
134 154 181
133 154 181
133 154 181
133 154 181
135 155 181
133 153 180
133 154 181
134 154 181
134 154 181
134 154 181
133 154 181
133 154 181
134 154 181
134 154 181
134 154 180
134 154 181
135 155 181
135 155 181
134 154 181
134 154 181
134 154 181
133 154 181
134 154 181
134 154 181
134 154 181
133 154 181
134 154 181
134 154 181
134 154 181
134 154 181
134 154 181
134 154 181
134 154 181
134 154 181
133 154 181
134 154 180
134 155 181
133 154 181
132 153 181
134 154 181
134 154 181
133 154 181
134 154 181
133 154 181
135 155 181
134 154 181
133 154 181
134 154 181
134 155 181
134 154 180
134 154 181
134 154 181
133 154 181
134 154 181
134 154 181
134 154 181
134 154 181
134 154 181
134 154 181
132 153 180
133 154 181
134 154 181
133 154 181
133 154 181
134 154 181
135 155 181
133 154 181
134 154 181
134 154 181
133 154 181
133 154 181
133 154 181
134 154 181
133 154 181
134 154 181
135 155 181
134 155 181
134 154 181
134 154 181
134 154 181
134 154 181
133 154 181
134 155 181
134 154 181
133 154 181
134 154 181
134 154 181
133 154 181
133 154 181
133 154 181
133 154 181
134 155 181
133 154 181
133 154 181
133 154 180
134 154 181
134 154 181
134 154 181
133 154 181
133 154 181
133 154 181
132 153 181
134 154 181
134 154 181
133 154 181
134 154 181
133 153 180
133 153 180
133 153 180
134 154 181
134 154 181
134 154 181
133 154 180
134 154 181
133 154 181
134 154 181
133 154 181
134 154 181
134 154 181
133 154 181
134 154 181
134 154 181
134 155 181
134 154 181
133 154 181
133 154 181
133 154 181
133 154 181
134 154 181
132 153 180
133 154 181
134 154 181
134 154 181
133 154 181
133 154 181
134 154 181
134 155 181
133 154 181
133 154 181
133 154 181
133 154 181
134 154 181
134 154 181
134 154 181
132 153 180
134 154 181
134 154 181
134 154 181
134 154 181
134 154 181
134 154 181
134 154 181
135 155 181
134 154 181
134 154 181
133 154 181
134 155 181
133 154 181
134 154 181
134 154 181
134 154 181
134 154 181
133 154 180
134 154 181
134 154 181
134 154 181
134 154 181
133 154 181
133 154 181
133 154 181
134 154 181
134 154 181
134 154 181
134 154 181
133 154 181
134 154 181
133 154 180
133 154 181
134 154 181
133 153 180
134 154 181
133 153 180
134 154 181
134 154 181
134 154 181
134 154 181
133 154 181
134 154 181
133 154 181
134 154 181
134 154 181
134 154 181
132 153 180
134 154 181
134 154 181
133 154 181
133 154 181
134 154 181
133 154 181
133 154 181
134 154 181
134 154 181
134 154 181
133 154 181
134 154 181
133 154 180
134 154 181
133 153 180
134 154 181
135 155 181
134 154 181
133 154 181
134 154 181
134 154 181
133 154 180
134 154 181
134 154 181
133 154 181
134 154 181
133 153 180
133 154 181
134 155 181
133 154 180
133 153 180
133 154 181
134 154 181
135 155 181
134 154 181
134 154 181
134 154 181
134 154 181
134 154 181
134 154 181
133 154 181
134 154 181
133 154 181
134 154 181
134 154 181
134 154 181
133 153 180
133 154 181
132 153 181
134 154 181
134 154 181
134 154 181
134 154 181
134 154 181
134 154 181
133 154 181
134 154 181
134 154 181
134 154 181
134 154 181
133 154 181
134 154 181
134 154 181
133 154 180
134 154 180
134 154 181
133 154 181
134 154 180
134 154 181
134 155 181
133 154 181
133 154 180
133 153 180
134 154 181
134 154 181
133 154 180
134 154 181
133 154 181
134 154 181
134 154 181
134 154 181
133 154 181
135 155 181
133 154 181
133 154 181
133 154 181
133 154 181
133 154 181
134 154 181
134 154 180
134 154 180
133 154 181
134 154 181
134 155 181
134 154 181
133 154 180
134 154 181
134 154 181
134 154 181
135 155 181
134 154 181
135 155 181
134 154 181
133 154 181
133 154 180
132 153 180
133 154 181
134 154 181
134 154 181
133 154 181
134 154 181
134 154 181
133 154 181
134 154 181
134 154 181
134 154 181
134 154 181
134 154 181
133 154 180
133 154 181
134 154 181
134 154 181
134 154 181
134 155 181
134 155 181
133 154 181
134 154 181
133 154 181
133 154 181
134 154 181
134 154 181
133 154 181
134 154 181
134 154 181
134 154 181
135 155 181
134 154 181
134 154 181
134 154 181
134 154 181
134 154 181
134 154 181
134 154 181
133 154 181
134 154 180
133 154 181
134 154 181
134 154 181
133 154 181
134 154 181
134 154 181
133 154 181
134 154 180
134 154 181
134 154 181
134 154 181
134 154 181
133 153 180
133 154 181
134 154 181
135 155 181
133 154 181
134 154 181
134 154 181
134 154 181
133 153 180
134 154 181
134 154 181
134 154 181
134 154 181
134 154 181
134 154 181
133 154 181
133 154 181
133 154 181
134 154 181
134 154 181
134 154 181
133 154 181
133 154 181
133 154 181
133 154 181
134 155 181
133 154 181
132 153 180
133 154 181
134 154 180
133 154 181
134 154 181
133 154 181
134 154 181
134 154 181
134 154 181
133 154 181
133 154 181
134 154 181
134 154 181
134 154 181
134 154 181
134 154 181
133 154 181
134 154 181
133 153 180
134 154 181
134 154 181
134 154 181
134 154 181
134 154 181
133 154 181
133 154 181
134 154 181
133 154 181
134 154 181
134 154 181
133 154 181
134 154 181
135 155 181
133 154 181
134 154 181
134 154 181
133 154 181
133 154 181
133 154 181
134 154 181
134 154 181
133 154 181
133 154 181
134 154 180
134 154 181
133 154 181
134 154 181
134 154 181
134 154 181
134 154 181
134 154 181
134 154 181
133 154 181
134 154 181
134 154 181
134 154 181
134 154 181
133 154 181
134 154 181
134 154 181
134 154 180
134 154 181
134 154 181
134 154 181
134 154 181
133 154 181
134 154 181
133 154 181
134 154 181
134 154 180
134 154 181
135 155 181
134 154 181
133 154 181
134 154 181
134 154 180
134 154 181
134 154 181
134 154 181
134 154 181
133 154 181
133 154 181
133 154 181
134 154 181
133 154 181
134 154 181
134 154 180
134 155 181
133 154 181
135 155 181
133 154 181
133 154 181
135 154 180
134 155 181
133 154 181
134 154 181
134 154 181
133 154 181
135 155 181
133 154 181
133 154 180
134 154 181
134 154 181
133 153 180
135 155 181
134 154 181
134 154 181
134 154 181
134 154 181
134 154 181
134 154 181
134 154 181
134 154 181
132 153 180
134 154 181
133 153 180
133 154 181
134 154 181
134 154 181
133 154 181
133 154 181
134 154 181
133 154 181
134 154 181
135 155 181
134 154 181
134 154 181
134 154 181
134 154 181
134 154 181
134 154 181
133 154 181
134 154 181
134 154 181
134 154 181
134 154 181
133 154 180
133 154 181
135 155 181
134 154 181
133 154 181
134 154 181
134 154 180
134 154 181
134 154 180
135 155 181
133 154 181
134 154 180
134 154 181
135 155 181
134 154 181
133 154 181
133 154 181
133 154 181
134 154 180
133 154 180
133 154 181
133 154 181
133 153 180
133 154 180
133 154 181
133 154 181
133 154 181
134 154 181
133 154 181
134 154 181
134 154 181
133 154 181
133 154 180
135 155 181
134 154 180
133 154 181
134 154 181
133 154 181
133 154 181
134 154 181
134 154 181
134 154 181
134 154 181
133 154 181
134 154 181
135 155 181
134 154 181
134 154 181
134 154 181
134 154 181
134 154 181
135 155 181
134 154 181
134 154 181
133 154 181
134 154 181
133 154 181
134 154 181
134 154 181
134 154 180
134 154 180
134 154 181
134 154 181
134 154 181
134 154 181
134 154 181
133 154 181
132 153 181
134 154 181
134 154 181
134 154 181
134 154 180
134 154 181
134 154 181
134 154 181
134 154 181
135 155 181
134 154 181
134 154 181
133 154 181
135 155 181
133 154 181
134 154 181
134 154 181
134 154 181
134 154 181
133 154 180
133 154 181
134 154 181
134 154 181
133 154 181
133 154 181
134 154 181
134 154 181
133 154 181
133 154 181
134 154 181
134 154 181
134 154 181
133 154 180
134 154 180
133 154 181
134 154 180
135 155 181
133 154 181
134 154 181
134 154 181
133 154 181
134 154 181
133 154 181
133 154 181
134 154 181
133 154 180
134 154 181
134 154 181
134 154 181
134 154 181
134 154 179
134 154 181
134 154 181
134 154 181
134 154 181
134 154 181
133 154 181
133 154 181
133 154 181
134 154 181
133 154 181
133 154 181
133 154 181
134 154 181
133 154 181
133 154 181
133 154 181
134 154 181
133 154 181
134 154 181
134 154 181
134 154 181
134 154 181
133 154 181
133 154 181
134 154 181
134 154 181
134 154 181
134 154 180
134 154 181
134 154 181
133 154 180
133 154 181
135 155 181
134 154 181
133 153 180
134 154 181
134 154 181
133 154 181
134 154 181
134 154 181
134 154 181
135 155 181
134 154 181
133 154 180
133 154 181
134 154 181
134 154 181
134 154 181
133 154 181
134 154 181
134 154 181
133 153 180
134 154 181
133 154 180
134 154 181
133 153 180
134 154 181
132 153 181
133 154 181
134 154 181
133 154 181
133 154 181
134 154 181
134 154 181
134 154 181
133 154 181
133 154 181
133 154 181
134 154 181
134 154 181
134 154 181
134 154 180
135 155 181
135 155 181
133 154 181
133 154 181
133 154 181
133 154 181
134 154 181
135 155 181
134 154 181
134 154 181
134 154 181
134 154 181
134 154 181
133 154 181
135 155 181
134 154 181
134 154 181
133 154 181
133 154 181
134 154 181
134 154 181
134 154 181
133 154 180
133 153 180
134 154 181
135 155 181
134 154 181
133 154 181
134 154 181
133 154 181
133 154 181
134 155 181
133 154 181
134 154 181
134 154 181
134 154 181
133 154 181
134 154 181
135 155 181
134 154 181
134 154 181
133 154 181
133 154 181
133 154 181
134 154 181
134 154 181
133 154 181
134 154 181
134 154 181
134 155 181
134 154 181
134 154 181
134 154 180
134 154 181
134 154 181
133 154 181
134 154 181
134 154 181
133 154 180
134 154 181
134 154 181
133 154 181
133 154 181
134 154 181
133 154 181
133 154 181
134 154 181
134 155 181
134 154 181
134 154 181
134 154 181
134 154 181
134 154 181
134 154 181
134 154 180
134 154 181
134 154 181
134 154 181
134 154 181
134 154 181
134 154 181
133 154 181
134 154 181
133 154 181
133 154 181
133 154 181
134 154 181
134 154 181
133 154 181
134 154 181
135 155 181
134 154 181
134 154 181
134 154 181
133 154 181
134 154 181
133 154 181
133 154 181
133 154 181
133 154 181
134 154 180
133 154 181
134 154 181
133 154 181
133 154 181
134 154 181
134 154 181
134 154 181
134 154 181
134 154 181
134 154 181
133 154 181
133 154 181
133 154 181
133 154 181
133 154 180
134 154 181
134 155 181
134 154 181
133 154 181
134 154 181
134 154 181
134 154 181
134 154 181
134 154 181
133 154 181
134 154 181
134 154 181
134 154 181
133 154 181
135 155 181
134 154 181
134 154 181
133 154 181
135 155 181
133 154 181
134 154 181
133 154 181
134 154 181
133 154 181
133 154 181
133 154 181
134 154 181
134 154 181
134 154 181
134 154 181
135 155 181
134 154 181
134 154 181
134 154 181
135 155 181
134 154 181
134 154 181
133 154 181
134 154 181
135 155 181
134 154 181
133 154 181
134 154 181
134 154 181
134 154 181
134 154 181
133 154 181
134 154 181
133 154 181
134 155 181
134 154 181
133 154 181
133 154 181
134 154 181
133 153 180
134 154 181
135 155 181
133 154 181
133 154 181
134 154 181
134 154 181
134 154 181
133 154 181
133 154 181
134 154 181
134 154 180
132 153 181
134 154 181
133 154 180
134 154 181
133 154 181
133 154 181
133 154 181
134 154 181
134 154 181
133 154 180
134 154 181
135 155 181
133 154 181
133 154 181
132 154 181
134 154 181
134 154 181
133 154 181
134 154 181
134 155 181
133 153 180
133 154 181
134 154 181
133 154 181
134 154 181
133 154 181
135 155 181
133 154 181
134 154 181
134 154 181
133 154 181
134 154 181
133 154 181
134 154 181
134 154 181
135 155 181
134 154 181
135 155 181
132 153 181
133 154 181
134 154 181
133 154 181
134 154 181
133 154 181
134 154 181
133 154 181
133 154 181
134 154 181
134 154 181
134 154 181
135 155 181
134 154 181
134 154 181
134 154 181
133 154 181
133 154 180
134 154 181
133 154 180
133 154 181
133 154 181
134 154 181
134 154 181
134 154 181
134 154 181
134 154 181
133 154 181
134 154 181
134 155 181
135 155 181
134 154 181
133 154 181
133 153 180
134 154 181
134 154 181
133 154 181
133 153 180
134 154 181
134 154 181
134 154 181
134 154 181
134 154 181
134 154 181
134 155 181
134 154 181
133 154 180
134 154 181
134 154 181
134 154 181
133 154 181
134 154 181
134 155 181
133 154 180
134 154 181
134 154 181
135 155 181
134 154 181
133 154 181
133 154 181
134 154 181
133 153 180
134 154 181
134 154 181
133 154 181
134 154 181
134 154 181
133 154 181
133 154 181
134 154 181
134 154 180
134 154 181
135 155 181
133 154 181
134 154 180
133 154 181
135 155 181
134 154 181
134 154 181
134 154 181
134 154 181
133 154 181
133 154 181
134 154 181
134 154 181
134 154 181
133 154 181
133 154 181
134 154 181
134 154 181
134 154 181
133 154 181
134 154 181
133 154 181
133 154 181
134 154 181
133 154 181
134 154 181
134 154 180
134 154 181
134 154 181
133 154 180
134 154 180
133 154 180
134 154 181
133 154 180
133 154 181
133 154 181
133 154 181
134 154 181
133 154 181
133 154 181
134 154 181
133 154 181
134 154 181
133 154 181
133 154 181
133 153 180
134 154 181
134 154 181
134 154 181
134 155 181
133 154 181
133 154 181
133 154 181
134 154 181
134 154 181
134 154 181
133 154 181
135 155 181
134 155 181
133 154 181
134 154 180
134 154 181
133 154 181
134 154 181
133 154 181
133 154 181
133 154 181
134 154 181
135 155 181
134 154 181
134 154 181
134 154 181
135 155 181
134 154 180
134 154 180
134 154 181
134 154 181
134 154 180
134 154 181
133 154 181
134 154 181
133 154 181
134 154 181
134 154 181
134 155 181
134 155 181
134 154 181
134 154 181
134 154 181
133 154 180
133 154 181
134 154 181
133 154 181
134 154 181
134 154 181
133 154 181
134 154 181
134 154 181
133 154 181
134 155 181
134 154 181
134 154 181
134 154 181
133 154 181
134 154 180
135 155 181
134 154 181
133 154 181
133 154 181
134 155 181
134 154 181
134 154 181
135 155 181
133 154 181
133 154 181
133 154 181
134 154 181
133 154 181
135 155 181
133 154 181
134 154 181
134 154 181
134 154 181
134 154 181
134 155 181
134 154 181
133 153 180
134 154 181
134 154 181
134 154 181
133 153 180
133 154 180
135 155 181
134 154 181
134 154 181
134 154 181
133 154 181
134 154 181
135 155 181
133 154 181
134 154 181
133 154 181
134 154 181
134 155 181
134 154 181
134 154 181
133 154 181
134 154 181
134 154 181
133 154 181
134 154 181
134 154 181
133 153 180
134 154 181
134 154 181
133 154 181
133 153 180
133 154 181
134 154 181
133 154 181
133 154 181
133 154 181
133 154 181
133 154 181
134 154 181
134 154 181
134 154 181
133 154 181
133 154 181
134 154 181
133 154 181
135 155 181
134 154 181
134 154 181
133 154 181
133 154 181
133 154 181
134 154 181
133 154 181
134 154 181
134 154 181
134 154 181
134 154 181
134 154 181
133 154 181
133 154 181
134 154 181
134 154 181
133 154 181
133 154 181
134 154 181
133 154 180
133 154 180
134 154 181
134 154 181
133 154 180
134 154 181
134 154 181
133 154 181
133 154 181
134 154 181
133 154 181
133 154 181
133 154 181
133 154 181
134 154 181
134 154 181
134 154 181
133 154 181
134 154 181
134 154 180
134 154 181
134 154 181
134 154 181
133 154 180
134 154 181
134 154 181
133 153 180
134 154 181
134 154 181
134 154 181
135 155 181
132 153 181
133 154 181
133 154 181
135 155 181
134 154 181
133 154 181
134 154 181
133 154 181
133 154 180
134 154 181
134 154 181
134 154 181
133 154 181
135 155 181
134 154 181
134 155 181
134 154 181
134 154 181
134 154 181
135 155 181
133 154 181
134 154 181
134 154 181
133 154 181
135 155 181
133 154 181
133 154 181
134 154 181
134 154 181
133 154 181
134 154 181
134 154 181
133 154 181
134 154 181
133 154 181
133 154 181
134 154 181
134 154 181
133 154 181
133 154 181
135 155 181
134 154 181
134 154 181
133 154 181
133 154 181
134 154 181
134 154 181
133 154 181
134 154 181
133 154 181
134 154 181
134 154 181
134 154 181
134 154 181
134 154 181
134 154 181
135 155 181
133 154 181
134 154 181
134 154 181
134 154 181
134 155 181
134 154 181
133 154 181
134 154 181
135 155 181
134 154 181
134 154 181
134 154 181
134 154 181
134 154 181
134 154 180
134 154 181
133 154 181
134 154 181
134 154 181
133 154 181
134 154 181
133 154 181
134 154 181
133 154 181
134 154 181
134 154 181
134 154 180
134 154 181
133 154 181
133 154 181
134 154 181
134 154 181
133 154 181
134 154 181
133 154 181
132 153 181
134 154 181
133 154 181
134 154 181
134 154 181
133 154 181
134 154 180
134 154 181
134 154 181
134 154 181
134 154 181
134 154 181
134 154 180
134 154 181
134 154 181
133 154 180
134 154 181
133 154 180
134 154 181
134 154 181
134 154 181
134 154 181
134 154 181
134 154 181
132 153 181
134 154 181
133 154 181
133 153 180
134 154 181
133 154 181
133 154 181
134 154 181
134 154 180
134 154 181
134 154 181
134 154 181
134 154 181
132 153 180
134 155 181
134 154 181
134 154 181
133 154 180
134 154 181
134 154 181
133 154 181
134 154 181
133 154 181
133 154 181
133 154 180
135 155 181
134 154 181
134 154 181
133 154 180
133 154 181
134 154 181
133 153 180
133 154 181
134 154 180
134 154 181
133 154 181
134 154 181
133 154 181
133 154 180
134 154 181
134 154 181
134 154 181
133 153 180
135 155 181
134 154 181
133 154 181
132 153 180
134 154 181
134 154 181
133 154 181
134 155 181
134 154 181
133 154 180
134 154 181
134 154 181
134 154 181
134 154 181
134 154 181
134 154 181
134 154 181
134 154 181
134 154 181
134 154 181
134 154 181
134 154 181
134 154 181
134 154 181
134 154 181
133 154 181
133 153 180
134 154 181
134 154 181
133 154 181
134 154 181
134 154 181
133 154 181
133 154 181
134 155 181
133 154 181
134 154 181
133 154 181
134 154 181
133 154 181
134 154 181
134 154 181
133 154 181
134 154 181
135 155 181
134 154 180
134 154 181
134 154 181
135 155 181
133 154 181
133 154 181
133 153 180
134 155 181
133 154 181
133 153 180
134 154 180
134 155 181
134 154 181
134 154 181
134 154 181
133 154 181
134 154 181
133 154 181
135 155 181
133 154 180
134 154 181
133 154 181
135 155 181
133 154 181
134 154 181
133 153 180
133 154 181
133 154 181
134 154 181
134 154 181
134 154 181
134 154 181
133 154 181
134 154 181
133 154 181
134 154 181
134 154 181
134 154 180
134 154 181
133 153 180
134 154 181
134 154 181
133 154 181
133 153 180
133 154 181
133 154 181
133 154 181
133 154 180
133 154 180
134 154 181
134 154 181
132 154 181
133 154 181
134 154 181
133 154 181
133 154 180
134 154 181
134 154 181
134 154 181
134 154 181
134 154 181
133 154 181
135 155 181
133 154 181
134 154 181
133 154 180
134 154 180
134 154 181
134 155 181
134 154 181
133 154 180
134 154 181
134 154 181
134 154 181
132 153 180
134 154 180
133 154 181
133 154 181
134 154 181
134 154 181
133 154 181
133 154 181
134 154 181
133 154 181
133 154 180
133 154 181
134 154 181
134 154 181
134 154 181
134 154 181
134 154 181
134 154 181
133 154 181
135 155 181
134 154 181
133 154 181
134 154 181
134 154 181
134 154 181
134 154 181
134 154 181
134 154 181
134 154 181
133 154 181
134 154 181
133 153 180
133 154 181
133 154 181
134 154 181
134 154 181
134 154 181
133 154 181
133 154 181
135 155 181
134 154 181
133 154 181
133 154 181
134 154 181
133 154 181
134 154 181
134 154 181
133 154 181
134 154 181
134 154 181
134 154 181
133 154 181
134 154 181
133 154 181
134 154 181
135 155 181
133 154 181
134 154 181
134 154 181
134 154 181
133 154 181
134 155 181
134 154 181
133 154 181
134 154 181
134 154 181
134 154 181
134 154 181
133 154 181
134 154 181
134 154 181
134 154 181
134 154 181
134 154 181
134 155 181
133 154 181
134 154 181
133 153 180
134 154 181
133 154 181
133 154 181
134 154 181
134 154 181
134 154 181
134 154 181
134 154 181
133 154 181
135 155 181
134 154 181
134 154 181
135 155 181
134 154 181
132 153 181
133 154 181
134 154 181
134 154 181
134 154 181
134 154 181
134 154 181
133 154 181
134 154 181
135 155 181
133 154 181
133 154 181
134 154 181
133 154 181
135 155 181
134 154 181
134 154 181
134 154 181
134 154 181
133 154 181
133 154 181
134 154 181
134 154 181
134 154 181
133 154 181
133 154 181
133 154 181
134 154 181
135 155 181
134 154 181
133 154 181
133 154 181
134 154 181
135 155 181
133 154 181
134 154 181
134 154 180
133 154 181
134 154 181
134 154 181
134 154 181
134 154 181
134 154 181
134 154 181
134 154 181
133 154 181
134 154 181
135 155 181
134 154 181
134 154 181
133 153 180
134 154 181
134 154 181
134 154 181
134 154 181
133 153 180
133 153 180
133 154 181
134 154 181
134 154 181
133 154 181
134 154 181
134 154 181
133 154 181
134 154 181
134 154 181
134 154 181
133 154 181
134 154 181
133 154 181
134 154 181
134 154 181
135 155 181
133 154 181
133 154 180
134 154 181
133 154 180
134 154 181
134 155 181
134 154 181
134 154 181
133 153 180
134 154 181
134 154 181
133 154 181
134 154 180
134 154 181
134 154 181
134 154 181
133 154 181
135 155 181
134 154 181
134 154 181
133 154 181
134 154 181
133 154 181
134 154 181
134 154 181
134 154 181
133 154 181
134 154 181
133 154 181
134 154 181
133 154 181
134 154 181
134 154 180
135 155 181
134 154 181
133 154 181
134 154 181
133 154 181
134 154 181
133 153 180
134 154 181
133 154 181
134 154 181
133 154 181
133 153 180
134 154 181
134 154 181
133 154 181
134 154 181
134 154 181
133 154 181
135 155 181
133 154 181
134 154 181
134 154 181
135 155 181
133 154 181
133 154 180
135 155 181
133 154 181
134 154 181
133 154 181
133 154 181
133 154 181
134 155 181
133 154 181
134 154 181
134 154 181
133 154 180
133 153 180
134 154 181
134 154 181
134 154 181
134 154 181
133 154 181
134 154 181
134 154 180
134 154 181
134 154 181
134 154 181
134 154 181
134 154 181
133 154 181
134 154 181
133 154 181
134 154 181
134 154 180
134 154 181
134 154 181
134 154 181
133 154 181
134 154 181
134 154 181
133 154 180
133 154 181
134 154 181
134 154 181
134 154 181
134 154 181
134 154 181
134 154 181
133 154 180
134 154 181
133 154 181
133 154 181
134 154 181
134 155 181
133 154 181
133 154 180
134 154 181
133 153 180
135 155 181
133 154 180
134 154 181
133 153 180
133 154 181
133 153 180
133 154 181
134 154 181
134 154 181
134 154 181
134 154 181
134 154 181
133 154 180
135 155 181
133 154 180
134 154 181
134 154 181
133 154 181
134 154 181
134 154 181
133 154 181
134 154 181
135 155 181
134 154 180
134 154 181
134 154 181
134 154 181
134 154 181
135 155 181
134 154 181
133 154 181
133 154 181
133 154 181
133 154 180
134 154 181
135 155 181
133 154 180
134 154 181
133 153 180
133 154 181
134 154 180
133 154 181
134 154 181
134 154 181
134 154 181
133 154 181
134 154 181
134 154 181
134 154 181
134 154 181
134 154 181
133 153 180
134 154 181
134 154 181
133 154 181
133 154 181
134 154 181
134 154 181
134 154 181
134 154 181
133 153 180
133 154 181
133 154 181
134 154 181
134 154 181
134 154 181
133 154 181
134 154 181
134 154 181
133 153 180
135 155 181
134 154 181
134 154 181
134 154 181
133 153 180
134 154 181
134 154 181
134 154 181
133 154 181
134 154 181
134 154 181
134 154 181
133 154 181
134 154 181
133 154 181
133 153 180
134 154 181
134 154 181
134 154 181
133 154 181
133 154 181
134 154 181
133 154 181
133 154 181
133 154 181
133 154 181
134 154 181
134 154 181
133 154 181
134 154 181
133 154 180
133 154 181
134 154 181
134 154 181
134 154 181
134 154 181
134 154 181
134 154 181
134 154 181
134 154 181
134 154 181
133 153 180
134 154 181
133 154 181
133 154 181
134 154 181
134 155 181
134 154 181
134 154 181
134 154 181
135 154 180
134 154 181
134 154 181
134 154 181
134 154 181
135 155 181
134 154 180
134 154 181
134 154 181
134 154 181
134 154 181
134 154 181
135 155 180
133 154 181
134 154 181
134 154 181
134 154 181
135 155 181
134 154 181
133 154 181
133 154 180
134 154 181
134 154 181
134 154 181
134 154 181
133 154 181
134 154 181
134 154 181
134 154 181
134 154 181
134 154 181
133 154 181
134 154 181
135 155 181
134 154 181
135 155 181
134 154 181
134 155 181
133 154 181
134 154 181
134 154 181
134 154 181
134 154 181
133 154 181
133 154 180
133 154 181
133 154 181
134 154 181
134 154 181
134 154 181
134 154 181
133 154 181
134 154 181
134 154 181
133 154 181
133 154 181
134 154 181
134 154 181
133 154 180
135 155 181
135 155 181
134 154 181
133 154 181
133 154 180
134 154 181
133 154 181
133 154 181
133 154 181
134 154 181
133 154 181
134 154 181
133 154 181
134 154 181
133 154 181
134 154 181
134 154 181
134 154 181
134 154 181
132 153 180
135 155 181
135 155 181
134 154 181
133 154 181
133 154 181
134 154 181
133 154 180
133 154 181
133 154 181
134 154 181
134 154 181
133 154 181
134 154 181
134 155 181
134 154 181
133 154 181
133 154 181
134 154 181
134 154 181
134 154 180
133 154 181
134 154 181
134 154 181
134 154 181
134 154 181
133 154 181
133 154 181
134 154 181
134 154 181
134 154 181
134 154 181
134 154 181
133 154 181
134 154 181
133 153 180
134 154 181
133 154 181
134 154 181
133 154 181
133 154 181
134 154 181
134 154 181
133 154 181
134 154 181
134 154 181
134 154 181
134 155 181
134 154 181
134 154 181
133 154 181
134 154 181
133 154 180
133 154 180
134 154 181
135 155 181
134 154 181
134 154 181
133 154 181
134 155 181
134 154 181
134 154 181
135 155 181
134 154 181
133 154 181
133 154 181
134 154 181
134 154 181
134 154 181
135 155 181
134 154 181
134 154 181
134 154 181
134 154 181
134 154 181
134 154 181
134 155 181
133 154 181
133 154 181
134 154 180
134 154 181
134 154 181
135 155 181
133 154 181
134 154 181
134 154 181
134 154 181
134 154 181
133 154 181
134 154 181
133 154 181
133 154 181
134 154 181
134 154 180
134 155 181
134 154 181
135 155 181
133 154 181
133 154 181
133 154 181
134 154 181
134 154 181
134 154 181
133 154 181
133 154 181
134 154 181
134 154 180
133 154 181
134 155 181
134 154 181
134 154 181
134 154 181
134 154 181
134 154 181
134 154 181
133 153 180
134 154 181
133 154 181
133 154 180
134 154 181
134 154 181
133 154 181
134 154 181
134 154 181
134 154 180
133 154 181
133 154 181
134 154 181
134 154 181
134 154 181
134 154 181
134 154 181
133 153 180
134 154 181
133 154 181
134 154 181
133 154 181
134 154 181
134 154 180
133 154 181
134 154 181
134 154 181
134 154 180
134 154 181
133 153 180
134 155 181
134 154 181
133 154 181
133 154 181
133 153 180
133 154 181
133 154 181
134 154 181
135 155 181
133 154 181
134 154 181
134 154 181
133 154 181
134 154 181
134 154 181
134 154 181
135 155 181
133 154 181
134 154 181
135 155 181
133 154 181
134 154 181
135 155 181
133 154 181
133 154 181
133 153 180
134 154 181
134 154 181
133 154 180
134 154 181
134 154 181
134 154 181
134 154 181
134 154 181
134 154 180
134 154 181
134 154 181
134 154 181
133 154 181
133 154 181
135 155 181
134 154 181
133 154 181
134 154 181
133 154 181
134 154 181
134 154 181
133 154 181
134 154 181
134 154 181
134 154 181
133 154 181
134 155 181
134 154 181
134 154 181
134 154 181
134 154 181
133 154 181
134 154 181
134 154 181
134 154 181
134 154 181
134 154 181
134 154 181
134 154 181
134 154 181
134 154 181
133 154 181
133 153 180
134 154 181
133 154 180
134 154 181
134 154 181
133 154 181
133 154 181
133 154 180
134 154 181
134 154 181
134 154 181
134 154 181
134 154 181
134 154 181
134 154 181
134 154 181
134 154 181
134 154 181
133 154 181
133 154 181
134 154 181
134 154 181
133 154 181
134 154 181
134 154 180
134 154 181
133 154 181
133 154 181
133 154 181
134 154 181
133 154 181
133 154 180
134 154 181
134 154 181
134 154 181
135 155 181
133 154 181
134 154 181
134 154 181
134 154 181
134 154 181
134 154 181
133 154 180
133 154 181
133 154 181
133 154 181
133 154 181
133 154 181
134 154 181
134 154 181
134 154 181
134 154 181
134 154 181
134 154 181
133 154 181
134 154 181
133 154 181
134 154 181
134 154 181
133 154 181
133 154 181
134 154 181
133 154 181
133 154 181
134 154 181
134 154 181
133 154 181
133 154 181
134 154 181
133 154 180
134 154 181
134 154 181
133 154 181
133 154 180
134 154 181
134 154 181
133 154 181
134 154 180
134 154 181
134 154 181
133 154 181
135 155 181
134 154 181
134 154 181
133 154 181
133 154 181
133 154 181
133 154 180
133 154 181
134 154 181
134 154 181
134 154 181
133 154 181
134 154 181
133 154 181
135 155 181
134 154 181
134 154 181
134 154 181
133 154 181
132 153 181
134 154 181
135 155 181
133 154 181
134 154 181
133 154 181
133 154 181
134 154 181
133 154 180
133 154 181
135 155 181
134 154 181
133 154 181
133 154 181
133 153 180
133 154 181
134 154 180
134 154 181
135 155 181
133 154 181
133 154 181
134 154 181
133 154 180
134 154 181
133 154 181
134 154 181
134 154 181
133 154 181
133 154 180
134 154 181
134 154 181
134 154 181
134 154 181
133 154 180
134 154 181
133 154 181
134 155 181
134 154 181
133 154 181
133 154 181
133 153 180
134 154 181
133 154 181
134 154 181
133 154 181
134 154 181
133 154 181
133 154 181
134 154 181
134 154 181
134 154 181
134 154 181
133 154 181
134 154 181
134 154 181
133 154 181
134 154 181
133 154 181
133 154 180
133 154 181
133 154 181
135 155 181
134 154 181
134 154 181
134 154 181
133 154 181
133 154 181
134 154 181
134 154 181
134 154 181
135 155 181
134 154 181
133 154 181
133 154 181
134 154 181
134 154 181
134 154 181
135 155 181
133 154 181
134 154 181
134 154 181
134 154 181
133 154 181
134 154 180
134 154 181
133 154 181
134 154 181
135 155 181
134 154 181
134 154 181
134 154 181
134 154 181
133 154 181
133 154 181
134 154 181
133 154 181
133 154 180
133 154 181
134 154 181
134 154 181
133 154 181
134 154 181
134 154 180
134 154 181
133 154 181
134 154 181
133 154 181
133 154 181
134 154 181
134 154 180
134 154 181
133 154 181
133 154 180
134 154 181
134 154 181
134 154 181
134 154 181
134 154 181
133 154 181
134 154 181
135 155 181
134 154 181
135 155 181
133 154 181
134 154 181
134 154 181
133 154 181
133 154 181
134 154 181
134 154 181
134 154 181
133 154 181
134 155 181
133 154 181
133 154 181
134 154 181
134 154 181
134 154 181
134 154 181
134 154 181
134 154 181
133 154 181
134 154 181
134 154 181
133 154 181
134 154 181
134 154 181
133 154 180
134 154 180
134 154 181
134 154 181
133 154 181
134 154 180
134 154 181
133 154 181
134 154 181
134 154 180
134 155 181
134 154 181
133 154 181
134 154 181
134 154 181
133 153 180
134 154 181
133 154 181
134 154 181
134 155 181
134 154 181
134 154 181
133 154 181
134 154 181
134 154 181
134 154 181
133 154 181
135 155 181
134 154 181
133 154 181
135 155 181
134 154 181
134 154 180
133 154 181
134 154 181
133 154 180
134 155 181
133 154 180
133 154 181
133 154 181
134 154 181
133 154 180
134 154 181
134 154 181
133 154 181
134 154 181
133 154 181
134 154 181
133 154 181
134 154 181
134 154 181
135 155 181
133 154 181
134 154 181
134 154 181
134 154 181
133 154 180
134 154 181
135 155 181
133 154 180
133 154 181
134 154 181
135 155 181
134 154 181
134 154 181
134 154 181
135 155 181
133 154 180
133 154 181
133 153 180
134 155 181
134 154 181
134 154 181
134 154 181
134 154 181
134 154 181
133 153 180
134 154 181
134 154 181
133 154 181
133 154 181
133 154 181
134 154 180
133 154 181
134 154 181
133 154 181
134 154 181
134 154 181
133 154 181
133 154 181
134 154 181
134 154 181
133 154 181
133 154 181
135 155 181
135 155 181
133 154 181
133 154 181
134 154 181
134 154 181
134 154 181
134 154 181
134 154 181
133 154 181
133 154 181
133 154 181
133 154 181
133 154 180
133 154 181
133 154 181
134 154 181
134 154 181
133 154 181
134 154 181
134 154 180
134 154 181
134 154 181
134 154 181
133 154 181
133 154 181
134 154 181
134 154 181
134 154 181
133 154 181
134 154 181
133 154 181
133 154 181
133 154 181
134 154 181
133 154 180
133 154 181
133 154 181
134 154 181
134 154 181
135 155 181
133 154 181
134 154 180
134 154 181
134 154 181
134 154 181
134 154 181
134 154 181
135 155 181
134 154 181
134 154 181
135 155 181
133 154 181
134 154 181
134 154 181
134 154 181
134 154 181
134 154 181
134 154 181
133 154 181
134 154 181
134 154 181
134 154 181
134 154 181
134 154 181
133 154 181
133 154 181
134 154 181
133 154 181
135 155 181
133 154 181
133 154 181
134 154 181
133 154 181
134 154 181
134 154 181
134 154 181
133 154 181
133 154 181
134 154 181
134 154 181
134 154 181
133 154 181
134 154 181
134 154 181
133 154 181
133 154 181
134 154 181
134 154 181
134 154 181
134 154 181
133 154 180
134 154 181
134 154 181
134 155 181
133 153 180
133 154 181
134 154 181
134 154 181
133 154 181
134 154 180
133 154 181
134 154 181
134 154 181
134 154 181
133 154 181
134 155 181
134 154 181
133 154 181
134 154 181
133 153 180
135 155 181
133 154 181
134 154 181
134 154 181
134 154 181
135 155 181
134 154 181
134 154 181
134 154 181
133 154 181
132 153 181
133 154 181
134 154 181
133 153 180
134 154 181
133 154 181
134 154 181
134 154 181
134 154 181
134 154 181
133 154 181
134 154 181
133 154 181
134 154 181
134 154 181
134 154 181
134 154 181
133 154 180
134 154 181
134 155 181
135 155 181
135 155 181
134 154 181
134 154 181
134 154 181
134 154 181
134 154 181
132 153 181
134 154 181
134 154 181
134 154 181
134 154 181
134 154 181
134 154 181
134 154 181
134 154 181
134 154 181
134 154 181
134 154 181
133 154 181
133 154 180
133 154 181
134 154 181
134 154 181
133 154 180
133 154 181
135 155 181
135 155 181
134 154 181
134 154 180
134 154 181
134 154 181
133 154 181
134 154 181
134 154 181
134 154 181
134 154 180
134 154 181
134 154 181
133 154 181
134 154 181
134 154 181
133 154 181
134 154 181
133 154 181
132 153 180
135 155 181
133 154 181
134 154 181
133 154 181
133 154 181
133 154 181
134 154 181
134 154 181
134 154 180
133 154 181
133 154 181
134 154 181
133 154 181
134 154 181
134 154 181
134 154 181
134 154 181
134 154 181
134 154 181
134 154 181
134 154 181
133 154 181
134 154 181
134 154 181
133 154 181
134 154 181
133 154 181
134 154 181
134 154 181
134 154 181
135 155 181
133 154 181
134 154 181
133 154 181
133 154 181
134 154 181
133 154 181
134 154 181
133 154 181
133 154 181
133 154 181
133 154 181
134 154 181
134 154 181
135 155 181
133 154 181
134 154 181
133 154 181
133 154 181
134 154 181
133 154 181
134 154 181
134 154 181
134 154 181
134 154 181
133 154 181
134 154 181
134 154 181
133 154 181
134 154 181
133 154 181
134 154 181
134 154 181
133 153 180
133 154 181
134 154 181
133 154 181
135 155 181
133 154 181
134 154 181
133 154 181
134 154 181
133 154 181
134 154 181
135 155 181
134 154 181
134 154 181
134 154 181
133 154 181
134 154 181
133 154 181
133 154 181
134 154 181
134 154 181
134 154 180
134 154 180
134 154 180
135 155 181
135 155 181
134 154 181
134 154 181
134 154 181
133 154 181
134 154 181
134 154 181
133 154 181
133 154 181
134 154 181
134 154 181
134 154 181
134 154 181
134 154 181
133 154 181
133 154 181
134 154 181
134 154 181
134 154 181
134 154 181
133 154 181
133 154 181
134 154 181
134 154 181
135 155 181
133 154 181
134 154 181
133 154 181
133 154 181
134 154 181
134 154 180
133 154 181
134 154 181
134 154 181
134 154 181
134 154 181
134 154 181
134 154 181
133 154 181
134 154 181
134 154 181
135 155 181
134 154 181
133 154 181
133 154 181
134 154 181
134 154 181
134 154 181
134 154 181
133 154 181
134 154 181
133 154 181
133 154 181
134 155 181
134 154 181
134 154 181
135 155 181
134 154 181
134 154 181
133 154 181
134 154 181
134 154 181
134 154 181
134 154 181
133 154 181
134 154 181
133 154 181
134 154 181
134 154 181
134 154 180
133 154 181
133 154 181
134 154 181
133 154 181
134 154 181
135 155 181
133 154 181
133 154 181
133 154 181
134 154 181
133 154 181
134 154 181
134 154 181
133 154 180
133 154 181
134 155 181
134 154 181
134 154 181
134 154 181
134 154 181
134 154 181
133 154 181
133 154 181
134 154 181
134 154 181
133 154 181
134 154 181
134 154 181
132 153 180
133 153 180
134 155 181
135 155 181
134 154 181
134 154 181
134 154 181
133 154 181
134 154 181
133 154 181
134 154 181
133 154 181
133 154 180
134 154 181
134 154 181
133 154 181
133 154 181
134 154 181
134 154 181
134 154 181
134 154 181
134 154 181
134 154 181
134 154 181
133 154 181
133 154 181
133 154 181
134 154 181
134 154 181
134 154 181
133 154 181
134 154 181
133 153 180
133 154 181
134 154 180
133 154 181
134 154 181
134 154 181
134 154 181
133 154 180
133 154 181
135 155 181
135 155 181
134 155 181
134 154 181
134 154 181
134 154 181
134 154 181
133 154 181
133 154 180
134 154 181
134 154 180
133 154 181
133 154 181
133 154 181
134 154 181
134 154 181
133 154 181
134 155 181
133 154 181
134 154 181
133 154 181
134 154 181
134 154 181
134 154 181
134 154 181
134 154 181
133 154 181
134 154 181
134 154 181
134 154 181
134 154 180
134 154 181
134 154 181
134 154 181
133 154 181
134 154 181
133 154 181
133 153 180
134 154 181
134 154 181
134 154 181
133 154 181
133 154 181
134 154 181
134 154 181
134 154 181
133 154 181
133 154 181
133 154 181
134 154 181
134 154 181
134 154 181
133 154 181
133 154 180
133 154 181
134 154 181
133 154 181
134 154 181
134 155 181
134 154 181
134 154 181
135 155 181
134 154 180
134 154 181
134 154 181
134 154 181
134 154 181
133 154 181
134 154 181
134 154 181
134 154 181
133 154 181
134 154 181
134 154 181
134 154 181
134 154 181
134 154 181
134 155 181
134 154 181
134 154 180
133 154 180
134 154 181
134 154 181
134 154 181
134 154 181
134 154 181
134 154 181
133 154 181
134 154 181
134 154 181
133 154 180
133 154 181
133 154 180
134 155 181
134 154 181
133 154 181
133 154 181
133 154 181
134 154 181
133 154 181
134 154 181
133 154 181
133 154 181
134 154 181
134 154 181
134 155 181
133 154 181
134 154 181
134 154 181
133 154 180
133 154 181
134 154 181
134 154 181
134 154 181
134 154 181
134 154 181
133 154 181
133 154 181
134 154 181
134 154 181
133 154 181
133 154 181
134 154 181
134 154 181
134 154 181
135 155 181
134 154 181
135 155 181
133 153 180
133 154 181
134 155 181
134 154 181
133 154 181
133 154 181
133 154 181
133 154 181
133 154 181
133 154 181
135 155 181
134 154 181
133 154 181
134 154 181
134 154 181
134 154 181
134 154 180
133 153 180
133 154 180
134 154 181
134 154 181
134 154 180
134 154 181
134 154 181
133 153 180
134 154 181
134 154 181
133 154 180
134 154 181
134 154 181
134 154 181
133 154 181
134 154 181
134 154 181
135 155 181
134 154 181
134 154 181
134 154 181
134 154 181
134 154 181
134 154 181
133 154 181
133 154 180
133 154 181
135 155 181
134 154 181
134 154 181
134 154 181
133 154 181
133 154 181
134 154 181
133 154 181
134 154 181
133 154 181
134 154 180
135 155 181
134 155 181
133 154 181
133 154 181
134 154 181
134 154 181
133 154 181
133 154 181
134 154 181
134 154 181
134 154 181
134 154 181
134 154 181
133 154 181
134 154 181
134 154 181
133 154 181
134 154 181
133 154 181
134 154 181
135 155 181
134 154 181
135 155 181
133 154 181
133 154 181
134 154 181
134 154 181
133 154 181
133 154 181
134 154 181
134 154 181
134 154 181
132 153 180
134 154 181
134 154 181
134 155 181
134 154 181
134 154 181
133 154 181
134 154 181
133 154 181
134 154 181
134 154 181
134 154 181
133 154 181
133 154 180
133 154 181
134 154 181
133 154 181
133 154 181
134 154 181
133 154 180
133 154 181
133 154 181
133 154 181
134 154 181
134 154 181
133 154 181
134 154 181
133 154 181
133 154 180
134 154 180
134 154 181
133 154 181
133 154 181
133 154 181
133 154 181
134 155 181
134 154 181
133 154 181
134 154 181
133 154 181
133 154 181
134 154 181
133 154 181
133 153 180
133 154 181
134 154 181
134 154 181
134 154 181
133 154 181
134 154 181
134 154 181
133 154 181
134 155 181
134 154 181
134 154 181
134 154 181
133 154 181
134 154 181
134 154 181
134 154 180
133 154 181
135 155 181
133 154 181
134 154 181
134 155 181
133 154 181
134 154 181
133 154 181
133 154 181
134 154 181
134 154 181
134 154 180
134 154 181
134 154 181
134 154 181
134 154 181
133 154 181
133 154 181
134 154 181
134 154 181
133 154 181
133 154 181
135 155 181
133 153 180
134 154 181
133 154 181
134 154 181
134 154 181
135 155 181
133 153 180
133 153 180
133 154 181
133 154 181
135 155 181
133 154 180
134 154 181
133 154 181
134 154 181
134 154 181
133 154 181
134 154 181
134 154 181
133 154 181
134 154 181
134 154 181
134 154 181
133 154 181
135 155 181
134 154 181
134 154 180
134 154 181
133 154 180
134 154 181
135 155 181
134 154 181
134 154 181
134 154 181
133 154 181
134 154 181
134 154 181
135 155 181
135 155 181
133 154 181
134 154 181
134 154 181
133 154 181
134 154 181
134 154 181
133 154 181
133 154 181
134 154 181
133 154 181
134 154 181
134 154 181
134 154 181
135 155 181
134 154 181
135 155 181
133 154 181
134 154 181
134 154 181
134 154 181
134 154 181
133 154 181
134 154 181
134 154 181
134 154 181
134 154 181
134 154 181
133 154 181
133 154 180
133 154 181
134 154 181
133 154 181
134 154 181
134 154 181
134 154 181
135 155 181
133 154 181
133 154 180
134 154 181
133 154 181
134 154 181
134 154 181
134 154 181
134 154 181
134 154 181
133 154 181
134 154 181
134 154 181
135 155 181
133 154 181
133 154 181
134 154 181
133 154 181
133 154 181
134 154 181
133 154 181
134 154 181
133 154 181
133 154 181
133 153 180
133 153 180
133 154 181
135 155 181
134 154 181
134 154 181
134 154 181
134 154 181
134 155 181
133 154 181
134 154 181
133 154 181
134 154 181
134 154 181
134 154 181
134 154 181
134 154 180
134 154 181
133 154 181
134 155 181
133 154 181
134 154 181
133 154 180
133 154 181
134 154 180
134 154 181
133 154 181
134 154 181
134 154 181
133 154 180
134 154 181
133 154 181
134 154 181
135 155 181
133 153 180
134 154 181
134 154 181
134 154 180
133 154 181
134 154 181
133 153 180
134 154 181
133 154 181
133 154 181
134 155 181
134 154 181
133 154 181
134 154 181
134 154 181
134 154 181
134 154 181
134 154 181
134 154 180
134 154 181
133 154 181
133 154 181
133 154 181
133 154 181
133 153 180
133 154 181
133 154 181
134 154 181
134 154 181
134 155 181
134 154 181
134 154 181
134 154 180
134 154 181
134 154 181
134 154 181
134 154 181
133 153 180
133 154 181
134 154 181
134 154 181
134 154 181
134 154 181
134 154 181
133 153 180
134 154 181
133 153 180
134 154 181
134 154 181
134 154 181
133 154 181
134 154 181
134 155 181
133 154 181
134 154 181
133 154 181
133 153 180
133 154 181
134 154 181
134 154 181
133 154 181
133 154 181
134 154 181
134 154 181
133 154 181
134 154 181
133 154 181
133 154 181
134 154 181
133 154 181
134 154 181
134 154 181
134 154 181
134 154 181
133 154 181
134 154 181
133 153 180
134 154 181
134 154 181
134 154 181
134 154 181
133 154 181
134 154 181
134 155 181
135 155 181
134 154 181
134 154 181
134 154 181
133 154 181
134 154 181
134 154 181
134 154 181
134 154 181
134 154 181
134 154 181
134 154 181
135 155 181
133 154 181
133 154 181
134 154 181
133 154 181
133 154 181
133 154 181
133 154 181
134 154 181
134 154 181
134 154 181
133 154 181
134 154 181
133 154 180
133 154 180
133 154 181
134 154 181
134 154 181
134 154 181
134 154 181
132 153 181
134 154 181
134 154 181
133 154 181
133 154 181
135 155 181
134 154 180
133 154 181
133 154 181
134 154 181
133 154 180
134 154 181
134 154 181
134 154 181
134 154 181
133 154 181
133 154 180
134 154 181
133 153 180
134 154 181
134 154 181
135 155 181
133 154 181
133 154 181
134 154 181
133 154 181
134 154 181
133 154 181
133 154 181
134 155 181
134 154 181
133 154 181
133 154 181
134 154 181
134 155 181
134 154 181
134 154 181
133 154 181
134 154 181
134 154 181
134 154 181
133 154 181
132 153 180
134 154 181
135 155 181
134 154 181
134 154 181
133 154 181
134 154 181
134 154 181
133 154 181
134 154 181
134 154 181
135 155 181
133 153 180
133 154 181
134 154 181
134 154 181
134 154 181
134 154 181
134 154 181
135 155 181
133 154 181
134 154 181
133 154 181
134 154 181
134 154 181
134 154 181
134 154 181
133 154 181
135 155 181
134 154 181
134 154 181
135 155 181
134 154 181
134 154 181
133 154 181
133 154 181
135 155 181
133 154 181
134 154 181
134 154 181
134 154 181
134 154 181
133 154 181
134 154 181
133 154 181
134 154 181
134 154 181
134 154 181
134 154 181
134 154 181
134 154 181
134 154 181
133 154 181
133 154 181
134 154 181
134 154 180
133 153 180
134 154 181
133 154 181
134 154 181
134 154 181
133 154 181
134 154 181
133 154 180
134 154 181
133 154 181
133 154 181
134 154 181
134 154 181
134 154 181
134 154 181
134 154 181
133 154 181
133 154 181
133 154 181
133 154 181
134 154 181
134 154 181
134 154 181
134 154 181
134 154 181
133 154 181
134 154 181
134 154 181
134 154 181
133 154 180
133 154 181
134 154 181
133 154 180
133 154 181
134 154 181
133 154 181
134 154 181
134 154 181
133 154 180
133 154 180
133 154 181
134 154 181
134 154 181
133 154 181
133 154 181
133 154 181
134 154 181
134 154 181
134 154 181
134 154 181
133 154 181
134 154 181
133 154 181
133 154 181
134 154 181
134 154 181
134 154 181
133 154 181
133 154 181
134 154 181
134 154 181
134 154 181
134 154 181
134 154 181
133 154 181
134 154 181
134 154 181
133 154 181
134 154 181
133 154 181
134 154 181
134 154 181
134 154 181
133 154 181
134 154 181
134 154 181
134 154 181
134 154 181
133 154 181
134 154 181
133 154 181
133 154 180
133 154 181
134 154 181
134 154 181
134 154 180
134 154 181
134 154 181
134 154 180
134 154 181
135 155 181
134 154 181
134 154 181
134 154 181
133 154 181
133 154 181
133 154 181
133 154 181
133 154 181
133 154 181
133 154 181
134 154 181
134 154 181
133 154 181
134 154 181
135 155 181
134 154 181
134 154 181
132 153 180
133 154 180
134 154 181
133 154 181
134 155 181
133 154 180
133 154 181
134 154 181
134 154 181
134 154 181
134 154 181
133 154 180
134 154 181
133 154 181
133 154 181
133 154 180
133 154 181
133 154 181
133 154 181
134 154 180
132 154 181
133 154 181
133 154 181
133 154 181
134 154 181
134 154 181
133 154 181
134 154 181
133 154 181
134 154 181
134 154 181
134 154 181
134 154 181
134 154 181
134 154 181
134 154 181
134 154 181
134 154 181
133 153 180
134 154 181
134 154 181
133 154 181
134 154 181
134 154 181
134 154 181
133 154 181
134 154 181
133 154 181
133 154 181
133 154 181
134 154 181
134 154 181
134 154 181
133 154 180
134 155 181
134 154 181
134 154 181
134 154 181
133 154 181
134 154 181
134 154 180
133 153 180
133 154 181
133 154 181
134 154 181
134 154 180
133 154 181
134 154 181
133 154 181
133 154 181
133 154 181
134 154 181
133 154 180
133 153 180
134 154 180
133 154 181
134 154 181
132 153 180
134 154 181
134 154 181
134 154 181
134 154 181
133 154 181
134 154 181
134 154 180
134 154 181
133 154 181
135 155 181
133 154 181
133 154 180
133 154 180
134 154 180
134 154 181
133 154 181
133 154 181
134 154 180
133 154 181
134 154 181
134 154 181
134 154 180
135 155 181
133 153 180
134 154 180
135 155 181
134 154 181
134 154 181
134 154 181
134 154 181
134 154 180
134 154 181
134 154 181
134 154 181
134 154 181
132 153 180
133 154 181
134 154 181
133 154 181
133 154 181
135 155 181
134 154 180
133 154 181
134 154 181
133 154 181
133 154 181
133 154 181
134 154 181
133 154 181
133 154 181
134 154 181
134 154 181
133 154 181
134 154 181
134 154 181
133 154 181
134 154 181
134 154 181
134 154 180
134 154 181
134 154 181
134 154 181
133 154 181
134 154 181
134 154 181
134 154 181
134 154 181
133 154 181
134 154 181
134 154 181
133 154 181
134 154 181
133 154 181
134 154 181
134 154 181
133 154 181
134 154 181
133 154 181
135 155 181
134 154 181
134 154 181
135 155 181
133 153 180
133 154 181
134 154 181
134 154 181
134 154 181
133 154 181
134 154 181
134 154 181
133 154 181
133 154 181
133 154 180
134 154 181
134 154 181
134 154 181
133 154 181
134 154 181
135 155 181
133 154 181
134 154 181
134 154 181
133 154 181
134 154 180
133 154 181
134 154 181
133 154 181
134 154 180
134 154 181
134 154 180
133 154 181
133 154 181
134 154 181
134 154 181
133 154 181
134 154 181
134 154 181
133 153 179
134 154 181
133 154 181
133 154 181
133 154 181
133 154 181
133 154 181
133 154 181
136 155 181
134 154 181
134 154 181
134 154 181
133 154 181
134 154 181
134 154 180
133 154 181
133 154 181
133 154 180
133 154 181
133 154 180
134 154 181
133 154 181
134 154 181
134 154 181
134 154 181
135 155 181
134 154 181
134 154 181
134 154 181
134 154 181
134 154 181
134 154 181
134 154 181
134 154 181
133 154 181
134 154 181
134 154 181
133 153 179
134 154 181
133 154 181
134 154 181
134 154 181
133 154 181
133 154 181
134 154 181
134 154 181
134 154 181
134 154 181
134 154 181
134 154 181
134 154 181
133 154 181
134 154 181
133 154 181
134 155 181
134 154 180
134 154 181
134 155 181
133 154 181
133 154 181
133 154 181
133 154 181
133 154 181
134 154 181
133 154 181
135 155 181
134 154 181
133 154 181
134 154 181
133 154 181
133 154 181
134 154 181
134 154 181
133 154 181
133 154 181
134 154 181
132 154 181
134 154 181
134 154 181
134 154 181
134 154 181
134 154 180
134 154 181
134 154 181
134 155 181
134 155 181
133 154 181
134 154 181
134 154 181
134 154 181
134 154 181
134 154 181
134 154 181
134 155 181
133 154 181
133 154 181
135 155 181
133 154 181
135 155 181
134 154 181
135 155 181
134 154 181
133 154 181
133 154 181
133 154 181
134 154 181
133 154 181
133 154 181
134 154 181
135 155 181
134 154 181
134 154 181
134 154 181
134 154 181
134 154 181
133 154 181
134 154 181
134 154 181
133 154 181
134 154 181
133 154 181
135 155 181
134 154 181
133 154 181
134 154 181
134 154 181
133 154 181
134 154 181
133 154 181
133 154 181
134 154 181
134 154 181
134 154 181
134 154 181
134 154 181
134 154 181
133 154 181
133 153 180
133 154 181
133 154 181
134 154 181
134 154 181
134 154 181
133 154 181
133 154 181
134 154 181
134 154 181
134 154 181
133 154 181
134 154 181
134 154 181
134 154 181
134 154 180
133 153 180
134 154 181
133 154 181
134 154 181
134 154 181
134 155 181
133 154 181
134 154 181
133 154 181
133 154 181
134 154 181
133 153 180
134 154 181
134 154 181
134 154 181
134 154 180
134 154 181
133 154 181
133 154 181
133 154 181
134 154 181
134 154 181
134 154 181
133 154 181
135 155 181
133 154 181
134 154 181
134 154 181
133 154 181
134 154 181
134 154 181
134 154 181
133 154 181
134 154 181
135 155 181
133 154 181
133 154 181
134 154 181
135 155 181
133 154 181
134 154 180
133 154 181
134 154 181
134 154 181
133 154 181
134 154 181
133 154 181
134 154 181
133 154 181
133 154 181
133 154 180
134 154 181
133 154 181
134 154 181
133 154 181
133 154 181
134 154 181
133 154 181
133 154 181
134 154 181
133 154 181
135 155 181
134 154 181
134 154 181
133 154 180
133 154 181
133 154 181
133 154 181
133 154 181
134 154 181
134 154 181
134 154 181
134 154 181
134 154 181
134 154 181
133 154 181
134 154 180
134 154 181
135 155 181
134 154 181
134 154 181
133 154 181
134 154 181
134 154 181
134 154 181
134 154 181
134 154 181
135 155 181
133 154 181
134 154 181
135 155 181
133 154 181
133 154 180
134 154 181
133 153 180
133 154 181
134 154 181
134 154 180
134 154 181
134 154 180
133 153 180
134 154 181
135 155 181
134 154 181
134 154 181
133 154 181
133 154 181
133 154 181
134 154 181
133 154 181
135 155 181
133 154 181
133 154 181
133 154 181
133 154 181
134 154 180
133 154 180
134 155 181
133 154 181
134 154 181
133 154 181
133 154 181
133 154 181
135 155 181
133 154 181
133 154 181
135 155 181
133 154 181
134 154 181
133 154 181
133 154 181
134 154 181
134 154 181
133 154 181
135 155 181
133 154 181
134 154 181
134 154 181
134 154 181
134 154 181
133 154 181
133 154 180
134 154 181
135 155 181
134 154 181
133 154 181
133 154 181
134 154 181
133 154 180
134 154 181
134 154 181
133 154 180
134 154 181
134 154 181
134 154 181
134 154 181
133 154 181
133 153 180
135 155 181
133 153 180
134 154 181
134 154 181
133 154 180
134 154 181
133 154 181
134 154 180
134 154 181
134 154 181
133 154 181
134 154 181
135 155 181
134 154 181
132 153 181
135 155 181
133 154 180
134 154 181
133 154 181
134 155 181
133 154 181
134 154 181
133 154 181
134 154 181
134 154 181
133 154 181
133 154 181
134 154 181
134 154 180
133 154 181
134 154 181
134 154 181
134 155 181
134 154 181
134 154 181
134 154 181
135 155 181
133 154 181
134 154 181
133 154 181
134 154 181
134 154 181
134 154 181
133 154 181
133 153 180
133 154 181
134 154 181
133 154 181
134 155 181
133 154 181
133 154 180
134 154 181
134 154 181
134 154 181
133 154 181
133 154 181
135 155 181
133 154 180
134 154 181
133 154 181
134 154 181
133 154 181
134 154 181
133 154 181
133 154 181
134 154 181
133 154 181
134 154 181
133 154 181
133 154 181
133 154 181
134 154 181
134 154 181
134 154 181
133 154 181
134 154 181
134 154 181
134 154 181
134 154 181
134 154 181
134 154 181
134 154 181
133 154 181
135 155 181
133 154 181
133 153 180
134 155 181
133 154 181
133 154 181
133 154 181
134 154 181
134 154 181
134 154 181
134 154 181
133 154 181
134 154 181
133 154 181
133 154 181
134 154 181
134 154 181
134 154 181
133 154 181
133 154 181
134 154 181
133 154 181
133 154 181
134 154 181
134 154 181
133 153 180
134 154 181
134 154 181
133 154 181
134 154 181
134 154 181
134 154 181
134 154 181
134 154 181
134 154 181
134 154 180
134 154 181
135 155 181
134 154 181
133 154 181
133 154 181
133 154 181
133 154 181
134 154 181
134 154 181
134 154 181
134 154 181
133 154 180
133 154 181
133 154 181
134 154 181
134 154 181
135 155 181
134 154 181
133 154 180
134 154 181
133 154 181
134 154 181
133 154 181
135 155 181
134 154 181
133 154 180
134 154 181
134 154 181
133 154 181
133 154 181
134 154 181
134 154 181
134 154 180
133 154 180
133 154 181
134 154 181
134 154 181
133 154 181
134 154 181
134 154 181
134 154 181
134 154 180
134 154 181
133 154 180
133 154 181
133 154 181
135 155 181
134 154 181
133 154 181
134 154 181
134 154 181
134 154 181
134 154 181
133 154 181
134 154 181
134 154 181
134 154 181
134 154 181
133 154 180
134 154 181
134 154 181
134 155 181
134 154 181
134 154 181
134 154 181
133 154 181
133 154 181
135 155 181
134 154 181
133 154 181
134 154 181
133 154 181
134 154 181
134 154 181
134 154 181
134 154 181
135 155 181
133 154 181
133 154 181
133 154 181
133 154 181
133 154 180
134 154 181
134 154 181
135 155 181
134 154 181
134 154 181
134 154 181
134 155 181
134 154 181
134 154 181
134 154 181
133 154 181
134 154 181
134 154 181
134 154 181
134 154 181
134 154 181
134 154 181
134 154 181
134 154 181
134 154 181
134 155 181
134 154 181
134 154 181
134 154 181
134 154 181
134 154 181
134 154 181
134 154 181
135 155 181
134 154 181
133 154 180
134 154 181
134 154 181
134 154 181
134 154 181
134 154 181
134 154 181
134 154 181
134 154 181
134 154 181
133 154 181
133 154 181
133 154 181
133 154 181
133 153 180
133 154 181
134 154 181
135 155 181
133 154 180
135 155 181
134 154 181
134 154 181
132 153 181
134 154 181
133 154 181
133 154 181
133 154 181
133 154 181
133 154 181
134 154 180
134 154 181
134 154 181
133 154 181
134 154 181
133 154 181
135 155 181
134 154 181
134 154 181
133 154 181
134 154 181
135 155 181
134 154 181
134 154 181
133 154 181
134 154 181
133 154 181
134 155 181
134 154 181
133 153 180
134 154 181
134 154 181
133 154 180
133 154 181
134 154 181
132 153 180
134 154 181
134 154 181
134 154 181
134 154 181
133 154 181
132 153 181
133 154 181
134 154 181
134 154 181
132 153 180
134 154 181
133 154 181
133 154 181
134 154 181
134 154 181
134 154 181
133 154 181
133 154 180
133 154 181
133 154 180
133 154 181
133 154 181
133 154 180
134 154 181
134 154 181
133 154 181
134 154 181
134 154 181
134 154 181
134 154 180
134 154 181
134 154 181
133 154 181
134 154 181
133 154 181
133 154 181
134 154 181
134 154 181
134 154 181
134 154 181
135 155 181
134 154 181
133 154 181
135 155 181
134 154 181
134 154 181
134 154 181
135 155 181
134 154 181
133 154 181
134 154 180
133 154 181
134 154 181
134 154 180
132 153 180
133 154 181
133 154 181
133 153 180
134 154 181
134 154 181
133 154 181
134 154 181
134 154 181
135 155 181
134 154 181
133 154 181
133 154 181
133 154 181
135 155 181
134 154 181
134 154 181
133 154 181
133 154 181
133 154 181
134 154 181
133 154 181
133 154 181
134 154 181
134 154 181
133 154 181
134 154 181
134 154 181
134 154 181
133 154 181
134 154 181
134 154 181
134 154 180
133 153 180
134 154 181
133 153 180
133 154 181
133 154 181
134 154 180
134 154 181
134 154 181
135 155 181
134 154 181
133 154 181
133 154 181
133 154 181
134 154 181
134 154 181
134 154 181
133 154 181
133 154 181
134 154 180
134 154 181
134 155 181
134 154 181
134 155 181
133 154 180
134 154 181
134 154 181
134 154 181
134 154 181
133 154 181
134 154 181
134 154 181
134 154 181
134 154 181
134 154 181
133 154 181
134 154 181
133 154 180
133 154 180
133 154 181
133 154 181
133 154 181
134 154 180
134 154 181
134 154 181
134 154 181
134 154 181
134 154 181
134 154 181
133 154 181
134 154 181
133 154 181
134 154 180
134 154 181
134 154 181
134 155 181
134 154 181
134 154 181
134 154 181
133 154 181
134 154 181
134 154 181
134 154 180
133 154 181
135 155 181
133 154 181
134 154 181
133 154 181
134 154 181
134 154 181
135 155 181
134 154 181
133 154 181
133 154 181
133 154 181
134 154 181
133 154 180
133 154 181
134 154 181
134 154 181
134 154 181
133 154 181
134 154 181
135 155 181
133 154 181
134 154 180
134 154 181
134 154 181
134 154 181
133 154 181
134 154 181
134 154 181
134 154 181
134 154 181
134 154 181
134 154 181
134 154 181
134 154 181
134 154 181
134 154 181
134 154 181
134 154 181
134 154 180
133 154 181
134 154 181
134 154 181
133 154 180
134 154 181
133 154 181
134 154 181
133 154 180
134 154 181
133 154 181
133 154 181
134 154 181
134 154 181
133 154 180
133 154 180
133 154 181
133 154 181
133 154 181
133 154 181
133 154 181
134 154 181
134 154 181
134 154 181
134 154 181
133 154 181
133 154 181
134 154 181
133 154 180
133 154 181
133 154 181
133 154 181
134 154 181
133 154 181
133 154 181
134 154 181
134 154 181
134 154 181
133 154 181
134 154 181
134 154 181
133 154 180
134 154 180
133 154 181
134 154 181
134 154 181
134 154 181
135 155 181
133 154 181
134 154 181
133 154 181
134 154 181
133 154 181
134 154 181
134 154 181
133 153 180
133 154 181
133 154 181
134 154 181
134 154 181
134 154 181
135 155 181
134 154 181
134 154 181
134 155 181
133 154 181
134 154 181
133 154 181
134 154 181
134 154 181
134 154 181
134 154 181
134 154 181
134 155 181
134 154 181
133 154 181
134 154 180
133 154 181
134 154 181
134 154 181
134 154 180
134 154 181
134 154 181
135 155 181
134 154 180
133 154 181
133 154 180
133 154 181
132 153 180
134 154 181
133 154 181
133 154 181
134 154 181
134 154 181
134 154 181
133 154 181
134 154 181
133 154 181
133 154 181
133 154 181
133 153 180
134 154 181
133 154 181
135 155 181
134 154 181
134 154 181
133 154 181
134 154 181
133 154 180
134 154 180
134 154 181
134 154 181
134 154 181
134 154 181
134 154 181
135 155 181
133 154 181
135 155 181
134 154 181
134 154 181
133 154 181
134 154 181
134 154 181
133 154 181
133 154 181
134 154 181
134 154 181
134 154 180
134 154 181
134 154 181
134 154 181
133 154 181
134 154 181
134 154 181
133 154 180
134 154 181
135 155 181
134 154 181
134 154 181
135 155 181
134 154 181
134 154 181
134 155 181
134 154 181
133 154 180
134 154 181
134 154 181
134 154 181
134 154 181
134 154 181
133 154 181
134 154 181
132 153 181
134 154 181
134 154 181
133 154 181
133 154 181
133 154 181
134 154 181
134 154 181
133 154 181
134 154 181
133 154 181
133 154 181
134 154 181
134 154 181
134 154 181
135 155 181
133 154 181
134 154 181
133 154 181
133 154 181
133 154 181
134 154 181
133 153 180
134 154 181
134 154 181
132 153 180
134 154 181
133 154 181
135 155 181
134 154 181
134 154 181
134 154 181
134 155 181
134 154 181
134 154 181
134 154 181
135 155 181
133 154 181
134 154 181
134 154 181
133 154 181
134 154 181
134 154 181
134 155 181
134 154 181
134 154 181
133 154 181
134 154 181
134 154 181
134 154 181
134 154 181
133 154 181
134 154 181
134 154 181
134 154 181
134 154 181
134 154 181
134 154 181
134 154 180
134 154 181
133 154 181
134 154 181
134 154 181
134 154 181
133 154 181
133 154 181
134 154 181
133 153 180
134 154 181
133 154 181
134 154 181
133 153 180
133 154 181
133 154 181
134 154 181
134 154 181
134 154 180
135 155 181
134 154 181
133 154 180
134 154 181
134 154 181
134 154 181
134 154 181
134 154 180
134 154 181
133 154 180
134 154 181
134 154 181
133 154 181
134 154 181
134 154 181
134 154 181
134 154 181
134 154 181
133 154 181
134 154 181
134 154 181
135 155 181
133 154 181
134 154 181
134 154 181
134 154 180
133 154 181
134 154 181
134 154 181
133 154 181
134 154 181
135 155 181
135 155 180
133 154 181
133 154 181
134 154 181
134 154 181
134 154 181
134 154 181
135 155 181
134 154 180
135 155 181
134 154 181
134 154 181
134 154 181
134 154 181
133 154 181
134 154 181
134 154 181
133 154 181
133 154 181
132 154 181
133 154 180
134 154 181
134 154 181
134 154 180
134 154 181
134 154 181
134 154 181
134 154 181
133 154 181
133 154 181
134 154 181
134 154 181
133 154 181
133 153 179
134 154 181
134 155 181
135 155 181
133 154 181
134 154 181
134 154 181
133 154 181
134 154 181
134 154 181
134 154 181
133 154 181
134 154 181
134 154 180
134 154 181
135 155 181
134 154 181
134 154 181
134 154 181
133 154 181
133 154 181
133 154 180
133 154 181
133 154 181
134 154 181
133 154 181
133 154 181
134 154 181
134 154 181
134 154 181
134 154 181
134 154 181
134 154 180
134 154 181
133 154 181
133 154 181
133 154 181
134 154 181
133 154 181
134 154 181
133 154 181
133 154 180
134 154 181
133 154 181
133 154 181
135 155 181
134 154 180
134 154 181
133 153 180
134 154 181
134 154 181
134 154 181
135 155 181
133 154 181
134 154 181
133 154 180
134 154 181
134 154 181
133 154 181
134 154 181
134 154 181
133 154 181
134 154 181
134 154 180
134 154 181
134 154 181
135 155 181
133 154 181
134 154 181
133 154 181
134 154 181
134 154 181
134 154 181
134 154 181
134 154 181
133 154 181
134 154 181
134 154 180
133 154 181
133 154 180
134 154 181
133 154 181
134 154 181
134 155 181
133 154 181
133 154 181
134 154 181
133 154 181
134 154 181
134 154 181
134 154 180
134 154 181
134 154 181
134 154 181
135 155 181
134 154 181
134 154 181
134 154 181
133 154 180
135 155 181
134 154 181
134 154 181
134 154 181
134 154 181
133 154 181
134 154 181
133 154 180
134 154 181
135 155 181
134 154 181
134 154 181
133 154 180
134 154 181
134 154 181
134 154 181
134 154 181
134 154 181
134 154 180
134 154 181
135 155 181
133 154 181
134 154 181
134 155 181
134 154 181
135 155 181
134 154 181
134 154 181
135 155 181
134 154 181
133 154 180
133 153 180
134 154 181
134 154 181
134 154 181
133 154 181
133 154 181
134 154 181
134 154 181
133 154 180
133 154 181
133 154 181
134 154 181
133 154 181
134 154 181
134 154 180
134 154 181
134 154 181
134 154 181
133 154 181
133 154 181
134 154 181
134 154 181
134 154 181
133 154 181
134 154 181
134 154 181
133 153 180
133 154 181
134 154 181
134 154 181
133 154 181
134 154 181
133 154 181
133 154 181
133 153 180
133 154 181
133 154 181
134 155 181
134 154 180
133 154 181
133 154 181
135 155 181
134 154 180
134 154 181
133 154 181
134 154 181
134 154 181
134 154 181
133 154 181
134 154 181
134 154 181
134 154 181
134 154 181
132 153 181
134 154 181
134 154 181
134 154 181
133 154 181
133 154 181
134 154 181
133 154 181
134 154 181
133 154 181
134 154 181
134 154 181
134 154 181
134 154 181
134 154 181
132 153 181
134 154 181
134 154 181
134 155 181
133 154 181
134 154 181
134 155 181
134 154 181
133 154 181
134 154 181
134 154 181
135 155 181
134 154 181
133 154 181
134 154 180
133 154 180
133 154 180
133 154 181
134 154 181
134 154 181
135 155 181
133 154 181
134 154 181
133 154 181
134 154 181
133 154 181
134 154 181
134 154 181
134 154 181
135 155 181
134 154 181
133 154 181
134 154 181
134 154 181
134 154 181
134 154 181
134 154 181
133 154 181
134 154 181
135 155 181
134 154 181
135 155 181
133 154 181
133 154 181
134 154 181
134 154 181
133 154 181
133 154 181
133 154 181
133 154 181
135 155 181
134 154 181
134 154 181
134 154 181
133 154 181
134 154 181
133 154 181
133 154 181
134 154 181
134 154 181
134 154 181
134 154 181
134 154 181
134 154 181
134 154 181
133 154 180
134 154 181
133 154 181
133 154 181
133 154 181
134 154 181
134 154 181
134 154 181
134 154 181
133 154 181
134 154 181
134 154 181
134 154 181
133 154 181
133 154 181
133 154 181
133 154 180
134 154 181
133 154 181
134 154 181
134 154 181
133 153 180
134 154 181
134 154 181
133 154 181
134 154 181
135 155 181
134 154 181
135 155 181
133 154 181
134 154 181
133 154 181
134 154 181
134 154 181
134 154 181
133 154 181
134 154 181
134 154 181
133 154 181
134 154 181
133 154 181
134 154 181
133 154 181
133 154 181
133 154 181
134 154 181
134 154 181
134 154 181
135 155 181
133 154 181
134 154 180
134 154 181
133 154 180
134 154 181
133 154 181
134 154 181
133 154 181
134 154 181
135 155 181
134 154 181
134 155 181
134 154 181
135 155 181
133 154 181
134 154 181
134 154 181
133 154 181
133 154 181
133 154 181
132 153 180
134 154 180
133 154 181
134 154 181
135 155 181
133 154 181
134 154 181
134 154 181
134 154 181
134 154 181
134 154 181
134 155 181
134 154 181
134 154 181
135 155 181
135 155 181
135 155 181
133 154 181
133 154 180
134 154 181
133 154 181
134 154 181
134 154 181
133 154 180
134 154 181
134 154 181
134 154 181
134 154 181
134 155 181
134 154 181
134 154 181
133 154 180
134 154 181
134 154 181
134 154 181
134 154 181
134 154 181
134 154 181
133 153 180
133 154 181
134 154 180
133 154 180
134 154 181
133 154 181
133 154 181
134 154 181
133 154 180
134 154 181
134 154 181
134 154 181
133 154 181
134 154 181
134 154 181
134 154 181
134 154 181
133 154 180
133 154 181
134 154 181
133 154 181
133 153 180
134 154 181
134 154 180
134 154 181
133 154 180
134 154 181
134 154 181
134 154 181
134 154 181
134 154 181
134 154 181
134 154 181
134 154 181
133 154 181
134 154 181
134 154 181
134 154 181
133 154 181
133 153 180
134 154 181
133 154 181
135 155 181
134 154 181
135 155 181
135 155 181
135 155 181
134 154 181
134 154 181
134 154 181
134 154 181
134 154 181
133 154 180
134 154 181
134 154 181
134 154 180
134 154 181
134 154 181
133 154 181
134 154 181
134 154 181
134 154 181
134 154 181
133 154 181
133 154 180
134 155 181
133 154 181
134 154 181
134 154 181
133 154 181
134 154 181
134 154 181
134 154 181
133 154 181
133 154 181
135 155 181
134 154 181
134 154 181
133 154 181
133 153 180
134 154 181
134 154 181
134 154 181
133 154 181
133 153 180
134 154 181
133 154 181
134 154 181
134 154 181
134 154 180
133 154 181
134 154 181
135 155 181
133 154 181
133 154 181
134 154 181
134 154 181
135 155 181
134 154 181
134 154 181
133 154 181
134 154 181
134 154 181
133 154 181
134 154 181
134 154 181
135 155 181
133 154 181
134 154 181
134 154 181
134 154 181
133 154 181
135 155 181
134 154 181
133 154 181
134 155 181
133 154 181
135 155 181
133 154 181
135 155 181
133 154 181
134 154 181
134 154 181
134 154 181
133 154 181
134 154 181
133 154 180
134 154 181
134 154 181
133 154 181
134 154 181
134 154 181
134 155 181
134 155 181
134 154 181
133 154 181
133 154 181
134 154 181
134 154 181
134 154 181
134 154 181
133 153 180
134 154 181
134 154 181
133 154 181
134 154 181
134 154 181
135 155 181
134 154 180
133 154 181
133 154 181
135 155 181
134 154 181
134 154 181
133 154 181
134 154 181
133 154 181
133 154 181
134 154 181
133 154 181
132 153 181
134 154 181
133 154 181
134 154 181
133 154 181
134 154 181
133 154 180
134 154 181
134 154 180
134 154 181
134 154 181
134 154 181
135 155 181
134 154 181
133 153 180
134 154 181
134 154 180
133 154 181
133 154 181
133 154 180
134 154 181
134 153 179
133 154 181
133 154 181
134 154 181
134 154 181
134 154 181
134 154 180
133 154 181
133 154 180
134 154 181
133 154 181
135 155 181
132 153 180
133 154 181
133 154 181
134 154 181
134 154 181
134 154 181
134 154 181
134 154 181
134 154 180
134 154 181
134 155 181
134 154 181
134 154 181
134 154 181
133 154 181
134 154 181
133 154 181
134 154 181
134 154 181
133 154 181
134 154 181
134 154 181
133 154 181
134 154 181
133 154 181
134 154 181
134 154 181
134 154 181
133 154 181
133 154 181
134 154 181
133 154 181
133 153 180
135 155 181
133 154 181
133 154 180
134 154 181
134 154 181
133 154 181
133 153 180
133 154 181
135 155 181
134 154 181
133 154 180
135 155 181
134 154 180
134 154 181
134 154 181
133 154 181
133 154 181
135 155 181
134 154 181
134 154 181
134 154 181
133 154 181
133 154 181
134 154 181
133 154 181
134 154 181
134 154 181
134 154 181
133 154 181
133 154 181
135 155 181
133 154 181
133 154 181
133 154 181
134 154 181
133 154 181
134 154 181
134 154 181
133 154 181
134 154 181
134 154 181
134 154 181
134 154 181
133 154 181
133 154 181
134 154 181
134 154 181
134 154 181
133 154 181
134 154 181
133 154 181
134 154 181
133 154 180
133 154 181
133 154 181
133 154 181
134 154 181
134 154 181
134 154 181
134 155 181
133 154 180
134 154 181
134 154 180
133 154 181
134 154 181
134 154 181
134 154 181
134 154 181
134 154 181
134 154 181
133 154 181
134 154 181
133 154 181
134 154 181
133 154 181
133 154 181
133 154 181
134 154 181
132 153 180
133 154 181
133 154 181
133 154 180
134 154 181
133 154 181
134 154 181
134 154 181
133 154 181
134 154 181
134 154 180
133 154 181
134 154 181
133 154 181
134 154 181
134 154 181
134 154 181
134 154 181
135 155 181
134 154 181
134 154 181
133 154 181
133 154 181
134 154 181
134 154 181
134 154 181
133 154 181
133 154 181
133 154 181
133 153 180
133 154 180
133 153 180
133 154 181
133 154 181
133 154 181
134 154 181
134 154 181
134 154 181
133 154 181
133 154 181
133 154 180
134 154 181
133 154 181
134 154 181
133 154 181
134 154 181
134 155 181
134 154 181
133 154 180
134 154 181
134 154 180
133 154 181
134 154 180
133 154 181
133 154 180
133 154 181
134 154 181
134 154 181
134 154 181
133 154 180
134 154 181
133 154 181
134 154 181
134 154 181
134 154 181
133 154 181
134 155 181
135 155 181
134 154 180
134 154 181
134 154 181
134 154 181
134 154 181
134 154 181
133 154 181
133 154 180
134 154 181
133 154 181
134 154 180
133 154 181
134 154 181
134 154 181
133 154 180
134 154 180
133 154 181
134 154 180
133 154 181
134 154 181
134 154 181
133 154 181
135 155 181
133 154 181
134 154 181
134 154 181
134 154 181
134 154 181
133 154 181
133 154 181
133 154 181
134 154 181
133 154 181
133 154 181
134 154 181
134 154 181
133 154 181
134 154 181
134 154 181
134 154 181
134 154 181
134 154 181
133 154 181
134 154 181
134 154 181
133 154 180
134 154 181
134 154 181
133 154 181
134 154 181
134 154 181
134 154 181
133 154 181
134 154 181
134 154 180
133 154 181
133 154 181
133 154 181
134 155 181
134 154 181
134 154 181
133 154 181
134 154 181
134 154 180
136 155 181
134 154 181
133 154 181
134 155 181
134 154 181
133 154 181
133 154 181
133 154 181
133 154 181
134 154 181
134 154 181
134 154 181
134 154 181
134 154 181
133 154 181
133 154 181
134 154 181
134 154 181
134 154 181
133 153 179
134 154 181
133 154 181
133 154 181
133 154 181
134 154 181
133 154 181
134 154 181
134 155 181
134 154 181
134 154 181
134 154 180
134 154 181
134 154 181
133 154 181
133 154 181
134 154 181
134 154 181
133 154 181
133 154 181
134 154 181
134 154 181
133 154 181
134 154 181
134 154 181
133 154 181
134 154 181
134 154 181
134 154 181
133 154 181
133 154 181
134 155 181
134 154 181
134 154 181
134 154 181
134 154 181
135 155 181
133 154 181
133 154 181
133 154 180
135 155 181
135 154 180
134 155 181
134 155 181
134 154 181
134 154 181
134 154 181
134 154 181
135 155 181
134 154 181
134 154 181
134 154 181
134 154 181
134 154 181
134 154 180
134 154 181
134 154 181
133 153 180
133 154 181
133 154 181
134 154 181
133 154 181
134 154 181
134 154 181
134 154 181
133 154 181
134 154 181
133 154 181
134 154 181
133 154 181
133 154 181
133 154 181
133 154 180
133 153 180
134 154 181
133 154 181
133 153 180
134 154 181
134 154 181
134 154 181
133 154 180
134 154 181
134 154 181
134 154 181
134 154 181
134 154 181
133 154 181
134 154 181
133 154 180
133 154 181
133 154 181
133 154 181
134 154 180
133 154 181
133 154 181
134 154 181
134 154 181
133 154 181
133 154 181
134 154 181
134 154 181
134 154 181
133 154 181
133 154 180
134 154 181
133 154 181
133 154 181
133 154 181
133 154 181
134 154 180
133 154 181
133 154 181
134 154 181
134 154 181
133 154 181
134 154 181
133 154 181
133 154 181
134 154 181
134 154 181
133 154 181
134 154 181
133 154 180
134 154 181
134 154 181
134 154 181
135 155 181
134 154 181
133 154 181
133 154 181
134 154 181
132 153 181
134 154 180
133 154 180
133 154 180
133 154 181
134 154 181
133 154 181
133 154 181
133 154 181
133 154 181
134 154 181
134 154 181
133 153 180
134 154 181
133 154 181
134 154 181
133 154 181
134 154 181
134 154 181
134 154 181
134 154 181
134 154 181
134 154 181
133 154 181
133 154 181
134 154 181
134 154 180
134 154 181
133 154 181
134 154 181
134 154 181
133 154 181
134 154 181
134 154 181
134 154 180
134 155 181
133 154 181
134 154 181
134 154 180
134 154 181
134 154 181
134 154 181
134 154 181
132 153 181
134 154 181
134 154 181
134 155 181
134 154 181
133 153 180
134 154 181
134 155 181
135 155 181
134 154 181
134 154 181
133 154 181
133 154 181
134 154 181
134 154 180
134 154 181
133 154 181
134 154 181
133 154 181
134 154 181
135 155 181
134 154 181
134 154 181
134 154 181
134 154 181
134 154 181
134 154 181
134 154 181
134 154 181
134 154 181
134 154 181
133 154 181
133 154 180
133 153 180
133 154 181
134 154 181
133 154 181
135 155 181
134 154 181
134 154 181
134 154 181
133 154 181
134 154 180
133 153 180
134 154 180
134 154 180
133 154 181
133 154 181
134 154 181
133 154 180
134 154 181
133 154 181
134 154 181
134 154 181
134 155 181
133 154 181
134 154 181
133 154 181
134 154 181
133 154 181
133 154 181
134 154 181
134 154 181
134 154 181
134 154 181
133 154 181
134 155 181
135 155 181
133 154 181
133 154 181
135 155 181
133 154 181
134 154 181
133 154 181
134 154 181
133 153 180
133 154 181
133 154 181
134 154 181
133 154 181
134 154 181
133 154 181
133 154 181
135 155 181
134 154 181
133 154 180
135 155 181
134 154 181
133 154 181
134 154 181
133 154 181
134 154 181
134 154 181
134 154 181
134 154 181
133 154 181
134 154 181
134 154 181
134 154 181
134 154 181
134 154 181
134 154 181
134 154 181
134 154 181
133 154 181
133 154 181
134 154 180
134 154 181
133 154 181
134 154 181
134 154 181
133 154 181
133 154 181
134 154 181
134 155 181
134 154 181
133 154 181
135 155 181
135 155 181
134 154 181
134 154 181
134 154 181
133 154 181
133 154 181
134 155 181
133 154 181
134 154 181
134 154 181
133 154 181
134 154 180
133 154 181
134 154 181
135 155 181
134 154 181
133 154 181
134 154 181
135 155 181
134 154 181
134 154 181
134 154 180
133 154 181
134 154 181
133 154 181
134 154 181
133 154 181
135 155 181
134 154 181
133 154 181
134 154 181
134 154 181
134 154 181
133 154 181
133 154 181
133 154 181
134 154 181
133 154 181
134 154 181
134 154 181
133 154 181
134 154 181
134 154 181
134 154 181
134 154 180
134 154 181
135 155 181
133 154 180
134 154 181
133 154 181
134 154 181
134 155 181
134 154 181
133 154 181
134 154 181
135 155 181
134 154 181
133 154 181
134 154 181
133 154 181
134 154 181
134 154 181
134 154 181
134 154 181
134 154 181
133 154 181
134 154 181
133 154 181
133 154 181
134 154 181
134 154 181
135 155 181
134 154 181
133 154 181
134 154 181
133 154 180
132 153 180
133 154 181
133 154 180
134 154 181
134 154 181
134 154 181
134 154 181
134 154 181
133 154 181
134 154 181
134 154 181
134 154 181
133 154 181
134 154 181
134 154 181
135 155 181
133 154 181
134 154 181
133 154 181
133 154 181
134 154 181
133 154 181
134 154 181
135 155 181
135 155 181
134 154 181
134 154 181
133 154 181
134 154 181
134 154 181
134 154 181
134 154 181
135 154 179
133 154 181
133 154 181
133 154 181
135 155 181
134 154 181
135 155 181
134 154 181
134 154 181
132 153 180
134 154 181
134 154 181
134 154 181
134 154 181
134 154 181
134 154 181
134 154 181
134 154 181
134 154 181
134 154 181
133 153 179
135 155 181
133 154 180
133 154 181
134 154 181
134 154 181
134 154 181
134 154 181
133 154 181
133 154 181
134 154 181
134 154 181
134 154 181
133 154 181
134 154 181
134 154 181
134 154 181
134 154 181
133 154 181
134 154 181
134 154 181
132 153 181
133 154 181
134 154 181
133 154 181
133 154 181
134 154 181
133 154 181
134 154 181
134 154 181
134 154 181
134 154 180
133 154 181
134 154 181
134 154 181
134 154 181
134 154 181
133 154 181
133 154 181
134 154 181
133 153 180
133 154 181
134 154 181
133 153 180
133 154 181
134 154 181
134 154 180
133 154 181
132 153 180
133 153 180
134 154 181
133 154 181
133 154 181
134 154 181
134 154 181
133 154 181
134 154 181
133 154 181
133 154 181
135 155 181
133 153 180
134 154 181
134 154 181
134 154 181
134 154 181
134 154 181
134 154 181
133 154 181
133 154 181
134 154 181
133 154 181
134 154 181
132 153 181
134 154 181
134 154 181
134 154 181
134 154 181
134 154 181
133 154 181
134 154 181
133 154 181
134 154 180
133 153 179
133 154 180
133 154 180
133 154 181
134 154 181
133 153 180
134 154 181
134 154 181
133 153 180
133 153 179
133 154 181
133 154 181
134 154 181
134 154 181
133 153 180
133 154 180
133 154 181
134 154 181
133 154 181
134 154 181
133 154 181
133 154 181
133 154 181
133 154 181
133 154 180
134 154 181
134 154 180
134 154 181
134 154 181
133 153 180
134 154 181
134 154 181
134 154 180
135 155 181
134 154 181
134 154 181
133 154 181
134 155 181
134 154 181
135 155 181
134 154 181
133 154 181
134 155 181
134 154 180
134 154 181
133 154 181
134 154 181
133 154 181
134 154 181
134 154 181
134 154 181
134 154 181
134 154 181
133 154 181
134 154 181
133 154 181
133 154 180
132 153 181
134 155 181
134 154 181
133 154 181
134 154 181
134 154 181
133 153 180
134 154 181
133 154 181
133 154 181
134 154 181
134 155 181
133 154 181
134 154 181
133 154 181
134 154 181
134 154 181
133 154 181
133 154 181
134 154 181
134 154 181
134 154 181
134 154 181
134 154 180
134 154 181
134 154 181
133 154 181
133 154 181
134 154 181
132 153 181
134 154 181
132 153 181
134 155 181
134 155 181
134 155 181
134 154 181
133 154 181
135 155 181
133 154 181
134 154 181
134 154 181
133 154 181
134 154 181
134 154 181
134 154 181
133 154 181
133 154 181
133 154 181
133 154 180
134 154 181
134 154 181
135 155 181
134 154 181
133 154 181
134 154 181
133 154 181
134 154 181
134 154 181
134 155 181
133 154 181
134 154 181
134 154 181
134 154 181
133 154 181
134 154 181
134 154 181
134 154 181
133 154 181
133 154 181
133 154 181
134 154 181
134 154 181
134 154 181
134 154 181
134 155 181
133 154 181
133 153 180
134 154 180
133 154 181
133 154 181
135 155 181
134 154 181
134 154 181
133 154 180
133 154 181
134 154 180
133 153 180
134 154 181
133 154 181
134 154 181
134 154 181
134 154 181
133 154 181
133 154 181
134 154 181
134 154 181
133 154 181
133 154 181
133 154 180
134 154 180
133 154 181
134 154 180
134 154 181
134 154 181
133 153 180
133 153 180
133 154 180
133 154 181
133 154 180
135 155 181
133 154 181
134 154 181
134 154 181
133 154 181
134 154 181
134 154 181
133 154 180
134 154 181
134 154 181
134 154 181
134 154 181
133 154 180
134 154 181
133 154 180
134 154 181
133 154 181
134 154 181
134 154 181
134 154 181
133 154 181
134 154 181
134 154 181
133 154 180
133 154 180
133 154 181
132 153 180
134 154 181
134 154 181
134 154 181
133 154 181
134 155 181
134 154 180
134 154 181
133 154 181
133 154 181
134 154 181
134 154 181
134 154 181
133 154 181
134 154 181
133 153 180
133 154 181
133 154 181
133 154 181
133 154 181
134 154 181
133 154 181
134 154 180
134 154 181
134 154 181
134 154 181
134 154 180
134 154 181
133 154 181
134 154 180
135 155 181
134 154 181
134 154 181
134 155 181
134 154 181
134 154 181
133 154 181
134 154 181
134 154 181
134 154 181
133 154 180
133 154 181
134 154 181
133 154 181
133 154 180
134 154 181
133 154 180
135 155 181
134 154 181
133 154 181
134 154 181
133 154 181
134 154 181
133 154 181
133 154 181
133 154 181
134 154 181
133 154 181
135 155 181
133 154 181
133 154 181
133 154 181
135 155 181
134 154 180
134 154 180
133 154 181
133 154 181
133 154 181
134 154 181
133 154 181
133 154 181
134 154 181
133 154 181
133 154 181
134 154 181
134 154 181
134 154 181
134 154 181
134 154 181
134 154 181
134 154 181
133 154 181
133 153 180
134 154 181
134 154 181
133 154 181
134 154 181
134 154 181
133 154 181
133 154 180
134 154 181
134 154 180
133 154 180
133 154 181
134 154 181
134 154 181
134 154 181
134 154 181
134 154 181
133 154 181
135 155 181
134 155 181
134 154 181
134 154 181
135 155 181
133 154 181
134 154 181
134 154 181
135 155 181
133 154 181
135 155 181
134 154 181
134 154 180
134 154 181
133 154 181
134 154 181
134 154 181
134 154 181
134 154 181
135 155 181
132 153 181
134 154 181
133 154 181
134 154 181
133 154 180
133 154 180
134 154 181
134 154 181
134 154 181
134 154 180
133 154 180
133 154 181
133 154 181
133 154 181
133 154 181
134 154 181
133 154 181
133 154 181
133 154 181
134 154 181
134 154 181
134 154 181
133 154 181
134 154 181
134 154 181
133 154 181
133 154 181
134 154 181
134 154 181
134 154 181
133 154 180
134 155 181
134 154 181
133 154 181
134 154 181
133 154 181
134 154 181
133 154 181
134 154 181
134 154 181
134 154 181
134 154 181
134 154 181
134 154 181
133 154 181
135 155 181
133 154 181
133 154 181
133 154 181
134 154 181
133 154 181
134 154 181
133 154 180
134 154 181
134 155 181
134 154 181
133 154 181
134 154 181
134 154 181
134 154 181
134 154 181
134 154 181
133 154 181
133 154 180
133 154 181
134 154 181
135 155 181
134 154 181
134 154 181
133 154 181
134 154 181
134 154 181
133 154 180
133 154 181
133 154 180
134 154 181
133 154 181
133 154 181
134 154 181
134 154 181
134 154 181
133 154 181
134 154 181
134 154 181
134 154 181
133 154 181
134 154 181
133 154 181
133 154 181
133 154 181
133 154 181
133 153 180
133 154 181
134 154 181
134 154 181
135 155 181
134 154 181
133 154 181
134 154 181
133 154 181
133 153 180
133 154 180
134 154 181
134 154 181
134 154 181
132 153 180
134 154 180
134 154 181
134 154 181
134 155 181
134 154 181
134 154 181
134 154 180
134 154 180
133 153 180
134 154 181
133 154 181
134 154 180
134 154 181
134 154 181
134 154 180
134 154 181
133 154 181
134 154 181
134 154 181
134 154 181
133 154 181
134 154 181
134 154 181
134 154 181
133 154 181
133 154 181
134 154 181
134 154 181
133 154 181
134 154 180
134 154 181
133 154 181
134 155 181
134 155 181
134 154 181
133 154 181
134 154 181
134 155 181
133 154 180
133 154 181
133 154 181
134 154 181
134 154 181
134 154 181
134 154 181
133 154 181
134 154 181
134 154 181
134 154 181
134 154 181
134 154 181
134 154 181
133 154 181
133 153 180
133 153 180
133 154 181
133 154 181
134 154 181
134 154 181
134 154 181
133 154 181
133 154 181
133 154 181
133 154 181
134 154 181
134 154 181
133 154 181
134 154 181
133 154 181
133 154 181
133 154 181
134 154 181
134 154 181
134 154 181
134 154 181
134 154 181
135 155 181
134 154 181
134 154 181
134 154 181
134 154 181
134 154 181
134 154 181
133 154 181
134 154 181
133 154 181
133 154 181
134 155 181
133 154 180
134 154 181
134 154 181
134 154 181
135 155 181
133 154 180
134 154 181
134 154 180
134 154 181
134 154 181
134 154 181
134 154 181
133 154 181
133 154 181
133 154 181
134 154 181
134 155 181
134 154 181
133 153 180
134 154 181
134 154 181
133 154 181
133 154 180
133 154 181
134 154 181
134 154 181
134 155 181
133 154 181
135 155 181
134 154 181
134 154 181
133 154 180
133 154 181
134 154 181
134 154 181
134 154 181
134 154 181
134 154 181
134 154 181
133 154 181
133 154 181
134 154 181
133 154 181
134 154 181
134 154 181
134 154 181
133 154 181
134 154 181
134 154 181
134 154 181
134 154 181
134 154 181
134 155 181
134 154 181
133 154 181
133 154 181
133 154 181
132 153 181
133 154 181
135 155 181
134 154 181
134 154 181
135 155 181
134 154 181
135 155 181
134 154 181
133 154 181
133 154 181
134 154 181
133 154 181
134 154 180
134 154 181
133 154 181
134 154 181
134 154 181
133 154 180
134 154 181
134 154 181
134 154 181
134 154 181
134 154 181
134 154 181
134 154 181
134 154 181
134 154 181
134 154 181
134 154 181
133 154 181
134 154 181
134 154 181
133 154 181
134 154 181
133 154 181
132 153 180
133 154 181
135 155 181
134 154 181
135 155 181
134 154 181
134 154 181
133 154 181
134 154 181
134 154 181
134 154 181
134 154 181
133 154 181
134 154 181
133 154 181
134 154 181
133 154 181
133 154 181
134 155 181
134 154 181
133 154 181
134 154 181
133 153 180
134 154 181
133 153 180
134 154 181
134 154 181
133 154 181
134 154 181
133 154 181
134 154 181
133 154 181
133 154 181
134 154 181
133 154 181
134 154 181
133 154 181
133 154 181
134 154 181
134 154 181
134 154 181
134 154 180
133 154 181
133 154 181
134 154 181
134 154 181
133 154 181
133 154 181
133 154 181
133 153 180
133 154 180
134 154 181
134 154 181
134 154 181
133 154 181
134 154 181
133 154 181
134 154 181
133 154 181
134 154 181
133 154 181
134 154 181
134 154 181
133 154 181
134 154 181
134 154 181
133 154 181
134 154 181
134 154 181
133 154 180
133 154 181
134 154 181
135 155 181
134 154 181
135 155 181
132 153 181
134 154 181
134 155 181
134 154 181
134 154 181
134 154 181
134 154 181
133 154 181
134 154 181
133 154 181
133 154 181
133 154 181
134 154 180
134 154 181
134 154 181
133 154 181
133 154 181
133 154 181
133 154 181
134 154 180
133 154 181
133 154 181
134 154 181
134 154 181
134 154 181
134 154 181
133 154 181
134 154 181
134 154 181
134 154 181
134 154 180
133 154 181
133 154 181
134 154 181
134 155 181
134 154 181
134 155 181
135 155 181
134 154 181
133 154 181
133 154 181
132 153 180
133 154 181
134 154 181
134 154 181
133 154 181
134 154 181
133 154 181
134 154 181
133 154 181
134 154 181
133 154 181
133 154 181
134 154 181
134 154 181
134 154 181
134 154 181
133 154 181
133 154 180
134 154 181
133 153 180
134 154 181
135 155 181
134 154 181
134 154 181
133 154 181
133 154 181
134 154 181
133 154 181
134 154 181
134 154 181
134 154 181
133 154 181
134 154 181
134 154 181
134 154 181
133 154 181
134 154 181
135 155 181
134 154 181
133 154 181
134 154 181
134 154 181
134 155 181
133 153 180
134 154 181
134 154 181
133 154 181
133 154 181
134 154 181
134 154 181
132 153 181
133 153 180
134 154 181
134 154 181
134 154 181
134 154 180
134 154 181
134 154 181
133 154 181
134 154 181
134 154 181
133 154 181
133 154 181
133 153 180
134 154 181
133 154 181
134 154 181
134 154 181
133 154 181
134 154 181
133 154 180
134 154 181
135 155 181
133 154 181
134 154 181
133 154 181
133 154 181
134 154 181
134 154 181
133 154 181
133 154 181
134 154 181
134 154 181
134 154 181
133 154 181
133 154 181
134 154 181
134 154 181
133 154 180
134 154 181
134 154 181
133 154 181
134 154 180
134 154 181
134 154 181
134 154 181
134 154 181
134 154 181
134 154 181
134 154 181
133 153 180
134 154 181
133 154 181
133 154 180
134 154 181
134 154 181
134 154 181
133 154 181
134 154 181
134 154 181
134 154 181
133 154 181
134 154 181
134 154 181
134 154 181
134 154 181
133 154 181
134 154 181
134 154 181
134 154 181
134 154 181
133 154 181
134 154 181
134 154 181
135 155 181
134 154 181
134 154 181
134 154 181
134 155 181
134 154 181
134 154 181
134 154 181
134 154 181
134 154 181
134 154 181
135 155 181
133 154 181
133 154 181
133 154 181
133 154 181
134 154 181
133 154 180
135 155 181
134 154 181
134 154 181
134 154 181
134 154 181
134 154 181
133 154 181
133 154 181
134 155 181
134 154 181
134 154 181
134 154 180
134 154 180
133 154 181
134 154 181
133 154 181
134 155 181
134 154 181
134 154 181
134 154 181
134 154 181
132 154 181
134 154 181
135 155 181
133 154 181
135 155 181
134 155 181
134 154 181
134 154 181
135 154 180
134 154 181
133 154 181
134 154 181
134 154 181
134 154 181
133 153 180
134 154 181
135 155 181
134 154 181
134 154 181
134 154 181
133 154 181
134 154 181
134 154 181
133 154 181
133 154 181
134 154 181
134 154 180
134 154 181
134 154 181
134 154 181
134 154 181
134 154 181
134 154 181
133 154 181
133 154 181
133 154 181
133 154 181
134 154 181
134 154 181
134 154 181
133 154 180
134 154 181
133 154 181
135 155 181
134 154 181
134 154 181
133 154 181
134 154 181
133 154 181
134 154 181
133 154 181
134 154 181
134 154 181
134 154 181
134 154 181
132 153 180
134 154 181
134 154 181
134 154 181
133 154 181
134 154 181
134 154 181
133 154 181
133 154 181
134 154 181
133 154 180
134 154 181
134 154 181
133 154 181
134 154 181
134 154 181
134 154 180
134 154 181
134 155 181
133 153 180
134 154 181
134 154 181
133 154 181
134 154 181
135 155 181
135 155 181
133 154 181
134 154 181
134 154 181
134 154 181
133 154 181
134 154 181
132 153 180
134 154 181
133 154 180
133 154 181
133 154 181
133 154 181
134 154 181
133 154 180
133 154 181
133 154 181
133 154 181
133 154 181
134 154 181
134 154 181
133 154 181
134 154 181
134 154 181
133 154 181
135 155 181
134 154 181
134 155 181
134 154 181
134 154 181
133 154 181
134 154 181
133 154 181
134 154 181
134 154 181
133 154 181
134 154 181
133 154 181
132 153 181
135 155 181
134 154 181
133 154 181
135 155 181
133 154 180
134 154 181
134 154 180
132 153 179
134 154 181
134 154 181
133 154 181
134 154 181
135 155 181
133 154 181
134 154 181
134 154 181
133 153 180
134 154 181
134 154 181
133 154 181
133 154 181
134 154 181
134 154 181
134 154 181
133 154 181
134 154 181
133 154 181
134 154 181
134 154 181
134 154 181
134 154 181
133 154 181
133 154 181
133 154 181
134 154 181
133 154 181
134 154 181
133 154 181
134 154 181
135 155 181
133 154 181
134 154 181
134 154 181
133 154 181
133 153 180
134 154 181
134 154 181
134 154 181
133 154 181
133 154 181
133 154 181
133 154 180
134 154 181
134 154 181
133 154 181
134 154 181
134 154 181
134 154 181
134 154 181
133 154 181
134 154 181
133 154 180
133 154 181
134 154 181
133 154 181
133 154 181
134 154 181
134 154 181
133 154 181
134 154 180
134 154 181
134 154 181
133 154 181
134 154 181
133 154 181
134 154 181
134 154 181
133 154 181
133 154 181
134 154 181
134 154 181
134 154 181
133 154 181
134 154 181
134 154 181
133 154 181
133 154 181
134 154 181
133 154 181
134 154 181
133 154 181
134 154 180
134 154 181
134 154 181
135 155 181
134 154 181
134 154 181
134 154 181
134 154 181
133 154 181
134 154 181
134 154 181
134 154 181
134 154 181
135 154 180
133 154 181
134 154 180
134 154 181
134 154 181
134 154 181
133 154 181
134 154 181
134 154 181
134 154 181
134 154 181
133 154 181
133 154 181
134 154 181
133 154 181
134 154 181
134 154 181
133 154 181
134 154 181
134 154 181
134 154 181
133 154 180
134 154 180
134 154 181
134 154 181
134 154 181
133 154 181
133 154 181
134 154 181
134 154 181
134 154 181
134 154 181
134 154 181
134 154 181
133 154 181
133 154 181
133 154 181
133 154 181
133 154 181
134 154 181
134 154 181
134 154 181
134 154 181
134 154 181
134 154 181
134 154 181
135 154 180
132 153 181
134 154 181
135 154 180
134 154 181
134 154 181
133 154 181
133 153 180
134 154 181
135 155 181
134 154 181
132 153 180
134 154 181
133 154 181
133 154 181
133 154 181
134 154 181
134 154 181
134 154 181
134 154 181
134 154 181
134 154 181
133 154 181
133 154 181
133 154 181
133 153 180
133 154 181
134 154 181
134 154 181
134 154 181
134 154 181
133 153 180
134 154 181
134 154 181
134 154 181
133 154 181
133 154 181
132 153 180
133 154 181
133 153 180
133 154 181
133 153 180
134 154 181
133 153 180
134 154 181
134 154 180
133 154 181
135 155 181
133 154 181
134 154 181
133 153 180
133 154 181
134 154 181
133 154 181
134 154 181
134 154 181
133 154 180
133 154 181
134 154 181
133 154 181
133 154 181
133 154 180
133 154 181
134 154 181
133 154 181
134 154 181
134 154 181
134 154 181
133 154 181
133 153 180
134 154 181
133 154 180
134 154 181
133 154 181
134 154 181
136 155 181
134 154 181
134 154 181
134 154 181
134 154 181
134 154 181
134 155 181
133 154 180
134 154 181
134 154 181
133 154 181
134 155 181
134 154 180
133 154 181
134 154 181
134 154 181
135 155 181
134 154 181
134 154 181
134 154 180
134 154 181
134 154 181
135 155 181
135 155 181
134 154 181
134 154 181
134 154 181
134 154 181
134 154 181
133 154 180
134 154 181
134 154 181
134 154 181
134 154 181
134 154 181
134 154 181
134 154 181
133 154 181
134 154 180
133 154 181
133 154 181
134 154 181
134 154 181
134 154 181
134 154 181
134 154 181
134 154 181
133 154 181
134 154 181
134 155 181
133 154 181
134 154 181
134 154 181
134 154 181
133 154 180
134 154 181
134 154 181
134 154 181
134 154 181
134 154 181
134 154 181
134 154 181
134 154 181
133 154 181
134 154 181
134 154 181
134 154 181
133 154 181
134 154 181
133 154 181
135 155 181
133 154 181
133 154 181
133 154 180
134 154 181
134 154 181
134 154 181
133 154 181
134 154 181
135 155 181
133 154 181
133 154 181
133 154 180
133 154 180
133 154 181
133 153 180
134 154 181
134 154 181
134 154 181
134 154 181
134 154 181
134 154 181
133 154 181
133 154 181
133 154 181
134 154 181
134 154 181
134 154 181
134 154 181
134 154 181
134 154 181
134 154 181
133 154 181
133 154 181
134 154 181
134 154 181
134 154 181
134 154 181
134 154 181
134 154 181
134 154 181
134 154 181
134 154 181
134 154 181
134 154 181
134 154 181
134 154 181
133 154 181
134 154 180
133 154 181
134 154 181
134 154 181
134 154 181
133 154 181
134 154 181
133 154 181
134 154 181
133 154 181
133 154 181
134 154 181
134 154 181
134 155 181
133 154 181
134 154 181
134 154 181
134 154 181
133 154 181
133 154 181
133 154 180
135 155 181
133 154 180
134 154 181
133 154 181
133 154 181
134 154 181
134 154 181
134 154 181
133 154 181
134 154 181
134 154 181
135 155 181
135 155 181
135 155 181
134 154 181
134 154 181
133 154 181
133 154 181
134 155 181
135 155 181
133 154 181
134 154 181
134 154 181
134 154 180
133 154 181
133 154 181
134 154 181
134 154 181
134 154 181
134 154 181
133 154 181
134 154 181
134 154 181
134 154 181
133 154 181
134 154 181
133 154 181
134 154 181
133 154 181
134 154 181
134 154 181
133 154 180
134 154 181
134 154 180
133 154 181
133 154 181
133 154 181
134 154 181
134 154 181
133 154 181
134 154 181
134 154 181
134 154 181
134 154 181
133 154 181
134 154 181
134 154 181
134 154 181
133 154 181
134 154 181
133 154 181
134 154 181
133 154 181
134 154 181
134 154 181
133 154 181
132 153 181
133 154 181
134 154 181
133 154 181
134 154 181
134 154 181
133 153 180
133 154 181
134 154 181
134 154 181
134 154 181
134 154 181
134 154 181
134 154 181
134 154 181
135 155 181
134 154 180
133 154 181
133 154 181
134 154 181
133 154 181
134 154 181
134 154 181
134 154 181
134 154 181
134 154 181
133 154 181
134 154 181
134 154 181
133 154 181
133 154 181
134 154 181
134 154 180
134 154 181
134 154 181
134 154 181
133 154 181
134 154 181
133 154 181
133 154 181
134 154 180
134 154 181
134 154 181
134 154 181
134 154 181
133 154 181
134 154 181
133 154 181
134 154 181
134 154 181
134 154 181
133 154 181
135 155 181
133 154 181
134 154 181
134 154 181
134 154 181
133 154 181
135 155 181
134 154 181
134 154 181
133 154 181
134 154 181
133 154 181
133 154 180
134 154 181
134 154 181
134 154 181
133 154 181
133 153 180
134 154 181
133 154 181
134 154 181
134 154 181
133 154 181
133 154 181
134 154 181
134 154 180
134 154 181
133 154 181
133 154 181
134 154 181
134 155 181
134 154 181
134 154 181
133 154 181
134 154 181
135 155 181
134 154 181
134 154 181
134 154 181
132 153 181
133 154 181
134 154 181
134 154 181
133 154 181
134 154 181
135 155 181
134 154 181
133 154 181
133 154 181
134 154 181
133 154 181
134 154 181
134 154 180
134 154 181
134 154 181
135 154 180
133 154 181
133 154 180
134 154 181
133 154 181
134 154 181
133 153 180
135 155 181
133 153 180
133 154 181
134 154 181
133 154 181
134 154 180
134 154 181
133 154 181
134 154 181
134 154 181
133 153 180
134 154 181
134 155 181
133 154 180
134 154 181
134 154 181
133 154 181
134 154 181
133 154 181
133 154 181
133 154 181
134 154 181
134 154 181
134 154 181
134 154 181
133 154 181
134 154 181
133 154 180
133 154 181
133 154 180
134 154 181
134 154 181
134 155 181
133 154 181
134 154 180
134 154 181
134 154 181
134 154 181
135 155 181
134 154 181
134 154 181
134 154 181
133 154 181
134 155 181
134 154 181
135 155 181
133 154 181
133 154 181
134 154 181
133 154 181
134 154 181
134 154 181
134 154 181
134 154 181
133 153 180
134 154 181
133 154 181
133 154 181
134 154 181
134 154 181
134 154 181
134 154 181
134 154 181
134 154 181
133 154 181
134 154 181
134 154 181
134 154 181
134 154 181
133 154 181
133 154 181
135 155 181
134 154 181
134 154 181
134 154 181
134 154 181
134 154 181
134 154 181
133 154 181
133 153 180
134 154 181
134 154 181
133 154 181
133 154 181
134 154 181
134 154 181
133 154 180
135 155 181
134 154 181
134 154 181
135 155 181
134 155 181
134 154 181
133 154 181
134 154 181
133 154 181
134 154 181
134 154 181
134 154 181
134 154 181
134 154 181
134 154 181
134 154 181
135 155 181
134 154 181
133 154 181
134 154 181
133 154 181
134 154 181
134 154 181
133 154 181
134 154 181
134 154 181
134 154 181
134 154 181
134 154 181
134 154 181
134 154 181
133 154 181
133 154 181
133 154 181
132 154 181
134 154 181
134 154 181
134 154 181
134 154 181
133 154 180
134 154 181
133 154 181
134 154 181
133 154 181
133 154 181
134 154 181
133 154 181
133 154 181
133 154 181
134 154 181
134 154 181
135 155 181
135 155 181
133 154 181
134 154 181
133 153 180
134 154 181
134 154 181
134 154 181
133 154 181
134 154 181
134 154 181
134 154 181
134 154 181
133 154 181
133 154 181
134 154 181
134 154 181
134 154 181
133 154 181
132 153 180
134 154 181
134 154 181
133 154 181
133 154 181
133 154 181
134 154 181
133 154 181
134 154 181
134 154 181
134 154 181
134 154 181
134 154 181
134 154 181
133 154 181
135 155 181
134 154 181
134 154 181
134 154 181
134 154 181
133 154 181
134 154 181
135 155 181
134 154 181
134 154 181
134 154 180
134 154 181
133 154 181
134 155 181
133 154 181
134 154 181
133 154 180
134 154 181
134 154 181
134 154 181
133 154 181
134 154 181
134 154 180
134 154 181
134 154 181
134 154 181
134 154 181
134 155 181
133 154 181
133 154 181
133 154 181
134 154 181
135 155 181
134 154 181
134 154 181
134 154 181
134 154 181
134 154 181
134 154 181
134 154 181
134 154 181
134 154 181
134 154 180
133 154 181
133 154 181
133 154 181
134 154 181
133 154 181
134 154 181
134 154 181
133 154 181
133 154 181
133 154 181
133 154 181
133 154 181
132 153 181
133 154 181
134 154 181
134 154 181
134 154 181
134 154 181
134 154 181
134 154 181
133 154 181
133 154 181
134 154 181
133 154 181
134 154 181
133 154 181
135 155 181
133 154 181
134 155 181
134 154 181
133 154 181
133 154 181
133 154 181
133 154 180
133 153 180
134 154 181
134 154 181
134 154 181
134 154 181
134 154 181
134 154 181
133 153 180
134 154 181
133 154 181
133 154 181
134 154 181
134 154 181
134 154 181
133 154 181
134 154 181
134 154 181
134 154 181
135 155 181
134 154 181
134 154 181
134 154 181
134 154 181
133 154 181
133 154 181
133 154 181
133 154 181
134 154 180
134 154 181
133 154 181
135 155 181
133 154 181
134 154 181
134 154 181
133 153 180
133 154 181
133 154 181
133 154 181
134 154 181
133 154 181
133 154 181
134 154 181
134 154 181
134 154 181
134 154 181
133 154 181
134 155 181
134 154 181
133 153 180
133 154 181
135 155 181
134 154 181
133 154 181
134 154 181
134 154 181
134 154 181
134 154 181
134 154 181
133 154 181
133 154 181
134 154 181
135 155 181
134 154 181
134 154 181
133 154 181
133 154 181
134 154 181
134 154 181
134 154 181
134 154 180
134 154 181
133 154 181
134 154 181
134 154 181
134 154 181
134 154 181
133 154 181
132 153 180
134 154 181
134 154 181
134 154 181
134 155 181
133 154 181
134 154 181
133 154 181
134 154 180
134 154 181
135 155 181
133 154 181
133 154 180
133 154 181
133 154 181
135 155 181
134 154 181
133 154 181
133 154 181
133 154 181
134 154 181
134 154 181
133 154 181
133 154 181
134 154 181
134 154 181
133 154 181
134 154 181
133 154 181
133 154 181
134 154 181
135 155 181
134 154 181
133 154 181
134 154 181
133 154 181
133 154 180
133 154 181
134 154 181
134 154 181
133 154 181
134 154 181
134 154 181
135 155 181
134 154 181
133 154 180
133 154 181
133 154 181
135 155 181
134 154 181
134 154 181
134 154 181
134 154 181
134 154 181
134 154 181
135 155 181
134 154 181
134 154 181
133 154 181
134 154 181
133 154 181
134 154 181
133 153 180
134 154 181
134 154 181
134 154 181
134 154 181
133 154 180
133 154 181
133 154 180
135 155 180
133 154 181
134 154 181
134 154 181
134 154 181
133 154 181
133 153 180
133 154 181
134 154 181
134 154 181
133 154 181
134 154 181
135 155 181
134 154 181
133 154 181
133 154 181
134 154 181
133 154 181
134 154 181
134 154 181
134 154 181
134 155 181
134 154 181
134 154 181
133 154 181
134 154 181
134 154 180
135 155 181
134 154 181
133 154 181
135 155 181
134 154 180
133 154 181
133 154 181
133 154 181
133 154 180
133 154 181
133 154 181
133 154 181
134 154 181
135 154 180
133 154 181
132 153 180
134 154 181
134 154 181
133 154 181
133 154 181
133 154 180
135 155 181
132 154 181
134 154 181
134 154 181
134 154 181
134 154 181
134 154 181
134 154 181
133 153 180
133 154 180
134 154 180
134 154 181
133 153 180
133 154 181
133 154 181
134 154 181
134 154 181
134 154 181
134 154 181
134 154 181
133 154 181
134 154 181
134 154 181
134 154 181
134 154 181
134 154 181
134 154 181
134 154 181
134 154 181
134 154 180
133 154 181
133 154 181
135 155 181
133 154 181
134 154 181
133 154 181
135 155 181
133 154 181
135 155 181
134 154 181
134 154 181
134 154 181
133 154 181
134 154 181
133 154 181
134 154 181
134 154 181
134 154 181
134 154 181
135 155 181
134 154 181
132 153 180
133 153 180
133 154 181
133 154 181
134 154 181
134 154 181
133 154 181
134 154 181
133 154 181
134 154 181
135 155 181
134 154 181
134 154 181
134 154 181
133 154 181
134 154 181
134 154 181
133 154 181
134 154 180
133 154 181
134 154 181
134 154 181
134 154 181
134 154 181
134 154 181
134 154 181
134 154 181
134 154 181
133 154 181
134 154 181
133 154 181
134 154 181
134 154 181
133 154 181
133 154 181
134 154 181
134 154 181
133 154 181
134 155 181
134 154 181
134 154 181
133 154 181
134 155 181
135 155 181
134 154 181
134 154 181
134 154 181
133 154 181
134 155 181
133 154 181
134 154 180
134 154 181
134 154 181
134 154 181
135 155 181
134 154 181
133 154 181
134 154 181
134 154 181
133 154 181
134 154 181
133 154 181
134 154 181
133 154 181
134 154 181
134 154 180
133 154 181
134 154 181
134 154 181
134 154 181
134 154 181
134 154 181
133 154 181
133 154 180
135 155 181
134 154 181
134 154 181
134 154 180
134 154 181
133 154 181
133 154 181
133 154 181
133 154 181
135 155 181
134 154 181
133 154 181
135 155 181
134 154 180
134 154 181
134 154 181
133 154 181
134 154 181
133 154 181
133 154 181
134 154 181
133 154 181
133 154 181
133 154 181
133 154 181
135 155 181
134 154 181
134 154 180
135 155 181
134 154 181
134 154 181
133 154 181
134 154 181
134 154 181
134 155 181
134 154 181
133 154 181
134 154 181
134 154 181
133 154 180
134 154 181
134 154 181
133 154 181
133 154 181
133 154 181
133 154 180
134 154 181
134 154 181
133 154 181
134 154 181
133 154 181
134 154 181
134 154 181
134 154 181
134 154 181
134 154 181
134 154 181
133 154 181
134 154 181
134 154 181
134 154 181
134 154 181
134 154 181
134 154 181
133 154 181
133 153 180
134 154 181
134 154 181
134 154 181
134 154 181
134 154 181
133 154 181
134 154 180
133 154 181
134 154 181
134 154 181
133 154 181
134 154 181
133 154 181
134 154 181
134 154 181
134 155 181
135 155 181
134 154 181
133 154 181
135 155 181
133 154 181
134 154 181
135 155 181
134 154 181
134 154 181
134 154 181
134 154 181
134 154 181
135 155 181
134 154 181
133 154 181
133 154 181
134 154 181
134 154 181
134 154 180
134 154 181
133 154 181
135 155 181
134 154 181
134 154 181
134 154 181
132 153 181
134 154 181
134 154 181
134 154 181
134 154 181
134 154 181
134 154 181
134 154 181
133 154 181
133 154 181
134 154 180
134 154 181
134 154 181
133 153 180
134 154 181
134 154 181
134 154 181
132 153 181
134 154 181
134 154 181
133 154 181
134 154 181
133 154 181
133 154 181
133 154 181
133 154 181
134 154 181
133 154 181
134 154 181
134 154 181
133 154 181
134 154 181
133 154 181
134 154 181
134 154 181
134 154 181
134 154 181
133 154 181
134 154 181
134 154 181
134 154 181
133 154 181
134 154 180
134 154 181
133 154 181
134 154 181
134 154 181
133 154 181
133 154 181
134 154 181
134 154 181
135 155 181
134 154 181
133 154 181
134 154 181
134 154 181
134 154 181
134 154 181
134 154 181
133 154 181
134 154 181
134 154 181
134 154 181
133 154 181
134 154 181
133 154 181
135 155 181
134 154 181
134 154 181
133 154 181
134 154 181
134 154 181
134 154 181
133 153 180
134 154 181
134 154 181
134 154 181
134 154 180
133 154 180
134 155 181
134 154 181
134 154 180
133 154 180
134 154 181
134 154 181
133 154 181
134 154 181
134 154 181
133 154 181
133 154 181
133 154 181
133 154 181
134 154 181
134 154 181
134 154 181
134 154 181
134 154 181
133 154 181
134 154 181
134 154 181
134 154 181
134 155 181
133 154 181
133 154 181
133 154 181
133 154 181
133 154 181
133 154 181
134 154 180
133 154 181
133 154 181
134 154 181
134 154 181
133 154 181
134 154 180
134 154 181
135 155 181
134 154 181
134 154 181
133 154 181
134 154 181
133 153 180
133 154 181
133 154 181
133 154 181
134 154 181
133 154 181
134 154 181
135 155 181
134 154 180
133 154 181
134 154 181
134 154 181
133 154 181
134 154 181
134 154 181
134 154 181
134 154 181
134 154 181
133 153 180
133 154 181
134 154 181
134 154 181
134 154 181
134 154 181
135 155 181
133 154 180
134 154 181
133 154 181
133 154 181
133 154 181
134 154 181
134 154 181
133 154 180
134 154 181
134 154 181
133 154 181
134 154 181
134 154 181
134 154 180
134 154 181
133 154 181
134 154 181
134 154 181
134 154 181
134 154 181
134 154 181
133 154 181
133 154 181
134 154 181
133 154 181
133 154 181
133 154 181
133 154 181
134 154 181
132 153 181
133 154 181
134 154 181
134 154 181
133 154 181
133 154 181
133 154 181
134 154 181
134 154 181
134 154 181
134 154 181
134 154 181
134 154 181
134 154 181
134 154 181
133 154 181
135 155 181
133 154 181
134 154 181
134 154 181
133 154 181
134 154 181
134 154 181
134 154 181
134 155 181
133 154 181
134 154 181
134 154 181
134 154 180
133 154 181
133 154 181
133 154 181
134 154 180
134 154 181
134 155 181
134 154 180
134 155 181
135 155 181
133 154 181
133 154 181
134 154 181
134 154 181
134 154 180
134 154 181
134 154 181
134 154 180
134 154 181
133 154 181
134 154 180
133 154 181
134 154 181
134 154 181
134 154 181
133 154 181
134 154 181
134 154 181
134 154 180
133 154 181
133 154 181
134 154 181
134 154 180
134 154 181
135 155 181
133 154 181
134 154 181
133 154 181
134 154 181
134 154 181
133 154 181
133 153 180
133 154 181
134 154 181
134 154 181
133 154 181
134 154 181
133 154 181
134 154 181
134 154 181
134 154 181
134 154 181
134 154 181
133 154 181
135 155 181
134 154 181
134 154 181
134 154 181
134 154 181
133 154 181
134 154 181
134 154 181
133 154 181
134 154 181
134 155 181
134 154 181
134 154 181
133 154 181
135 155 181
134 154 181
134 154 181
135 155 181
134 154 181
134 154 181
134 154 181
133 154 181
134 154 181
133 154 181
133 154 181
133 154 181
133 154 180
133 154 181
134 154 181
133 154 181
134 154 181
133 154 181
133 154 181
134 154 181
133 154 181
134 154 181
133 154 181
134 154 181
134 154 181
134 154 181
134 154 181
134 154 181
133 154 181
134 154 181
134 154 181
133 153 180
134 154 181
135 155 181
133 154 181
133 154 180
134 154 181
133 154 181
134 154 181
134 154 181
134 154 181
133 154 181
135 155 181
134 154 181
134 154 181
133 154 181
134 154 181
134 154 181
132 153 181
134 154 181
133 154 181
133 154 181
133 154 181
134 154 181
135 155 181
134 154 181
134 154 181
135 155 181
134 154 181
133 154 180
133 154 181
134 154 181
133 154 181
134 154 181
134 155 181
133 154 181
133 154 181
134 154 181
134 154 181
133 154 181
134 154 181
134 155 181
134 154 181
134 154 181
134 154 181
135 155 181
134 154 181
133 154 180
133 154 181
134 154 181
134 154 181
134 154 181
133 154 181
133 154 181
134 154 181
134 154 181
135 155 181
134 155 181
134 154 181
133 154 181
134 154 181
134 154 180
135 155 181
134 154 181
134 154 181
134 154 181
133 154 181
134 154 181
133 154 181
133 154 181
135 155 181
134 154 181
134 154 180
134 154 181
134 154 181
132 153 180
134 154 181
133 154 181
134 154 181
134 154 181
133 154 181
134 154 181
133 154 181
134 154 181
134 155 181
134 154 181
135 155 181
134 154 181
134 155 181
135 155 181
134 154 181
134 154 181
133 154 181
134 154 181
134 154 181
133 154 181
133 154 181
133 154 181
133 154 181
134 154 181
134 154 181
133 154 180
135 155 181
133 154 181
133 154 181
134 154 181
134 154 181
134 154 181
134 154 181
133 154 181
134 154 181
133 154 181
134 154 181
134 154 181
134 154 181
133 154 181
133 154 181
134 154 181
134 154 181
134 154 181
133 154 181
134 154 181
135 155 181
134 154 181
134 154 181
133 154 181
133 154 181
134 155 181
134 154 181
134 154 181
135 155 181
134 154 181
133 154 181
133 154 181
134 154 181
134 154 181
135 155 181
134 154 181
134 154 181
133 154 181
134 154 181
134 154 181
134 155 181
134 154 180
134 154 181
133 154 181
134 154 180
133 154 181
133 154 181
134 154 181
134 154 181
133 153 180
133 154 181
133 154 181
134 154 180
134 154 181
134 154 181
134 154 181
134 154 180
134 154 180
134 154 181
134 154 181
134 154 181
133 154 181
134 154 181
133 154 181
134 154 181
134 154 181
133 154 181
133 154 181
134 154 181
135 155 181
133 154 181
134 154 181
134 154 181
134 154 181
133 154 181
134 154 181
133 154 181
134 154 181
134 154 181
134 154 181
134 154 181
134 154 181
134 154 181
133 154 181
135 155 181
134 154 181
133 154 180
134 154 181
134 154 181
133 154 181
134 154 181
133 154 181
134 154 181
135 155 181
133 153 180
134 154 181
133 154 181
134 154 181
135 155 181
134 154 180
134 154 181
133 154 181
133 154 181
133 154 181
134 154 181
134 154 181
132 153 181
134 154 181
133 154 181
134 154 181
134 154 181
134 154 181
133 154 181
133 154 181
134 154 181
134 154 181
133 154 181
134 154 181
133 154 181
134 154 181
134 154 181
134 154 181
133 154 181
134 154 181
134 154 181
134 154 181
134 154 181
134 154 181
133 154 181
134 154 181
133 154 181
134 154 181
134 154 181
134 154 181
134 154 181
134 154 181
134 154 181
134 154 181
134 154 181
133 154 181
133 154 181
134 154 181
133 154 181
133 154 181
134 154 180
134 154 181
133 154 181
134 154 181
135 155 181
134 154 181
134 154 180
135 155 181
133 154 181
133 154 181
134 154 181
134 154 181
133 154 181
133 154 181
134 154 181
133 154 181
134 154 181
134 154 181
133 153 180
134 154 181
135 155 181
133 154 181
134 154 181
134 154 181
135 155 181
133 154 181
133 154 181
134 154 181
134 154 181
133 154 181
133 154 181
135 155 181
133 154 181
134 154 181
133 154 181
133 154 181
133 154 181
134 154 181
134 154 181
134 154 181
134 154 181
134 154 181
133 154 181
134 155 181
133 154 181
134 154 181
134 154 181
134 154 181
134 154 181
134 154 181
134 154 181
133 154 181
134 154 181
133 154 180
133 154 181
134 154 181
134 154 181
134 154 181
134 154 181
133 154 181
133 154 181
133 154 181
134 154 181
134 154 181
133 154 181
133 153 180
134 154 181
134 154 181
134 154 181
133 154 181
133 154 181
134 154 181
133 154 181
134 154 181
134 154 181
134 154 181
134 154 181
134 154 181
134 154 181
134 154 181
134 154 181
134 154 181
134 154 181
134 154 181
134 154 180
133 154 181
134 154 181
133 154 181
133 154 181
134 154 181
134 154 181
134 155 181
134 154 181
134 154 181
134 155 181
133 154 181
134 154 181
133 154 181
134 155 181
134 154 181
134 154 181
134 154 181
133 154 181
133 154 181
134 154 181
134 154 181
134 154 181
133 154 181
134 154 181
134 154 181
133 154 181
133 154 181
134 154 181
133 154 181
134 154 180
133 154 181
134 154 181
133 154 181
134 154 181
134 154 181
134 154 180
134 154 181
134 155 181
134 154 181
134 154 181
134 154 181
134 154 181
134 154 181
133 154 181
133 154 181
134 154 181
134 154 181
134 154 181
135 155 181
133 154 181
133 154 181
134 154 181
134 154 181
134 154 181
134 154 181
135 155 181
134 154 181
134 154 181
134 154 181
134 154 181
133 154 181
134 154 181
133 154 181
135 155 181
135 155 181
134 154 181
134 154 181
134 154 180
135 155 181
133 153 180
135 155 181
133 154 181
134 154 181
134 154 181
133 154 181
134 154 181
134 154 181
134 154 181
133 154 181
134 154 181
134 154 181
134 154 181
133 154 181
134 154 181
133 154 181
134 154 181
134 154 181
134 154 180
133 154 181
135 155 181
134 154 181
133 154 181
134 154 181
135 155 181
133 154 181
133 154 181
133 154 180
134 154 181
134 154 181
134 154 181
134 154 181
133 154 181
134 154 181
134 154 181
134 154 181
133 154 181
134 154 181
132 153 180
133 154 181
134 154 181
134 154 181
134 154 181
134 154 180
134 154 181
134 154 181
133 154 181
133 154 181
134 155 181
134 154 181
133 154 181
133 154 181
134 154 181
134 154 181
134 154 181
134 154 181
133 154 181
133 154 181
133 154 181
134 154 181
135 155 181
134 154 181
134 154 181
134 154 181
134 154 181
134 154 181
134 154 181
133 154 181
134 154 181
134 154 181
134 154 181
133 154 181
134 154 181
134 154 181
134 154 181
134 154 181
134 154 181
133 154 181
134 154 181
133 154 181
133 154 181
133 154 181
133 154 181
134 154 181
134 154 181
134 154 181
134 154 181
134 154 181
134 154 181
133 154 181
133 153 180
134 154 181
134 154 181
135 155 181
134 154 181
133 154 181
133 154 181
133 154 181
134 154 181
133 154 181
134 154 181
134 154 181
134 155 181
134 154 181
134 154 181
134 154 181
133 154 181
133 154 181
133 154 181
133 154 181
134 154 181
133 154 180
134 154 181
134 155 181
133 154 180
133 154 181
134 154 181
134 154 181
133 154 181
134 154 180
133 154 181
134 154 181
133 154 181
134 154 181
134 154 180
133 154 181
134 154 181
134 154 181
133 154 181
133 154 181
134 154 181
135 155 181
134 154 181
134 154 180
134 154 181
133 154 180
134 154 181
135 155 181
134 154 181
134 154 181
134 154 181
133 154 181
133 154 181
134 154 181
134 154 181
134 154 181
134 154 181
133 154 181
135 155 181
133 153 180
134 154 181
134 154 181
133 154 181
133 154 181
134 154 181
134 154 181
134 154 180
133 154 181
134 154 181
134 154 181
134 154 181
133 154 181
135 155 181
133 154 181
134 154 181
134 154 181
134 154 181
133 154 180
134 154 181
134 154 181
134 154 180
133 154 181
134 154 181
135 155 181
134 154 181
134 154 181
135 155 181
133 154 181
134 154 181
134 154 181
134 154 181
134 154 181
134 154 181
133 154 181
134 154 181
134 154 181
133 154 181
133 153 180
134 154 180
133 154 181
134 154 181
134 154 181
134 154 181
133 154 181
134 155 181
134 154 181
133 154 181
134 154 181
133 154 181
133 153 180
133 154 181
134 154 181
134 154 180
134 154 181
133 154 181
133 154 181
134 154 181
133 154 181
134 154 180
134 154 181
134 154 181
133 154 181
134 154 181
134 154 181
134 154 181
133 154 181
134 154 181
134 154 181
134 154 181
134 154 181
134 154 181
134 155 181
134 154 180
133 154 181
134 154 181
134 154 181
134 154 181
134 154 181
134 154 181
134 154 181
134 155 181
134 154 181
134 154 181
134 154 181
133 154 181
134 154 181
134 154 181
134 154 181
134 154 181
133 154 181
134 154 181
134 154 181
133 154 181
134 154 181
134 154 181
134 154 180
134 154 181
134 154 181
133 153 180
133 154 181
133 154 181
133 153 180
133 154 181
134 154 181
134 154 181
134 154 181
133 154 181
133 154 181
135 155 181
133 154 181
134 154 181
134 154 181
134 154 181
135 155 181
134 154 181
133 153 180
135 155 181
133 154 181
135 155 181
134 154 181
134 154 181
134 154 181
134 154 181
134 155 181
134 154 181
134 154 181
134 154 181
134 154 181
135 155 181
134 154 181
134 154 181
134 154 181
134 154 181
134 154 181
133 154 181
133 154 181
134 154 181
133 154 181
134 154 181
134 154 181
135 155 181
133 154 181
134 154 181
134 154 181
133 154 181
134 154 181
134 154 181
134 154 181
134 154 181
134 154 181
134 154 181
134 154 181
133 154 181
133 154 181
133 154 181
133 154 181
134 154 181
134 154 181
134 154 181
134 154 181
133 154 180
134 154 181
134 154 181
133 154 181
134 154 181
134 154 180
134 154 181
134 154 181
133 154 181
134 154 180
133 154 181
134 154 181
133 153 180
134 154 181
133 154 181
134 154 181
134 155 181
134 154 181
134 154 181
134 154 181
133 154 181
133 154 180
134 155 181
134 154 181
133 154 181
134 154 181
134 154 181
134 155 181
134 154 181
134 154 181
133 153 180
133 154 181
134 154 181
134 154 181
134 154 181
134 154 181
134 154 181
134 154 181
133 154 181
134 154 181
134 155 181
133 154 181
132 153 181
134 154 181
134 154 181
133 154 181
134 154 181
134 154 181
134 154 181
134 154 181
134 154 181
134 154 180
133 154 181
133 154 181
134 154 181
134 154 181
134 155 181
134 154 181
134 154 181
133 154 181
135 155 181
135 155 181
134 154 181
134 154 181
134 154 180
133 154 181
134 154 181
134 154 181
134 154 181
133 154 181
134 154 181
134 154 181
133 154 180
133 154 181
134 154 181
135 155 181
134 154 181
134 154 181
134 154 181
134 154 181
134 154 180
133 154 181
134 154 181
133 154 181
133 154 181
134 154 181
134 154 181
134 154 181
134 154 181
134 154 181
134 154 181
134 154 180
135 155 181
134 154 181
134 154 180
133 154 181
134 154 181
134 154 181
134 154 181
134 154 181
133 154 181
134 154 181
133 154 181
135 155 181
133 154 181
134 154 181
134 154 181
134 154 181
134 154 181
133 154 181
133 154 181
134 154 181
134 154 180
134 154 181
134 154 181
134 154 181
134 154 181
134 154 181
133 154 181
134 154 181
133 154 181
133 154 181
133 154 181
133 154 181
134 154 181
134 154 181
134 154 181
134 154 181
134 154 181
133 154 181
134 154 181
134 155 181
133 154 181
134 154 181
135 155 181
133 154 181
134 154 181
133 154 181
133 154 180
133 154 181
133 154 181
134 154 181
134 154 181
134 154 181
133 154 181
135 155 181
134 154 181
133 154 181
134 154 181
134 154 181
134 154 181
134 154 181
133 153 180
133 154 181
133 154 180
133 154 181
134 154 181
133 154 180
134 154 181
134 154 181
134 154 181
133 154 181
133 154 181
134 154 181
134 154 181
133 154 181
133 154 181
134 154 181
134 154 181
133 154 180
134 154 181
134 154 180
135 155 181
133 154 181
133 154 181
134 154 181
133 154 181
134 154 181
134 154 181
133 154 181
133 154 181
133 153 180
134 154 181
134 154 181
134 154 181
134 154 181
133 154 181
133 154 180
133 154 181
134 154 181
133 154 181
134 154 181
134 154 181
133 154 181
134 154 181
133 154 181
133 153 180
133 154 180
134 155 181
133 154 181
134 154 181
134 154 181
133 154 181
134 154 181
134 154 181
134 154 181
133 154 181
134 154 181
133 154 181
133 154 181
132 153 180
133 154 181
134 154 181
135 155 181
134 154 181
134 154 181
133 154 181
134 154 181
134 154 181
134 154 181
134 154 181
134 154 181
134 154 181
134 155 181
133 154 181
133 154 181
134 154 180
134 154 181
134 154 181
134 154 181
134 154 181
134 154 181
134 154 181
134 154 181
134 154 180
134 154 181
135 155 181
134 154 181
133 154 181
134 154 181
134 154 181
134 154 180
135 155 181
134 154 181
134 154 181
134 154 181
134 154 181
134 154 181
134 154 181
133 154 181
134 154 181
134 154 181
134 154 181
133 154 181
134 155 181
133 154 181
134 154 181
135 155 181
134 154 181
134 154 181
134 154 181
133 153 179
134 154 181
134 154 181
133 154 181
134 154 181
133 154 181
134 154 181
133 154 181
134 154 181
134 154 181
134 154 181
134 154 181
134 154 181
133 154 181
134 154 181
134 154 181
133 154 181
133 154 180
133 154 181
134 154 181
133 154 181
133 154 181
134 154 181
134 154 181
134 154 181
134 154 181
134 154 181
134 154 181
134 154 181
134 154 181
134 154 181
134 154 180
134 154 181
134 154 181
133 154 181
134 154 181
134 155 181
133 154 180
134 154 181
134 154 181
134 154 181
134 154 181
132 153 180
134 154 181
134 154 181
134 154 181
134 154 181
134 154 181
134 154 181
134 154 180
134 154 181
134 154 181
133 154 181
134 154 180
135 155 181
133 153 180
134 154 181
134 154 181
134 154 181
133 153 180
133 153 180
134 154 181
133 153 180
134 154 180
134 154 181
134 154 181
134 155 181
133 154 181
134 154 181
134 154 181
133 154 181
135 155 181
134 154 181
133 154 181
134 154 181
134 154 181
134 154 181
134 154 181
134 154 181
133 154 181
134 154 181
133 154 181
134 154 181
134 154 181
133 154 181
134 154 181
133 154 180
134 154 181
135 155 181
134 155 181
133 154 181
133 153 180
134 154 181
134 154 180
134 154 181
134 154 181
134 154 181
133 154 181
134 154 181
134 154 180
134 154 181
134 154 181
134 154 181
135 155 181
133 154 181
133 153 180
132 153 181
133 154 181
134 154 181
133 154 181
134 154 181
133 154 181
133 154 181
132 153 181
133 154 181
134 154 181
134 154 181
134 154 181
134 154 181
133 154 180
133 154 181
134 154 181
135 155 181
133 154 181
134 154 181
133 154 181
133 154 181
134 154 181
134 154 181
133 154 181
134 154 180
133 154 181
133 154 181
135 155 181
134 154 181
134 154 181
134 154 181
134 154 181
134 154 181
133 154 181
134 154 181
133 154 181
134 154 181
133 154 181
134 155 181
134 154 181
134 154 181
134 154 181
134 154 181
134 154 181
133 154 181
133 154 181
134 154 181
134 154 181
133 154 181
134 154 181
133 154 181
133 154 181
134 154 181
134 155 181
134 154 181
132 153 181
134 154 181
134 154 181
134 154 181
133 154 180
134 154 181
134 154 181
134 154 181
133 154 181
134 154 181
132 153 181
134 154 181
133 154 181
133 154 181
134 154 181
133 154 181
133 154 180
134 154 181
134 154 181
134 154 181
135 155 181
134 154 181
134 154 181
134 154 181
134 154 181
134 154 181
135 155 181
133 154 181
133 154 181
133 154 180
134 154 181
134 154 181
134 154 181
133 154 181
133 154 181
134 154 181
134 154 181
135 155 181
134 154 181
134 154 181
134 154 181
133 154 181
135 155 181
134 154 181
134 154 181
134 154 181
133 154 181
134 154 181
134 154 181
134 154 181
134 154 181
133 154 181
134 154 181
133 154 181
133 154 181
132 153 180
134 154 181
135 155 181
133 154 181
135 155 180
134 154 181
134 154 181
134 154 181
133 154 181
134 154 181
134 154 181
133 154 181
134 154 181
133 154 181
134 154 181
133 154 181
134 154 181
133 154 181
135 155 181
133 154 181
135 155 181
133 154 181
134 154 181
134 154 181
134 154 181
133 154 181
134 154 181
134 154 181
133 154 181
133 154 181
133 154 181
134 154 181
134 154 181
134 154 181
134 154 181
133 154 181
134 154 181
133 154 181
134 154 181
134 154 181
133 154 181
134 154 181
134 154 181
134 154 181
134 154 181
134 154 180
134 154 181
133 154 181
133 154 180
134 154 181
134 154 181
134 154 181
134 154 181
134 154 181
133 154 181
134 154 181
134 154 181
133 154 181
134 154 181
133 154 181
134 154 181
134 154 181
133 154 181
134 155 181
134 154 181
134 154 181
134 154 181
135 155 181
134 154 181
134 154 181
133 154 181
135 155 181
134 154 181
134 154 181
134 154 181
134 154 181
134 154 180
133 154 181
134 154 181
134 154 181
134 154 181
134 154 181
133 154 181
134 154 180
134 154 181
134 154 181
133 154 181
133 154 181
134 154 181
134 154 181
133 154 181
134 154 181
134 154 180
133 154 181
133 154 181
135 155 181
133 154 181
133 154 181
133 154 181
133 154 181
134 154 181
133 154 181
133 154 180
133 154 181
133 153 180
133 154 181
133 154 181
133 153 180
134 154 181
134 154 181
134 154 181
134 154 181
133 154 181
133 154 181
134 154 181
133 154 181
134 154 181
134 154 181
134 154 181
134 154 181
134 154 181
134 154 181
133 154 181
133 154 181
134 154 181
133 154 181
133 154 181
134 154 181
134 154 181
133 154 181
134 154 181
133 154 181
134 154 181
134 154 181
134 154 181
133 154 181
133 154 181
134 154 181
134 154 181
134 154 181
133 154 181
134 154 181
134 154 181
134 154 181
133 154 181
134 154 181
133 154 181
135 155 181
134 154 181
134 154 181
133 154 181
134 155 181
134 154 181
133 154 181
135 155 181
134 154 181
133 154 181
133 154 181
133 154 181
134 154 181
132 153 181
134 154 181
133 154 181
133 154 181
134 154 181
134 154 181
133 154 181
134 154 181
134 154 181
133 154 181
133 154 180
134 154 181
134 154 181
134 154 181
133 153 180
133 154 181
134 154 181
134 154 181
134 154 181
133 154 181
133 154 181
134 154 181
134 154 181
134 154 181
134 154 181
134 154 181
134 154 181
134 155 181
134 154 181
133 154 181
134 154 181
133 154 181
134 154 181
134 154 181
133 154 181
133 154 181
134 154 181
133 154 181
134 154 181
134 154 181
134 154 180
134 154 181
134 154 180
133 154 181
133 154 181
133 154 181
133 154 181
133 154 181
134 154 181
133 153 180
134 154 181
134 154 181
134 155 181
134 154 181
134 154 181
133 154 181
133 154 181
134 154 181
134 154 181
133 154 181
134 154 181
133 154 181
133 154 180
134 154 181
134 154 181
135 155 181
134 154 181
134 154 181
133 154 181
133 154 181
133 154 181
134 154 181
133 154 180
134 154 181
134 154 181
134 155 181
134 154 181
134 154 181
134 154 181
134 154 181
133 154 181
133 154 181
133 154 181
133 154 180
133 154 181
134 154 181
134 154 181
134 154 181
135 155 181
135 155 181
134 154 181
134 154 181
133 154 181
134 154 181
134 154 181
134 154 181
134 154 181
135 155 181
133 154 181
133 154 181
133 153 179
134 154 180
134 154 181
133 154 181
133 154 181
133 153 180
134 154 181
135 155 181
134 154 181
134 154 181
134 154 181
134 155 181
133 154 181
134 154 181
133 154 181
134 154 181
133 154 181
133 154 181
134 154 181
134 154 181
134 155 181
135 155 181
134 154 181
134 154 181
134 154 181
134 154 181
134 154 181
134 154 181
133 154 181
134 154 181
134 154 181
134 154 181
134 154 181
133 154 181
133 154 181
133 154 181
134 154 181
134 154 181
133 154 181
134 154 181
134 154 181
134 154 181
134 154 181
135 155 181
133 154 181
133 154 181
134 154 181
134 155 181
134 154 181
134 154 181
134 154 181
134 154 181
134 154 181
133 154 181
134 154 181
133 154 181
134 154 181
133 154 181
134 154 181
133 154 181
134 154 181
133 154 181
133 154 181
133 154 181
134 154 181
134 154 181
133 154 181
133 154 181
133 154 181
133 154 180
134 154 181
135 155 181
133 154 181
133 154 180
134 154 181
133 154 181
134 154 181
134 154 181
135 155 181
133 154 181
134 154 181
133 154 181
132 153 181
134 154 181
134 154 181
134 154 181
134 154 181
134 154 181
134 154 181
133 154 181
134 155 181
134 154 181
134 154 181
134 155 181
133 154 181
135 155 181
133 154 181
133 154 181
133 154 181
134 154 181
134 154 181
133 154 181
134 155 181
133 154 181
133 154 181
133 154 181
134 154 181
134 154 181
134 154 181
134 154 181
133 154 181
133 154 181
134 154 181
134 154 181
134 154 181
133 154 181
134 154 181
133 154 181
134 154 181
134 154 181
134 154 181
134 154 181
134 154 181
133 154 181
134 154 181
135 155 181
134 154 181
134 154 181
134 154 181
134 154 181
134 154 181
133 154 181
133 154 180
134 154 181
134 154 181
135 155 181
133 154 180
134 155 181
134 154 181
134 154 181
134 154 181
134 154 181
134 154 181
133 154 181
133 154 181
134 154 181
134 154 181
133 154 181
134 154 181
134 154 181
133 154 181
134 154 181
134 154 181
133 154 181
134 154 181
134 154 181
134 154 181
133 154 181
135 155 181
133 154 181
134 154 181
134 154 181
135 155 181
134 154 181
134 154 181
133 154 181
134 154 181
134 154 181
133 154 181
134 154 181
134 154 180
133 153 180
134 154 181
134 154 180
133 154 181
134 154 181
134 154 181
133 154 181
135 155 181
134 154 180
134 154 181
134 154 181
133 154 181
135 155 181
133 154 181
133 154 180
134 154 181
134 154 181
133 154 181
134 155 181
134 154 180
133 154 181
133 154 181
134 154 181
134 155 181
133 154 180
134 154 180
135 155 181
135 155 181
134 154 181
134 154 181
134 154 181
134 154 181
133 154 181
134 154 181
135 155 181
134 155 181
134 154 181
133 154 181
134 154 181
133 154 181
133 154 181
135 155 181
134 154 181
133 154 181
134 155 181
134 154 181
134 154 181
133 154 181
133 154 181
134 154 180
134 154 180
135 155 181
134 154 181
134 154 181
134 154 181
134 154 181
135 155 181
133 154 181
134 154 181
134 154 181
134 154 181
133 154 181
134 154 181
134 154 181
134 154 181
134 154 181
134 154 181
133 153 180
134 154 181
134 154 180
135 155 181
134 154 181
134 154 181
133 154 181
133 154 181
134 154 181
133 154 180
133 154 181
133 154 181
133 154 181
133 154 180
134 154 181
133 154 181
134 154 181
133 154 181
134 154 181
133 154 181
133 154 181
134 154 181
134 154 181
134 154 181
134 154 181
133 154 181
133 154 181
134 154 181
134 154 180
134 154 181
134 154 181
135 155 181
133 154 181
134 155 181
133 154 181
135 155 181
133 154 181
135 155 181
133 154 181
134 154 181
133 154 181
134 154 181
133 154 180
134 154 181
134 154 181
133 154 181
133 154 181
134 154 181
134 154 181
134 154 181
133 154 181
134 154 181
134 154 181
133 154 181
134 154 181
133 154 181
134 154 181
133 154 181
133 153 180
134 154 181
134 154 181
134 154 181
134 154 181
133 154 181
134 154 181
134 154 181
134 154 181
133 154 181
135 155 181
134 154 181
134 154 181
134 154 181
134 154 180
133 154 181
133 154 181
133 154 180
133 153 180
133 154 181
134 154 180
134 154 181
133 154 181
133 154 181
134 154 181
133 153 180
134 154 181
135 155 181
134 154 181
132 153 180
134 154 181
134 154 181
134 154 180
134 154 181
133 154 180
134 154 181
133 154 181
135 155 181
133 154 181
133 154 181
133 154 181
134 154 181
133 154 181
134 154 181
134 154 181
134 154 181
133 154 180
134 154 181
133 154 180
134 154 181
134 154 181
133 154 181
132 153 181
134 154 181
133 154 181
133 154 181
133 154 181
134 154 181
134 154 181
134 155 181
134 154 181
134 154 181
134 155 181
134 154 181
134 154 181
133 154 181
133 154 181
133 154 181
134 154 181
134 154 181
133 153 180
134 154 181
134 154 181
133 154 181
133 154 181
133 154 181
134 154 181
134 154 181
133 154 180
133 154 181
133 154 181
133 154 181
133 154 181
134 154 181
134 154 181
134 154 181
134 154 181
134 154 181
133 154 181
133 154 181
134 154 181
133 154 181
134 154 181
134 154 181
134 154 181
134 154 180
134 154 181
134 154 181
135 155 181
134 154 181
133 154 181
134 154 181
133 154 181
134 154 181
134 154 181
134 154 181
134 154 181
134 154 181
134 154 181
134 154 181
134 154 181
133 154 181
134 154 181
134 155 181
134 154 181
133 154 180
133 154 181
134 154 181
134 154 181
135 155 181
133 154 181
134 154 181
133 154 180
134 154 181
134 154 181
134 155 181
133 154 181
133 154 181
133 153 180
134 154 181
133 154 181
133 154 181
133 154 181
134 154 181
134 154 181
133 154 181
133 154 181
133 154 181
133 154 181
134 154 180
135 155 181
134 154 181
134 154 181
134 154 181
135 155 181
134 154 181
134 154 181
133 154 181
133 154 181
135 155 181
133 154 181
134 154 181
134 154 181
134 154 181
133 154 181
134 154 181
135 155 181
134 154 181
133 154 181
133 154 181
133 154 181
134 154 180
133 154 181
134 154 181
133 154 181
134 154 181
134 154 181
133 154 181
134 154 181
135 155 181
133 154 181
133 154 181
133 154 181
133 154 181
132 153 181
135 155 181
133 154 181
134 154 181
134 154 181
134 154 181
135 155 181
133 154 181
133 154 181
134 154 181
133 154 181
134 154 181
133 154 181
133 154 181
133 154 181
133 154 181
133 154 181
134 154 181
134 154 181
134 154 181
134 154 181
134 154 181
134 154 181
134 154 181
133 154 181
133 154 181
134 154 181
134 154 181
133 154 181
134 154 181
134 154 180
134 154 181
133 154 181
133 154 181
133 154 181
134 154 181
134 154 181
134 155 181
133 154 181
133 154 181
135 155 181
134 154 181
134 154 181
133 153 180
134 154 181
134 154 181
134 154 181
134 154 181
134 154 181
133 154 181
134 154 181
134 154 181
134 154 181
134 154 180
133 154 181
134 155 181
134 154 181
134 154 181
133 154 181
134 154 181
135 155 181
134 154 181
133 153 180
134 154 181
134 154 181
134 154 180
133 154 181
133 154 181
133 154 181
133 154 181
134 154 181
134 154 181
133 154 181
133 154 181
134 154 181
134 154 181
134 154 181
134 154 181
134 154 181
134 154 181
134 154 181
133 154 181
133 154 181
134 155 181
134 154 181
134 154 181
133 154 181
133 154 181
133 154 181
134 155 181
134 155 181
134 154 181
134 154 181
133 154 181
134 154 181
134 154 181
134 154 181
134 154 181
134 154 180
134 154 181
133 154 181
134 154 181
134 154 181
134 154 181
133 154 181
134 154 181
133 154 181
134 154 181
133 154 181
133 154 181
134 155 181
134 154 181
133 154 181
134 154 181
134 154 181
134 154 181
134 154 181
134 154 181
134 154 181
134 154 181
135 155 181
133 154 180
133 154 181
134 154 181
133 153 180
134 154 181
133 154 180
134 154 181
133 154 181
134 154 181
134 154 181
134 155 181
133 154 181
133 154 181
133 154 181
133 154 181
133 154 180
134 154 181
134 154 181
133 153 180
134 154 180
134 154 181
134 154 181
133 154 181
133 154 181
133 154 180
134 154 181
133 154 181
134 154 181
133 154 181
133 154 181
133 154 181
134 154 181
134 154 181
135 155 181
134 154 181
134 154 181
134 154 181
133 154 181
134 154 181
134 154 180
135 155 181
134 154 180
134 154 181
134 154 181
134 154 181
134 154 181
134 154 181
134 155 181
135 155 181
133 154 181
134 154 181
133 154 181
134 154 181
134 154 181
133 154 181
133 154 181
133 154 181
133 154 181
134 154 181
133 154 181
133 154 181
134 154 181
134 154 181
134 154 181
134 154 181
134 154 181
133 154 180
134 154 180
133 154 181
134 154 181
135 155 181
134 154 181
134 154 181
134 154 181
133 154 180
135 155 181
133 153 180
134 154 181
134 154 181
134 154 181
134 154 181
132 153 180
134 154 181
133 154 181
133 154 181
133 154 181
134 154 181
134 154 180
133 154 181
134 154 181
134 154 181
134 154 181
134 154 181
134 154 181
133 154 181
133 154 180
134 154 181
133 154 181
133 154 181
133 154 181
133 154 181
134 154 181
134 154 181
134 154 181
134 154 181
134 154 181
133 154 181
133 154 181
134 154 181
133 154 181
133 154 181
135 155 181
135 155 181
134 154 181
134 154 181
134 154 181
133 154 181
133 153 180
134 154 181
134 154 181
134 154 181
134 154 180
134 154 181
133 154 180
133 154 181
134 154 181
133 154 181
133 154 181
134 154 181
134 154 181
133 154 181
134 154 181
134 154 181
134 154 180
133 154 181
132 153 181
134 154 181
134 154 181
133 154 181
134 154 181
134 154 181
133 154 181
134 154 181
134 154 181
134 154 181
134 155 181
133 154 181
134 154 181
133 154 181
134 154 181
134 154 181
134 154 181
134 154 181
134 155 181
133 154 181
133 154 181
134 154 181
133 154 181
135 155 181
134 154 181
134 154 181
134 154 181
134 154 181
134 154 181
133 154 181
133 154 181
134 154 181
134 154 181
133 154 181
133 154 181
134 154 181
134 154 181
134 154 181
133 154 181
133 154 181
133 154 181
133 154 181
133 154 181
134 154 181
135 155 181
133 154 181
134 154 180
134 154 181
134 154 181
133 154 181
133 154 181
134 154 181
133 154 181
134 154 181
135 155 181
134 154 181
134 154 181
134 154 181
134 154 181
134 154 181
133 154 181
134 154 180
135 155 181
134 154 181
133 153 179
134 154 181
133 154 180
134 154 181
133 154 181
134 154 181
134 154 181
134 154 181
134 154 181
133 154 181
133 154 181
134 154 181
133 154 181
133 154 181
134 155 181
133 154 181
134 154 181
133 154 180
133 154 181
135 154 180
134 154 180
134 154 181
133 154 181
134 154 181
134 154 181
133 153 180
134 154 180
133 154 181
134 154 181
134 154 181
133 154 181
133 154 180
133 154 181
135 155 181
134 154 180
134 154 181
134 154 181
134 154 181
134 154 181
134 154 181
134 154 181
134 154 181
133 154 181
134 154 181
134 154 180
134 154 181
134 154 181
134 154 181
133 154 180
133 154 181
134 154 181
134 154 181
133 153 180
134 154 181
133 154 181
134 154 181
133 154 181
133 154 181
133 154 181
134 154 181
132 153 180
135 155 181
134 154 181
133 154 180
134 155 181
134 154 181
133 154 181
135 155 181
133 153 180
134 154 181
134 154 181
133 154 180
133 154 181
133 154 181
133 154 181
134 154 181
134 154 181
134 154 181
134 154 181
134 154 181
134 154 181
133 154 181
134 154 181
134 154 181
133 154 180
133 154 181
135 155 181
135 155 181
134 154 181
135 155 181
134 154 181
134 154 181
135 155 181
135 155 181
134 154 181
134 154 181
134 154 181
134 154 180
134 154 181
134 154 181
133 154 181
134 154 181
133 154 180
134 154 181
134 154 181
134 154 181
134 154 181
134 154 181
133 154 181
134 154 181
134 155 181
133 154 181
134 154 181
133 154 180
134 154 181
134 154 181
134 154 181
133 154 181
134 154 181
133 154 181
133 154 181
134 154 181
133 154 181
133 154 181
134 155 181
134 154 181
134 154 181
134 154 181
134 154 181
134 154 181
134 154 181
134 154 181
134 154 181
133 154 180
134 154 181
133 154 181
134 154 181
134 154 181
134 154 181
134 154 181
133 154 181
134 154 181
134 154 181
134 154 181
134 154 181
134 154 181
134 154 181
134 154 181
133 154 181
134 154 181
133 154 181
134 154 181
133 154 181
134 154 180
134 154 181
134 154 181
133 154 180
134 154 181
133 154 181
133 154 181
133 154 181
134 154 181
133 154 181
134 154 181
135 155 181
133 154 181
134 154 181
134 154 181
135 155 181
134 154 181
134 154 181
134 154 181
134 154 181
133 154 181
134 154 181
133 154 181
133 154 181
134 154 180
134 154 181
133 154 181
133 154 181
133 154 181
133 154 181
134 154 181
134 154 181
134 155 181
134 154 181
134 154 181
134 154 181
133 154 181
134 154 180
133 154 181
132 153 181
133 154 181
134 154 181
134 154 181
134 154 181
133 154 181
133 154 181
133 154 181
133 154 181
134 154 181
134 154 181
134 154 181
135 155 181
134 154 181
134 154 181
133 154 181
134 154 181
133 153 180
134 154 181
134 154 180
133 154 181
134 154 181
134 154 181
133 154 181
133 154 181
133 153 180
134 154 181
133 154 181
134 154 181
134 154 181
134 154 181
135 155 181
134 154 181
133 154 181
134 154 181
133 154 181
134 154 181
134 154 181
133 154 180
133 154 181
134 154 181
133 154 181
133 154 181
133 154 181
135 155 181
134 154 181
134 154 181
134 154 181
134 154 180
134 154 181
134 154 181
133 154 181
133 154 181
134 154 181
133 154 181
133 154 181
133 154 181
133 154 181
134 154 181
135 155 181
134 154 181
133 153 180
133 154 181
135 155 181
134 154 181
133 154 181
134 154 181
134 154 181
133 154 181
134 154 181
134 154 181
134 154 181
134 154 181
133 154 181
134 154 181
133 154 181
134 154 181
133 154 181
133 154 181
134 154 181
134 154 181
133 154 181
133 154 181
134 154 181
134 155 181
133 153 180
134 154 181
134 154 180
134 154 181
134 154 181
133 154 181
134 154 181
134 154 181
134 154 181
134 154 181
135 155 181
133 154 181
134 154 180
133 154 181
134 154 181
134 154 181
133 154 181
134 154 181
134 154 181
134 154 181
134 154 181
134 154 181
134 154 181
134 154 181
135 155 181
134 154 181
134 154 181
134 154 181
134 155 181
134 154 181
133 154 181
132 154 181
135 155 181
133 154 181
134 154 181
134 154 181
134 154 181
134 154 181
133 154 181
134 154 181
133 154 181
134 154 181
133 154 181
133 154 181
134 154 181
133 154 181
133 154 181
134 154 181
132 153 180
133 154 181
133 154 180
135 155 181
134 154 181
134 154 181
134 154 181
134 154 180
133 154 181
133 154 181
134 154 181
134 154 181
133 154 181
134 154 181
134 154 181
134 154 181
134 154 181
134 154 181
134 154 181
133 154 181
134 154 181
134 154 181
133 154 181
134 154 181
133 154 181
134 154 181
134 154 181
134 154 181
134 154 181
133 154 181
134 154 181
133 153 180
135 155 181
134 154 181
135 155 181
132 153 181
133 154 181
133 154 181
133 154 181
133 154 181
134 154 180
134 154 181
134 154 181
133 154 181
134 154 181
134 154 181
134 154 181
134 154 181
133 154 181
134 154 181
134 154 181
133 154 181
134 154 181
133 154 181
134 154 181
133 154 181
133 154 181
134 154 181
134 154 181
134 154 181
133 154 181
135 155 181
133 154 181
133 154 181
134 154 181
134 154 181
134 154 181
133 154 181
133 154 181
134 154 181
134 154 181
134 154 181
133 154 181
133 154 180
134 154 181
133 154 180
134 155 181
133 154 181
134 154 181
133 154 181
134 154 181
134 154 181
133 154 181
133 154 181
134 154 181
134 154 181
135 155 181
133 154 181
133 154 181
133 154 180
134 154 181
134 154 181
134 154 181
134 154 181
134 154 180
135 155 181
133 154 180
134 154 181
134 155 181
133 154 181
134 154 181
134 154 181
134 154 181
134 154 181
134 154 181
133 154 181
133 154 181
134 155 181
134 154 180
132 153 180
134 154 181
133 154 181
133 153 180
133 154 180
133 154 180
135 155 181
133 154 181
134 154 181
134 154 181
134 154 181
134 154 181
134 154 181
134 154 181
133 154 181
134 154 180
134 154 181
134 154 181
134 154 181
133 154 181
134 154 181
134 154 181
134 154 181
134 154 181
134 154 181
133 154 181
134 155 181
133 154 181
134 154 181
134 154 181
133 154 181
134 155 181
134 154 181
134 154 181
133 154 180
135 155 181
133 154 181
133 154 181
134 154 181
134 154 181
133 153 180
134 154 181
134 154 181
134 154 181
133 154 180
134 154 181
134 154 181
134 155 181
133 154 181
134 154 181
134 154 181
134 154 181
133 154 181
134 154 181
134 154 181
134 154 180
133 154 181
135 155 181
133 154 181
133 154 181
134 154 181
133 154 181
134 154 181
134 154 181
134 154 181
133 154 181
133 154 181
134 154 180
134 154 181
134 154 181
134 154 181
133 154 181
134 154 181
134 154 181
133 154 181
133 154 180
133 154 181
134 154 181
134 154 181
134 154 181
134 154 181
133 154 180
133 154 181
133 154 181
133 154 181
133 154 181
133 154 181
133 154 181
134 154 181
133 154 181
133 154 181
135 155 181
134 154 181
134 154 181
134 154 181
133 154 181
133 154 181
134 154 181
134 154 181
133 154 181
134 154 181
135 155 181
134 154 181
133 154 181
133 154 181
134 154 181
134 154 181
133 154 181
134 155 181
134 154 181
134 154 181
134 154 181
134 154 181
134 154 181
135 155 181
133 154 181
134 154 181
134 154 181
134 154 181
134 154 181
134 154 181
134 154 181
134 154 181
135 155 181
133 154 181
134 155 181
133 154 181
134 154 181
133 154 181
134 154 181
134 154 181
134 154 181
134 154 181
134 154 180
134 154 181
134 154 181
134 154 181
133 154 181
133 154 181
134 154 181
133 154 181
133 154 181
135 155 181
133 154 181
134 154 181
133 154 181
133 154 181
134 154 181
134 154 181
134 154 181
134 154 181
132 153 180
133 154 181
134 154 181
133 154 180
133 154 181
134 154 181
134 154 181
133 154 180
133 154 181
134 154 181
133 154 181
133 154 181
134 155 181
133 153 180
134 154 181
133 154 181
134 154 181
134 154 180
133 154 181
133 154 181
133 154 181
134 154 181
135 155 181
134 154 181
133 154 181
135 155 181
133 154 181
134 154 181
133 154 181
134 154 181
133 154 181
134 154 181
134 154 181
133 154 181
134 154 181
134 154 181
133 154 180
134 154 181
134 154 181
133 154 181
134 154 181
134 154 181
133 154 181
134 154 181
134 154 181
134 154 181
132 153 181
133 154 181
134 154 181
133 154 181
134 154 181
132 153 181
134 154 181
133 154 181
134 154 181
133 154 181
134 154 181
134 154 181
133 154 181
134 154 181
133 154 181
133 154 181
132 153 181
134 154 181
135 155 181
135 155 181
134 154 181
133 154 181
133 154 181
133 154 181
134 154 181
134 154 181
133 154 181
134 154 181
134 154 181
133 154 181
133 153 180
134 154 181
134 154 181
134 154 181
134 154 180
134 154 181
134 154 180
134 154 181
134 154 181
134 154 181
133 154 181
133 154 180
133 154 181
133 154 181
133 154 181
133 154 181
134 154 181
134 154 180
134 154 181
134 154 181
135 155 181
133 154 181
133 154 181
134 154 181
133 154 181
134 154 181
133 154 181
133 154 181
133 154 181
134 154 180
134 154 181
134 154 181
133 154 181
134 154 181
134 154 181
134 154 181
134 154 181
134 154 181
134 154 181
133 154 180
135 155 181
135 155 181
134 154 181
134 154 181
134 154 181
133 154 180
134 154 180
134 154 181
133 154 181
134 154 180
133 154 181
133 154 181
134 154 181
134 154 181
134 154 181
134 154 181
133 154 181
134 154 181
134 155 181
134 154 181
134 154 181
133 154 181
134 154 181
134 154 181
133 154 181
133 153 180
134 154 181
134 154 181
133 154 181
134 154 181
134 154 181
134 154 181
135 155 181
134 154 181
134 154 181
133 154 181
134 154 181
133 154 180
133 154 181
134 154 181
134 154 181
135 155 181
134 154 181
134 154 181
134 154 181
134 154 181
134 154 181
134 154 181
134 154 181
134 154 181
134 154 181
134 154 181
133 154 181
134 154 181
134 154 181
133 154 181
134 155 181
133 154 181
134 154 181
134 154 181
134 154 181
133 154 181
134 154 181
134 154 181
134 154 181
134 154 181
133 154 181
134 154 181
134 154 181
134 154 181
133 154 181
134 154 181
134 154 181
134 154 181
133 154 181
133 154 181
134 154 181
133 154 181
133 154 181
134 154 181
134 154 181
134 154 181
134 154 181
134 154 180
133 154 181
133 154 181
134 154 180
133 153 180
134 154 181
133 154 181
134 154 181
134 154 181
133 154 181
134 154 181
134 154 181
134 155 181
134 154 181
134 154 181
134 154 181
134 154 181
133 154 180
133 154 181
134 154 181
134 154 181
134 154 181
134 154 181
134 154 181
134 154 181
134 154 181
133 154 181
133 154 181
134 154 181
133 154 181
133 154 181
134 154 181
134 154 181
134 154 181
135 155 181
134 154 181
133 154 181
134 154 181
134 154 181
135 155 181
134 154 181
134 154 180
134 154 181
134 154 181
132 153 181
134 154 180
134 154 181
134 154 181
134 154 181
134 155 181
133 154 181
134 154 181
134 154 180
134 154 181
133 154 181
134 154 181
134 154 180
133 154 180
134 154 181
134 154 181
135 155 181
134 154 181
134 154 181
134 154 181
133 154 181
134 154 181
133 154 181
135 155 181
134 154 181
134 154 181
133 154 181
134 154 181
134 154 181
134 154 181
135 155 181
134 154 181
133 154 181
133 154 181
134 154 181
134 154 181
134 154 181
134 154 181
134 154 181
134 154 180
134 154 181
133 154 181
134 154 181
134 154 181
134 154 181
134 154 181
135 155 181
133 154 181
134 154 181
133 154 181
134 154 181
134 154 181
134 154 181
133 154 181
133 154 181
134 154 180
134 154 181
133 154 181
133 154 181
133 154 181
135 155 181
134 154 181
134 154 181
133 154 180
133 154 181
134 154 181
135 155 181
134 154 181
134 154 181
134 154 180
134 154 181
134 154 181
135 155 181
133 154 181
134 154 181
134 154 181
133 154 181
134 154 181
134 155 181
133 154 181
133 154 181
134 154 181
134 154 181
133 154 181
135 155 181
135 155 181
134 154 181
135 155 181
134 154 181
134 154 181
135 155 181
133 154 181
133 154 181
134 154 181
134 155 181
134 154 181
134 154 181
133 154 181
134 154 181
135 155 181
133 154 181
134 154 181
133 154 181
135 155 181
135 155 181
134 154 181
133 154 181
134 154 181
134 154 181
135 155 181
134 154 181
133 154 181
134 154 181
133 154 180
134 154 181
134 154 181
135 155 181
134 154 181
134 154 181
133 154 181
133 154 181
133 154 181
134 154 181
134 154 181
133 154 181
134 154 180
134 154 181
134 154 181
133 154 181
135 155 181
134 154 181
134 154 181
134 154 181
133 154 181
133 154 181
134 154 181
133 154 181
134 154 181
134 154 180
134 154 181
133 154 181
134 154 181
133 153 180
133 154 181
134 154 181
134 154 181
133 154 181
133 154 181
134 154 181
133 154 181
133 154 181
134 154 181
134 154 181
133 154 181
134 154 181
133 154 181
134 154 181
134 154 181
133 154 181
133 154 181
133 154 181
134 154 181
133 154 181
134 154 181
133 154 181
135 155 181
134 155 181
133 154 181
134 154 181
135 155 181
133 154 180
134 154 181
134 154 181
134 154 181
133 154 181
133 154 181
133 154 181
134 154 181
133 154 180
133 154 181
133 154 181
134 154 181
134 154 181
134 154 181
134 154 181
133 154 181
134 154 181
133 154 181
134 154 181
134 154 180
134 154 181
134 154 181
133 154 181
134 154 181
133 154 181
134 154 181
135 155 181
133 154 181
133 154 181
134 154 181
134 154 181
134 154 181
134 154 181
133 154 181
133 154 181
135 155 181
134 154 181
133 154 181
133 154 181
133 154 181
133 154 180
134 154 181
134 154 181
133 154 181
134 154 181
133 154 181
133 154 181
132 153 180
134 154 180
134 154 181
132 153 180
133 154 181
133 154 181
133 154 181
134 154 181
134 154 181
134 154 181
133 154 181
133 154 181
134 154 181
133 154 181
133 154 181
133 154 181
134 154 181
133 154 180
133 154 181
134 154 181
134 154 181
134 154 181
134 154 181
134 154 181
134 154 181
134 154 181
134 154 181
134 154 181
133 154 181
134 154 181
133 154 181
134 154 181
134 154 181
134 154 181
134 154 181
134 154 180
134 154 181
134 154 181
134 155 181
134 154 181
134 154 181
134 154 181
133 154 180
133 154 181
134 154 181
134 154 180
134 154 181
134 154 181
134 154 181
134 154 181
134 154 181
134 154 180
135 155 181
134 154 181
133 154 181
133 154 181
134 154 181
133 154 181
134 154 181
134 154 181
134 154 180
133 154 181
134 154 181
133 154 181
134 154 180
134 154 181
133 154 181
134 154 181
134 154 181
134 154 181
133 154 180
133 153 180
134 154 181
134 154 181
134 154 181
133 154 181
135 155 181
133 154 181
134 154 181
133 154 181
133 154 180
134 153 179
134 154 181
134 154 181
134 154 181
133 154 181
133 154 181
134 154 181
134 155 181
135 155 181
135 155 181
134 154 181
134 154 181
134 154 181
133 154 181
134 154 181
134 154 181
134 154 181
133 154 181
134 154 181
133 154 180
134 154 181
134 155 181
134 154 181
134 154 181
134 154 181
134 155 181
133 154 181
134 154 181
134 154 181
134 154 181
134 154 181
134 154 181
134 154 181
133 154 181
133 154 181
133 154 181
134 154 181
133 154 181
134 155 181
134 154 181
133 154 180
134 154 181
134 154 181
134 154 180
133 154 180
134 154 181
135 155 181
133 153 180
132 153 180
133 154 180
133 154 180
134 154 181
134 154 181
134 154 181
135 155 181
134 154 181
133 154 181
133 154 181
133 154 181
134 154 181
134 154 181
135 155 181
134 154 181
134 154 181
134 154 181
134 154 181
133 154 181
133 154 180
134 154 181
134 154 181
134 154 181
134 154 181
134 154 181
134 154 181
134 154 181
134 154 181
135 155 181
134 154 181
133 154 181
134 154 181
132 154 181
134 154 181
133 154 181
132 153 181
133 154 181
134 154 181
134 154 181
133 154 181
134 154 181
133 154 180
134 154 181
134 154 181
134 154 181
134 154 181
134 154 181
134 154 181
134 154 181
133 154 181
134 154 181
133 154 181
133 154 181
134 154 181
133 154 181
133 154 181
134 154 181
134 154 181
135 155 181
134 154 181
133 154 181
134 154 181
133 154 181
134 154 181
133 154 181
133 154 181
134 154 181
134 154 181
134 154 181
134 154 181
134 154 180
134 154 181
133 154 181
133 154 181
134 154 181
133 154 181
134 154 181
134 154 181
134 154 181
133 154 181
133 154 181
134 154 181
135 155 181
134 154 180
134 154 181
134 154 180
134 154 181
134 154 181
134 154 181
134 154 181
134 154 181
134 154 181
133 154 180
134 154 181
133 154 181
133 154 180
134 154 181
134 154 181
133 154 181
134 154 181
133 154 180
133 154 181
134 154 181
133 154 181
133 154 181
134 154 181
134 154 181
134 154 181
133 154 181
134 154 181
134 154 181
134 154 181
134 154 181
133 154 181
134 154 181
133 154 181
133 154 181
134 154 181
134 154 181
133 154 181
134 154 181
134 154 181
134 154 181
133 153 180
134 154 181
133 154 181
134 154 181
134 154 181
134 154 181
133 154 181
134 154 181
134 154 181
133 154 181
134 154 181
133 154 180
134 154 181
134 154 181
134 154 181
134 154 181
134 154 181
134 154 181
134 154 181
134 154 181
134 154 181
133 154 181
135 155 181
134 154 181
134 154 181
134 154 181
135 155 181
134 154 181
134 154 181
133 154 181
134 154 181
134 154 181
133 154 181
134 154 181
134 154 181
134 154 181
134 154 181
134 154 181
134 154 181
134 154 181
134 154 181
133 154 181
133 154 181
135 155 181
133 154 181
133 154 181
133 154 181
134 154 181
134 154 181
134 154 181
134 154 181
133 154 181
134 154 181
133 154 181
133 153 180
134 154 181
134 154 181
134 154 181
134 154 181
134 154 180
134 154 181
133 154 181
134 154 181
134 154 181
133 154 181
135 155 181
134 154 181
133 154 181
133 154 180
133 154 181
134 154 181
133 154 181
134 154 181
134 154 181
133 153 180
134 154 181
133 154 181
133 154 181
134 154 181
134 154 181
134 154 181
134 154 181
133 154 181
133 154 180
134 154 181
133 154 181
134 154 181
133 154 180
134 154 181
134 155 181
134 154 180
133 154 181
135 155 181
133 154 181
135 155 181
134 154 181
134 154 181
133 154 181
134 154 181
134 154 181
133 154 180
134 154 181
133 154 181
133 154 181
134 154 181
133 154 181
134 154 181
133 154 181
133 154 181
134 154 181
133 154 181
134 154 181
134 154 181
134 154 180
133 154 181
134 154 181
133 154 181
134 154 181
133 154 181
133 154 181
134 154 181
134 154 181
133 154 181
134 154 181
135 155 181
135 155 181
133 154 181
134 154 180
134 154 181
133 154 181
134 154 181
133 154 181
134 154 181
134 154 181
134 154 181
134 154 181
134 154 181
134 154 181
134 154 181
133 154 181
135 155 181
134 154 181
133 154 181
133 154 181
133 154 181
135 155 181
133 154 181
134 154 181
134 154 181
134 154 181
134 154 181
134 154 181
133 154 181
133 154 181
134 154 181
134 154 181
134 154 181
134 154 181
132 153 180
134 154 181
134 154 181
133 154 181
133 153 180
133 154 181
133 154 181
133 154 181
134 154 181
134 154 181
134 154 181
133 154 181
134 154 181
133 154 181
133 154 181
133 154 181
134 154 181
134 154 181
134 154 181
133 154 180
134 155 181
134 154 180
134 154 181
134 154 181
134 154 181
133 154 180
133 154 181
134 154 181
134 154 181
134 154 181
133 154 181
133 154 181
133 154 181
134 154 181
135 155 181
134 154 181
134 154 181
134 154 181
135 155 181
134 154 181
133 154 181
133 154 181
134 154 181
135 155 181
134 154 181
133 154 181
134 154 181
134 154 181
134 154 181
133 154 181
135 155 181
134 154 181
133 154 181
133 154 181
133 154 180
134 154 181
134 154 181
134 154 181
133 154 180
133 154 181
134 154 181
134 154 181
133 154 181
133 154 181
134 154 181
133 154 181
133 154 181
134 154 181
134 154 181
134 154 181
134 154 181
133 154 181
133 154 181
134 154 181
134 154 181
135 155 181
133 154 181
134 154 181
134 154 181
133 154 181
134 154 181
133 154 181
133 154 181
133 154 181
134 154 181
134 154 181
134 154 181
134 155 181
133 154 181
133 154 181
134 154 181
133 154 180
134 154 181
134 154 181
133 154 181
133 154 181
134 154 181
134 154 181
133 154 181
133 154 180
134 154 181
133 154 180
133 154 181
134 154 181
134 154 181
134 154 181
134 154 181
133 154 181
133 154 181
133 154 181
134 154 181
133 153 180
134 154 181
134 154 181
134 154 181
133 154 180
134 154 181
133 154 180
134 154 181
134 154 181
134 154 181
134 154 181
133 154 181
132 153 180
133 154 181
134 154 181
134 154 181
134 154 181
134 154 181
133 154 180
134 154 180
133 154 181
133 154 181
134 154 181
133 154 181
132 153 181
133 154 181
133 154 181
133 154 181
134 154 181
134 154 181
134 154 181
133 154 181
134 154 181
133 154 181
134 154 181
133 154 181
133 154 181
134 154 181
135 155 181
133 154 181
135 155 181
134 154 181
134 154 181
133 154 180
134 154 181
134 154 181
134 154 181
134 154 181
133 154 181
134 154 181
135 155 181
133 154 180
134 154 181
133 154 181
134 154 181
134 154 181
134 154 181
134 154 181
133 154 181
134 154 181
134 154 181
134 154 181
133 154 181
133 154 181
134 154 181
133 154 181
134 154 181
134 154 181
134 155 181
133 154 181
133 154 181
134 154 181
133 154 181
133 154 181
134 154 181
134 154 181
133 154 181
133 154 181
134 154 181
133 154 181
134 154 181
135 155 181
132 153 180
134 154 181
133 154 181
134 154 181
133 154 181
133 154 181
134 154 181
133 154 181
133 154 181
133 154 181
134 154 181
133 154 181
133 154 181
134 154 181
133 154 181
134 154 181
134 154 181
133 154 181
133 154 181
135 154 180
134 154 181
133 153 180
133 154 181
134 154 181
134 154 181
133 154 181
134 155 181
134 154 181
134 154 181
133 154 180
134 154 181
134 154 181
134 154 181
134 154 180
133 154 181
133 154 181
133 154 181
134 154 181
133 154 181
134 154 181
135 155 181
135 155 181
134 154 181
133 153 180
133 154 181
135 155 181
135 155 181
133 154 181
134 155 181
134 154 181
133 154 181
134 154 181
133 154 181
135 155 181
133 154 181
133 154 181
134 154 181
133 154 181
135 155 181
134 154 181
134 154 181
134 154 181
133 154 181
135 155 181
134 154 181
134 154 181
134 154 181
134 154 181
133 154 181
134 154 181
134 154 181
134 154 181
134 154 181
133 154 181
134 154 181
134 154 181
133 154 181
135 155 181
134 154 180
134 154 181
134 154 181
134 154 181
134 154 181
134 154 181
134 154 181
134 154 181
133 154 181
134 154 181
133 154 181
134 155 181
134 155 181
135 155 181
133 153 180
134 154 181
134 154 181
133 154 181
134 154 181
135 155 181
134 154 181
134 154 181
134 154 181
133 154 181
134 154 181
134 154 181
133 154 180
133 154 181
134 154 181
134 154 181
134 154 181
134 154 181
134 154 181
134 154 181
134 154 180
133 154 181
134 154 181
135 155 181
134 154 181
133 154 181
134 154 181
134 154 181
134 154 181
135 155 181
133 154 180
134 154 181
133 154 180
133 154 181
134 154 181
133 154 181
134 154 181
134 154 181
134 154 181
135 155 181
134 155 181
134 154 181
133 154 181
133 154 181
133 154 181
133 154 181
134 154 181
134 154 181
133 154 181
134 154 181
134 154 181
134 154 181
134 154 181
135 155 181
134 154 181
134 154 180
134 154 181
133 154 181
134 154 181
134 154 181
133 154 181
135 155 181
135 155 181
133 154 181
134 154 181
134 155 181
134 154 181
135 155 181
133 154 180
132 153 180
133 154 181
134 154 181
134 154 181
134 154 181
134 155 181
134 154 181
134 154 181
134 154 180
134 154 181
133 154 181
134 154 181
133 154 181
134 154 181
134 154 181
134 154 181
134 154 181
133 154 181
134 154 181
134 154 181
134 154 181
134 154 181
134 154 181
133 154 181
134 154 180
134 154 181
134 154 181
134 154 181
134 154 181
134 154 181
134 154 181
134 154 181
134 154 181
134 154 181
133 154 181
133 154 181
134 154 181
134 154 181
134 154 181
134 154 181
134 154 181
134 154 181
134 154 181
133 154 181
134 154 181
134 154 181
134 154 181
135 155 181
133 154 181
133 154 181
133 154 181
133 154 181
133 154 181
133 154 181
133 154 181
134 154 181
133 153 180
134 154 181
134 154 181
134 154 181
134 154 181
134 154 181
135 155 181
133 154 181
133 154 181
134 154 181
133 154 181
134 154 181
133 154 181
134 154 181
134 154 181
134 154 181
134 154 181
133 154 181
133 154 181
134 154 181
134 154 181
133 154 180
133 154 181
134 154 181
135 155 181
133 154 181
134 154 181
134 154 181
134 154 181
134 154 181
133 153 180
134 154 181
134 154 181
133 154 181
134 154 181
134 155 181
134 154 181
133 154 181
134 154 181
134 154 181
133 154 180
134 154 181
134 154 181
133 154 181
134 154 181
133 154 181
134 154 181
134 154 181
134 154 181
133 154 181
134 154 181
134 154 180
133 154 181
135 155 181
133 154 181
133 154 181
134 154 181
133 154 181
134 154 181
134 154 181
134 154 181
135 155 181
133 154 181
134 154 181
134 154 181
133 154 181
135 155 181
134 154 181
133 154 181
133 154 181
133 154 181
133 154 181
134 154 181
134 154 181
134 154 181
134 154 181
133 154 181
133 154 181
133 154 181
134 154 181
133 153 180
133 154 181
134 154 181
133 154 181
134 154 181
133 154 181
134 154 181
135 155 181
133 154 180
133 154 180
135 155 181
134 154 181
134 154 181
134 154 181
133 154 181
134 154 181
135 155 181
133 154 181
134 154 181
134 154 181
134 154 181
135 155 181
134 154 180
134 154 181
133 154 181
134 154 181
133 154 181
134 154 181
134 154 181
135 155 181
134 154 181
133 154 181
134 154 181
134 154 181
134 154 181
134 154 181
133 154 180
134 154 181
134 154 180
134 154 181
134 154 181
133 154 181
133 154 181
133 154 181
135 155 181
134 154 181
133 154 181
133 153 180
134 154 181
134 154 181
134 154 181
134 154 181
134 155 181
134 154 181
135 155 181
134 154 181
134 154 181
134 154 181
134 154 181
134 154 180
135 155 181
135 155 181
133 154 181
134 154 181
134 154 181
134 154 181
134 154 181
135 155 181
134 154 181
134 154 180
134 154 180
134 154 181
133 154 181
134 154 181
133 154 181
133 154 181
134 154 181
134 154 181
134 154 180
135 155 181
133 153 180
134 154 181
134 154 181
133 154 181
135 155 181
135 155 181
135 155 181
133 154 181
134 154 181
133 154 181
134 154 180
133 154 181
135 155 181
133 154 181
134 154 181
134 154 181
134 154 181
134 155 181
134 154 181
133 154 181
134 154 181
133 154 181
134 154 181
133 154 181
134 154 181
133 154 181
134 154 181
135 155 181
134 154 181
134 154 181
133 154 181
134 154 181
135 155 181
133 154 181
133 154 181
134 154 181
133 154 181
133 154 181
135 155 181
133 154 181
134 154 181
134 154 181
134 154 181
134 154 181
134 154 181
134 154 181
134 154 181
134 154 181
134 154 181
134 154 181
133 154 181
134 154 181
133 154 181
133 154 181
134 154 180
133 154 181
134 154 181
134 154 181
134 154 181
133 154 181
133 154 181
134 154 181
134 154 181
134 154 181
134 154 181
133 154 181
134 154 181
134 154 181
134 155 181
134 154 181
134 154 181
133 154 181
134 154 181
133 154 181
134 154 181
134 154 181
134 154 181
135 155 181
134 154 181
134 154 181
134 154 181
133 154 181
133 154 181
134 154 181
134 154 181
134 154 181
134 154 181
134 154 181
134 154 181
135 155 181
134 154 181
134 154 181
133 154 181
133 154 181
134 154 181
134 154 181
133 154 180
133 154 181
134 154 181
134 154 181
133 154 181
133 154 181
133 154 181
133 154 181
134 154 181
134 154 181
134 154 181
134 154 181
133 154 180
134 154 180
134 154 181
133 153 180
134 154 181
134 154 181
133 154 181
134 154 181
134 154 181
134 154 181
134 154 181
133 154 181
134 155 181
134 154 181
133 154 181
133 154 181
134 154 181
133 154 181
133 154 181
134 154 181
133 154 181
134 154 181
134 154 181
134 154 181
135 155 181
134 154 181
134 154 181
134 154 181
134 154 181
134 154 181
134 154 181
133 154 180
133 154 181
134 154 181
134 154 181
134 154 181
134 154 181
133 154 181
133 154 181
134 154 181
135 155 181
134 154 181
134 154 181
133 154 181
134 154 181
134 155 181
134 154 181
133 154 180
135 155 181
133 154 181
133 154 180
133 154 181
133 154 181
133 154 181
133 154 181
133 154 181
133 154 181
134 154 181
134 154 181
133 154 181
134 154 181
134 154 181
134 154 181
134 155 181
133 154 181
134 154 181
134 154 180
133 154 181
135 155 181
134 154 181
135 155 181
135 155 181
133 154 180
133 154 181
134 155 181
134 154 181
133 154 181
134 154 181
134 154 181
134 154 181
134 154 181
133 154 181
133 154 181
134 154 181
133 154 181
134 154 181
134 154 181
133 154 181
134 154 181
134 154 181
134 154 181
133 154 181
134 154 181
134 154 181
133 154 181
133 154 181
134 154 181
133 154 180
133 153 180
134 154 181
135 155 181
133 154 181
133 154 181
134 154 181
133 154 181
134 154 181
133 154 181
133 154 181
134 154 181
134 154 181
133 154 181
133 154 180
134 154 181
134 154 181
134 154 181
134 154 181
133 154 181
134 154 181
133 154 180
135 155 181
133 154 181
134 154 180
134 154 180
133 154 180
134 154 181
134 154 181
134 154 181
133 154 181
133 154 180
135 155 181
134 154 181
133 154 181
134 154 181
134 154 181
133 154 181
133 154 181
134 154 181
133 154 181
134 154 181
133 154 181
133 154 181
134 154 181
133 154 181
135 155 181
134 154 181
134 154 181
134 154 181
133 154 181
134 154 181
133 154 181
134 154 181
134 154 181
135 155 181
134 154 181
133 154 181
134 154 181
134 154 181
134 154 180
133 154 181
134 154 181
134 154 181
135 155 181
134 154 181
134 154 181
133 154 181
133 154 181
133 154 180
133 154 181
134 154 181
134 154 181
134 154 180
134 154 181
134 154 181
133 154 181
133 154 181
135 155 181
133 154 181
134 154 180
134 154 180
133 154 181
134 154 181
134 154 181
134 154 181
134 155 181
134 154 181
135 155 181
134 154 181
133 154 181
134 154 181
133 153 180
133 154 181
134 154 181
134 154 181
134 154 181
133 154 181
134 154 181
133 154 180
134 155 181
134 154 181
135 155 181
134 154 181
133 154 181
133 154 181
134 154 181
134 154 181
134 154 181
134 154 181
133 153 180
134 154 181
134 154 181
133 153 180
134 154 181
134 154 181
134 154 181
134 154 181
134 154 181
134 154 181
134 154 181
134 154 181
135 155 181
134 154 181
134 154 181
133 154 181
133 154 181
134 154 181
133 154 181
134 154 181
134 154 181
134 154 181
134 154 181
134 154 181
134 154 181
134 154 181
135 155 181
133 154 181
133 154 181
133 154 181
134 154 180
134 154 181
134 154 181
133 154 181
133 154 181
133 154 181
134 154 181
134 154 181
134 154 181
134 154 181
133 154 181
134 154 181
134 154 181
133 154 181
134 154 181
134 154 180
134 154 181
134 154 180
133 154 181
134 154 181
134 154 181
133 154 181
134 154 181
134 154 181
133 154 181
134 154 181
134 154 181
133 154 181
134 154 181
133 153 180
135 155 181
133 154 180
133 154 181
134 154 181
135 155 181
134 154 181
133 154 180
133 154 181
133 154 181
134 155 181
133 154 181
134 154 181
134 154 181
134 155 181
134 154 181
134 154 181
134 155 181
134 154 180
132 153 180
134 154 181
134 154 181
134 154 181
133 154 181
134 154 181
135 155 181
133 154 181
134 154 181
133 153 180
133 154 181
134 154 181
133 154 181
133 154 181
134 154 180
133 154 181
134 155 181
133 154 181
133 154 181
133 154 181
133 154 181
134 154 181
133 154 181
134 154 181
134 154 181
134 154 181
134 155 181
135 155 181
133 154 181
134 154 180
134 154 181
134 154 181
134 154 181
134 154 181
134 154 181
135 155 181
133 154 181
134 154 180
135 155 181
133 154 181
134 154 181
134 154 181
134 154 181
134 154 181
134 154 181
133 154 181
134 154 181
134 154 181
133 154 181
134 154 181
134 154 181
134 154 181
133 154 181
133 154 180
134 154 180
135 155 181
134 154 181
133 154 181
134 154 181
134 154 181
133 154 181
134 154 181
133 154 181
133 154 181
134 154 181
134 154 181
133 154 181
133 154 181
135 155 181
134 154 181
134 154 181
134 154 181
134 154 181
134 154 181
134 154 181
134 154 181
134 154 181
133 154 181
134 154 181
134 154 181
133 154 181
134 154 181
134 154 181
134 154 181
134 154 181
134 154 181
134 154 181
134 154 181
133 154 181
133 154 181
135 155 181
134 154 181
134 154 181
134 154 181
133 154 181
134 154 181
134 154 181
134 154 181
134 154 181
134 154 181
133 154 181
133 154 181
133 154 181
133 154 180
134 154 181
134 154 181
133 154 181
134 154 181
134 154 181
134 154 181
134 154 181
134 154 181
133 154 181
133 154 181
134 154 181
134 154 181
134 154 181
133 154 181
134 154 181
134 154 181
134 154 181
134 155 181
133 154 181
133 154 181
134 154 181
135 155 181
134 154 181
134 154 181
134 154 181
134 154 181
133 154 181
133 154 181
134 154 181
134 154 181
133 154 181
134 154 181
133 154 181
133 154 180
134 154 181
133 154 181
134 154 181
134 154 181
134 154 181
133 154 181
133 154 181
134 154 181
134 154 181
133 154 181
134 154 181
133 154 181
133 154 181
134 154 181
133 154 181
134 154 181
134 154 180
134 154 181
134 154 181
133 154 180
134 154 181
133 154 180
135 155 181
133 154 181
135 155 181
134 154 181
133 154 181
135 155 181
134 154 181
133 154 181
135 155 181
134 154 181
133 154 180
133 153 180
133 154 181
134 154 181
135 155 181
134 154 181
133 154 181
133 154 180
134 155 181
134 154 181
134 154 181
134 154 181
133 154 180
133 154 180
135 155 181
134 154 181
134 154 180
133 154 181
133 154 181
134 155 181
134 154 181
133 154 181
134 154 181
133 154 181
134 154 181
134 154 181
134 154 181
133 154 181
134 154 181
133 153 180
134 154 181
133 154 181
133 154 180
134 154 181
134 154 181
133 154 181
133 154 181
134 154 181
133 154 181
135 155 181
135 155 181
134 154 181
133 154 181
134 154 181
133 154 181
134 154 181
134 155 181
134 154 181
133 154 181
134 154 181
133 154 181
134 154 181
134 154 181
134 154 180
133 154 181
134 154 181
134 154 181
134 154 181
133 153 180
134 154 181
133 154 181
133 154 181
134 154 181
133 154 181
134 154 180
134 154 181
133 154 181
134 154 181
134 154 181
133 153 180
134 154 181
133 153 180
133 154 181
133 154 181
133 154 181
132 153 181
134 154 180
134 154 181
133 154 180
133 154 181
133 154 181
134 154 181
134 154 181
134 155 181
133 154 181
134 154 181
135 155 181
134 154 181
134 154 181
133 154 181
133 154 181
133 153 180
134 155 181
134 155 181
133 154 181
134 154 181
133 154 181
134 154 181
134 154 181
134 154 181
134 154 181
133 154 181
134 154 181
133 154 181
134 154 181
134 154 181
134 154 181
133 154 181
134 154 181
135 155 181
133 154 181
133 153 180
134 154 181
134 154 181
134 154 181
134 154 181
133 154 181
134 154 181
134 154 181
134 154 181
134 155 181
133 154 181
133 154 181
134 154 181
133 154 181
133 154 181
134 154 181
133 154 181
133 154 181
133 154 181
134 154 180
135 155 181
135 155 181
135 155 181
133 154 181
134 154 181
134 154 180
133 154 181
134 154 181
134 154 181
134 154 181
134 154 181
134 154 181
134 154 181
134 154 181
134 154 181
134 154 181
134 154 181
134 154 181
133 154 180
133 154 181
134 154 181
133 154 180
135 155 181
133 154 181
134 154 181
133 154 181
133 154 181
134 154 181
134 154 181
134 154 181
134 154 181
134 155 181
134 154 181
132 153 181
133 154 181
134 154 181
134 154 181
134 154 180
134 154 181
133 154 181
133 154 181
133 154 181
134 155 181
134 154 181
135 155 181
134 154 181
133 154 181
134 154 181
134 154 181
133 154 180
134 154 181
134 154 181
134 154 181
134 154 181
134 154 181
134 154 181
134 155 181
133 154 181
133 154 181
133 154 181
133 154 181
133 154 181
133 154 180
134 154 181
134 154 181
133 154 181
134 154 180
133 154 181
134 154 181
134 154 181
134 154 181
134 154 180
133 154 181
133 154 181
134 154 181
133 154 181
135 155 181
134 154 181
134 154 181
134 154 181
134 154 181
133 154 181
134 154 181
134 154 181
133 154 181
135 155 181
134 154 181
133 154 181
134 154 181
134 154 181
133 154 181
134 154 181
134 154 181
132 154 181
133 154 181
133 154 181
134 154 180
134 154 181
134 154 180
133 154 181
134 154 181
133 154 181
133 154 181
134 154 181
133 154 181
133 154 181
133 154 181
134 154 181
134 154 181
134 154 181
134 154 181
134 154 181
134 154 181
132 153 181
134 154 181
133 154 181
133 154 181
133 154 181
133 154 181
133 154 181
134 154 181
134 154 181
134 154 181
133 153 180
134 154 181
133 154 181
134 154 181
133 154 181
134 154 181
134 154 181
134 155 181
134 154 180
134 154 181
134 155 181
133 154 181
134 154 181
134 155 181
133 154 181
133 154 181
133 154 181
134 154 181
133 154 181
133 154 181
134 154 181
134 154 181
134 153 179
133 154 181
134 154 180
134 154 181
134 154 181
135 155 181
133 154 181
134 154 181
134 155 181
134 154 181
133 154 181
134 154 181
134 154 181
134 154 181
133 154 181
135 155 181
134 154 181
133 154 180
134 154 181
134 154 181
134 154 180
133 153 180
134 154 180
133 154 181
134 154 181
134 154 181
134 154 181
134 154 181
133 154 181
133 154 181
135 155 181
133 154 181
133 154 181
135 155 181
133 154 181
133 154 181
134 154 181
134 154 181
134 154 181
135 155 181
134 154 181
134 154 181
134 154 181
134 154 181
134 154 181
133 154 180
134 154 181
134 154 181
133 154 181
134 154 180
134 154 181
134 154 181
134 154 181
134 154 181
133 154 181
133 153 180
133 154 180
134 154 181
133 154 181
134 154 181
133 154 181
133 154 181
134 154 181
134 154 181
134 154 181
133 154 181
134 154 181
134 154 181
133 154 181
133 154 181
133 154 181
133 154 181
134 154 181
133 154 181
133 154 181
133 154 181
133 154 181
135 155 181
134 154 181
133 154 181
132 153 180
134 154 181
134 154 181
133 154 181
133 154 181
135 155 181
134 155 181
134 154 180
134 154 181
134 154 181
133 154 181
134 154 181
134 155 181
133 154 181
134 154 181
133 154 181
133 154 180
134 154 181
133 154 181
133 154 181
133 154 181
134 154 181
134 154 181
133 154 181
133 154 181
134 154 181
134 154 181
134 154 181
133 154 181
133 154 180
133 154 180
134 154 181
134 154 181
134 154 181
133 153 180
134 154 181
134 154 181
134 154 181
134 154 181
133 154 181
134 154 181
134 154 180
134 154 181
134 154 180
134 154 181
134 154 181
134 154 181
134 154 181
132 153 181
134 154 181
133 154 180
133 154 181
134 154 181
133 154 181
134 154 181
134 154 181
133 154 181
134 154 181
133 154 181
133 154 181
134 154 181
134 154 181
133 154 181
133 154 181
134 154 181
134 154 180
133 154 181
134 154 181
133 154 181
134 154 181
134 154 181
134 154 181
134 154 181
133 154 181
134 154 181
133 154 181
134 154 181
133 154 181
134 154 181
133 154 181
133 154 181
134 154 181
134 154 181
133 154 181
135 155 181
134 154 181
135 155 181
133 153 180
133 154 181
134 154 181
134 154 181
134 154 181
134 154 181
134 154 181
134 154 181
134 154 181
134 154 181
134 154 181
134 154 181
134 154 181
133 154 181
134 154 181
133 154 180
134 154 181
133 154 181
134 154 181
134 154 181
134 154 181
134 154 181
133 154 181
134 154 181
133 154 181
133 154 181
134 154 181
134 154 181
134 154 181
134 154 181
134 154 181
133 154 181
134 154 181
134 154 181
133 153 180
134 154 181
134 154 181
133 154 181
135 155 181
134 154 181
134 154 181
134 154 181
133 153 180
134 154 181
134 154 181
133 154 181
134 154 181
133 154 180
134 155 181
134 154 181
134 154 181
133 154 181
133 154 181
135 155 181
134 154 181
134 154 181
133 154 181
134 154 181
134 154 181
134 154 181
133 154 181
132 153 180
134 154 181
133 154 181
134 154 181
135 155 181
132 152 179
134 154 181
134 154 181
133 154 180
133 154 181
133 154 181
134 154 181
133 154 181
133 154 181
134 154 181
133 154 181
134 154 181
134 154 181
135 155 181
135 155 181
134 154 181
133 154 181
133 154 181
133 154 181
133 154 181
134 154 181
133 154 181
134 154 181
134 154 181
135 155 181
133 154 181
134 154 181
134 154 181
133 154 180
134 155 181
133 154 181
133 154 181
133 154 180
134 154 181
133 154 181
134 154 181
134 154 180
134 154 181
133 154 181
133 154 181
133 154 181
133 154 181
133 154 181
133 154 180
134 155 181
134 154 181
133 154 181
134 154 181
134 154 181
134 154 180
134 154 181
133 154 181
134 154 181
133 153 180
133 154 181
134 154 181
134 154 181
134 154 181
134 154 181
134 154 181
134 154 181
134 154 180
134 154 181
134 154 181
134 154 181
132 153 180
134 154 181
134 155 181
134 154 181
134 154 180
133 154 181
133 154 181
135 155 181
133 154 181
134 154 181
133 154 181
134 154 181
134 154 181
133 154 181
133 153 180
133 154 181
134 154 181
133 153 180
133 154 181
133 154 181
134 154 181
134 154 181
133 154 181
134 154 181
135 155 181
134 154 181
134 154 181
133 154 181
133 154 181
133 154 181
134 154 181
133 154 181
134 154 181
134 154 181
134 154 180
134 154 181
134 155 181
134 155 181
134 154 181
134 154 181
134 154 180
134 154 181
134 154 181
134 154 181
135 155 181
133 154 180
133 154 181
134 154 181
134 154 181
134 154 180
134 154 181
134 154 181
134 154 181
133 154 181
134 154 181
134 154 181
134 154 181
133 153 180
134 154 180
134 154 181
135 155 181
133 154 181
134 154 181
134 154 181
134 154 181
133 154 181
134 154 181
134 154 181
133 154 181
133 154 181
133 154 181
134 154 181
134 154 181
133 154 181
134 154 181
134 154 181
134 154 181
133 154 181
133 154 181
133 154 181
133 154 181
133 154 181
134 155 181
133 154 181
133 154 181
134 154 181
133 154 181
134 154 181
134 154 181
132 153 181
134 154 181
134 154 181
134 154 181
133 154 181
134 154 181
133 153 180
133 154 181
134 154 181
134 154 181
134 154 181
133 154 181
134 154 181
134 154 180
134 154 181
133 154 181
133 154 180
133 154 181
133 154 181
134 154 181
135 155 181
134 154 180
134 154 181
134 154 181
134 154 181
134 154 181
133 154 181
134 155 181
134 154 181
134 154 181
134 154 181
134 154 181
134 154 181
134 154 181
134 154 181
135 155 181
134 154 181
133 154 180
133 154 181
134 154 181
134 154 181
133 154 181
133 154 181
134 154 181
133 154 181
132 153 180
133 154 181
134 154 181
133 154 181
133 154 181
134 154 181
136 155 181
133 154 181
134 154 181
134 154 181
133 154 181
134 154 181
133 154 181
134 154 181
135 155 181
134 155 181
134 154 181
133 154 181
133 153 180
134 154 181
133 154 181
134 154 181
133 154 181
133 154 181
134 154 181
134 154 181
133 154 181
133 154 181
134 154 181
133 154 181
133 154 181
134 154 181
133 154 181
134 154 181
133 153 180
133 154 181
135 155 181
133 154 181
133 154 181
134 154 181
134 155 181
134 154 181
134 154 181
134 154 181
133 154 181
134 155 181
134 154 181
134 154 181
134 154 181
134 154 181
133 154 181
133 154 181
133 154 181
134 154 181
133 154 181
134 154 181
134 154 181
134 154 181
133 154 181
134 154 181
133 154 181
133 154 181
133 154 181
132 153 181
134 154 181
134 154 181
134 154 181
134 154 181
134 154 181
134 154 181
134 154 181
134 154 181
133 154 181
134 154 181
134 154 181
133 154 181
134 154 180
133 154 181
134 154 181
134 154 181
133 154 181
133 154 181
133 154 181
133 154 180
133 154 181
134 154 181
134 154 181
134 154 181
133 154 180
134 154 181
133 154 181
135 155 181
134 154 181
134 154 181
134 154 181
133 154 181
134 154 181
134 154 181
133 154 181
133 154 181
134 154 181
134 154 181
133 154 181
134 154 181
134 154 181
133 154 181
134 154 181
133 154 181
133 154 181
134 154 181
133 154 181
134 154 181
134 154 181
135 155 181
134 154 180
133 154 181
135 155 181
133 154 181
134 154 181
134 154 181
133 154 181
134 154 181
134 154 181
134 154 181
133 154 181
133 154 181
133 154 181
134 155 181
134 154 180
134 154 181
133 154 181
134 154 181
133 154 181
134 154 181
133 154 180
134 154 181
134 154 181
134 154 181
133 154 181
133 154 181
133 154 181
134 154 181
133 154 181
134 154 181
134 154 181
133 154 180
133 154 181
134 154 181
133 154 181
134 154 181
134 154 181
134 154 181
134 154 181
134 154 181
133 154 181
134 154 181
134 154 181
134 154 181
134 154 181
134 154 181
133 154 181
134 154 181
133 154 181
134 154 181
134 155 181
133 154 181
134 154 181
133 154 181
134 154 181
134 154 181
133 154 181
135 155 181
134 155 181
134 154 181
134 154 181
133 153 180
133 154 181
134 154 181
134 154 181
134 154 180
133 154 180
135 155 181
134 154 181
133 153 180
133 154 180
134 154 181
134 154 181
134 154 181
134 154 181
134 154 181
134 154 181
134 154 181
134 154 181
134 154 181
134 154 181
134 154 181
134 154 181
133 153 180
134 154 181
133 154 181
134 154 181
133 154 181
133 154 181
134 154 181
134 154 181
133 154 181
133 154 181
135 155 181
134 154 181
134 154 181
134 154 181
133 154 181
134 154 181
134 154 181
134 154 181
134 154 181
134 154 181
133 154 181
134 155 181
134 154 181
134 154 181
134 154 180
134 154 181
134 154 181
134 154 181
133 154 180
134 154 181
134 154 181
134 154 181
133 154 181
134 154 180
133 154 181
134 154 181
134 154 181
134 154 181
134 154 181
134 154 181
134 154 181
133 154 181
133 154 181
134 154 181
134 154 181
134 154 181
134 154 181
134 154 181
134 154 181
133 154 180
134 154 181
134 154 181
134 154 181
133 154 181
134 154 180
134 155 181
133 154 181
134 154 181
133 154 181
134 154 181
133 154 181
134 154 181
134 154 181
134 154 181
133 154 180
134 154 181
135 155 181
133 154 181
134 154 180
134 154 181
134 154 181
134 154 181
133 154 181
133 153 180
133 154 181
135 155 181
134 154 181
134 154 181
134 154 181
133 154 181
134 154 181
133 154 181
134 154 181
134 154 181
134 154 181
134 154 180
134 154 181
134 154 181
134 154 181
134 154 181
134 154 181
133 154 181
133 154 181
132 153 180
134 154 181
135 155 181
134 155 181
133 154 181
134 155 181
133 154 180
134 154 181
134 154 181
134 154 181
133 154 181
133 154 181
134 154 181
133 154 181
135 155 181
133 154 181
133 154 181
134 154 181
134 154 181
134 154 181
133 153 180
133 154 181
133 154 181
135 155 181
134 155 181
134 154 181
134 154 181
134 154 181
134 154 181
134 154 181
133 154 181
133 154 181
134 154 181
134 154 181
133 154 181
134 154 181
134 154 181
133 154 181
133 154 181
133 154 181
134 154 181
134 154 181
133 154 181
133 154 181
134 154 181
133 154 181
133 154 181
135 155 181
134 154 181
134 154 181
133 153 180
134 154 181
133 154 181
134 154 181
134 154 181
134 154 181
133 154 181
133 154 181
133 153 180
133 153 180
133 154 181
133 153 180
133 154 181
134 155 181
134 154 180
133 154 180
134 154 181
134 154 181
133 154 180
133 153 180
134 154 181
134 154 180
134 154 181
133 154 181
134 154 181
133 154 180
133 154 181
134 154 181
134 154 181
133 154 181
134 154 181
134 154 181
133 154 181
134 154 181
133 154 181
134 154 181
134 154 181
133 154 181
134 154 181
133 154 181
135 155 181
133 154 181
134 154 181
134 154 181
133 154 181
133 154 181
134 154 181
134 154 181
134 154 181
134 154 181
134 154 181
133 154 181
133 154 181
134 154 181
133 154 181
134 154 181
134 154 181
133 154 180
133 154 180
134 154 181
134 154 181
134 154 181
134 154 181
134 154 181
133 154 181
135 155 181
133 154 181
134 154 181
133 154 181
133 154 181
135 155 181
133 154 180
133 154 181
133 154 181
134 154 181
133 154 181
133 154 181
134 154 181
133 154 181
134 154 181
132 153 181
134 154 181
134 154 181
133 153 180
133 154 181
133 154 181
134 154 181
134 154 181
133 153 180
134 154 181
134 154 181
134 154 181
134 154 181
133 154 181
134 155 181
134 154 181
133 154 181
133 154 181
135 155 181
134 154 181
133 154 181
133 154 181
134 154 181
134 154 181
134 154 181
134 154 181
133 153 180
134 154 181
134 154 181
134 154 181
135 155 181
133 154 181
134 154 181
134 154 181
134 154 181
134 154 181
134 154 181
133 154 181
133 154 181
133 153 180
134 154 181
134 154 181
134 154 181
134 154 181
134 154 181
134 154 181
132 153 181
134 154 181
134 154 180
133 154 180
134 154 181
133 154 181
133 154 181
133 153 180
133 154 181
133 154 181
133 154 181
133 154 181
133 154 181
134 154 181
134 154 181
134 154 181
134 154 181
134 154 181
133 154 181
134 154 181
134 154 181
133 154 181
134 154 181
134 154 180
134 154 181
133 154 181
135 155 181
134 154 181
133 154 181
134 154 181
134 154 181
134 154 181
134 154 181
135 155 181
134 154 181
134 154 181
134 154 181
133 154 181
134 155 181
134 155 181
133 154 181
134 154 181
133 154 181
133 154 181
134 154 181
134 154 181
135 155 181
133 154 181
133 154 180
133 154 181
134 154 181
134 155 181
133 154 181
134 154 181
134 154 181
133 154 181
133 154 181
134 154 181
134 154 181
134 154 181
133 154 181
134 155 181
134 154 181
133 154 181
134 154 181
134 154 181
134 154 181
133 154 181
134 154 181
133 154 181
133 154 181
133 154 181
134 154 181
134 154 181
133 154 181
134 154 181
134 154 181
134 154 181
133 154 181
134 154 181
133 154 181
133 154 181
134 154 181
134 154 180
134 154 181
133 154 181
133 154 181
134 154 181
133 153 180
134 154 181
133 154 181
133 153 180
134 154 181
133 154 180
134 154 180
134 154 181
134 154 181
133 154 181
134 154 181
134 154 181
134 154 181
133 154 181
134 154 181
134 154 181
133 154 180
135 155 181
133 154 181
134 155 181
134 154 181
134 154 181
133 154 181
134 154 181
134 154 181
134 154 181
133 154 181
133 154 181
134 154 181
134 154 181
133 154 181
133 154 181
134 154 180
133 154 181
134 154 181
134 154 181
133 154 180
134 154 181
134 154 181
134 154 181
133 154 181
134 154 181
134 154 181
134 154 181
134 154 181
133 154 181
133 154 181
134 154 181
133 154 180
133 154 181
134 154 181
134 154 181
134 154 181
134 154 181
134 154 181
133 154 181
134 154 181
133 154 180
133 154 181
134 154 181
135 155 181
134 154 181
134 154 181
134 154 181
134 154 181
133 154 181
133 154 181
133 154 180
134 154 181
133 154 181
133 154 181
134 154 181
133 154 181
134 154 181
134 154 181
134 154 181
134 154 181
134 154 181
133 154 181
134 154 181
133 154 181
134 154 181
133 154 180
133 154 181
133 154 181
134 154 181
133 154 180
134 154 181
134 155 181
133 154 181
133 154 181
134 154 181
133 154 181
133 154 180
134 154 181
134 154 181
133 154 181
133 154 181
134 154 180
134 154 180
133 154 181
134 154 181
133 154 181
134 154 181
134 154 181
134 154 181
133 154 181
134 154 181
134 154 181
134 154 180
134 154 181
133 154 181
134 154 181
134 154 181
134 154 181
133 154 181
134 154 181
134 154 181
134 154 181
134 154 181
134 154 181
133 154 181
134 154 181
133 154 181
133 154 181
133 154 181
134 154 181
134 154 181
134 154 181
134 154 181
133 154 181
134 154 181
134 154 181
134 154 181
133 154 181
134 154 181
134 154 180
134 154 181
134 154 181
134 154 181
133 154 180
134 154 181
134 154 180
133 154 181
133 154 181
133 154 181
132 153 180
134 154 181
133 154 181
134 154 181
133 154 180
133 154 181
135 155 181
135 155 181
133 154 181
134 154 181
134 154 181
134 154 181
134 154 181
134 154 181
133 154 181
133 154 181
135 155 181
134 154 181
133 154 181
134 154 181
133 154 181
134 154 181
134 154 180
134 154 181
134 155 181
134 154 181
134 154 181
133 154 180
133 154 180
134 154 181
134 154 181
133 153 180
134 154 181
133 154 181
134 154 181
133 154 181
133 154 180
133 154 181
134 154 181
134 154 181
133 154 181
134 154 181
134 154 181
134 154 181
134 154 181
133 154 181
134 154 181
133 154 181
134 154 181
133 154 181
133 154 181
133 154 181
133 154 181
133 154 180
134 154 181
133 154 180
133 154 181
135 155 181
134 154 181
134 154 181
134 154 181
135 155 181
134 154 181
134 154 181
134 154 181
134 154 181
134 154 181
133 154 181
134 154 181
133 154 181
133 154 181
134 154 181
133 154 180
133 154 180
135 155 181
133 154 181
133 154 181
134 154 181
133 154 181
134 154 181
134 154 181
134 154 181
134 154 181
133 154 181
135 154 180
133 154 181
133 154 181
134 154 181
134 154 181
135 155 181
133 154 181
134 154 181
134 154 181
134 154 181
134 154 181
135 155 181
134 154 181
134 154 181
134 154 181
133 154 181
133 154 181
134 154 181
133 154 181
134 154 181
133 154 181
133 154 181
134 154 181
134 154 181
134 154 181
133 154 181
134 155 181
133 154 181
133 154 181
134 154 181
134 154 181
135 155 181
134 154 181
133 154 181
135 155 181
134 154 181
134 154 181
134 154 181
133 154 180
134 154 181
133 154 181
133 154 181
133 154 181
133 154 181
134 154 181
133 154 181
134 154 181
134 154 181
134 154 181
134 154 181
133 154 181
134 154 181
135 155 181
133 154 181
134 154 181
134 154 181
134 154 180
134 154 181
133 154 181
134 154 181
134 154 181
133 154 181
134 154 181
134 154 180
135 155 181
134 154 181
134 154 180
134 154 181
133 154 181
134 154 181
134 155 181
133 154 181
133 154 181
133 154 181
133 154 181
133 154 181
134 154 181
133 154 181
133 154 181
134 154 181
134 154 181
134 154 181
133 154 180
134 154 181
133 154 181
133 154 180
134 154 180
134 154 181
134 154 181
134 154 181
133 154 181
134 154 181
133 154 180
134 154 181
134 154 181
133 154 181
133 154 181
133 154 181
134 154 181
133 154 181
134 154 181
134 154 181
133 154 180
133 154 181
134 154 181
134 154 181
133 154 181
134 154 181
134 154 181
133 154 181
133 154 181
134 154 181
134 154 181
134 154 181
134 154 181
134 154 181
133 154 181
133 154 181
135 155 181
135 155 181
134 154 181
134 154 181
133 154 181
133 154 181
134 154 181
133 154 181
134 154 181
133 154 181
134 154 181
134 154 181
134 154 181
134 154 181
134 154 180
133 154 181
134 154 181
134 154 181
134 154 181
134 154 181
134 154 181
134 154 181
134 154 181
133 154 181
134 154 181
134 154 181
134 154 181
133 154 181
133 154 181
134 154 181
133 154 180
134 154 181
133 154 180
133 154 181
134 154 181
133 153 180
133 154 180
134 154 180
133 154 181
133 154 181
133 154 180
133 154 181
134 154 181
133 154 181
134 154 181
134 154 181
134 154 181
133 154 181
133 154 181
134 154 181
133 154 181
133 154 181
133 154 181
134 154 181
134 155 181
134 154 181
134 154 180
133 154 180
134 155 181
134 154 180
133 154 181
134 154 181
133 154 181
134 154 181
134 154 181
135 155 181
134 154 181
134 154 181
134 155 181
133 154 181
134 154 181
134 154 181
134 154 181
134 155 181
134 154 181
134 154 181
133 154 181
133 154 181
134 154 181
134 154 181
134 154 181
133 154 181
134 154 181
134 154 181
134 154 180
134 154 181
133 154 181
134 154 181
134 154 181
134 154 181
134 154 181
133 154 181
133 154 181
133 153 180
133 154 181
133 154 181
134 154 181
134 154 181
133 154 181
135 155 181
133 154 181
134 154 181
135 155 181
134 154 181
133 154 181
134 154 181
134 154 181
133 154 181
134 154 181
135 155 181
133 154 181
134 154 181
134 154 181
133 154 181
133 154 181
134 154 181
134 154 181
133 154 181
134 154 181
134 154 181
134 154 181
134 154 181
134 154 181
134 154 181
133 154 181
134 154 181
134 154 181
134 154 181
133 154 180
134 154 181
134 154 181
134 154 181
134 154 181
133 154 181
134 154 181
134 154 181
134 154 181
133 154 181
134 154 181
133 154 181
133 154 181
135 155 181
133 154 181
134 154 180
134 154 181
133 154 180
135 155 181
134 154 181
134 154 181
134 154 181
133 154 181
134 154 181
134 154 181
134 154 181
134 154 181
134 154 181
134 154 181
134 154 181
133 154 180
134 154 180
134 154 181
134 154 181
134 154 181
134 154 181
134 154 181
134 154 181
133 154 181
134 154 181
134 154 180
134 154 181
134 154 181
134 154 181
134 154 181
134 154 181
134 154 181
133 154 181
135 155 181
134 154 181
134 154 181
134 154 181
133 154 180
134 154 181
134 154 181
133 154 181
133 154 181
134 154 181
134 154 181
133 154 181
133 154 181
134 154 181
133 154 181
134 154 181
134 154 181
133 153 180
134 154 181
134 154 181
134 154 180
134 154 181
134 154 181
133 154 181
133 154 181
135 155 181
133 154 181
133 154 180
133 154 180
133 154 181
133 154 181
134 154 181
133 154 181
134 154 181
133 154 181
133 154 181
134 154 181
133 154 181
133 154 181
134 154 181
134 154 180
134 154 181
133 154 181
132 153 180
134 155 181
134 154 181
135 155 181
134 154 181
134 154 180
134 154 181
134 154 181
133 154 181
134 154 181
134 154 180
134 154 181
134 154 181
133 153 180
133 154 181
134 154 181
134 154 181
134 154 181
134 154 181
134 154 181
133 154 181
134 154 181
134 154 181
134 154 181
133 154 181
134 154 181
133 154 181
135 155 181
134 154 181
133 154 180
134 155 181
134 154 181
132 153 181
134 154 181
133 154 181
133 154 180
134 154 181
133 154 181
134 154 181
133 153 180
133 153 180
134 154 180
134 154 181
134 154 181
134 154 181
134 154 181
134 154 181
133 154 181
134 154 181
133 154 181
135 155 181
134 154 181
134 154 181
134 154 181
134 154 181
134 154 181
134 154 180
134 154 181
134 154 181
135 155 181
134 154 181
134 154 181
132 153 180
134 154 181
133 154 181
134 154 181
134 154 181
134 154 181
134 154 181
133 154 181
134 154 181
134 154 181
133 154 181
133 153 180
134 154 181
133 154 181
134 154 181
133 154 181
133 154 181
133 153 180
133 154 181
134 154 181
134 154 180
133 154 181
133 154 181
134 154 181
134 154 181
134 154 181
134 154 181
134 154 181
134 154 181
134 154 181
134 154 181
134 154 180
134 154 181
133 154 181
134 154 181
133 153 180
133 154 181
134 154 181
134 155 181
135 155 181
133 154 181
134 154 181
133 154 181
135 155 181
135 155 181
135 154 180
134 154 181
134 154 181
134 154 181
133 154 181
134 154 181
134 154 181
133 154 181
134 154 181
134 154 181
135 155 181
134 154 181
134 154 181
133 154 181
133 154 180
134 154 181
134 154 180
134 154 181
133 154 181
133 154 181
133 154 181
134 154 181
134 154 181
134 154 181
134 154 181
134 154 181
134 154 181
134 154 181
134 154 180
133 154 181
134 154 181
133 154 181
135 155 181
134 154 181
132 154 181
134 154 181
134 154 181
134 154 181
134 154 181
134 154 181
134 154 181
135 155 181
134 154 181
132 153 181
133 154 181
133 154 181
134 154 181
134 154 181
134 154 181
134 154 181
134 155 181
134 154 181
134 154 181
133 154 181
133 154 181
134 154 181
135 155 181
133 154 181
134 154 180
134 154 181
134 154 181
133 154 181
134 154 181
135 155 181
133 154 181
134 154 181
134 154 181
134 154 180
133 154 181
134 154 181
134 154 181
133 154 181
134 154 181
134 154 181
134 154 181
134 154 181
134 154 180
134 154 181
134 154 181
133 154 181
134 154 180
134 154 181
133 153 180
134 154 181
134 154 181
133 154 181
133 154 181
134 154 181
135 155 181
133 154 180
134 154 181
133 154 181
134 154 181
134 154 181
133 154 181
133 154 181
134 154 181
133 154 180
133 154 181
133 154 181
134 154 181
134 154 181
133 154 181
133 154 181
134 154 181
133 154 181
135 155 181
132 153 181
134 154 181
134 154 181
133 154 181
134 154 181
134 154 181
133 154 181
134 154 181
133 154 181
133 153 180
133 154 181
134 154 181
134 154 181
134 154 181
133 154 180
133 154 181
133 154 181
133 154 181
134 154 181
134 154 181
133 154 181
134 154 181
134 154 181
135 155 181
134 154 181
134 154 181
134 154 181
134 154 181
134 154 181
134 154 181
134 154 181
134 154 181
135 155 181
133 154 181
134 154 181
134 154 181
134 154 181
133 154 181
133 154 181
134 154 181
134 154 181
134 154 181
133 154 181
134 154 181
134 154 181
134 154 181
134 154 181
134 154 181
134 154 180
133 154 181
133 154 181
133 154 181
134 154 181
133 154 181
134 154 181
134 154 181
133 154 181
134 154 181
134 154 181
133 154 181
134 154 181
134 154 181
134 155 181
133 154 181
134 154 181
133 154 181
134 154 181
134 154 180
133 154 181
134 154 181
134 154 181
134 154 181
134 154 181
134 154 181
133 154 180
134 154 181
135 155 181
134 154 181
134 154 181
133 154 181
134 154 181
134 154 181
133 154 181
134 154 181
134 154 181
134 154 181
134 154 181
134 154 181
133 154 180
133 154 181
134 154 181
134 154 181
133 154 180
134 154 181
134 154 181
134 154 181
133 153 180
134 154 181
134 154 181
134 154 181
134 154 181
134 154 181
133 154 181
134 155 181
133 154 180
134 154 181
134 154 181
134 154 181
134 154 181
133 154 181
133 154 181
134 155 181
134 154 181
134 154 181
134 154 181
135 155 181
134 154 181
134 154 181
134 154 181
133 154 181
134 154 181
133 154 181
132 153 180
134 155 181
133 154 181
133 154 181
132 153 181
133 154 181
135 155 181
135 155 181
134 154 181
134 154 181
134 154 181
133 154 181
134 154 181
134 154 181
134 154 181
135 154 180
134 154 181
133 154 181
134 154 181
134 154 181
133 154 181
134 154 181
134 154 181
134 154 180
133 154 181
133 154 181
133 154 181
134 154 181
135 154 180
133 154 180
133 154 181
135 155 181
134 154 181
134 154 181
134 154 181
133 154 181
134 154 181
133 154 181
134 154 181
134 154 181
134 154 181
134 154 181
133 154 181
134 154 181
134 154 181
133 154 181
134 154 181
134 154 181
134 154 181
133 154 181
134 154 180
135 155 181
133 154 181
133 154 181
133 154 181
134 154 180
133 154 181
133 154 181
133 154 181
133 154 181
134 154 181
134 154 181
134 154 180
134 154 181
135 155 181
134 154 181
134 154 181
134 154 181
133 153 180
134 154 181
134 154 181
133 154 181
133 154 181
133 154 181
133 154 181
133 154 180
134 154 181
134 154 181
134 154 181
133 154 181
133 154 181
134 154 181
133 154 181
134 154 181
134 154 181
133 154 181
133 154 181
133 154 181
134 154 181
133 154 181
133 154 181
134 154 181
133 154 181
134 154 181
135 155 181
134 154 181
134 154 181
134 154 181
133 154 181
132 153 181
133 153 179
135 155 181
134 154 181
134 154 181
134 154 181
133 154 180
133 153 179
134 154 181
134 154 181
133 154 181
135 155 181
135 155 181
133 154 181
134 154 181
133 154 181
134 154 181
134 154 181
134 154 181
133 154 181
134 154 181
134 154 181
134 155 181
134 154 180
134 154 181
134 154 181
134 154 181
134 154 180
134 155 181
135 155 181
133 154 181
134 154 181
134 154 181
135 155 181
134 154 181
134 154 180
134 154 181
133 154 181
133 154 181
134 155 181
134 154 181
133 154 181
133 154 181
133 154 181
134 154 181
134 154 181
134 154 181
134 154 181
134 154 181
134 154 181
134 154 181
134 154 181
134 154 181
133 154 181
134 154 181
135 155 181
133 154 181
134 154 181
134 154 180
133 154 181
133 154 181
134 154 181
133 154 181
134 154 181
134 154 181
134 154 181
134 154 181
134 154 181
134 154 181
134 154 181
134 154 181
135 155 181
134 154 181
134 154 181
133 154 181
134 154 181
133 154 181
134 154 180
135 155 181
133 154 181
133 154 181
134 154 181
133 154 181
134 154 181
133 154 181
134 154 181
135 155 181
133 154 181
134 154 181
133 154 181
134 154 181
133 154 181
134 154 181
133 154 181
133 154 181
133 153 180
133 154 181
133 154 180
134 154 181
134 154 181
134 154 181
134 154 181
134 154 181
134 154 181
134 154 181
133 154 181
134 154 181
134 154 181
133 154 181
133 154 181
133 153 180
134 154 181
134 154 181
134 154 181
133 154 181
134 154 181
134 154 181
134 154 181
134 154 181
134 154 181
134 154 181
133 154 181
133 153 180
134 154 181
133 154 181
134 154 181
133 154 181
134 154 181
134 154 181
133 154 181
135 155 181
134 155 181
134 154 181
132 154 181
133 154 180
133 154 181
133 154 181
133 154 181
134 154 181
134 154 181
134 154 181
134 154 181
134 154 181
134 154 181
134 154 181
134 154 181
134 154 181
134 154 181
133 154 181
134 154 181
135 155 181
133 154 181
133 154 180
134 154 180
133 153 180
134 154 181
133 154 181
133 154 181
133 154 180
134 154 181
134 154 181
133 154 181
134 154 181
133 154 181
134 154 181
133 154 181
134 154 181
133 154 181
134 154 181
134 154 181
134 154 181
133 154 181
134 154 181
135 155 181
135 155 181
133 154 180
133 154 181
133 154 181
133 154 181
133 154 181
134 154 180
134 154 181
134 154 180
134 154 181
133 154 181
134 154 181
134 154 181
134 154 181
134 154 181
133 154 181
134 154 181
134 154 181
133 154 181
134 154 181
133 154 181
133 154 181
134 154 181
134 154 181
134 154 181
134 154 181
134 154 181
134 154 181
133 154 181
134 154 181
134 154 181
134 154 181
133 154 181
134 154 181
134 154 181
134 154 181
134 154 181
133 154 180
133 154 181
134 154 181
133 154 181
133 154 181
133 154 181
133 154 180
134 154 181
134 154 181
134 154 181
133 154 181
134 154 181
134 154 181
134 154 181
133 154 181
134 154 181
134 154 181
134 154 181
134 154 181
135 155 181
133 154 180
135 155 181
133 154 181
134 154 181
134 154 181
133 154 181
133 154 181
133 154 181
134 154 181
133 154 181
134 154 181
135 155 181
134 154 181
134 154 181
134 154 181
134 154 181
134 154 181
133 154 181
133 154 180
133 154 181
133 154 181
134 154 181
134 154 180
134 154 181
133 154 180
134 154 181
134 154 181
134 154 181
133 154 181
134 154 181
134 154 181
134 154 181
134 154 181
134 154 181
133 154 181
134 154 181
134 154 181
133 154 181
133 154 181
134 154 180
133 154 181
134 154 181
134 154 180
134 154 181
133 154 181
134 155 181
134 154 181
134 154 181
134 154 181
134 154 181
133 154 180
134 154 180
134 154 181
133 154 181
134 154 181
134 154 181
133 154 181
134 154 181
133 154 181
133 154 181
134 154 181
133 154 181
134 154 181
134 154 181
133 154 181
133 154 181
134 154 181
134 154 181
134 154 181
134 154 181
133 154 181
134 154 181
134 154 181
134 154 181
134 154 181
134 154 181
134 154 181
134 154 181
133 154 181
134 154 181
134 154 181
134 154 181
134 154 181
133 154 180
133 154 181
134 154 181
134 154 181
133 154 181
134 154 181
133 154 181
134 154 181
134 154 181
134 154 181
134 154 181
134 155 181
133 154 181
134 154 181
134 154 181
135 155 181
133 154 181
134 154 181
135 155 181
133 154 181
134 154 181
133 154 181
133 153 180
133 154 181
134 154 180
134 154 180
133 154 181
134 154 181
133 154 181
133 154 181
134 154 181
134 154 181
134 154 181
134 154 181
133 154 181
134 154 180
133 154 181
135 155 181
133 154 181
133 154 180
133 154 181
134 154 181
133 154 180
133 154 180
133 154 180
134 154 181
134 154 181
134 154 181
135 155 181
133 154 181
134 154 181
133 154 181
134 154 181
134 154 181
133 154 181
134 154 181
134 154 181
134 154 181
133 154 180
133 154 181
135 155 181
133 154 181
134 154 181
134 154 181
134 154 181
134 154 181
134 154 180
135 155 181
133 154 181
134 154 181
134 154 181
134 155 181
134 154 181
134 154 181
133 154 181
134 154 181
134 154 181
133 154 181
134 154 181
133 154 180
134 154 181
133 154 180
134 154 181
133 154 181
134 154 181
135 155 181
134 154 181
133 154 180
134 154 181
135 155 181
133 154 181
133 154 180
133 154 181
133 153 180
133 154 181
134 154 181
134 154 181
134 154 181
133 154 181
134 154 181
133 154 181
134 154 181
133 154 181
133 154 181
134 155 181
134 154 181
133 154 181
133 154 181
133 154 181
133 154 181
133 154 181
134 154 181
134 154 181
134 154 181
134 154 181
134 154 181
134 154 181
134 154 181
133 154 181
134 154 181
133 154 181
135 155 181
134 154 181
134 154 181
134 154 181
133 154 181
133 154 181
134 154 181
133 154 181
134 154 181
132 153 180
133 154 181
133 154 181
133 154 181
134 154 180
134 154 181
135 155 181
134 154 181
133 154 181
134 154 181
134 154 181
134 154 181
134 154 181
133 154 181
134 155 181
133 154 181
134 154 181
134 154 181
134 154 181
134 154 181
134 154 181
134 154 180
134 154 181
133 154 181
133 154 181
134 154 181
135 155 181
134 155 181
133 154 181
135 155 181
134 154 181
134 154 181
134 154 181
133 154 181
133 154 181
133 154 181
133 154 181
134 154 180
133 154 181
133 154 181
133 154 181
134 154 181
133 154 181
134 154 181
134 154 181
134 154 181
134 154 181
133 154 180
134 154 181
133 154 181
134 154 181
133 154 181
134 154 181
134 154 181
134 154 181
133 154 181
135 155 181
133 154 181
133 154 181
134 154 181
133 154 181
133 154 181
134 154 181
134 154 181
134 154 181
134 154 181
134 154 181
133 154 181
134 154 181
134 154 181
134 154 181
133 154 181
134 154 181
134 154 181
133 154 181
133 154 181
134 154 181
133 154 181
133 154 181
134 154 181
133 154 180
134 154 181
134 154 181
133 154 181
134 154 181
134 154 181
133 154 181
134 154 181
134 154 181
133 154 181
135 155 181
134 154 181
134 154 181
134 154 181
133 154 181
134 154 181
133 154 180
133 154 181
134 154 181
134 154 181
134 154 181
133 154 181
134 154 181
134 154 181
134 154 181
134 154 181
134 154 181
134 154 181
134 154 181
134 154 181
134 154 181
135 155 181
133 154 181
134 154 180
134 154 181
134 154 181
133 154 181
133 154 181
133 154 181
134 154 181
134 154 181
134 154 181
134 154 181
134 154 181
134 154 181
134 154 181
134 154 181
133 154 181
133 154 181
133 154 181
134 154 181
133 154 181
133 154 181
133 154 181
133 154 181
134 154 181
133 154 181
134 154 180
135 155 181
134 154 181
133 154 181
134 154 181
133 154 181
135 155 181
134 154 181
134 154 181
134 154 181
134 154 181
134 154 181
134 154 181
134 154 181
133 154 181
134 154 181
134 154 181
133 154 181
135 155 181
133 154 181
133 154 181
133 154 181
134 154 181
133 154 181
133 154 181
133 154 181
133 154 181
133 154 181
134 154 181
134 154 181
133 154 180
133 154 181
134 154 181
134 154 181
134 154 181
134 154 181
134 155 181
134 154 181
133 154 181
134 155 181
133 153 180
134 155 181
134 154 181
133 154 181
134 154 181
133 154 181
134 154 181
134 154 181
134 154 181
134 154 181
133 154 181
133 154 181
134 154 181
133 154 181
134 154 181
134 154 181
133 153 180
133 154 180
134 154 181
133 154 181
134 154 181
134 154 181
133 154 181
134 154 181
134 154 181
133 154 181
134 154 181
134 155 181
134 154 181
134 154 181
134 154 181
133 154 181
134 154 181
134 154 181
133 153 180
134 154 181
133 154 181
134 154 181
134 154 181
134 154 181
134 154 181
135 155 181
133 154 181
134 154 181
134 154 180
134 154 181
133 154 181
134 154 181
134 154 181
134 154 181
133 154 181
134 154 181
134 154 181
133 154 181
134 154 181
133 154 181
134 154 181
134 154 181
133 154 181
134 154 180
134 154 181
134 154 181
133 154 181
134 154 181
134 154 181
134 154 181
134 154 181
134 155 181
133 154 181
134 154 181
133 154 181
134 154 181
133 154 181
133 154 180
134 154 181
134 154 181
134 154 181
134 155 181
134 154 181
134 154 181
134 154 181
134 154 181
133 154 181
133 154 181
135 155 181
134 154 181
134 154 181
133 154 181
133 154 181
133 153 180
134 154 180
134 154 181
134 154 181
134 154 181
134 154 181
133 154 181
134 154 181
135 155 181
134 154 181
134 154 181
133 153 180
134 154 181
134 154 181
133 154 181
134 154 181
135 155 181
134 154 181
134 154 181
134 154 181
134 154 181
133 154 181
134 154 181
134 154 181
133 154 180
134 154 181
134 154 181
134 154 181
134 154 181
134 154 181
134 154 181
134 154 181
134 155 181
133 154 180
133 154 181
134 154 181
134 154 181
134 154 181
133 154 181
133 154 181
135 155 181
134 154 181
133 154 180
134 154 181
134 154 181
133 154 181
135 155 181
134 154 181
133 154 181
133 154 180
133 154 181
134 154 181
132 153 181
134 154 181
135 155 181
135 155 181
134 154 181
134 154 181
134 154 181
134 154 181
134 154 181
133 154 181
134 154 181
134 154 181
133 154 181
133 154 181
133 154 181
134 154 181
134 154 181
134 154 181
134 154 181
134 154 181
133 154 181
134 154 181
134 154 181
133 154 181
134 154 181
133 154 181
134 154 181
133 154 181
134 154 181
133 153 180
133 154 181
135 155 181
135 155 181
134 154 181
133 154 181
133 154 181
134 154 181
135 155 181
134 154 181
133 154 181
134 154 181
134 154 181
133 154 181
135 155 181
133 154 181
133 154 181
134 154 181
134 154 181
135 155 181
134 154 181
134 155 181
134 154 181
134 155 181
133 154 181
133 154 181
134 154 181
134 154 181
135 155 181
134 154 181
134 154 181
134 154 181
134 154 181
135 154 180
133 154 180
134 154 181
135 155 181
134 154 181
134 154 181
133 154 181
134 154 181
134 154 181
133 154 181
134 154 181
134 154 181
134 154 181
133 154 181
135 155 181
133 154 181
134 154 181
134 155 181
134 154 181
133 154 181
134 154 181
134 154 181
134 154 181
134 154 181
134 154 181
134 154 181
134 154 181
134 154 181
133 154 181
133 154 181
133 154 181
134 154 181
133 154 181
134 154 181
133 154 181
134 154 181
134 154 181
133 154 181
135 155 181
133 153 180
134 154 181
134 154 181
133 154 181
133 154 180
135 155 181
135 155 181
134 154 181
133 154 181
133 154 181
134 154 180
134 154 181
133 154 181
134 154 181
134 154 181
133 154 181
134 154 181
134 154 181
134 154 181
134 154 181
133 154 181
134 154 181
134 154 181
134 154 181
134 154 181
134 154 181
135 155 181
134 154 181
133 154 181
134 154 180
134 154 181
134 154 181
134 154 181
134 154 181
134 154 181
134 154 181
133 154 181
133 154 180
134 154 181
134 154 180
133 154 181
134 154 181
133 154 181
134 154 181
134 154 181
134 154 181
134 154 181
133 154 181
133 154 181
133 154 181
135 155 181
134 154 181
133 154 181
134 154 181
134 154 181
134 154 181
134 154 181
135 155 181
133 154 181
135 154 180
134 154 181
133 154 180
134 154 181
134 155 181
134 154 181
133 154 181
134 154 181
134 154 181
134 154 181
134 154 181
134 154 181
134 154 181
134 154 181
133 154 181
135 155 181
133 154 181
134 154 181
134 154 181
134 154 181
134 154 181
134 154 181
133 154 181
133 154 181
134 154 181
134 154 181
133 154 181
134 154 181
134 154 181
134 154 180
134 154 181
134 154 181
134 154 181
134 154 181
133 154 181
134 154 180
134 154 181
134 154 181
133 154 181
133 154 181
134 154 181
134 154 181
133 154 181
133 154 181
134 154 181
134 154 181
134 154 181
133 154 181
133 154 181
134 154 181
133 154 181
134 154 181
134 154 181
135 155 181
133 154 181
134 154 181
133 154 181
135 155 181
133 154 181
133 154 180
134 154 181
134 154 181
134 154 181
133 154 181
134 154 181
134 154 181
133 154 181
134 154 181
134 154 181
134 154 181
134 154 181
133 154 181
134 154 181
133 154 181
134 154 181
134 154 181
133 154 181
133 154 181
133 154 181
134 154 181
134 154 181
135 155 181
133 154 180
134 154 181
134 154 181
133 154 181
134 154 181
134 154 181
134 154 181
133 154 181
134 154 181
133 154 181
133 154 181
134 154 181
134 154 181
134 154 181
133 154 181
134 154 181
133 154 181
133 154 181
134 154 181
134 154 180
134 154 181
134 154 181
134 154 181
135 155 181
134 154 181
134 154 181
134 155 181
133 154 181
133 154 181
133 154 181
134 154 181
134 154 181
134 154 181
133 154 181
134 154 181
134 154 181
133 154 181
134 154 181
134 154 181
134 154 181
133 154 181
133 154 181
134 154 181
134 154 181
133 154 181
134 154 181
133 154 181
133 154 181
134 154 181
133 154 181
134 154 181
133 154 181
134 154 181
134 154 181
134 154 181
133 154 181
134 154 181
134 154 181
134 154 181
135 155 181
133 154 181
134 154 181
134 155 181
134 154 181
134 155 181
135 155 181
133 154 181
134 154 181
135 155 181
133 154 180
134 154 181
134 154 181
133 154 181
134 154 181
133 154 181
134 154 180
134 154 181
133 154 180
134 154 181
134 154 181
133 154 181
133 154 181
133 154 181
134 154 181
133 154 181
134 154 181
133 154 181
135 155 181
133 154 181
134 154 181
134 154 181
133 154 181
134 154 181
134 154 181
134 154 181
134 154 181
134 154 181
133 154 181
134 154 181
133 154 181
133 154 181
135 155 181
133 154 181
134 155 181
134 154 181
134 154 181
134 154 181
134 154 181
133 154 181
134 154 181
133 154 181
134 154 181
134 154 181
133 154 181
134 154 181
133 154 181
135 155 181
134 154 181
133 154 181
134 154 181
134 154 181
134 154 181
135 155 181
134 154 181
134 154 181
134 154 181
134 154 181
134 154 181
133 154 180
134 154 181
134 154 181
134 154 180
133 154 181
133 153 180
134 154 181
134 154 181
134 154 181
134 154 181
134 154 181
134 154 181
134 154 181
134 154 181
133 154 181
134 154 181
134 154 181
133 154 181
134 154 181
134 154 181
133 154 181
133 154 181
134 154 181
133 154 181
133 154 181
134 154 180
134 154 180
133 154 181
134 154 181
134 154 181
133 154 181
133 153 180
134 154 181
134 154 181
134 154 180
133 154 180
134 154 181
134 154 181
134 154 181
134 154 181
133 154 181
134 154 181
133 154 181
133 154 181
133 154 181
134 154 181
134 154 181
133 154 181
134 155 181
134 154 181
133 154 181
134 155 181
134 154 181
133 154 181
134 154 181
134 154 181
134 154 181
134 154 181
133 154 181
133 154 181
134 154 181
134 154 181
133 154 181
134 154 181
135 155 180
133 154 181
135 155 181
134 154 180
134 154 181
134 154 181
133 154 181
134 154 181
134 155 181
134 154 181
135 155 181
134 155 181
134 154 181
134 154 181
134 154 181
133 154 181
133 154 181
134 154 181
133 154 181
134 154 180
133 154 181
133 154 181
133 154 181
134 154 181
134 154 181
134 154 181
133 154 181
135 155 181
133 154 181
133 154 181
134 154 181
134 154 181
134 154 181
134 154 181
133 153 180
133 154 181
134 154 181
133 154 181
135 155 181
134 154 181
134 155 181
134 154 181
134 154 180
134 154 181
134 154 181
135 155 181
133 153 180
133 154 181
133 154 181
133 154 181
134 154 181
134 154 181
133 154 181
134 154 181
133 154 181
134 154 181
134 154 181
134 154 180
134 154 181
134 154 181
134 154 181
133 154 181
134 154 181
134 154 181
134 154 181
134 154 181
133 154 181
134 154 181
134 154 181
134 154 181
134 154 181
134 154 181
134 154 181
133 154 181
133 154 181
133 154 180
133 154 181
133 154 181
133 154 181
133 154 181
133 154 181
134 154 181
133 154 181
134 154 181
134 154 181
133 154 181
134 154 181
133 154 181
134 154 181
134 154 181
134 154 181
133 154 181
133 154 181
133 154 181
134 154 181
133 153 180
133 154 181
133 154 181
134 154 181
133 154 181
134 154 181
134 154 181
134 154 181
133 154 181
134 154 181
135 155 181
133 154 181
133 154 181
133 154 181
134 155 181
134 154 181
134 154 181
133 154 181
134 154 181
134 154 181
133 154 181
134 154 180
134 154 181
134 154 181
134 154 181
134 154 181
134 154 181
134 154 181
134 154 181
134 154 181
134 154 181
133 154 181
133 154 181
133 154 181
133 154 181
133 154 181
134 154 181
134 154 181
133 154 181
133 154 181
134 154 181
133 154 180
134 154 181
134 154 181
133 154 180
134 154 181
133 154 181
134 154 181
135 155 181
133 154 181
134 154 181
134 154 181
133 154 181
133 154 181
134 154 181
134 154 181
133 154 181
134 154 181
135 155 181
134 154 181
134 154 181
134 154 181
134 154 181
133 154 181
134 154 181
134 154 180
133 154 181
133 154 181
134 154 181
134 154 181
134 154 181
134 154 181
134 154 181
134 154 180
133 154 181
134 154 181
134 154 181
133 154 181
133 154 181
134 154 181
133 154 181
134 154 181
134 154 181
133 154 181
133 154 181
133 154 181
134 154 181
134 154 181
133 154 181
133 154 181
133 154 181
133 154 181
134 154 181
133 154 181
134 154 181
134 154 181
133 154 181
134 154 180
134 154 181
134 154 181
134 154 181
133 154 181
134 154 181
134 154 181
134 155 181
133 153 180
134 154 181
134 154 181
133 154 181
133 154 180
134 154 181
134 154 181
133 154 181
133 154 181
134 154 181
133 154 181
134 154 181
134 154 181
134 154 181
133 154 181
134 154 181
133 154 181
134 154 180
133 154 181
134 154 181
134 154 181
134 154 180
134 154 181
134 154 181
133 154 181
134 154 181
133 154 181
133 154 180
134 154 181
134 154 181
133 154 181
134 154 181
134 154 181
134 154 181
134 154 181
133 154 181
135 155 181
134 154 181
134 154 181
133 154 180
134 154 181
134 154 181
134 154 180
134 154 181
133 154 181
133 154 181
135 155 181
133 154 181
134 154 181
134 154 181
133 154 181
133 154 181
133 154 181
135 155 181
134 154 181
134 154 181
134 154 181
134 154 180
134 154 181
133 154 181
134 154 181
133 154 181
133 154 181
133 154 181
134 154 181
134 154 181
134 154 181
134 154 181
134 154 181
132 153 179
134 154 181
134 154 180
134 154 181
135 155 181
134 154 181
134 154 181
134 154 181
133 154 181
133 154 181
133 154 181
134 154 181
134 154 181
134 154 181
134 154 181
133 154 181
134 154 181
133 154 181
134 154 181
134 154 181
133 154 181
134 154 181
134 155 181
134 154 181
134 154 181
134 154 181
133 154 181
134 154 181
135 155 181
134 154 181
133 154 181
133 154 181
134 155 181
134 154 181
135 155 181
134 154 181
134 154 181
134 154 181
134 154 181
135 154 180
134 154 180
132 153 180
135 155 181
134 154 181
134 154 181
133 154 181
135 155 181
135 155 181
133 154 181
134 154 181
133 154 181
134 154 181
133 154 181
133 154 181
133 154 180
134 154 181
134 154 181
134 154 181
133 153 180
134 154 180
134 154 181
134 154 181
133 153 180
134 154 181
134 154 181
134 154 180
134 154 181
133 154 181
134 154 181
133 154 181
134 154 181
133 154 180
134 154 181
133 154 180
135 155 181
133 154 181
133 154 181
134 154 181
133 154 181
134 154 181
134 154 181
134 154 181
134 154 181
134 154 181
134 154 181
134 154 181
134 154 181
134 154 181
133 154 181
134 154 181
134 154 181
134 154 180
134 154 181
133 154 180
133 154 181
134 154 181
134 154 181
134 154 181
134 154 181
133 154 181
135 155 181
134 154 181
133 154 181
133 154 181
134 154 181
134 154 181
135 155 181
134 154 181
134 154 181
133 154 181
133 154 181
134 154 181
134 154 181
133 154 181
134 154 181
133 154 181
134 154 181
134 154 181
133 154 181
133 154 181
134 154 181
134 154 180
133 154 181
134 154 181
134 154 181
133 154 181
134 154 181
134 155 181
134 154 181
134 154 181
135 155 181
132 153 180
134 154 181
134 155 181
133 153 180
134 154 181
134 154 181
135 155 181
133 154 181
134 154 181
134 154 181
134 154 181
135 155 181
133 154 181
134 154 181
134 154 181
133 154 181
134 154 180
133 154 181
134 154 181
133 154 180
134 154 181
134 154 181
134 154 181
134 154 181
134 154 180
134 154 181
133 154 181
134 154 181
134 154 181
134 154 181
134 154 181
134 154 181
134 154 181
133 154 181
133 154 181
134 154 181
134 154 181
132 153 181
133 154 181
134 154 181
134 154 181
134 154 181
134 154 181
134 154 181
133 154 181
134 154 181
132 154 181
133 154 181
133 154 181
134 154 181
134 154 181
134 154 181
133 154 181
134 154 181
134 154 180
135 155 181
134 154 181
133 154 181
134 154 181
134 154 181
134 154 181
134 154 181
133 154 181
134 154 181
135 155 181
133 154 181
134 154 181
134 154 181
133 154 181
134 154 181
133 154 181
134 154 181
135 155 181
132 153 181
134 154 181
133 154 181
134 154 181
134 154 181
134 154 181
133 154 181
133 154 181
133 154 181
133 154 181
134 154 181
133 154 181
134 154 181
133 154 181
133 154 181
134 154 181
134 154 181
134 154 181
133 154 180
133 154 181
134 154 181
134 154 181
134 154 181
135 155 181
133 154 180
134 154 181
134 154 181
134 154 181
133 154 181
134 154 181
134 154 181
133 154 181
134 154 181
134 154 181
134 154 181
133 154 181
133 154 181
134 154 181
133 154 181
134 154 181
134 154 181
134 154 181
134 154 181
134 154 181
134 154 181
134 154 181
134 154 181
134 154 181
133 154 181
133 154 181
133 154 181
134 154 181
135 155 181
133 154 181
134 154 181
133 154 181
133 154 181
134 154 181
133 154 181
133 154 181
133 154 181
133 154 181
134 154 181
134 154 181
133 154 181
134 154 181
134 154 181
134 154 181
133 154 181
134 154 181
134 154 181
134 154 181
134 155 181
133 154 181
134 154 181
133 154 181
134 154 181
135 155 181
134 154 180
134 154 181
134 154 181
134 154 181
135 155 181
134 154 181
133 154 181
134 154 181
133 154 181
133 154 181
133 154 181
133 154 181
134 154 181
134 154 181
134 154 181
133 154 180
134 154 181
134 154 181
134 154 181
134 154 181
133 153 180
134 154 181
133 154 181
134 155 181
134 154 181
134 154 181
134 154 181
133 153 180
135 155 181
133 154 180
134 154 181
133 154 181
134 154 181
134 154 180
134 154 181
133 154 180
134 154 181
135 155 181
134 154 181
134 154 181
135 155 181
134 154 180
134 154 181
134 154 181
133 154 181
134 154 181
133 154 181
134 154 181
133 154 181
135 155 181
134 154 181
134 154 181
134 154 181
134 154 181
133 154 181
133 154 181
134 154 181
134 154 181
134 154 181
133 154 181
134 154 181
134 154 181
135 155 181
134 154 181
134 154 181
134 154 181
135 155 181
133 154 180
133 154 181
134 154 181
134 154 181
133 154 181
134 154 181
134 155 181
134 154 181
134 154 181
134 155 181
133 154 180
133 154 181
135 155 181
134 154 181
134 154 181
134 154 181
134 154 181
135 155 181
133 154 181
134 154 181
134 154 181
134 154 181
134 154 181
134 154 181
133 154 181
134 154 181
134 154 181
133 154 181
134 154 181
133 154 181
134 154 181
134 154 181
133 154 181
134 154 181
134 154 181
133 154 181
133 154 181
134 154 181
134 154 181
134 154 181
134 154 181
133 154 180
133 154 181
134 154 181
134 154 181
133 154 180
134 154 181
134 154 181
134 154 181
133 154 181
133 154 181
134 154 181
134 154 181
134 154 181
135 155 181
134 154 181
134 154 181
133 153 180
134 154 181
133 154 181
134 155 181
134 154 181
134 154 181
133 154 181
133 154 181
133 154 180
133 154 181
134 154 181
133 154 181
134 154 181
134 154 181
133 154 181
134 154 181
134 154 181
134 154 181
133 154 181
134 154 181
134 154 181
134 154 180
134 154 181
133 154 181
134 154 181
134 154 181
133 154 181
133 154 180
133 154 181
134 154 181
134 154 181
133 154 181
134 154 181
133 154 181
134 154 181
134 154 181
134 154 181
134 154 181
134 154 181
134 154 181
134 154 180
133 154 180
133 154 181
134 154 181
133 154 181
133 154 181
134 154 181
134 154 181
134 154 181
134 154 181
134 154 181
134 154 181
134 154 181
132 153 180
134 154 181
135 155 181
134 154 181
133 154 181
133 154 181
134 154 181
133 154 181
134 154 181
134 154 181
134 154 181
133 154 180
133 154 181
133 154 181
134 154 180
134 154 181
134 154 181
133 154 181
134 154 181
134 154 181
134 154 181
134 154 181
134 154 181
134 154 181
134 154 181
134 154 181
134 154 181
133 154 181
135 155 181
134 154 181
134 154 181
134 154 181
133 154 181
134 154 181
134 154 181
135 155 181
134 154 181
134 154 181
133 154 180
134 154 181
133 154 181
133 154 181
134 154 181
134 154 181
133 154 181
133 154 181
134 154 181
134 154 180
134 154 181
134 154 181
134 154 181
133 154 181
135 155 181
134 154 180
133 154 181
134 154 181
133 154 181
134 154 181
134 155 181
133 154 181
134 154 181
133 154 181
134 154 181
134 154 181
134 154 181
134 154 181
133 154 181
133 154 181
134 154 181
134 154 180
133 154 181
134 154 181
133 154 181
134 154 180
133 154 181
133 154 181
134 154 180
133 154 181
134 155 181
133 154 181
134 154 181
133 154 180
134 155 181
134 155 181
133 154 181
134 154 181
134 154 181
134 154 181
134 154 181
133 154 181
135 155 181
134 154 181
134 154 181
134 154 181
133 154 180
133 154 181
133 154 181
134 154 181
134 154 180
133 154 181
134 154 181
134 154 181
133 154 181
133 154 181
134 154 181
134 154 181
133 154 181
133 154 181
133 154 181
134 154 181
134 154 181
133 154 181
135 155 181
134 154 181
134 155 181
133 154 181
134 154 181
134 154 181
134 154 181
134 154 181
134 154 181
135 155 181
134 154 181
133 154 181
134 154 181
134 154 181
133 154 180
134 154 181
134 154 181
134 154 181
134 154 181
134 154 181
133 154 181
134 154 181
134 154 181
133 154 181
133 154 181
133 154 181
135 155 181
133 154 181
135 155 181
133 154 181
134 155 181
134 154 181
133 154 181
134 154 180
134 154 181
133 154 181
134 154 181
133 153 180
133 154 181
134 154 181
134 154 181
133 154 181
133 154 181
133 154 181
134 155 181
134 154 181
134 154 181
134 154 181
134 154 181
133 154 181
133 153 180
133 154 181
134 154 181
133 154 181
133 154 181
134 154 181
134 154 181
134 154 181
135 155 181
134 154 181
133 154 181
133 153 180
135 155 181
134 154 181
133 154 181
134 154 181
134 154 181
133 154 181
134 154 181
134 154 181
134 154 181
134 154 181
134 154 181
134 154 181
133 154 181
134 154 181
134 154 181
133 153 180
134 154 181
133 154 180
133 154 181
135 155 181
134 154 181
133 154 181
134 154 181
134 154 181
133 154 181
134 154 181
134 154 181
134 154 181
133 154 181
133 154 181
134 154 181
133 154 181
135 155 181
134 154 181
134 154 181
133 154 181
135 155 181
134 155 181
134 154 181
134 154 181
134 154 181
135 155 181
134 154 181
134 154 181
134 154 181
135 154 180
134 154 181
133 154 181
133 154 181
135 155 181
134 154 181
133 154 181
133 154 181
133 154 181
134 154 181
134 154 181
133 154 181
134 154 181
133 154 181
135 155 181
134 154 181
134 154 181
133 154 181
134 154 181
134 154 181
134 154 181
133 154 181
134 154 181
134 154 180
133 154 181
133 154 181
134 154 181
133 154 181
133 154 181
133 154 181
134 154 181
134 154 181
133 154 181
133 154 180
134 154 181
133 154 181
134 154 181
133 154 181
134 154 181
134 154 181
134 154 181
134 154 181
134 154 180
133 154 181
134 154 181
134 154 181
133 154 181
133 154 181
134 154 181
134 154 181
136 155 181
134 154 181
135 155 181
133 154 181
133 154 181
134 154 181
134 154 181
133 154 181
134 154 181
133 154 181
134 154 181
135 155 181
134 154 181
133 154 181
133 154 181
133 154 181
134 154 181
134 154 181
134 154 181
134 154 181
133 153 180
133 154 181
134 154 181
133 154 181
133 153 180
133 154 181
134 154 181
133 154 181
133 154 181
133 154 180
134 154 181
135 155 181
134 154 181
134 154 181
134 154 181
134 154 181
134 154 181
133 154 181
134 154 180
133 154 181
134 154 181
135 155 181
134 154 181
134 154 181
133 154 181
134 154 181
133 154 181
133 154 181
133 154 181
134 154 181
134 154 181
134 154 181
134 154 181
133 154 181
134 154 181
133 154 181
134 154 181
134 154 181
135 155 181
134 154 181
133 154 181
134 154 180
133 154 180
134 154 181
135 155 181
134 154 181
133 154 181
133 154 181
133 154 181
134 154 181
134 154 181
133 154 180
134 154 181
133 154 181
134 154 181
133 154 181
133 154 181
135 155 181
133 154 181
134 154 181
134 154 181
133 154 181
134 154 180
134 154 181
134 154 181
134 154 181
133 154 181
133 154 180
134 154 181
133 154 181
134 154 181
132 153 179
134 154 181
134 154 181
135 155 181
134 154 181
134 154 181
133 154 181
134 154 181
134 154 181
134 154 180
133 154 181
134 154 181
133 154 181
133 154 181
133 154 181
134 154 181
134 154 181
134 154 181
134 154 180
133 154 180
134 154 181
133 154 181
132 153 181
133 154 181
133 154 181
134 154 181
135 155 181
133 154 181
133 154 180
133 154 181
134 154 181
133 154 181
133 153 180
134 154 181
134 154 181
133 154 181
133 154 181
133 154 181
134 154 180
134 154 181
134 154 181
133 154 181
134 154 180
134 154 181
134 154 180
134 154 181
134 154 181
134 154 181
134 154 181
134 154 181
134 154 181
134 154 181
135 155 181
134 154 181
134 154 181
134 154 181
133 154 181
133 154 181
134 154 180
133 154 180
134 154 181
134 154 181
134 154 181
134 154 181
133 154 180
134 154 181
134 154 181
133 154 181
134 154 181
134 154 181
134 154 181
133 153 180
134 154 181
134 154 181
133 154 181
133 154 181
133 154 180
133 154 181
133 154 181
133 154 181
134 154 181
133 154 181
134 154 181
133 154 181
133 154 181
134 154 181
134 154 181
134 154 181
134 154 181
133 154 181
134 154 181
133 154 181
133 154 181
134 154 181
134 154 181
134 154 181
134 154 181
133 154 181
133 154 181
133 154 181
133 154 181
134 154 181
133 153 180
133 153 180
133 154 181
135 155 181
134 154 181
134 154 181
134 154 181
134 154 181
134 154 181
135 155 181
134 155 181
134 154 181
134 154 181
133 154 180
133 154 181
133 154 181
133 154 181
135 155 181
134 154 181
134 154 181
135 155 181
134 155 181
133 154 181
134 155 181
134 154 181
134 154 181
134 154 181
134 154 181
134 154 181
134 154 181
134 154 181
134 154 181
134 154 181
134 154 181
134 154 181
133 154 181
133 154 181
133 154 181
133 154 181
134 154 181
133 154 181
134 154 181
134 154 181
135 155 181
133 154 181
133 154 181
133 154 181
134 154 181
133 154 181
134 154 181
134 154 181
133 154 181
133 154 181
133 154 181
133 154 180
134 154 181
134 154 180
134 154 181
134 154 181
133 154 181
133 154 181
134 154 181
134 154 181
134 154 181
133 154 181
134 154 181
134 155 181
133 154 181
134 154 181
134 154 181
133 154 181
133 154 181
133 154 181
133 154 181
134 154 181
133 154 181
134 155 181
133 154 181
134 154 180
135 155 181
135 155 181
133 154 181
133 154 181
134 154 181
133 154 181
134 154 181
135 155 181
134 154 181
134 154 181
134 154 181
134 154 181
134 154 181
134 154 181
134 154 181
134 154 181
133 154 181
134 154 181
134 154 181
133 154 181
133 154 181
135 155 181
134 154 181
134 154 181
134 154 181
134 154 181
133 154 181
134 154 181
134 154 181
134 154 180
133 154 181
134 154 181
134 155 181
133 154 180
133 154 181
134 154 181
134 154 181
135 155 181
134 154 181
134 154 181
134 154 181
134 154 181
134 154 181
133 154 181
133 154 181
133 154 181
133 154 181
134 154 181
134 154 181
134 154 181
133 154 181
134 154 181
133 154 181
134 154 181
134 154 181
133 154 181
134 154 181
134 154 181
134 154 181
133 154 181
133 154 180
133 154 181
134 154 181
134 154 181
134 154 181
134 154 181
133 154 181
134 154 181
133 154 181
134 154 181
133 154 180
133 154 181
133 154 181
134 155 181
134 154 181
134 154 181
133 154 181
134 154 181
133 154 181
134 154 181
133 154 181
133 154 180
133 154 180
134 154 181
135 155 181
134 154 181
134 154 181
134 154 181
134 154 181
134 154 181
134 154 181
134 154 181
134 154 181
134 154 181
135 155 181
134 154 181
133 154 181
133 154 181
134 154 181
135 155 181
133 154 181
134 154 181
134 154 181
134 154 181
134 154 181
133 154 181
134 154 180
135 155 181
133 154 181
134 154 181
134 154 181
134 154 181
133 154 181
134 154 181
134 154 181
134 154 181
133 154 181
133 154 181
134 154 181
134 154 181
133 154 181
133 154 181
134 154 181
134 154 181
133 154 181
134 154 181
133 154 180
135 155 181
134 154 180
134 154 181
134 154 181
134 154 181
134 154 180
134 154 181
134 154 181
133 154 180
133 154 181
134 154 181
134 154 181
134 154 181
134 155 181
133 154 180
134 154 181
134 154 181
135 155 181
134 154 181
134 154 181
134 154 181
134 154 181
134 154 181
133 153 180
133 154 181
133 154 181
133 154 181
133 154 181
133 153 180
133 154 181
134 154 181
133 154 181
134 154 181
134 154 181
134 154 181
134 154 181
134 154 180
133 154 181
133 154 181
133 154 181
134 154 181
134 154 181
134 154 181
133 154 181
134 154 181
133 154 181
134 154 181
133 154 181
134 154 181
134 154 181
134 154 181
134 154 180
134 154 181
134 154 181
134 154 181
134 154 181
133 154 181
134 154 181
133 154 181
133 154 181
134 154 181
133 154 181
133 154 181
134 154 181
133 154 181
134 154 181
134 154 181
134 155 181
134 154 181
133 153 180
133 154 180
134 155 181
134 154 181
134 154 181
134 154 181
133 154 181
133 154 181
134 154 180
133 154 181
135 155 181
135 155 181
134 154 181
134 154 181
132 153 180
134 154 181
133 154 181
134 154 180
133 153 180
135 155 181
133 154 181
134 154 181
134 154 181
134 154 181
133 154 181
134 154 181
133 154 181
134 154 181
133 154 180
133 154 181
133 154 181
133 153 180
133 154 180
133 154 181
134 154 181
134 154 181
134 154 181
134 154 181
133 154 180
133 154 181
133 154 181
133 154 181
133 154 181
133 154 181
134 154 181
133 154 181
134 154 181
135 155 181
134 154 181
134 154 181
135 155 181
134 154 181
134 154 181
134 154 181
133 154 180
134 155 181
133 154 181
134 154 181
133 154 181
133 154 181
133 154 181
134 154 181
134 154 181
134 154 181
133 154 181
133 154 181
134 154 181
134 154 181
135 155 181
134 155 181
134 154 181
134 154 181
134 154 181
133 154 180
135 155 181
134 154 181
134 155 181
134 154 181
133 154 180
133 154 180
135 154 180
134 154 181
134 154 181
134 154 181
133 154 181
134 155 181
133 154 181
134 154 181
134 154 181
133 154 181
133 154 181
134 154 181
134 154 181
133 154 181
134 154 181
135 155 181
133 154 181
133 154 181
134 154 180
134 154 181
134 155 181
134 154 181
133 154 181
133 154 181
134 154 181
133 154 181
134 154 181
133 154 181
134 154 181
133 154 181
134 154 181
134 154 181
133 154 181
134 154 181
133 154 181
134 154 181
133 154 181
133 154 181
133 154 181
133 153 180
133 154 181
134 155 181
133 154 181
133 154 181
134 154 181
133 154 181
134 154 181
134 154 181
134 154 181
134 154 181
134 154 181
134 154 181
133 154 181
134 154 181
133 154 181
134 154 181
134 154 181
133 154 181
134 154 181
134 154 181
134 155 181
134 154 181
134 154 181
134 154 181
134 154 181
133 154 181
133 154 180
133 154 181
134 154 181
134 154 181
134 154 181
133 154 181
133 154 181
134 154 181
135 155 181
134 154 181
134 154 181
134 154 181
133 154 181
135 155 181
134 154 181
133 154 181
134 154 181
133 154 181
133 154 181
134 154 181
133 154 181
134 154 181
133 154 181
133 154 181
134 154 181
134 154 181
134 154 181
134 154 181
133 154 181
134 154 181
134 154 181
133 154 181
134 154 181
133 154 181
133 154 181
134 154 181
134 154 181
134 154 181
133 153 180
133 154 181
133 154 181
133 154 181
134 154 181
133 154 181
134 155 181
134 154 181
133 154 181
133 154 180
134 154 181
134 154 181
133 154 181
134 154 181
134 154 181
134 154 181
135 155 181
132 153 180
134 154 181
134 155 181
135 155 181
134 154 181
134 154 181
134 154 181
134 154 181
133 154 181
134 154 181
134 154 181
134 154 181
134 154 181
134 154 181
134 154 181
133 154 181
134 154 181
134 154 181
133 154 180
134 154 181
133 154 181
134 154 181
134 154 181
134 154 181
134 154 181
133 154 181
135 155 181
134 154 181
133 154 181
133 154 180
134 154 181
134 154 181
133 154 181
133 154 181
134 154 181
133 153 180
134 154 181
133 154 181
134 154 181
134 154 181
133 154 181
134 154 181
133 154 181
134 154 181
133 154 181
134 154 181
134 154 181
133 154 181
134 154 181
133 153 180
135 155 181
133 154 181
133 154 180
134 154 181
134 154 181
134 154 181
133 154 181
133 154 181
133 153 180
134 155 181
134 154 181
134 154 180
133 153 180
133 154 181
134 154 181
134 154 181
133 154 181
134 154 181
134 154 181
134 154 181
134 154 181
133 154 181
134 154 181
134 154 181
133 154 181
133 154 181
133 154 181
135 155 181
133 154 181
134 154 180
134 154 181
133 154 181
134 154 181
134 154 181
133 154 181
134 154 181
134 154 181
134 154 181
133 154 181
133 154 181
134 154 181
134 154 181
134 154 181
134 154 181
135 155 181
134 154 181
133 154 181
134 154 181
133 154 181
133 154 181
133 154 181
134 154 181
133 154 181
134 154 181
134 154 181
133 154 181
133 154 181
134 154 181
134 154 180
133 154 181
134 155 181
133 154 181
134 154 181
134 154 181
134 154 181
134 154 181
134 154 181
134 155 181
134 155 181
133 154 181
134 154 181
133 154 181
134 154 181
134 154 181
134 154 181
134 154 181
134 154 181
134 154 181
134 154 181
135 155 181
134 154 181
133 154 181
133 154 181
134 154 181
133 154 181
134 154 181
133 153 180
134 154 180
133 154 181
134 154 181
133 154 181
133 154 181
134 154 181
133 154 181
134 154 181
134 154 181
134 155 181
134 154 181
134 154 180
134 154 181
134 154 181
133 154 181
133 154 180
133 154 181
135 155 181
134 154 181
133 154 181
133 154 181
134 154 181
133 154 181
134 154 181
134 154 181
134 154 181
133 154 181
133 154 181
134 154 181
134 154 181
133 154 181
134 154 181
135 155 181
134 154 181
134 154 181
133 154 181
133 154 181
134 154 181
134 154 181
134 154 181
134 154 180
134 154 181
134 154 181
135 155 181
134 154 181
134 154 181
134 154 181
134 154 180
134 154 181
134 154 181
134 154 181
134 154 181
133 154 181
133 154 181
134 154 181
134 154 181
134 154 181
133 154 181
133 154 181
134 154 181
134 154 181
134 154 181
133 154 181
135 155 181
133 154 181
133 154 181
133 154 181
134 154 181
133 154 181
134 154 181
133 154 180
134 154 181
134 154 181
134 154 181
134 154 181
134 154 181
135 155 181
134 154 181
133 153 180
133 153 180
134 154 181
132 153 181
135 155 181
134 154 181
134 154 181
134 154 181
134 154 181
134 154 181
134 154 181
134 154 181
134 154 181
135 155 181
134 154 180
134 154 181
132 153 181
133 154 181
133 154 181
134 154 181
134 154 181
133 154 180
133 154 180
134 154 181
134 154 181
134 154 181
133 154 180
134 154 181
134 154 181
134 154 181
134 155 181
133 154 181
134 154 181
134 154 181
133 154 181
134 154 181
134 154 181
134 154 181
134 154 181
134 154 180
134 154 181
134 155 181
133 154 181
135 155 181
133 154 181
134 154 181
134 154 181
134 154 180
134 155 181
133 154 181
133 154 181
134 154 181
133 154 181
134 154 181
134 154 181
134 154 181
132 153 180
133 154 181
134 154 181
134 154 181
134 154 181
133 154 181
133 154 181
133 154 181
134 154 181
133 154 181
134 154 181
133 154 181
134 154 181
133 154 181
134 154 181
133 154 180
134 154 181
134 154 181
134 154 180
134 154 181
134 154 181
134 154 181
134 154 181
133 154 181
134 154 181
135 155 181
132 153 180
133 154 181
134 154 181
134 154 181
134 154 181
133 154 181
133 154 181
133 154 181
134 154 181
134 154 181
133 154 181
134 154 181
135 155 181
134 154 181
135 155 181
133 154 181
135 155 181
133 154 181
133 154 181
135 155 181
134 154 181
133 154 181
133 153 180
133 153 180
133 154 181
133 154 181
134 154 181
134 154 181
134 154 181
134 154 181
134 154 181
134 154 181
134 154 181
133 154 181
134 154 181
134 154 181
135 155 181
134 154 181
134 154 181
134 154 181
134 154 181
133 154 181
133 154 181
134 154 181
134 154 181
134 154 181
133 154 181
134 154 181
134 154 181
133 154 181
134 154 181
134 154 181
133 154 181
133 153 180
134 154 181
134 154 181
134 154 181
133 154 181
135 155 181
134 154 181
134 154 181
134 154 181
134 154 181
133 154 181
134 155 181
134 154 181
133 154 181
134 154 181
133 154 181
134 155 181
134 154 181
134 154 181
134 154 181
134 154 181
135 155 181
134 154 181
133 154 181
133 154 181
134 154 181
134 154 180
134 154 181
133 154 181
133 154 180
134 154 181
134 154 181
134 154 181
133 154 181
134 154 181
134 154 181
134 154 181
134 154 181
133 154 181
134 154 181
134 154 181
134 154 181
133 154 181
133 154 181
134 154 180
133 154 181
135 155 181
133 154 181
134 154 181
134 154 181
134 155 181
133 154 181
135 155 181
134 154 181
134 154 181
134 154 181
133 154 181
134 154 181
133 154 181
133 154 181
133 154 181
132 153 180
134 154 181
133 154 180
134 154 181
133 154 180
134 154 181
133 154 180
134 154 181
134 154 181
133 154 181
134 154 180
133 154 180
134 154 181
133 154 181
133 154 181
133 154 181
134 154 181
134 154 181
134 154 181
132 153 180
134 154 181
133 154 181
134 154 181
133 154 180
133 154 181
134 154 181
134 154 181
133 154 180
134 154 181
134 154 181
134 154 181
133 154 181
134 154 181
134 154 181
133 154 181
134 154 181
135 155 181
134 154 181
133 154 181
134 154 181
133 154 180
134 154 181
133 154 181
134 154 181
134 154 181
134 154 181
134 154 181
134 154 181
134 154 181
134 154 181
133 154 181
134 154 181
134 154 181
134 154 181
134 154 181
133 154 180
134 154 181
134 154 181
133 154 181
134 154 180
134 154 181
133 154 181
133 154 181
133 154 181
133 154 181
134 154 181
134 154 181
134 154 181
133 154 181
134 154 181
134 154 181
133 154 180
133 154 181
134 154 181
134 154 181
134 154 181
134 154 181
133 154 181
133 154 181
134 154 181
134 155 181
133 154 181
134 154 181
134 154 181
134 154 181
134 154 181
134 154 181
134 154 181
133 154 181
134 154 181
134 154 181
134 154 181
133 154 181
133 153 180
133 154 181
134 154 181
134 154 181
134 154 181
133 154 181
134 154 181
133 154 181
134 155 181
134 154 181
134 154 181
133 154 181
134 154 181
135 155 181
132 154 181
134 154 181
135 155 181
134 154 181
134 154 181
134 154 181
133 154 181
133 154 181
133 154 180
134 154 181
134 154 181
133 154 181
133 154 181
135 155 181
135 155 181
133 154 181
134 154 181
134 154 181
133 154 180
134 154 180
134 154 181
133 154 181
134 154 181
133 154 180
134 154 181
134 154 181
134 154 181
134 154 181
133 154 181
134 154 181
136 155 181
134 154 181
134 154 181
133 154 181
134 154 181
134 154 181
134 154 181
134 154 181
134 154 181
133 154 181
134 154 181
134 154 181
134 154 180
134 154 181
134 155 181
134 154 181
134 154 181
134 154 181
133 154 181
135 155 181
134 154 181
133 154 181
133 154 181
134 154 181
134 154 181
134 154 181
134 154 181
133 154 181
133 154 181
134 154 181
133 154 181
134 154 181
134 154 181
134 154 181
134 154 181
134 154 181
134 154 181
134 154 181
133 154 181
133 154 181
134 154 181
133 154 181
134 154 181
134 154 180
134 154 181
134 154 181
134 154 181
133 154 181
133 154 181
134 154 181
133 154 181
133 154 181
134 154 181
134 154 181
133 154 181
134 154 181
133 154 181
135 155 181
134 154 181
134 154 181
133 154 181
134 154 181
134 154 181
134 154 180
133 154 181
134 154 181
133 154 181
134 154 181
134 154 181
134 154 181
132 153 181
135 155 181
134 154 181
134 154 181
134 154 181
134 154 181
133 154 181
134 154 181
133 154 181
134 154 181
134 154 181
133 154 181
133 154 181
134 154 181
133 154 181
133 154 181
134 154 181
134 154 181
134 154 181
133 154 181
134 154 181
134 154 181
134 154 181
134 154 181
134 154 181
134 154 181
134 154 181
133 154 180
134 154 181
134 155 181
134 154 181
134 154 181
133 154 181
134 154 181
135 155 181
133 154 181
134 154 180
135 155 181
134 154 181
134 154 181
134 154 181
133 154 181
134 154 181
133 154 181
134 154 181
133 154 181
134 154 181
135 155 181
134 154 181
133 154 181
133 154 181
133 154 181
133 154 181
134 154 181
134 154 181
134 154 181
134 154 181
133 154 181
135 155 181
134 154 180
133 154 181
133 154 181
135 155 181
134 154 181
134 154 181
134 154 181
133 154 181
135 155 181
135 155 181
133 154 181
134 154 181
133 154 181
135 155 181
133 154 181
135 155 181
134 154 181
134 155 181
133 154 181
134 154 181
133 154 181
134 154 181
134 154 181
133 154 181
133 154 181
134 154 181
134 154 181
133 154 181
133 154 181
134 154 181
133 154 181
134 154 181
133 154 181
133 154 181
134 154 181
134 154 181
134 154 181
133 154 181
134 154 181
134 154 181
133 154 181
134 154 181
133 154 181
134 154 180
133 154 181
133 154 180
133 154 181
134 154 180
133 154 181
133 154 181
134 154 181
135 155 181
134 154 181
133 154 181
133 153 180
133 154 181
133 154 181
134 154 181
134 154 181
133 154 181
134 154 181
134 155 181
134 154 181
133 154 181
133 154 181
134 154 181
133 153 180
134 154 181
133 154 180
133 154 181
133 153 180
134 154 181
133 154 181
134 154 181
134 155 181
134 154 181
134 154 181
134 154 181
133 154 181
134 154 181
133 154 181
134 154 181
134 154 181
134 154 181
134 154 181
134 154 181
134 154 181
134 154 181
135 155 181
133 153 180
134 154 181
134 154 181
133 153 180
134 154 181
133 154 181
135 155 181
134 154 181
135 155 181
134 154 181
134 154 181
133 154 181
133 154 181
133 154 181
133 154 181
134 154 181
133 154 181
134 154 181
134 154 180
134 154 181
134 155 181
133 154 181
134 154 181
134 154 181
133 154 181
133 154 181
133 154 181
134 154 180
134 154 181
134 154 181
134 154 181
135 155 181
134 154 181
134 154 181
133 154 181
134 154 181
134 154 181
134 154 181
134 154 181
133 154 181
134 154 181
135 155 181
134 154 181
134 154 181
134 154 181
134 154 181
133 154 181
134 154 181
134 154 181
135 155 181
134 154 181
134 154 181
133 154 181
133 154 181
133 154 181
134 154 181
134 154 181
134 154 181
134 154 181
134 154 181
134 154 181
134 154 181
133 154 181
133 154 181
133 154 181
133 154 181
134 155 181
134 154 181
133 154 181
134 154 181
135 155 181
135 155 181
135 155 181
133 154 181
133 154 181
134 154 181
133 154 181
134 154 180
134 154 181
133 154 181
134 154 181
133 154 181
134 154 181
134 154 181
134 154 181
134 154 181
133 154 181
134 154 181
134 154 181
134 154 181
133 154 180
133 154 181
134 154 181
134 155 181
134 154 181
133 154 181
133 154 181
134 154 181
134 154 181
134 154 181
134 154 181
134 154 181
134 154 181
133 154 181
133 154 181
133 154 181
134 154 181
133 154 181
133 154 181
134 154 181
133 154 181
134 154 181
134 154 181
134 154 181
134 154 181
133 154 181
134 154 181
133 154 181
134 154 181
134 154 181
134 154 181
134 154 181
133 154 181
133 154 181
134 154 181
134 154 181
134 154 181
133 154 181
133 154 181
134 154 181
134 154 181
133 154 181
135 155 181
133 153 180
134 154 181
134 154 181
133 154 181
134 154 181
134 154 181
133 154 181
134 154 181
134 154 181
134 154 181
133 154 181
132 153 180
133 154 181
133 154 181
134 154 181
133 154 181
133 154 181
134 154 181
134 154 181
134 154 181
134 154 181
133 154 181
134 154 181
135 155 181
135 155 181
133 154 181
133 154 180
133 154 181
134 154 181
134 154 181
133 154 181
134 154 181
134 154 181
134 154 181
134 154 181
133 154 181
134 154 181
134 154 181
134 154 181
134 154 181
134 154 181
133 154 181
134 154 181
134 154 181
134 154 181
133 154 180
134 154 181
134 154 181
134 154 181
134 154 181
134 154 181
133 154 181
133 154 181
134 154 181
134 154 181
134 154 181
134 155 181
134 154 181
133 154 181
133 154 181
134 154 181
133 154 181
133 154 181
134 154 181
134 154 181
133 153 180
134 154 181
134 154 181
134 154 181
134 154 181
134 154 181
134 154 181
133 154 181
134 154 181
134 154 181
134 154 181
132 153 181
134 154 181
133 154 181
133 154 181
134 154 181
135 154 180
133 154 181
135 155 181
134 154 181
133 154 181
134 154 181
135 155 181
134 154 181
133 154 181
134 154 181
134 154 181
134 154 181
134 154 181
135 155 181
134 155 181
133 154 181
133 154 181
132 153 180
134 154 181
134 154 181
133 154 181
134 154 181
133 154 181
134 154 181
134 154 181
133 154 181
134 154 181
134 154 181
134 154 181
133 154 181
134 154 181
133 154 181
134 154 181
134 154 181
133 154 181
134 154 181
134 154 181
133 154 181
133 154 181
134 154 181
134 154 181
134 154 180
134 154 181
134 154 181
133 154 181
134 154 181
134 154 181
135 155 181
134 154 181
134 154 181
134 155 181
133 154 181
134 154 181
134 154 181
134 154 181
134 154 181
134 154 181
134 154 181
134 154 181
134 154 181
133 154 181
134 154 181
133 154 181
134 154 181
134 154 181
135 155 181
134 154 181
134 154 181
134 154 181
134 154 181
134 154 180
134 154 181
133 154 181
134 154 181
135 155 181
134 154 181
134 154 181
134 154 181
133 154 180
134 154 181
133 154 180
134 154 181
133 154 180
134 154 181
134 154 181
134 154 181
134 154 181
134 154 180
134 155 181
134 154 181
134 155 181
134 154 181
134 154 181
134 154 181
133 154 181
134 154 181
134 154 181
132 153 181
134 154 180
134 154 181
134 154 181
134 154 181
134 154 181
134 154 180
133 154 181
134 154 181
135 155 181
134 154 181
134 154 181
133 154 181
134 154 181
134 154 181
135 155 181
134 154 181
135 155 181
133 153 180
133 153 180
134 154 181
133 154 181
133 154 180
133 154 181
134 154 181
133 154 181
134 154 181
133 154 180
134 154 181
133 154 181
133 154 181
132 153 181
133 154 181
134 154 181
134 154 181
134 154 181
134 154 181
134 154 181
133 154 181
133 154 181
134 154 181
134 154 181
134 154 181
133 154 181
134 154 181
133 154 181
134 154 181
134 154 181
134 154 181
134 154 181
134 154 181
134 154 181
134 154 181
133 154 181
133 154 181
134 154 181
135 155 181
133 154 181
134 154 181
133 154 181
134 154 181
134 154 180
133 154 180
134 154 181
135 155 181
134 154 181
134 154 181
133 154 181
133 154 181
134 154 181
134 154 180
134 154 181
134 154 181
134 154 181
134 154 181
134 154 181
134 154 181
135 155 181
133 154 181
134 154 181
134 154 181
134 154 181
134 154 180
134 154 181
134 154 181
135 155 181
135 155 181
134 155 181
134 154 181
134 154 181
134 154 181
133 154 181
133 154 181
134 154 181
133 154 181
133 154 181
133 154 181
134 154 181
133 154 180
133 154 181
133 154 181
134 154 181
133 154 181
134 154 180
134 154 181
134 154 181
133 154 181
133 154 181
134 154 181
133 154 181
134 154 181
133 154 181
134 154 181
134 154 181
134 154 181
134 154 181
133 154 181
133 154 181
134 154 181
133 154 181
134 154 181
133 154 181
133 154 181
134 154 181
134 154 181
133 154 181
134 155 181
134 154 181
134 154 181
134 154 181
133 154 181
134 154 181
134 154 181
135 155 181
132 153 181
134 154 181
134 154 181
134 154 181
133 154 181
133 154 180
134 154 181
134 154 181
133 154 181
134 154 181
134 154 181
133 154 181
134 154 181
133 154 181
133 154 181
135 155 181
134 154 181
134 155 181
133 154 181
133 153 180
134 154 181
133 154 181
133 154 181
134 154 181
134 154 181
134 154 181
134 154 181
134 154 181
134 154 181
133 154 181
134 154 181
133 154 181
133 154 181
133 154 181
134 154 181
134 154 181
133 153 180
135 155 181
135 155 181
133 154 181
134 154 181
134 154 181
134 154 181
134 154 181
133 154 181
133 154 181
135 155 181
134 154 180
134 154 181
134 154 181
134 154 181
133 154 181
133 154 181
134 154 181
133 154 181
135 155 181
133 154 181
134 154 181
134 154 181
134 154 181
134 154 181
134 154 181
134 154 181
134 154 181
134 154 181
135 155 181
134 154 181
133 154 181
134 154 181
133 154 180
134 154 181
134 154 181
134 154 181
134 154 181
134 155 181
134 154 181
133 154 181
133 154 181
133 154 181
133 154 181
134 155 181
134 155 181
133 154 181
133 154 181
133 154 180
133 154 181
133 154 181
133 154 181
134 154 181
134 154 181
134 154 181
134 154 181
133 154 181
134 154 180
133 154 181
134 154 181
134 154 181
134 154 181
134 154 180
134 154 181
134 154 181
135 155 181
134 154 181
134 154 181
134 154 181
133 154 181
134 154 181
135 155 181
134 154 181
133 154 181
134 154 181
135 155 181
134 154 181
134 154 181
134 154 181
133 154 181
134 154 181
134 154 181
134 154 181
133 154 181
135 155 181
133 154 181
134 154 181
134 154 181
134 154 181
134 154 181
133 154 181
134 154 181
133 154 181
134 154 181
134 154 181
133 154 181
135 155 181
134 154 181
134 154 181
134 154 181
133 154 180
135 155 181
133 154 181
133 154 181
133 154 181
134 154 181
134 154 181
134 154 181
134 154 181
133 154 181
134 154 181
133 154 181
133 154 181
134 154 181
133 154 181
134 154 181
134 154 181
134 154 181
134 154 181
133 154 181
134 154 181
133 154 180
133 154 181
134 154 181
133 154 181
133 154 180
134 154 181
134 154 180
133 154 180
134 154 181
134 154 181
134 154 181
134 154 181
134 154 181
134 154 181
133 154 181
134 154 181
134 154 181
134 154 181
134 154 181
133 154 181
134 154 181
135 155 181
134 154 181
133 154 181
134 154 181
134 154 181
134 154 181
134 154 181
134 154 181
134 154 181
132 153 181
133 154 181
134 154 181
134 154 181
134 155 181
134 154 181
133 154 181
133 154 181
133 154 180
135 155 181
133 154 180
133 154 181
133 154 181
133 154 181
134 154 181
134 154 181
133 154 180
133 153 180
134 154 181
134 154 181
134 154 181
134 154 181
133 154 181
133 154 181
134 154 181
133 154 181
133 154 181
134 154 181
134 154 181
133 154 181
134 154 181
134 154 181
134 154 180
134 154 181
134 154 181
134 154 181
133 154 181
134 155 181
133 154 181
134 154 181
133 154 180
133 154 181
134 154 181
134 154 181
134 154 181
133 154 181
134 154 181
133 154 181
134 154 181
134 154 181
134 154 181
134 154 181
133 154 181
134 154 181
133 154 181
134 154 181
134 154 181
134 154 181
134 154 181
133 154 181
133 154 181
134 155 181
133 154 181
134 154 181
134 154 181
134 154 181
134 154 181
133 154 181
134 154 181
133 154 181
134 154 181
134 154 181
133 154 181
133 154 180
134 154 180
134 154 181
134 154 181
134 154 181
133 154 180
133 154 181
134 154 181
133 154 181
133 153 180
134 154 180
134 154 181
134 154 181
133 154 181
134 154 181
134 155 181
133 154 181
134 154 180
134 154 181
133 153 180
133 153 180
134 154 181
132 153 181
133 154 181
133 154 181
133 154 181
133 153 180
133 154 181
133 154 181
134 154 181
134 154 181
133 154 180
133 153 180
134 154 181
134 154 181
134 155 181
133 154 180
133 154 181
133 154 181
134 154 181
133 154 181
133 154 181
133 154 181
133 154 181
134 154 181
133 154 181
133 154 181
135 154 180
134 154 181
134 154 181
134 154 181
134 154 181
133 154 181
134 154 181
134 154 181
133 154 181
134 154 181
133 154 181
133 154 181
133 154 181
134 154 181
133 154 181
134 154 181
134 154 181
133 154 181
134 154 181
134 155 181
134 154 181
133 154 181
134 154 181
134 154 181
134 154 181
134 154 181
134 154 181
134 154 181
134 154 181
134 154 181
133 154 181
133 154 181
133 154 181
133 154 181
133 154 181
133 154 181
134 154 181
133 154 180
133 154 181
133 154 181
133 154 181
134 154 181
134 154 181
134 154 181
133 154 181
133 154 181
134 154 180
133 154 181
134 154 181
134 154 181
134 154 180
133 154 181
134 154 181
133 154 181
134 154 180
134 154 180
133 154 181
134 154 181
135 155 181
133 154 181
133 154 180
134 154 181
134 154 181
133 154 181
134 155 181
134 154 181
133 154 181
133 154 181
134 154 180
133 154 181
133 154 181
134 154 181
133 154 181
134 154 181
134 154 181
133 154 181
134 154 181
134 154 181
134 154 181
133 154 181
134 154 181
135 155 181
133 154 181
134 154 181
133 154 181
133 154 181
133 154 180
134 154 181
134 154 181
133 154 181
134 154 181
133 154 181
134 154 181
134 154 181
134 154 181
134 154 181
133 154 181
133 154 181
134 154 181
134 154 181
134 154 181
133 154 181
134 154 181
134 154 181
134 154 181
134 154 181
134 154 181
134 154 181
134 154 181
134 154 181
134 154 181
133 154 181
133 153 180
135 155 181
134 154 181
134 154 181
134 154 181
135 155 181
134 154 181
134 155 181
133 154 181
133 154 181
135 155 181
134 154 180
133 154 181
134 154 180
133 154 180
133 154 181
134 154 181
133 154 181
134 154 181
134 154 181
134 154 181
134 154 181
134 154 181
134 154 181
134 154 181
134 154 181
133 154 181
133 154 181
135 155 181
134 154 181
133 154 181
134 154 180
133 154 180
133 154 181
133 154 181
134 154 181
134 154 181
134 154 181
134 154 181
134 154 181
134 154 181
134 154 181
133 154 181
133 154 180
133 154 181
133 154 181
134 154 181
134 154 181
134 154 181
133 154 181
133 154 181
134 154 181
133 154 181
134 154 181
133 154 181
134 154 181
134 154 181
134 154 181
134 154 180
134 154 181
134 154 181
134 154 181
135 155 181
134 154 181
134 154 181
134 154 181
133 154 181
133 154 181
133 154 181
133 154 181
134 154 181
133 154 180
133 154 181
134 154 181
134 154 181
134 154 181
133 154 181
134 154 181
133 154 181
135 155 181
134 154 181
134 154 181
133 154 181
133 154 181
133 154 181
134 154 181
134 154 181
134 154 181
134 154 181
133 154 181
134 154 181
134 154 181
134 154 181
133 154 181
133 154 181
134 154 181
134 154 181
134 154 181
134 154 181
134 154 180
133 154 181
133 154 181
135 155 181
132 153 181
135 155 181
134 154 181
134 154 181
133 154 181
134 154 180
134 154 181
133 154 181
133 154 181
134 154 181
133 154 180
134 154 181
134 154 181
134 154 181
134 154 181
134 154 181
133 154 181
134 155 181
134 154 181
134 154 181
133 154 181
133 154 181
134 154 181
134 154 181
134 154 181
133 154 180
134 154 181
133 154 181
133 154 181
134 154 181
135 155 181
134 154 181
133 154 181
134 154 181
134 154 181
133 154 181
134 154 181
134 154 181
133 154 181
133 154 181
135 155 181
135 155 181
133 154 181
133 154 181
133 154 181
134 154 181
134 154 181
135 155 181
133 154 181
133 154 181
134 154 181
133 154 181
134 154 181
134 154 180
133 154 181
134 154 181
133 154 181
133 154 181
134 154 181
133 154 181
134 154 181
134 154 181
133 154 181
134 154 181
134 154 181
134 154 181
133 154 181
133 154 181
134 154 181
133 154 181
133 153 180
133 154 180
134 154 181
133 154 181
134 154 180
133 154 181
133 153 180
134 154 181
133 154 181
134 154 181
133 154 181
134 154 181
135 155 181
134 154 181
133 154 181
133 154 180
133 154 181
132 153 181
135 155 181
134 154 181
133 154 181
134 154 181
134 154 181
134 154 181
134 154 181
134 154 181
135 155 181
133 154 181
134 154 181
134 154 181
134 154 181
134 154 181
132 153 180
134 154 180
134 154 181
133 154 181
134 155 181
134 154 181
133 154 180
134 154 181
133 154 181
134 154 181
134 154 181
134 154 181
135 155 181
135 155 181
135 155 181
134 154 181
133 154 180
134 154 181
134 154 181
134 154 181
134 154 181
134 155 181
133 154 181
134 154 181
134 154 181
134 154 181
134 154 181
133 154 180
134 154 181
134 154 181
134 154 181
134 154 181
134 154 181
134 154 181
134 154 181
134 154 181
134 154 181
134 154 181
134 154 181
133 154 181
133 154 181
134 154 181
134 154 181
134 154 181
134 155 181
134 154 181
132 153 181
134 154 181
134 154 181
135 155 181
133 154 180
134 154 181
133 154 181
135 155 181
134 154 181
134 154 181
134 154 181
133 154 181
134 154 181
133 153 180
134 154 181
133 154 181
134 154 181
134 154 181
133 153 180
134 154 181
135 155 181
133 154 181
134 154 181
134 154 181
133 153 180
134 154 181
133 154 181
134 154 181
134 154 181
135 155 181
134 154 181
133 154 181
134 154 181
134 154 181
134 154 181
134 154 181
134 154 181
134 154 181
134 154 181
133 154 181
135 155 181
134 154 181
134 154 181
133 153 180
134 154 181
135 155 181
134 155 181
134 154 181
134 154 181
134 154 181
133 153 180
134 154 181
134 154 181
134 154 181
134 154 181
134 154 181
134 154 181
133 154 181
134 154 181
134 154 181
134 154 181
133 154 181
134 154 181
133 154 181
133 154 181
134 154 181
134 154 181
135 155 181
134 154 181
134 154 181
134 154 181
134 154 181
134 154 181
133 154 181
134 155 181
133 154 181
134 154 181
133 154 181
133 154 181
134 154 181
135 155 181
134 154 181
134 154 181
133 154 181
133 154 181
134 154 181
133 154 180
133 154 181
133 154 181
133 154 181
133 154 181
133 154 181
134 154 181
133 154 181
134 154 181
133 154 181
134 154 181
134 154 181
134 154 181
133 154 181
134 154 181
133 154 181
133 154 181
134 154 181
134 154 181
134 154 181
134 154 181
134 154 181
134 154 180
135 155 181
134 154 180
133 154 181
134 154 181
134 154 181
135 155 181
133 154 181
133 154 181
133 154 181
134 154 181
134 154 180
134 154 181
135 155 181
134 154 181
134 154 181
134 154 181
134 154 181
133 154 181
134 154 181
135 155 181
135 155 181
134 154 181
133 154 180
133 154 180
133 154 181
134 154 181
134 154 181
134 154 181
134 154 181
134 154 181
133 154 181
134 154 181
133 154 181
134 154 181
134 154 181
133 154 181
133 153 180
134 154 181
133 154 181
133 154 181
134 154 181
134 154 181
133 154 181
133 154 181
133 154 181
133 154 181
133 154 181
134 154 181
134 154 181
132 153 180
134 154 181
134 154 181
133 154 181
134 154 180
134 154 181
134 154 181
133 154 181
134 154 181
133 154 181
134 154 181
134 154 181
133 154 181
134 154 181
134 154 181
133 154 181
134 154 181
134 154 181
133 154 181
133 154 181
134 154 181
133 154 181
133 154 181
134 154 181
134 154 181
135 155 181
133 154 181
134 154 181
134 154 181
133 153 180
134 154 181
134 154 181
133 154 181
134 154 181
133 154 181
133 154 181
134 154 181
134 154 181
134 154 181
134 154 181
133 154 181
133 154 181
133 154 181
134 154 181
134 154 180
134 154 181
134 154 181
133 154 181
134 154 181
133 154 180
133 154 181
134 154 180
134 154 181
134 154 181
133 154 181
134 154 181
135 155 181
133 154 180
133 154 181
134 154 181
133 154 181
134 154 180
134 154 181
134 154 181
133 154 181
135 155 181
135 155 181
134 154 181
134 154 181
133 154 181
134 154 181
134 154 181
134 154 181
134 154 181
134 154 181
135 155 181
133 154 181
134 154 181
134 154 181
135 155 181
134 154 181
134 154 181
134 154 181
133 154 181
134 155 181
134 154 181
134 154 181
134 154 181
133 154 181
134 154 181
133 154 181
134 155 181
134 154 181
133 154 181
134 154 181
134 154 181
134 154 181
133 154 181
134 154 181
135 155 181
133 154 180
133 154 181
134 154 181
133 154 181
134 154 181
134 155 181
133 154 181
134 154 181
133 154 181
134 154 181
134 154 181
134 154 181
134 154 181
133 154 181
134 154 181
134 154 181
134 154 181
135 155 181
133 154 181
134 154 181
134 155 181
134 154 181
134 154 181
133 154 181
133 154 181
134 154 181
134 154 181
134 154 181
133 153 180
134 154 181
134 154 181
133 154 181
133 154 181
134 154 181
134 154 181
134 154 181
134 154 181
135 155 181
134 155 181
134 154 181
134 154 181
133 154 181
134 154 181
134 154 181
134 154 181
135 155 181
134 154 181
134 154 181
134 154 181
134 154 180
133 154 181
133 154 181
134 154 181
134 154 181
134 154 181
133 154 181
133 154 181
134 154 181
133 154 181
134 154 181
133 154 181
133 154 181
133 153 180
133 154 181
133 154 181
134 154 180
134 154 181
134 154 180
133 154 181
134 154 181
134 155 181
134 154 181
133 154 180
134 154 181
134 154 181
133 154 181
134 154 181
132 153 181
133 154 181
134 154 181
134 154 181
134 154 181
134 154 181
134 154 181
134 154 181
134 155 181
133 154 181
134 154 181
134 154 181
133 154 181
133 154 181
134 154 181
133 153 180
134 154 181
134 154 181
134 154 181
133 154 181
133 154 181
134 154 181
134 154 180
134 154 181
135 155 181
133 154 181
134 154 181
134 154 181
134 154 181
134 154 181
135 155 181
134 155 181
133 153 180
133 154 180
134 154 181
133 154 181
134 154 181
134 154 181
134 154 180
133 154 181
134 154 181
133 153 180
134 155 181
133 154 181
134 154 181
133 154 180
135 155 181
132 153 181
133 154 180
133 154 181
134 154 181
135 155 181
134 154 181
134 154 181
134 154 181
134 154 181
134 154 181
134 154 181
134 154 181
134 154 181
134 154 181
134 154 181
133 154 181
135 155 181
134 154 181
134 154 181
134 154 181
134 154 181
134 154 181
134 154 180
134 154 181
134 154 181
134 154 181
133 154 181
135 155 181
133 154 181
134 154 181
133 154 181
134 154 180
134 154 181
133 154 181
134 155 181
134 154 181
133 154 181
134 154 181
134 154 181
134 154 181
133 154 181
133 154 181
133 154 181
134 154 181
134 154 181
134 154 180
134 154 181
134 154 181
134 154 181
134 154 181
133 154 181
134 154 181
134 154 181
134 154 181
134 154 181
134 154 181
134 154 181
133 154 181
134 154 180
133 154 181
133 154 180
133 154 181
134 154 181
133 154 181
134 154 181
134 154 181
133 154 181
133 154 181
133 154 181
134 154 181
134 154 181
134 154 181
135 155 181
133 153 180
134 154 181
133 154 181
134 154 181
134 154 181
134 154 181
133 154 181
134 154 181
134 154 181
133 154 181
134 154 181
134 154 181
134 154 181
134 154 180
135 155 181
134 154 181
134 154 181
135 155 181
135 155 181
134 154 181
135 155 181
134 154 180
134 154 181
134 154 181
134 154 181
134 154 181
133 154 181
133 153 180
134 154 181
134 154 181
133 154 181
134 154 181
135 155 181
134 154 181
133 154 181
134 155 181
133 154 181
134 154 181
134 154 181
135 155 181
134 154 181
133 154 181
133 154 181
134 154 181
134 154 181
134 154 181
134 154 181
134 154 181
134 154 181
133 154 181
133 154 181
133 154 181
133 154 180
134 154 181
134 154 181
134 154 181
134 154 181
134 154 180
133 154 180
133 154 181
133 154 181
134 154 181
133 154 181
133 154 181
134 154 181
133 154 181
133 154 181
133 154 181
134 154 181
133 154 181
134 154 181
133 154 181
133 154 181
134 154 181
134 154 181
134 154 181
134 154 181
133 154 181
134 154 180
132 153 180
134 154 181
133 154 181
134 154 181
133 154 181
134 154 181
135 155 181
134 154 181
134 154 180
134 154 181
134 154 181
134 154 181
134 154 181
134 154 181
134 154 181
134 154 181
134 154 181
134 154 181
133 154 181
134 154 181
133 154 180
134 154 181
133 154 181
134 154 181
132 153 181
134 154 180
134 154 181
135 155 181
134 154 181
134 154 181
134 155 181
134 155 181
134 154 181
133 154 181
134 154 181
133 154 181
133 154 181
132 154 181
134 154 181
134 154 181
134 154 181
133 154 180
133 154 181
134 154 181
134 154 181
133 154 181
134 154 181
133 154 181
134 154 181
134 154 181
133 154 181
133 154 181
134 154 181
134 154 181
134 154 181
134 154 181
135 155 181
134 154 181
134 154 181
134 154 181
134 154 181
133 153 180
134 154 181
135 155 181
134 154 181
134 154 181
133 154 181
134 154 181
134 154 181
133 154 181
134 154 181
134 155 181
134 154 181
134 154 181
134 154 181
134 154 181
134 154 181
134 154 181
134 155 181
135 155 181
135 155 181
134 154 181
134 154 181
134 154 181
134 154 181
134 154 181
133 154 181
133 154 181
134 154 181
133 153 180
133 154 181
134 154 181
134 154 181
133 154 181
133 154 181
134 154 181
134 154 181
134 154 181
133 154 181
134 154 181
134 154 181
134 154 181
133 154 181
133 154 181
133 154 181
134 154 181
133 154 181
134 154 181
134 155 181
134 155 181
134 154 181
133 154 180
133 154 180
134 154 181
133 154 181
134 154 180
133 154 181
133 154 181
134 154 181
133 154 181
134 154 181
133 154 181
134 154 181
134 154 181
133 154 180
133 154 181
133 154 181
134 154 181
133 154 181
134 154 181
133 154 181
134 154 181
134 154 181
134 154 181
133 154 181
134 154 181
132 153 181
133 154 181
135 155 181
134 154 181
133 154 180
134 154 181
134 154 181
133 154 180
134 154 181
134 154 181
133 154 181
134 154 181
133 154 181
133 154 181
133 154 181
133 154 181
135 155 181
133 154 181
134 154 181
134 154 180
133 154 181
133 154 181
134 154 181
134 154 181
134 154 181
134 154 181
134 154 181
134 154 181
134 154 181
133 154 181
134 154 181
134 154 181
134 154 181
134 154 181
133 154 181
134 154 180
134 154 181
134 154 181
133 154 181
134 154 181
133 154 181
134 154 181
134 154 180
134 154 181
133 154 180
134 154 180
132 154 181
133 154 181
133 154 181
133 154 181
133 154 181
134 154 181
134 154 181
134 154 181
134 154 181
134 154 181
133 154 181
133 154 181
134 154 181
134 154 181
134 154 181
134 154 181
133 154 181
134 154 181
133 154 181
134 155 181
133 154 181
134 154 181
133 154 181
133 154 181
133 154 181
134 154 181
134 154 181
134 154 181
134 154 181
134 154 181
133 154 181
134 154 181
133 154 181
134 154 181
134 154 181
133 154 181
134 154 181
134 154 181
133 154 181
133 154 181
134 154 181
133 154 181
134 154 181
135 155 181
134 154 180
133 154 181
134 154 181
134 154 181
133 154 180
134 154 181
133 154 181
134 154 181
134 154 181
134 154 181
133 154 181
134 155 181
135 155 181
134 154 181
134 154 181
134 154 181
134 154 181
134 154 181
135 155 181
134 154 181
133 154 181
135 155 181
135 155 181
134 154 181
134 154 181
133 154 181
134 154 181
133 154 181
134 154 181
134 154 181
134 154 181
133 154 181
133 154 181
134 154 181
133 154 181
133 154 181
134 154 181
134 154 180
133 154 181
134 154 181
134 154 181
134 154 181
133 154 181
134 154 181
134 154 181
133 154 181
133 154 181
135 155 181
133 154 181
134 154 181
134 154 181
134 154 181
135 155 181
133 154 181
135 155 181
134 154 181
134 154 181
134 154 181
134 154 181
133 154 180
134 154 181
134 154 181
133 154 181
133 154 181
134 154 181
134 154 181
134 154 181
134 154 181
134 154 181
134 154 181
133 154 181
134 154 181
133 154 181
133 154 181
133 154 181
133 154 181
134 154 181
133 154 181
134 154 181
133 154 181
133 154 180
133 154 181
134 154 181
135 155 181
134 154 181
134 154 181
133 153 180
134 154 181
134 154 181
134 154 181
134 154 181
134 154 181
133 154 181
134 154 181
134 154 181
133 154 181
134 154 181
133 154 181
134 154 181
135 155 181
133 154 181
134 154 181
134 154 181
133 154 181
133 154 181
135 155 181
134 154 181
135 155 181
133 154 181
134 154 181
134 154 181
133 154 181
133 154 181
133 154 180
134 155 181
133 154 181
133 154 181
134 154 180
133 154 181
134 154 181
133 154 181
135 155 181
134 154 181
134 154 180
134 154 181
134 154 181
133 154 181
134 154 181
133 154 181
133 154 181
134 154 181
134 154 181
134 154 181
133 154 181
133 154 181
134 154 181
134 154 181
134 154 181
134 155 181
134 154 181
134 154 181
133 154 181
134 154 181
135 155 181
135 155 181
134 154 181
134 154 181
134 154 181
134 154 181
134 154 181
134 155 181
134 154 181
134 154 181
133 153 180
133 154 180
133 154 181
134 154 181
134 154 181
134 154 181
134 154 181
133 154 180
134 154 181
134 154 181
134 155 181
134 154 181
134 154 181
134 155 181
134 154 181
133 154 181
134 154 181
133 153 180
134 154 181
134 154 181
133 154 181
134 154 181
134 154 181
133 154 181
134 154 181
134 154 181
133 153 180
133 154 180
134 155 181
134 154 181
135 155 181
133 154 181
133 154 180
134 154 181
135 155 181
134 154 181
133 154 180
133 154 180
134 154 181
133 154 181
134 154 181
133 154 181
134 154 181
133 154 181
135 155 181
133 154 181
133 154 181
133 154 181
133 154 181
134 154 181
134 154 181
133 154 181
133 154 181
133 154 181
134 154 181
134 154 181
134 154 181
134 154 181
134 154 181
133 153 180
134 154 181
133 154 181
133 154 181
133 154 180
133 154 181
134 154 181
133 154 181
133 153 180
134 155 181
134 154 181
133 154 181
134 154 181
134 154 181
134 154 181
133 154 181
133 153 180
134 154 181
134 154 181
133 154 180
134 154 181
134 154 181
134 154 181
135 155 181
134 154 181
134 154 181
134 154 181
134 154 181
135 154 180
134 154 181
134 154 181
133 154 181
134 154 181
133 154 181
134 154 181
134 154 181
133 154 181
133 154 181
134 154 181
134 154 181
133 154 181
133 154 181
133 154 181
134 154 181
134 154 181
133 154 181
134 154 181
134 154 181
133 154 181
134 154 181
133 154 181
134 154 181
133 154 181
134 154 181
133 154 181
133 154 181
133 154 181
134 154 181
134 154 181
133 154 181
134 154 181
133 154 181
134 155 181
133 154 181
133 154 181
135 155 181
133 154 181
134 154 181
133 154 181
134 154 181
133 154 181
134 154 181
134 155 181
133 154 181
134 154 181
134 154 181
134 154 181
133 154 181
133 154 180
134 154 181
134 154 181
134 154 181
134 154 181
134 154 181
134 154 181
134 154 181
134 154 181
134 154 181
133 154 181
133 154 181
132 153 181
133 154 181
133 154 181
134 154 181
134 154 181
134 154 181
134 154 181
134 154 181
133 154 180
135 155 181
134 154 181
134 154 181
134 154 181
134 154 181
133 154 181
134 154 181
134 154 180
133 154 181
133 154 181
135 155 181
133 154 181
134 154 181
133 154 181
133 154 180
134 154 181
133 154 181
133 154 181
133 154 181
135 155 181
133 154 181
133 154 181
134 154 181
134 154 181
134 154 181
134 154 181
134 154 181
134 154 181
134 154 181
133 154 181
134 154 180
134 154 181
135 155 181
133 154 181
133 153 180
134 154 181
133 154 181
134 154 181
133 154 181
133 154 181
134 154 181
133 154 181
134 154 181
134 154 181
134 154 181
133 154 181
134 154 181
134 154 181
134 154 181
132 153 181
133 153 180
134 154 181
133 153 180
133 154 181
134 154 181
135 155 181
134 154 181
134 154 180
133 154 181
133 154 181
134 155 181
133 154 181
134 154 181
133 154 181
134 154 181
134 154 181
133 154 181
135 155 181
134 154 181
134 154 181
133 154 181
134 154 181
134 154 181
134 155 181
134 154 181
133 154 181
134 154 181
134 154 181
134 155 181
135 155 181
134 154 181
134 154 180
134 154 181
134 154 181
134 154 181
134 154 181
134 154 181
134 154 181
133 153 180
134 154 181
134 154 181
133 154 181
134 155 181
133 154 181
133 154 181
134 154 181
134 154 181
134 154 181
134 154 181
134 154 181
134 154 181
134 154 180
134 154 181
134 154 181
134 154 181
134 154 181
134 154 181
134 154 181
133 154 181
134 154 181
134 154 181
134 154 180
133 154 181
133 154 181
133 154 180
134 154 181
133 154 181
133 154 181
133 154 181
134 154 181
133 154 181
134 154 181
134 154 181
134 154 181
134 154 181
134 154 181
134 155 181
134 154 181
134 154 181
133 154 181
133 154 181
133 154 181
134 154 181
134 154 181
133 154 181
134 154 181
134 154 181
134 154 181
133 154 181
133 154 181
132 153 181
134 154 181
135 155 181
133 154 181
134 154 181
132 153 181
134 154 181
133 154 181
134 154 180
133 154 181
135 155 181
133 154 180
134 154 181
134 154 181
135 155 181
134 154 181
135 155 181
133 154 181
135 155 181
134 154 181
133 154 181
133 154 181
133 154 181
134 154 181
134 154 181
133 154 181
133 154 181
134 154 181
134 154 181
134 154 181
134 154 181
134 154 181
134 154 181
133 154 180
133 154 181
134 155 181
133 154 181
134 154 181
133 153 180
134 155 181
134 154 180
133 154 180
134 154 181
133 154 181
133 154 181
133 154 181
134 154 180
134 154 181
134 154 181
134 154 181
134 154 181
134 154 181
134 154 181
133 154 181
134 154 181
133 154 181
134 154 181
134 154 181
134 154 181
134 155 181
134 154 181
133 154 181
134 154 181
133 154 181
134 154 181
134 154 181
134 155 181
134 154 181
134 154 181
134 154 180
133 154 181
132 153 180
132 153 181
134 154 181
133 154 181
133 154 181
134 155 181
133 154 181
133 154 181
134 154 181
135 155 181
133 154 181
134 154 181
133 154 181
134 155 181
134 154 181
134 155 181
135 155 181
132 153 181
133 154 181
134 154 181
134 154 181
134 154 181
135 155 181
134 154 180
134 154 181
133 154 181
133 154 181
134 154 181
133 154 181
134 154 181
133 154 181
134 154 181
134 154 181
134 154 181
133 154 181
134 154 181
134 154 181
134 154 181
133 154 181
133 154 181
134 154 181
134 154 181
133 154 181
134 154 181
134 154 181
134 154 181
133 154 181
134 154 181
133 154 180
133 154 181
134 154 181
133 154 180
134 154 181
134 154 181
134 154 181
134 154 181
134 154 181
134 154 181
133 154 180
133 154 181
134 154 181
133 154 181
134 154 181
135 155 181
133 154 181
134 154 181
134 154 181
133 154 181
135 155 181
133 154 181
133 154 181
133 153 180
133 154 181
134 154 181
134 154 181
133 154 181
134 154 181
134 154 181
133 154 181
133 154 181
134 154 181
134 154 181
134 154 181
134 154 181
134 154 181
134 154 181
133 154 181
133 154 181
133 154 181
133 154 181
134 154 181
133 154 181
134 154 181
133 154 181
133 154 181
133 154 181
134 154 181
133 154 181
134 154 181
134 154 181
133 153 180
133 154 181
134 154 181
133 154 181
135 155 181
134 154 181
134 154 181
133 154 181
134 154 181
134 154 181
133 154 181
133 154 181
133 154 181
134 154 181
134 154 181
134 154 181
134 154 181
133 154 181
133 154 181
134 154 180
134 154 181
134 154 181
135 155 181
134 154 181
134 154 181
134 154 181
133 153 180
134 154 181
134 154 181
133 154 180
134 154 181
134 154 181
135 155 181
134 154 181
133 154 181
134 154 181
133 153 180
133 154 181
134 154 181
134 154 181
134 154 181
135 155 181
134 154 181
133 154 181
134 154 181
134 154 181
133 154 181
134 154 181
134 154 181
134 154 181
134 154 181
134 154 181
133 154 181
134 154 181
133 154 180
133 154 181
134 154 181
134 154 181
133 154 181
133 154 180
134 154 181
135 155 181
134 154 181
134 155 181
133 154 181
134 154 181
134 154 181
133 154 181
134 154 181
133 154 181
134 154 181
134 154 181
134 154 181
134 154 181
133 154 181
133 154 181
134 154 181
133 154 181
134 154 181
134 154 181
134 154 181
134 155 181
135 155 181
133 154 181
135 155 181
133 154 181
133 154 180
134 154 180
133 154 181
133 154 181
135 155 181
133 153 180
134 155 181
134 154 181
134 154 181
134 154 181
134 154 181
133 154 181
134 154 181
133 154 180
135 155 181
134 154 181
134 154 181
134 154 181
134 154 181
134 154 181
135 155 181
133 154 180
134 154 181
133 154 181
133 154 181
133 154 181
134 154 181
134 154 181
133 154 181
134 154 181
133 154 181
134 154 181
133 154 181
134 154 181
134 154 181
134 154 181
133 154 181
133 154 180
133 154 181
134 154 181
134 154 181
134 154 181
134 154 181
134 154 180
135 155 181
133 154 181
134 154 181
133 154 181
132 153 180
133 154 181
134 154 181
134 154 181
134 154 181
133 154 181
133 153 180
134 154 181
134 155 181
133 154 181
133 153 180
134 154 181
133 154 181
133 153 180
134 154 181
134 154 180
134 154 181
134 154 181
135 155 181
134 154 181
134 154 181
134 154 180
133 154 181
134 154 181
133 154 181
134 154 181
133 154 180
134 154 181
133 154 181
134 154 181
133 154 181
133 154 181
134 154 181
134 154 181
134 154 181
134 155 181
134 154 181
134 154 181
134 154 181
134 154 181
133 154 181
134 154 181
133 154 181
134 154 181
134 154 181
134 154 181
134 154 181
133 154 181
135 155 181
134 154 181
133 153 180
133 154 181
133 154 181
134 154 181
134 154 181
133 154 181
133 154 180
133 154 181
134 154 181
134 154 181
133 154 180
133 154 181
133 154 181
133 154 181
134 154 181
135 155 181
133 154 181
134 154 181
133 154 181
134 154 181
133 154 180
134 154 181
134 154 181
134 154 181
134 154 181
134 154 181
133 153 180
133 154 181
133 154 181
134 154 181
133 154 181
135 155 181
134 154 181
134 154 181
133 154 181
134 154 181
134 154 181
133 154 181
133 154 181
133 154 181
134 154 181
134 155 181
134 154 181
134 154 181
134 155 181
133 154 181
134 154 181
134 154 181
134 154 181
134 154 181
134 154 181
132 153 180
134 154 181
135 155 181
133 154 181
134 154 181
135 155 181
133 154 181
134 154 181
134 154 181
133 154 181
134 154 181
134 154 180
134 154 181
134 154 179
134 154 181
134 154 181
134 154 181
134 154 181
133 154 181
133 154 181
133 154 181
134 154 181
135 155 181
133 154 181
134 154 181
132 153 181
134 154 181
134 154 181
134 154 181
133 153 180
133 154 180
134 154 181
133 154 181
134 155 181
135 155 181
133 154 181
134 154 181
134 154 181
134 154 181
134 154 181
134 154 181
134 154 181
134 154 181
133 154 181
133 154 181
134 154 181
134 154 181
134 154 181
134 154 181
135 155 181
134 154 181
134 154 181
133 154 181
134 154 181
133 154 181
134 154 181
134 154 181
134 154 181
134 154 180
134 154 181
133 154 181
134 154 181
133 154 181
134 154 181
133 154 181
133 154 181
134 154 181
134 154 181
133 154 181
134 154 181
133 154 181
134 154 181
133 154 181
134 154 181
134 154 181
133 154 181
134 154 181
134 154 181
133 154 181
134 154 181
134 154 181
133 154 181
133 154 181
134 154 181
134 154 181
134 154 181
134 154 181
133 154 181
133 154 181
134 154 181
133 154 181
134 154 181
133 154 181
134 154 181
133 154 181
133 154 181
133 154 181
134 154 181
134 154 181
134 154 181
134 154 181
134 154 181
135 155 181
134 154 181
133 154 181
133 154 181
133 154 181
133 154 181
133 154 181
133 154 180
133 154 181
134 154 181
134 154 181
134 154 181
134 154 181
133 154 181
133 154 181
133 154 181
134 154 181
133 154 181
135 155 181
133 154 181
134 154 181
135 155 181
133 154 181
133 154 181
134 154 181
134 154 181
133 154 181
133 154 181
133 154 181
134 154 181
134 154 181
134 154 181
133 154 181
133 154 181
134 154 181
133 154 181
134 154 181
134 154 181
133 153 180
134 154 181
134 154 180
134 155 181
134 154 181
134 154 181
134 154 181
134 154 180
134 154 181
134 154 181
134 154 181
133 154 181
133 154 181
134 154 181
134 154 181
134 154 181
132 153 181
133 154 180
133 154 181
134 154 181
134 155 181
134 154 181
134 154 181
134 154 181
133 154 181
133 154 181
134 154 181
133 154 181
134 154 181
134 154 181
134 154 181
134 155 181
133 153 180
136 155 181
134 155 181
132 153 180
134 154 181
134 154 181
134 154 181
133 154 181
133 154 181
134 154 181
134 154 181
133 154 181
133 154 181
134 155 181
134 154 181
135 155 181
135 155 181
133 154 181
133 154 180
133 154 181
133 154 181
133 154 181
134 154 181
133 154 181
133 154 181
134 154 181
133 154 181
134 154 181
134 154 181
134 154 181
134 154 181
133 154 181
133 153 180
134 154 181
133 154 181
133 154 181
134 154 181
134 154 181
134 154 181
133 154 181
134 154 181
133 154 181
134 154 181
134 154 181
133 154 181
134 154 181
134 154 181
133 154 181
134 154 181
134 154 181
133 154 181
134 154 181
134 154 181
133 154 181
132 153 181
133 154 181
134 154 181
134 154 181
133 154 181
134 154 181
134 154 181
134 154 181
133 154 180
134 154 181
136 155 181
134 154 181
133 154 181
134 154 181
133 154 181
133 154 181
134 154 181
135 155 181
133 154 181
134 155 181
134 154 181
133 154 181
134 154 181
134 154 181
133 154 181
133 154 181
133 154 181
134 154 181
133 154 181
134 154 181
133 154 181
134 154 181
134 154 181
132 153 181
134 154 181
134 154 181
133 154 180
134 154 181
134 154 181
134 154 181
134 154 181
134 154 181
133 154 181
134 154 181
134 154 180
134 154 181
135 155 181
134 154 181
133 154 180
134 154 181
134 154 181
133 154 180
133 154 181
134 154 181
133 154 181
134 154 181
133 154 181
134 154 181
133 154 181
134 154 181
134 154 181
133 154 181
134 154 181
134 154 181
134 154 181
134 154 181
134 154 181
134 154 181
134 154 181
133 154 181
134 155 181
134 155 181
134 154 181
134 154 181
134 154 181
134 154 181
134 154 181
133 154 181
134 154 181
133 154 181
134 154 181
134 154 181
133 154 181
134 154 181
134 154 181
134 154 181
134 154 181
133 154 181
133 154 181
134 154 181
133 154 181
133 154 181
133 154 181
133 154 180
134 154 181
133 154 181
133 154 181
133 154 180
133 154 181
134 154 180
134 154 181
134 154 181
134 154 181
135 155 181
135 155 181
135 155 181
134 154 181
134 154 181
132 153 181
134 154 181
134 154 181
134 154 181
133 154 180
134 154 181
133 154 181
133 154 181
133 154 181
134 154 181
134 154 181
134 154 181
133 154 181
134 154 181
134 154 181
133 154 181
134 154 180
134 154 181
135 155 181
133 154 181
134 154 181
134 154 181
134 154 181
133 154 181
134 154 180
134 154 181
133 154 181
133 154 181
135 155 181
134 154 181
134 154 181
133 154 181
133 154 181
135 155 181
133 154 181
133 154 181
133 154 180
134 154 181
134 154 181
134 155 181
133 154 181
134 154 181
134 154 181
133 154 181
133 154 181
134 154 181
133 154 181
133 154 181
134 154 181
134 154 180
133 154 181
132 153 180
133 154 181
134 154 181
133 154 181
134 154 181
133 154 181
133 154 181
134 154 181
134 154 181
133 154 181
133 154 181
133 154 181
135 155 181
133 154 181
134 154 181
134 154 181
133 154 181
133 154 181
133 153 180
133 154 181
134 154 181
134 154 181
133 154 181
134 154 181
134 154 181
134 154 181
133 153 180
134 154 181
133 154 181
134 154 181
135 155 181
134 154 180
133 154 180
134 154 181
133 154 181
134 154 181
134 154 180
134 154 181
134 154 181
133 154 180
133 154 181
133 154 181
134 154 181
134 154 181
133 154 181
133 154 181
133 154 181
133 154 180
135 155 181
134 154 181
134 154 181
134 154 181
134 154 181
133 154 181
134 154 181
135 155 181
133 154 181
134 154 181
134 154 180
134 154 181
134 154 181
133 154 181
133 154 181
133 154 181
134 154 181
133 154 181
133 154 181
134 154 180
134 154 181
134 154 181
134 154 181
133 154 181
134 154 181
134 154 180
134 154 181
134 154 181
133 154 181
134 154 181
134 154 181
133 154 181
134 154 181
134 154 180
134 154 181
134 154 181
133 154 181
134 154 180
134 154 181
134 154 181
134 154 181
134 154 181
133 154 181
134 154 181
134 154 181
134 154 181
133 154 181
134 154 181
133 154 181
134 154 181
134 154 181
134 154 181
134 154 180
134 154 181
133 154 181
133 154 181
134 154 181
134 154 181
134 154 181
133 154 181
135 155 181
134 154 181
134 155 181
134 154 181
133 154 181
135 155 181
134 154 181
134 154 181
134 154 181
133 154 181
134 154 181
134 155 181
133 154 180
133 154 181
133 154 181
133 154 180
134 154 181
133 154 181
133 154 181
134 154 181
133 154 181
134 154 181
134 154 181
134 154 181
134 154 181
133 154 181
133 154 181
134 154 181
135 155 181
134 154 181
134 154 181
134 154 181
134 154 181
133 154 181
135 155 181
134 154 181
134 154 181
135 155 181
134 155 181
134 154 181
134 154 181
134 154 180
134 154 181
133 154 181
133 154 180
134 154 181
134 154 181
134 154 181
134 154 181
134 154 181
134 154 181
134 154 181
134 154 181
134 154 181
133 154 181
134 154 181
134 154 181
134 154 181
134 154 181
134 154 181
134 154 181
135 155 181
133 154 181
133 154 181
134 154 181
133 154 181
134 154 181
134 154 181
134 154 181
133 154 181
134 154 181
133 154 181
133 154 181
133 154 181
134 154 181
134 154 181
134 154 181
134 154 181
134 154 181
134 154 181
133 154 180
134 154 181
134 154 181
133 153 180
133 154 181
134 154 181
134 154 181
133 154 181
133 154 181
134 154 181
134 154 181
134 154 181
134 154 181
133 154 181
134 154 181
133 154 181
133 154 181
134 154 181
135 155 181
133 154 181
134 154 181
133 154 181
135 155 181
134 154 181
133 154 181
134 154 181
134 154 181
134 154 181
134 154 181
135 155 181
134 154 181
134 154 181
134 154 181
134 154 180
133 154 181
134 155 181
133 154 180
133 154 181
134 154 181
134 154 181
133 154 181
134 154 181
134 154 180
133 154 181
134 154 181
134 154 181
133 154 180
134 154 181
134 154 181
134 154 180
133 154 181
133 154 181
134 154 180
134 154 181
134 154 181
133 154 181
134 154 181
134 154 181
134 154 181
134 154 181
133 154 181
133 154 181
134 154 181
134 155 181
133 154 180
134 154 181
134 154 181
133 154 181
134 154 181
135 155 181
134 154 181
134 154 181
134 154 181
133 154 181
133 154 181
134 154 181
134 154 181
134 154 180
134 154 181
133 153 180
133 153 180
133 153 180
134 154 181
135 155 181
133 153 180
133 154 181
133 154 181
135 155 181
134 154 181
134 154 181
134 154 181
133 154 181
134 154 181
133 154 181
133 154 181
134 154 180
134 154 181
133 154 181
133 154 181
134 154 181
134 154 180
134 154 181
134 154 181
134 154 180
133 154 181
133 154 181
134 154 181
133 154 181
133 154 181
134 154 181
134 154 181
133 153 180
134 154 181
135 155 181
134 154 181
133 154 181
135 155 181
133 154 181
134 154 181
133 154 181
133 154 181
134 154 181
133 154 181
132 153 181
134 154 180
133 154 181
134 154 180
133 154 181
134 154 181
134 154 181
134 154 181
133 154 181
134 154 181
133 154 181
134 154 181
133 154 181
133 154 181
134 154 181
133 154 180
134 154 181
133 154 181
133 153 180
134 154 180
133 154 181
134 154 181
133 154 181
135 155 181
134 154 180
134 154 181
134 154 181
134 155 181
134 154 181
134 154 181
134 154 181
134 154 181
134 154 181
134 154 181
133 154 181
133 154 181
134 154 181
134 154 181
134 154 181
134 154 181
134 154 181
134 154 181
134 154 181
134 154 181
134 154 181
134 154 181
134 154 181
134 154 181
133 154 180
134 154 181
134 154 181
134 154 181
134 154 181
134 154 181
134 154 181
134 154 181
134 154 181
134 154 181
134 154 181
133 154 181
134 154 181
134 154 181
134 155 181
133 154 181
134 154 181
133 154 181
133 154 181
133 154 181
133 154 181
133 154 181
133 154 180
133 154 181
133 154 181
135 155 181
134 154 181
133 154 181
133 154 181
134 154 181
134 154 181
134 154 181
133 154 181
134 154 181
133 154 181
134 154 181
134 154 181
134 154 181
133 154 181
133 154 181
134 154 181
134 154 181
134 154 181
134 154 181
133 154 181
134 154 181
133 153 180
134 154 181
133 154 181
134 154 180
134 154 181
133 154 181
134 154 181
133 154 181
133 154 180
133 154 181
134 154 181
134 154 181
134 155 181
134 154 181
135 155 181
134 154 181
134 154 181
135 155 181
134 154 181
134 154 181
135 155 181
134 154 181
134 154 181
133 154 181
133 154 181
134 154 181
134 154 181
134 154 180
134 154 181
133 154 181
134 154 181
133 154 181
133 154 181
134 154 181
133 154 180
135 155 181
134 154 181
134 154 181
133 154 181
132 153 181
134 154 181
134 154 181
133 154 181
134 154 181
134 154 181
135 155 181
134 154 181
134 154 181
134 154 181
134 154 181
135 155 181
133 154 180
134 154 181
133 154 181
134 154 180
134 154 181
134 154 181
133 154 181
134 154 181
133 154 181
132 153 181
133 154 181
135 155 181
133 154 180
134 154 181
133 154 181
134 154 181
133 154 181
134 154 181
133 154 181
134 154 181
134 154 181
133 154 181
134 154 181
134 154 181
134 154 181
134 154 181
134 154 181
133 154 181
134 154 181
134 154 181
133 154 181
134 155 181
133 154 181
134 155 181
134 155 181
134 154 181
134 154 181
134 154 181
133 154 180
135 155 181
133 154 181
134 154 181
134 154 181
134 154 181
134 154 180
134 154 181
133 154 181
134 154 181
134 154 181
133 154 181
133 154 181
134 154 181
134 154 181
134 154 181
133 154 181
134 154 181
133 154 181
134 154 181
133 154 181
134 154 181
134 154 181
133 154 181
133 154 181
134 154 181
134 154 181
133 154 180
134 154 181
134 154 181
134 154 181
134 154 181
134 154 181
133 154 181
134 154 181
133 154 180
133 154 180
134 154 181
134 154 181
133 154 181
133 154 181
134 154 181
134 154 181
133 154 181
133 154 181
134 154 181
133 153 180
134 154 181
134 154 181
132 153 181
134 154 181
133 154 181
134 154 181
133 154 181
133 154 181
133 154 181
134 154 181
135 155 181
133 154 181
135 155 181
134 154 181
133 154 181
135 155 181
133 154 181
133 154 181
134 154 181
135 155 181
134 154 181
133 154 181
135 155 181
134 155 181
134 154 181
134 154 181
134 154 181
134 154 181
134 154 180
135 155 181
133 154 181
134 154 180
134 154 181
134 154 181
134 154 180
134 154 181
134 154 180
134 154 181
134 154 181
133 154 181
134 154 181
133 154 181
134 154 180
134 154 181
134 154 181
133 154 181
134 154 181
134 154 181
133 154 181
134 155 181
134 154 181
134 154 180
133 154 181
133 153 180
134 154 181
133 154 181
133 154 181
133 154 181
134 154 181
134 154 181
133 154 181
133 154 181
133 154 181
133 154 181
134 154 181
135 155 181
134 154 181
134 154 181
134 154 181
134 155 181
134 155 181
133 154 181
135 155 181
134 154 181
134 154 181
135 155 181
134 154 181
133 153 180
134 154 181
133 154 181
133 154 181
134 154 181
134 154 180
134 154 181
133 154 181
133 154 181
134 154 181
135 155 181
134 154 181
134 154 181
134 154 181
134 154 181
133 154 181
133 154 181
134 154 181
134 154 181
133 154 181
135 155 181
133 154 181
134 154 181
133 154 180
134 154 181
134 154 181
134 154 181
134 154 181
135 155 181
134 154 181
134 154 181
134 154 181
134 154 181
133 154 180
133 154 181
133 154 181
134 154 181
134 154 181
134 154 181
134 154 181
133 154 181
134 154 181
134 154 181
134 155 181
133 154 181
134 154 181
134 154 181
133 154 181
133 153 180
134 154 181
134 154 181
133 154 181
133 154 181
134 154 181
135 155 181
134 154 180
134 154 181
135 155 181
134 154 181
134 154 181
134 155 181
134 154 181
134 154 181
134 154 181
133 154 181
134 154 181
133 154 181
134 154 180
134 154 181
134 154 181
133 154 180
134 154 181
133 154 181
134 154 181
133 154 181
134 154 181
132 153 181
134 154 181
133 154 181
133 154 181
134 154 181
134 154 181
134 154 181
133 154 181
133 154 181
133 154 181
134 154 180
134 154 181
134 154 181
133 154 180
134 154 181
133 153 180
132 153 181
134 154 180
134 154 181
133 153 180
134 154 181
135 155 181
133 153 180
134 154 181
134 154 181
134 154 181
134 154 181
133 154 181
133 154 181
134 154 181
134 154 181
133 154 180
133 154 181
134 154 181
133 153 180
134 154 181
134 154 181
134 154 181
134 154 181
135 155 181
134 154 181
134 154 181
133 154 181
134 154 181
133 154 181
134 154 181
134 154 181
135 155 181
134 154 181
135 155 181
134 154 181
134 154 180
134 154 181
133 154 181
134 154 181
133 154 181
133 154 181
134 154 181
133 154 181
134 154 181
133 153 180
134 154 181
134 154 181
134 154 181
134 154 181
134 154 181
134 154 181
133 154 181
133 154 181
134 154 181
134 154 181
134 154 180
134 154 181
133 154 181
134 154 181
134 154 181
134 154 181
134 154 181
134 154 181
133 154 180
134 154 181
133 153 180
134 154 181
134 154 181
135 155 181
134 154 181
134 154 181
134 154 181
134 154 181
133 154 181
134 154 181
134 154 181
134 154 181
134 154 181
134 154 181
133 154 181
135 155 181
133 154 181
134 154 181
134 154 181
134 154 181
134 154 181
133 154 181
135 155 181
134 154 181
134 154 181
134 154 181
134 154 181
134 154 181
134 154 181
134 155 181
134 154 181
134 154 180
133 154 181
133 154 181
134 154 181
134 154 181
134 154 180
135 155 181
133 154 181
133 154 181
133 154 181
134 154 181
134 154 181
133 154 181
134 154 181
134 154 181
133 154 181
133 154 181
134 154 181
134 154 181
134 154 181
134 154 181
133 153 180
133 154 181
135 155 181
133 154 181
134 154 181
134 154 181
134 154 181
134 154 181
133 154 181
134 155 181
134 154 181
134 154 181
133 154 181
134 154 181
134 154 181
133 154 181
133 154 180
133 154 181
135 155 181
133 154 181
132 153 181
133 154 181
134 154 181
134 154 181
134 154 181
134 154 181
134 154 181
134 154 181
134 154 181
133 153 179
133 153 180
134 154 181
134 155 181
134 154 181
135 155 181
134 154 181
134 154 181
133 154 181
133 154 181
134 154 181
134 154 180
134 154 181
133 154 181
133 154 180
133 154 181
134 154 181
135 155 181
133 154 181
133 154 181
134 154 180
134 154 181
134 154 181
134 154 181
134 154 181
133 154 181
134 154 181
134 154 181
133 154 181
133 154 181
135 154 180
134 154 180
134 154 181
134 154 181
133 154 181
135 155 181
134 154 181
134 154 181
134 154 181
134 154 181
134 154 181
134 154 181
134 154 181
134 154 181
133 154 181
135 155 181
135 155 181
133 154 181
134 155 181
134 154 181
134 154 180
134 154 181
135 155 181
134 154 181
133 154 181
134 154 180
133 154 181
134 154 181
134 154 181
134 154 181
134 154 181
134 154 181
134 154 181
133 154 180
134 154 181
134 154 181
134 154 181
133 154 181
133 154 181
135 155 181
134 154 181
134 154 181
134 154 181
134 154 181
134 154 181
135 155 181
133 154 181
133 154 181
134 154 181
134 154 181
134 154 181
134 154 181
134 154 181
134 154 181
134 154 181
134 154 181
134 154 181
133 154 181
134 154 181
134 154 181
133 154 181
133 154 181
133 154 181
133 154 181
134 154 181
134 154 181
134 154 181
134 154 181
133 154 181
133 154 181
134 154 181
134 155 181
133 154 181
133 154 181
133 154 181
135 155 181
134 154 181
133 154 181
134 154 181
133 154 181
134 154 181
133 154 181
133 154 181
133 154 181
133 154 181
134 154 181
134 154 181
133 154 181
133 154 181
135 155 181
133 154 181
134 154 181
134 154 181
133 154 181
134 154 181
133 154 181
134 154 181
134 154 181
134 154 181
134 154 181
133 154 181
134 154 181
134 154 181
134 154 181
134 154 181
134 154 181
134 154 181
133 154 181
134 154 181
135 155 181
133 154 181
134 154 181
134 154 181
134 154 181
133 153 180
133 154 181
134 154 181
134 154 181
134 154 181
133 154 181
133 154 181
133 154 181
134 155 181
134 154 181
134 154 180
134 154 181
134 154 181
133 154 180
134 154 181
134 154 181
134 154 181
133 154 181
133 154 181
134 154 181
133 154 181
134 154 181
134 155 181
133 154 181
134 154 181
134 154 181
133 154 181
134 154 181
133 154 181
134 154 181
133 154 181
134 154 181
134 154 181
134 154 181
135 155 181
134 154 181
133 154 181
134 154 180
134 154 181
134 154 181
134 154 181
133 154 181
134 154 181
134 154 181
134 154 181
133 153 180
135 155 181
133 154 181
133 154 181
134 154 180
133 154 181
133 154 181
134 154 181
134 154 181
133 153 180
134 154 181
134 154 181
134 154 181
133 154 181
133 154 181
133 154 181
133 154 181
134 154 181
134 154 181
134 154 181
134 154 181
134 154 181
134 154 181
134 154 181
134 154 180
134 154 181
133 154 181
133 154 180
133 154 181
132 153 181
134 154 180
134 154 181
134 154 181
134 154 181
133 154 181
133 154 181
134 154 181
134 154 181
133 154 181
134 154 181
133 154 181
134 154 181
133 153 180
134 154 181
134 154 181
134 154 180
134 155 181
133 154 181
134 154 180
135 155 181
134 154 181
134 154 181
134 154 181
134 154 181
134 154 181
134 154 181
134 154 181
134 154 181
134 154 181
134 154 181
134 154 181
133 154 181
134 154 181
134 154 181
133 154 181
133 154 180
134 154 181
134 154 181
134 154 181
133 154 181
133 154 181
133 154 181
133 154 181
134 154 181
134 154 181
134 154 181
134 154 181
134 154 181
134 154 181
135 155 181
134 154 181
134 154 181
134 154 181
134 154 181
134 154 181
134 154 181
134 154 181
134 154 181
133 154 181
134 154 181
133 154 181
134 154 181
134 154 181
134 154 181
134 154 181
134 154 181
134 154 181
135 155 181
134 154 181
134 154 181
134 154 181
133 154 181
134 154 181
134 154 181
134 154 181
134 154 181
133 154 180
133 154 180
133 154 181
134 154 181
135 155 181
134 154 181
134 154 181
134 154 181
134 154 180
134 154 181
133 154 181
134 154 181
134 154 181
134 154 181
133 154 181
133 154 181
134 154 181
134 154 181
134 154 181
134 154 181
134 154 180
134 154 181
134 154 181
133 154 181
134 154 181
134 154 181
133 154 181
135 155 181
134 154 181
134 154 180
134 154 181
133 154 181
134 155 181
134 154 181
134 154 181
134 154 181
134 154 181
134 154 181
133 154 180
134 154 181
134 154 181
134 154 181
133 154 181
133 154 180
134 154 181
134 154 181
133 154 181
134 154 181
134 154 181
133 154 181
134 154 181
133 154 181
134 154 181
133 153 180
133 154 181
134 154 181
134 154 181
133 154 181
134 154 181
134 154 181
134 154 181
133 154 181
134 155 181
133 154 181
134 154 181
133 154 181
133 154 181
134 154 181
134 155 181
133 153 180
133 154 181
134 154 181
133 154 181
134 154 181
134 154 181
133 153 180
134 154 181
134 154 181
134 155 181
134 154 181
133 154 181
133 154 181
133 153 180
135 155 181
133 154 181
133 154 181
133 154 181
134 154 181
134 154 181
133 154 181
134 154 181
134 154 181
134 154 181
134 154 181
133 154 181
134 154 181
134 154 181
134 154 181
132 153 181
134 154 180
134 154 180
134 155 181
134 154 181
133 154 181
134 154 180
134 155 181
134 154 181
134 154 181
134 155 181
133 154 181
133 154 181
133 154 181
134 154 180
134 154 181
134 154 181
134 154 181
133 154 181
134 155 181
133 154 181
134 155 181
134 154 181
134 154 181
134 154 181
134 154 181
134 154 181
134 154 181
134 154 181
133 154 181
135 155 181
133 154 180
134 154 180
133 154 181
134 154 181
133 154 181
134 154 181
134 154 181
134 154 181
134 154 181
134 154 180
134 154 181
134 154 181
134 154 181
133 154 181
134 154 181
134 154 181
132 153 181
133 154 181
134 154 181
134 154 181
134 154 181
134 155 181
134 154 181
134 154 181
134 154 181
133 154 181
134 154 181
133 154 181
134 154 181
133 154 180
133 154 181
134 154 181
134 154 181
134 154 181
135 155 181
134 155 181
134 154 181
134 154 181
134 154 181
134 154 181
134 154 181
134 154 181
134 154 181
134 154 181
134 154 181
133 153 180
134 154 181
134 154 181
133 154 180
135 155 181
134 154 181
133 154 181
134 154 181
133 154 181
133 154 181
134 154 181
135 155 181
134 154 181
133 154 181
133 154 181
134 154 181
133 154 181
133 154 180
134 154 181
133 154 181
135 155 181
133 154 181
134 154 181
134 154 181
133 154 180
133 154 181
134 155 181
134 154 181
134 154 181
134 154 181
134 154 181
134 154 181
134 154 181
134 154 180
134 155 181
134 154 181
134 154 181
135 155 181
133 154 181
133 154 181
133 154 181
133 154 181
133 154 181
135 155 181
133 154 181
134 154 181
134 154 181
134 154 181
134 154 181
133 154 181
134 154 181
134 155 181
134 154 181
133 154 181
134 154 181
134 154 181
134 154 181
134 154 181
133 154 180
134 154 181
135 155 181
134 154 181
135 155 181
134 154 181
135 155 181
133 154 181
133 154 181
133 154 181
134 154 181
133 153 180
134 154 181
133 154 181
133 154 181
133 154 180
133 154 181
133 154 181
134 155 181
133 154 181
134 154 181
133 154 181
133 154 181
134 154 181
133 153 180
133 154 180
134 154 181
133 154 181
133 154 181
133 154 181
134 154 181
133 154 181
134 154 181
134 154 181
134 154 181
133 154 181
134 154 181
133 154 181
133 154 181
134 154 181
134 154 181
134 154 181
134 154 181
134 154 181
133 154 181
133 154 181
134 154 181
134 154 181
134 154 181
134 154 181
134 154 181
134 154 181
135 155 181
133 154 181
133 154 181
134 154 181
134 154 181
134 154 181
133 154 181
134 154 181
134 155 181
134 154 181
134 154 181
134 154 181
133 154 181
134 154 180
134 154 181
133 154 181
134 154 181
134 154 180
133 154 180
134 154 181
134 154 181
134 155 181
134 154 181
134 154 181
134 154 181
134 154 181
134 154 181
134 154 181
133 154 181
134 154 181
134 154 181
134 154 180
134 154 181
134 154 181
134 154 181
133 154 181
134 154 181
135 155 181
133 154 181
134 154 181
134 154 181
134 154 181
134 154 181
133 154 181
134 154 181
133 154 181
134 154 181
134 154 181
134 154 181
133 154 181
134 154 181
133 154 181
133 154 181
133 154 181
134 154 181
134 154 181
134 154 181
133 154 181
134 154 181
134 154 181
134 154 181
133 154 181
134 154 181
133 154 181
133 154 181
135 155 181
134 154 181
135 155 181
134 154 181
134 154 181
133 154 181
133 154 181
134 154 181
134 154 181
134 154 181
133 154 181
134 154 181
134 154 181
135 155 181
134 154 181
133 154 181
134 154 181
134 154 181
134 154 181
133 154 181
133 154 181
133 154 181
133 154 181
134 154 181
134 154 181
135 155 181
133 153 180
133 154 181
133 154 181
134 154 181
134 154 181
133 154 181
134 154 181
134 154 181
134 154 181
134 154 181
134 154 181
134 154 181
135 155 181
134 154 181
133 154 181
133 154 181
134 154 181
134 154 181
134 154 181
134 154 181
133 154 181
134 154 181
133 154 181
134 154 181
133 154 181
133 154 181
134 155 181
134 154 181
134 154 181
134 154 181
135 155 181
134 154 181
133 154 181
134 154 181
133 154 181
133 154 181
133 154 180
134 154 181
135 155 181
134 154 181
134 154 181
134 154 181
134 154 181
134 154 181
133 154 181
134 154 181
133 154 181
133 154 181
134 154 181
133 154 181
134 154 181
134 154 181
133 154 181
133 154 181
134 154 180
133 154 181
134 154 181
133 154 181
134 154 181
134 154 181
134 154 180
134 154 181
134 154 181
134 154 181
134 154 181
133 154 181
133 153 180
133 154 180
134 154 181
134 154 181
133 154 181
133 154 181
134 154 181
134 154 181
134 154 181
133 154 180
133 154 181
134 154 181
133 154 181
134 154 181
133 154 181
134 154 181
133 154 181
134 154 181
134 154 181
134 154 181
134 154 181
134 154 181
134 154 181
134 154 181
133 154 181
133 154 180
134 154 180
133 154 181
134 154 181
134 154 181
134 154 180
133 154 181
134 154 181
135 155 181
132 153 181
133 154 180
133 154 181
134 154 181
134 154 181
133 153 179
134 154 181
134 154 181
134 154 181
134 154 181
133 154 181
134 154 181
133 154 181
133 154 181
133 154 180
134 154 181
133 154 181
133 154 181
133 154 181
133 154 181
134 154 181
134 154 181
133 154 181
133 154 181
133 154 181
133 153 180
134 154 181
133 154 181
134 154 181
133 154 181
133 154 181
134 155 181
134 154 181
134 154 181
134 154 180
133 154 181
134 154 181
134 154 181
133 154 181
133 153 180
133 154 181
134 155 181
134 154 181
134 154 181
132 153 180
134 154 181
133 154 181
134 154 181
134 154 181
134 155 181
133 154 181
133 154 181
134 154 181
133 154 181
133 154 181
134 154 181
134 154 181
133 154 181
133 153 180
134 154 181
134 154 181
133 154 181
134 154 181
134 154 181
135 155 181
134 154 181
133 154 181
134 154 181
133 154 181
134 154 181
134 155 181
133 154 181
133 154 181
134 154 181
134 154 181
134 154 181
133 154 181
134 154 181
133 154 181
134 154 181
134 154 181
134 154 181
133 154 181
133 154 181
134 154 180
133 154 181
135 155 181
133 154 181
134 154 180
134 154 181
133 154 181
134 154 181
134 154 181
133 154 181
134 154 181
134 154 181
134 155 181
134 154 181
134 154 181
134 154 181
134 154 181
134 155 181
134 154 181
134 154 181
134 154 181
134 154 181
134 154 181
134 154 181
133 153 180
133 154 181
133 154 181
133 154 181
134 154 181
134 154 181
134 154 181
134 154 181
133 154 181
135 155 181
134 154 181
134 154 181
134 154 181
134 154 181
133 154 181
133 154 181
134 154 181
134 154 181
133 153 180
134 154 181
134 154 181
134 154 181
134 154 181
134 154 181
134 154 181
134 154 181
134 154 181
134 154 181
134 154 181
134 154 181
133 154 181
134 154 181
133 154 181
134 154 181
133 154 181
134 154 181
134 154 181
133 154 181
133 154 181
134 154 181
134 154 181
133 154 181
133 154 181
133 154 181
133 154 181
135 155 181
135 155 181
134 154 181
134 154 180
134 154 181
133 154 181
133 154 181
134 154 181
134 154 180
134 154 181
134 154 181
133 154 181
134 154 180
134 154 181
134 154 181
134 154 181
134 154 181
133 154 181
134 154 181
133 154 181
134 154 181
133 154 181
134 154 181
134 154 181
134 154 181
134 154 181
134 154 181
134 154 181
134 154 181
134 154 181
134 154 181
133 154 181
134 154 181
134 154 181
134 154 181
134 154 181
134 154 181
134 154 181
133 154 181
134 154 181
134 154 181
133 154 181
133 154 181
134 154 181
133 154 181
134 154 181
134 154 181
134 154 181
134 154 181
134 154 181
134 154 181
134 154 181
134 154 181
134 154 181
134 154 181
134 154 181
134 154 181
133 154 181
134 154 181
134 154 181
134 154 181
134 154 181
134 154 181
134 154 181
134 154 181
134 154 181
134 154 181
135 155 181
134 154 181
134 154 181
134 155 181
133 154 181
134 154 181
134 154 181
134 154 181
134 154 181
133 154 181
134 154 181
135 155 181
133 154 181
134 155 181
133 154 181
133 154 181
134 154 181
134 154 181
134 154 181
133 154 181
133 154 180
134 154 181
133 154 181
134 154 181
133 154 180
135 155 181
134 154 181
133 154 181
133 154 181
134 154 181
134 154 181
134 154 181
134 154 181
133 154 181
134 154 181
134 154 181
134 154 180
133 154 181
134 154 181
134 154 181
133 154 181
133 154 181
133 154 180
134 154 181
134 154 181
134 154 181
134 154 181
134 154 181
134 154 180
134 154 181
133 154 181
134 154 181
135 155 181
134 154 181
134 154 181
133 154 181
134 154 181
133 154 181
134 154 181
134 154 181
133 153 180
133 154 181
133 154 181
134 154 181
135 155 181
134 155 181
135 155 181
135 155 181
134 154 181
133 154 181
134 154 181
134 154 181
134 154 181
133 154 181
135 155 181
134 154 181
135 155 180
134 154 181
134 154 181
134 154 181
133 154 181
135 155 181
134 154 181
134 154 181
133 154 181
134 154 181
134 155 181
133 154 181
133 154 181
133 154 181
133 154 181
134 154 181
134 154 181
133 154 181
134 154 181
134 154 181
134 154 181
135 155 181
134 154 180
134 154 181
134 154 180
133 154 181
133 153 180
134 154 181
134 154 181
134 154 181
134 154 181
133 154 181
134 154 181
134 154 181
133 154 180
134 154 181
134 154 181
134 154 181
135 155 181
134 154 181
133 154 181
133 154 181
134 154 181
134 154 181
134 154 181
134 154 181
135 155 181
134 154 181
135 155 181
134 154 181
133 154 181
134 154 181
133 154 181
134 154 181
134 154 181
133 154 181
134 154 181
134 154 181
134 154 180
135 155 181
134 154 181
133 154 181
134 154 181
133 154 181
133 154 181
134 155 181
134 154 181
134 154 181
134 154 181
134 154 181
134 154 181
134 154 181
134 154 181
133 154 181
134 154 181
133 154 181
133 154 181
134 154 181
134 154 181
134 154 181
133 154 181
134 154 181
134 154 181
134 154 181
133 154 181
134 154 181
134 154 181
133 154 181
134 154 181
134 154 181
134 154 181
135 155 181
135 155 181
134 154 181
134 154 181
133 154 181
133 154 181
133 154 181
134 154 181
134 154 180
134 154 181
134 154 181
133 154 181
134 154 181
135 155 181
133 154 180
132 153 181
134 154 180
134 154 181
134 154 181
134 154 181
134 154 181
135 155 181
133 154 181
134 154 181
134 154 181
134 154 181
134 154 181
134 154 181
133 154 181
134 154 181
134 154 181
133 154 181
133 154 181
134 154 181
134 154 181
134 154 181
135 155 181
133 154 181
135 155 181
134 154 181
135 155 181
133 154 181
133 154 181
133 154 181
134 154 181
133 154 181
135 155 181
133 154 181
134 154 181
133 154 181
134 154 181
133 154 181
134 154 180
134 154 181
134 154 180
133 154 181
134 154 181
134 154 181
133 154 181
134 154 181
134 154 181
134 154 181
133 154 181
134 154 181
133 154 181
133 154 181
134 154 181
134 154 181
133 154 181
135 155 181
134 154 181
134 154 181
133 154 181
134 154 181
132 154 181
134 155 181
134 154 181
135 155 181
134 154 181
133 154 181
134 154 181
134 154 181
133 154 181
133 154 181
133 154 181
133 154 181
134 154 181
134 154 181
134 154 181
134 154 181
134 154 181
132 153 180
134 154 181
133 154 181
133 154 181
133 154 181
133 154 180
134 154 181
135 155 181
133 154 181
134 154 181
133 154 181
134 154 181
133 154 181
134 154 181
133 154 181
134 154 181
134 154 181
134 154 181
134 154 181
134 154 181
134 154 181
134 154 181
134 154 181
133 154 181
133 154 181
134 154 181
134 154 181
134 154 181
134 155 181
135 155 181
134 154 181
134 154 181
134 154 181
134 154 180
133 154 181
134 154 181
133 154 181
134 154 181
134 154 181
134 154 181
134 154 181
133 153 180
134 154 181
134 154 181
134 154 181
134 154 181
133 154 181
132 153 181
134 154 181
134 154 181
134 154 181
135 155 181
133 154 180
134 154 181
134 154 181
133 154 181
134 154 181
135 155 181
134 154 181
133 154 181
133 154 181
133 154 181
134 154 181
133 154 181
134 155 181
134 154 181
135 155 181
134 154 181
134 155 181
133 154 181
134 154 181
135 155 181
133 154 181
134 154 181
134 154 181
134 154 181
133 154 180
133 154 181
133 154 181
133 153 180
133 154 181
134 154 181
134 154 181
135 155 181
134 155 181
133 154 181
133 154 181
134 154 181
133 154 181
134 154 181
134 154 181
132 153 180
134 154 181
134 154 181
134 154 181
133 154 180
134 154 181
134 154 181
134 154 181
133 153 180
134 154 181
134 154 181
133 154 181
135 155 181
135 155 181
133 154 180
135 155 181
133 154 180
133 154 180
134 154 181
133 154 181
134 154 181
134 154 181
134 154 181
134 154 181
134 154 180
134 154 181
134 154 181
134 154 181
134 154 181
134 154 181
134 154 181
134 154 181
133 154 181
134 154 181
134 154 181
133 154 181
133 154 181
133 153 180
133 154 180
134 154 181
133 154 181
134 154 181
133 154 180
133 154 181
133 154 181
134 154 181
133 154 181
134 154 181
134 154 181
133 154 181
134 154 181
133 154 181
134 154 181
134 154 181
134 154 181
133 154 181
134 154 181
133 154 181
133 154 180
134 154 181
134 154 181
133 154 181
134 154 181
134 154 181
133 154 181
133 154 181
134 154 181
133 154 181
134 154 181
134 154 180
134 154 181
134 154 181
133 154 181
134 154 181
134 154 181
134 154 181
134 154 181
135 155 181
134 154 181
134 154 181
134 154 181
133 154 181
134 154 181
133 154 181
134 154 180
134 154 181
133 154 181
135 155 181
133 154 181
133 154 181
133 154 180
134 154 181
133 154 181
133 154 181
134 155 181
133 154 181
133 154 181
134 154 181
134 154 181
134 154 181
133 154 180
134 154 181
134 154 181
133 154 181
134 155 181
134 154 181
134 154 181
134 154 181
134 154 181
134 155 181
134 154 181
134 154 181
133 154 181
134 155 181
133 154 181
134 154 181
134 154 181
134 154 181
133 154 180
134 154 181
134 154 181
134 155 181
134 154 181
134 154 181
133 154 181
134 154 181
133 154 181
134 154 181
134 154 181
134 154 181
134 154 181
135 155 181
134 154 181
134 154 181
134 155 181
133 154 181
133 154 181
134 154 180
133 154 181
133 154 181
133 154 181
134 154 181
134 154 181
133 154 181
134 154 181
133 154 180
134 154 181
134 154 181
133 154 181
133 154 181
133 153 180
134 154 181
134 154 181
133 154 181
133 154 181
134 154 181
134 154 181
134 154 181
134 154 181
133 154 181
133 154 181
133 154 181
134 154 181
134 154 181
133 154 181
134 154 181
133 154 181
133 154 180
134 155 181
134 154 181
134 154 181
134 154 181
134 154 181
134 154 181
133 154 181
134 155 181
133 154 181
133 154 181
133 154 181
133 154 181
134 154 181
134 154 181
133 154 181
133 154 181
133 154 181
134 154 181
133 153 180
134 154 181
134 154 181
133 153 180
134 154 181
133 154 181
133 154 181
135 155 181
134 154 181
134 154 181
134 155 181
134 154 181
134 154 181
133 153 180
134 154 181
134 154 181
133 154 181
134 154 181
132 153 180
134 154 181
134 154 181
133 154 181
134 154 181
133 154 181
134 154 181
134 154 181
133 154 181
134 154 181
134 154 181
133 154 180
134 154 181
134 154 181
133 154 181
134 154 181
133 154 181
134 154 181
133 154 181
133 153 180
134 154 181
134 154 181
134 154 180
133 154 181
134 154 181
134 155 181
134 155 181
134 154 181
133 154 181
134 154 181
134 155 181
135 155 181
135 155 181
134 154 181
133 154 181
134 154 181
134 154 181
133 154 181
134 154 181
134 154 181
135 155 181
134 154 181
134 154 181
133 154 181
134 154 181
135 155 181
134 154 180
134 154 181
134 154 181
132 153 181
133 154 181
134 154 181
133 154 181
134 154 181
134 154 181
134 154 181
134 154 181
133 153 180
133 154 181
133 154 181
134 154 181
134 154 181
134 154 181
134 154 181
134 154 181
134 154 181
134 154 181
134 154 181
134 154 181
134 154 180
134 154 181
134 154 181
133 154 181
133 154 181
134 154 181
133 154 181
135 155 181
135 155 181
133 154 181
135 155 181
134 154 181
135 155 181
134 154 181
133 153 180
134 155 181
134 154 181
134 154 181
133 154 181
134 154 181
134 154 181
134 154 181
134 154 181
133 154 181
134 154 181
133 154 180
134 154 181
134 154 181
134 154 181
133 154 181
134 154 181
134 154 181
133 154 181
134 154 181
134 154 181
134 154 181
134 154 181
134 154 181
133 154 181
134 154 181
134 154 180
133 154 181
134 154 181
134 154 180
134 154 181
134 154 181
134 154 181
135 155 181
134 154 181
134 154 181
133 154 181
134 154 181
134 154 180
134 154 181
134 154 181
134 154 181
133 154 181
134 154 181
134 154 181
133 154 181
134 154 181
134 154 181
133 154 181
134 154 180
134 154 180
134 154 181
133 154 181
134 154 181
134 154 181
134 154 181
133 154 181
133 154 180
134 154 181
134 154 181
134 154 181
133 154 181
133 154 181
134 154 181
134 154 181
134 154 181
134 154 181
134 154 181
133 154 181
134 154 181
133 154 181
134 154 181
134 154 181
134 154 181
134 154 181
134 154 181
134 154 180
133 154 181
134 154 181
135 155 181
134 154 181
134 154 181
134 154 181
134 154 181
134 154 180
134 154 181
134 154 181
133 154 181
134 154 181
134 154 181
135 155 181
133 154 181
134 154 181
134 154 181
133 154 181
134 154 181
134 154 181
134 154 181
134 154 181
134 154 180
134 155 181
133 154 181
134 154 181
133 154 181
134 154 181
134 154 181
134 154 181
134 154 181
133 154 181
133 153 180
133 154 181
133 154 181
133 154 180
133 154 180
134 154 181
134 155 181
134 154 181
133 154 181
133 154 181
134 154 181
134 154 181
133 154 181
135 155 181
133 154 181
134 154 181
133 154 181
134 154 181
134 155 181
133 154 181
133 154 181
134 154 181
134 154 181
133 154 181
133 154 181
133 154 181
133 153 180
134 154 181
134 154 180
133 154 181
134 154 181
133 154 181
134 154 181
135 155 181
134 154 181
134 154 181
132 153 180
134 154 181
134 154 181
133 154 181
133 154 181
133 154 181
133 154 181
134 154 181
134 154 181
133 154 181
134 154 181
133 154 181
134 154 181
133 154 181
134 154 181
134 154 181
133 154 181
134 154 181
134 154 181
134 154 181
133 154 181
134 154 181
134 154 181
134 155 181
134 154 181
133 154 181
133 154 181
134 154 181
134 154 180
134 154 181
134 154 181
134 154 181
133 154 181
134 154 181
133 154 181
134 154 181
133 154 181
134 154 181
134 154 181
133 154 181
133 153 180
133 154 181
134 154 181
133 154 181
134 154 181
134 154 181
133 153 180
133 154 181
134 154 181
134 154 181
134 154 181
134 154 181
134 154 181
134 154 181
133 154 181
134 154 181
134 154 181
134 154 181
134 154 181
134 154 181
134 154 181
133 154 181
134 154 180
134 154 181
134 154 181
133 154 181
134 154 181
133 154 181
134 154 181
133 154 181
134 154 181
134 154 180
133 154 181
133 154 180
134 154 180
134 154 181
133 154 181
133 154 181
134 154 181
133 154 181
134 154 181
134 154 181
133 154 181
134 154 181
134 154 181
133 154 181
134 154 180
133 154 181
133 153 180
134 154 181
133 154 181
132 153 181
133 154 181
133 154 181
133 154 180
134 154 181
133 154 181
134 154 181
134 154 181
134 154 181
134 154 181
134 155 181
133 154 181
134 154 181
134 154 181
134 154 181
133 154 181
134 154 181
133 154 181
134 154 181
134 154 181
134 154 181
134 154 181
134 154 181
133 154 181
135 155 181
134 154 181
134 154 181
134 154 181
134 154 181
133 154 181
133 154 181
134 154 181
133 154 181
133 154 181
134 154 181
133 154 181
133 154 181
133 154 181
134 154 181
133 154 181
133 154 181
135 155 181
134 154 181
133 154 181
134 154 181
134 155 181
134 154 181
133 154 181
133 154 181
134 154 181
133 154 181
134 154 181
133 154 181
134 154 181
132 153 180
133 154 181
134 154 181
134 154 181
134 154 181
133 154 181
134 154 181
134 154 181
134 154 181
134 154 181
134 154 181
134 154 181
134 154 181
134 154 181
134 154 181
134 154 181
134 154 181
134 154 180
134 154 181
134 154 181
134 154 181
134 154 181
135 155 181
134 154 181
133 154 181
134 154 181
135 155 181
134 154 181
133 154 181
135 155 181
134 154 181
134 154 181
134 154 181
134 154 181
133 154 180
135 155 181
134 154 181
134 154 181
134 154 181
134 154 181
134 154 181
134 154 181
134 154 181
134 154 181
134 154 181
133 154 181
134 155 181
134 154 181
134 154 181
134 154 181
135 155 181
134 154 181
135 154 180
133 154 181
133 154 181
133 154 181
134 154 181
133 154 181
133 154 181
134 154 181
134 154 181
133 154 181
134 154 181
134 154 181
134 154 181
134 154 180
134 154 180
133 154 181
134 154 181
133 154 181
133 154 181
133 154 181
133 154 181
134 154 181
133 154 181
133 154 181
134 154 181
134 154 181
134 154 181
134 154 181
133 154 181
134 154 181
133 154 181
134 154 180
134 154 181
133 154 180
133 154 181
135 155 181
134 154 181
133 154 181
133 154 181
133 154 181
134 154 181
134 154 181
133 154 181
133 154 181
134 154 181
134 154 180
134 154 181
134 154 181
132 153 181
134 154 181
134 154 181
133 154 181
134 154 181
134 154 181
134 154 181
135 155 181
134 154 181
134 154 180
133 154 181
134 154 181
133 154 181
134 154 181
134 154 181
133 154 181
134 154 181
134 154 181
135 155 181
133 154 181
133 154 181
134 154 181
133 154 181
134 154 181
133 154 181
133 154 181
134 154 181
135 155 181
133 154 181
133 154 181
134 154 181
134 154 181
134 154 181
133 154 181
134 154 181
133 154 181
134 154 181
134 154 181
134 154 181
133 154 180
133 154 181
134 154 181
133 154 181
134 154 181
133 154 181
134 154 181
134 154 180
133 154 181
133 154 181
134 154 181
134 154 181
134 154 181
133 154 181
133 154 181
134 154 181
134 154 181
134 154 181
133 154 181
134 154 181
133 154 181
133 154 180
135 155 181
133 153 180
134 154 181
134 154 181
134 154 181
134 154 181
135 155 181
134 154 181
134 154 181
134 154 181
134 154 181
134 154 181
135 155 181
135 155 181
134 154 181
133 154 181
133 154 181
133 154 181
134 154 181
133 154 180
133 154 181
134 154 181
134 154 181
132 153 181
134 154 181
134 154 181
133 154 181
133 154 181
133 154 181
133 154 181
133 154 181
134 154 181
134 154 181
134 154 181
134 154 181
133 154 181
134 154 181
134 154 181
135 155 181
132 153 181
133 154 181
134 154 181
134 154 181
134 154 181
133 154 181
134 154 181
134 154 181
133 154 181
134 154 181
134 154 181
133 154 181
134 154 181
134 154 181
133 154 181
133 153 180
134 154 181
134 154 181
133 154 180
133 154 181
134 154 181
134 154 181
133 154 181
134 154 181
134 154 181
134 154 180
134 154 181
133 154 181
133 154 181
133 154 180
134 154 181
134 154 181
134 154 181
133 154 181
133 154 181
134 154 181
133 154 181
134 154 181
133 154 181
134 154 181
133 154 181
134 154 181
134 154 181
133 154 180
133 154 181
134 154 181
134 154 181
134 154 181
134 154 181
134 154 181
135 155 181
133 154 181
133 154 181
133 154 181
134 154 181
134 154 181
134 154 181
133 154 181
134 154 181
134 155 181
133 154 181
134 154 181
134 154 181
134 154 181
133 154 181
133 154 181
135 155 181
133 154 181
134 154 181
134 154 181
134 154 181
134 154 181
134 154 181
134 154 181
134 154 181
134 154 181
133 154 181
133 154 181
133 154 180
134 154 181
134 154 181
133 154 181
134 154 181
134 154 181
133 154 180
135 155 181
134 154 181
133 154 181
134 154 181
135 155 181
134 154 181
134 154 181
133 154 181
133 154 181
134 154 181
133 154 181
133 154 181
134 154 181
134 155 181
134 154 181
134 154 181
134 154 181
134 154 181
133 154 180
134 154 181
134 154 181
133 154 181
134 154 181
134 154 181
134 154 181
133 154 181
134 154 181
134 154 181
134 154 181
134 155 181
134 155 181
135 155 181
133 154 181
134 154 181
134 154 181
133 154 181
134 154 181
133 154 181
133 154 180
133 154 181
133 154 181
134 154 181
134 154 180
133 154 181
134 154 181
133 154 181
133 154 181
133 154 181
135 155 181
134 154 181
134 154 181
133 154 180
134 154 181
133 154 181
134 154 181
135 155 181
134 154 181
134 154 181
133 154 181
133 153 180
133 154 181
134 154 181
134 154 181
134 154 181
133 154 181
134 154 181
134 154 181
133 154 181
133 154 181
133 154 181
134 154 181
134 154 181
133 154 181
133 154 181
134 154 181
134 154 181
133 154 181
133 154 181
135 155 181
134 154 181
134 154 181
134 154 181
134 154 181
134 154 181
134 154 181
134 155 181
134 154 181
133 154 181
134 154 181
134 154 181
133 154 181
135 155 181
133 154 181
133 153 180
134 154 181
134 154 181
134 154 180
133 154 180
134 154 181
134 154 181
134 154 181
133 154 181
134 154 181
134 154 181
134 154 181
134 154 181
134 154 181
134 154 181
134 154 181
133 154 181
134 154 181
134 154 181
134 154 181
134 154 181
134 154 181
133 154 181
133 154 181
133 154 181
134 154 181
134 154 181
134 154 181
133 154 180
134 154 181
135 155 181
134 154 181
134 155 181
134 154 181
134 154 181
135 155 181
134 154 181
133 154 181
134 154 181
134 154 181
133 154 181
133 154 181
134 154 181
133 154 181
134 154 181
133 154 181
133 154 181
134 154 181
133 154 181
133 154 181
134 154 181
134 154 181
134 154 181
134 154 181
134 154 181
134 154 181
133 154 181
133 154 180
134 154 181
135 155 181
134 154 181
133 154 181
132 153 181
134 154 181
134 154 181
133 154 181
133 153 180
134 154 181
134 154 181
134 154 181
134 154 181
134 154 181
134 154 181
133 154 181
134 154 181
133 154 181
133 154 181
133 154 181
133 154 181
134 154 181
134 154 181
134 154 181
134 154 181
133 154 181
134 154 181
134 154 181
134 154 181
133 154 181
134 155 181
133 154 181
132 153 181
134 154 181
134 154 181
134 154 181
133 154 181
134 154 181
134 154 181
134 154 181
134 154 181
133 154 181
133 154 181
134 154 181
133 154 181
135 155 181
133 154 181
134 154 181
134 154 181
134 154 181
134 154 181
134 154 181
134 154 181
135 155 181
134 154 181
132 153 181
134 154 181
134 154 181
134 154 180
133 154 181
134 154 181
134 154 181
134 154 181
133 154 181
135 155 181
133 154 181
135 155 181
134 154 181
134 154 181
134 154 181
134 154 181
134 154 181
134 154 181
133 154 181
135 155 181
134 154 181
134 154 181
134 154 181
133 154 181
134 154 181
133 154 181
134 154 181
135 155 181
134 154 181
134 154 181
134 154 181
133 154 181
134 154 181
133 154 181
133 154 181
133 154 181
134 154 181
133 154 181
133 154 181
134 154 181
134 154 181
133 154 181
134 154 180
134 154 180
133 154 181
134 154 181
133 154 181
134 154 181
134 154 181
134 155 181
134 154 181
134 154 181
134 154 181
134 154 181
133 154 181
134 154 181
133 154 181
134 154 181
134 154 181
134 154 181
133 154 181
133 154 181
134 154 181
134 154 181
133 154 181
133 154 181
134 154 181
133 154 181
134 154 181
134 154 181
134 154 181
134 154 181
134 154 181
134 154 181
133 154 181
134 154 181
133 154 181
133 154 181
133 154 181
133 154 180
133 154 181
134 154 181
134 154 181
133 154 181
135 155 181
133 154 181
134 154 181
134 154 180
134 154 181
133 154 181
133 154 181
133 154 181
134 154 181
134 154 181
134 154 181
135 155 181
134 154 181
134 155 181
134 154 181
134 154 181
133 154 181
134 154 181
134 154 181
134 154 181
134 154 181
133 154 181
134 154 181
133 154 181
133 154 180
134 154 181
133 154 181
134 154 181
134 154 181
133 154 181
135 155 181
134 154 181
134 154 181
134 154 181
134 154 181
134 154 181
133 154 181
133 154 181
132 153 181
134 154 181
133 154 181
134 154 181
134 154 181
133 154 181
133 154 181
134 154 181
134 154 181
134 154 181
134 154 181
134 154 181
134 154 181
133 154 181
133 154 181
134 154 181
134 154 181
134 154 181
134 154 181
133 154 181
134 154 181
133 154 181
134 154 181
134 154 181
134 154 181
134 154 181
133 154 181
133 154 181
133 154 181
133 154 181
134 154 181
133 154 181
134 154 181
134 154 181
134 154 181
134 154 181
134 154 181
134 154 181
134 154 181
133 154 181
133 154 181
134 154 181
134 154 181
134 154 181
134 154 181
134 154 181
134 154 181
134 154 181
134 154 181
133 154 181
134 154 181
134 154 181
133 154 181
133 154 181
133 154 181
134 154 181
134 154 181
133 154 181
134 154 181
134 154 181
134 154 181
134 154 181
134 154 181
133 154 181
134 154 181
133 154 181
133 154 181
134 154 181
133 154 181
134 154 181
134 154 181
134 154 181
133 154 180
133 154 180
134 154 181
134 154 181
133 154 181
134 154 181
133 154 181
134 154 181
133 154 181
133 154 181
134 154 181
134 154 181
134 154 181
135 155 181
134 154 181
134 154 181
133 154 181
135 155 181
134 154 181
134 154 181
133 154 181
134 154 181
134 154 181
133 154 181
134 154 181
134 154 181
133 154 181
134 154 181
134 154 181
134 154 181
134 154 181
134 154 181
134 154 181
134 154 180
134 155 181
133 154 181
134 154 181
134 154 181
134 154 181
134 154 181
134 154 181
134 154 181
134 154 181
134 154 181
134 154 181
133 154 181
134 154 181
134 154 181
133 154 181
132 153 180
134 154 181
135 155 181
134 154 181
133 154 181
134 154 181
134 154 181
133 153 180
133 154 181
134 154 181
134 154 181
134 154 180
134 154 181
134 154 181
134 154 181
133 153 180
135 155 181
133 154 181
133 154 181
134 154 181
133 153 179
133 154 180
133 154 181
133 154 181
134 154 180
133 154 181
133 154 181
134 154 181
133 154 181
134 154 181
134 154 181
134 154 181
134 154 181
134 154 181
134 154 181
133 154 180
134 154 181
133 154 181
134 154 181
133 154 181
134 154 181
134 155 181
133 154 181
133 154 181
133 154 181
134 154 181
134 154 180
133 154 181
134 154 181
134 154 181
133 154 181
134 154 181
133 154 181
134 154 181
134 154 181
134 154 181
134 154 181
133 154 181
134 154 180
134 154 181
134 154 181
133 154 181
134 154 181
135 155 181
134 154 181
134 154 181
134 154 181
134 154 181
135 155 181
134 154 181
133 154 181
133 154 181
133 154 181
134 154 181
134 154 181
134 154 181
134 154 180
134 154 181
133 153 179
134 154 181
134 155 181
133 154 181
133 154 181
134 154 181
135 155 181
134 154 181
134 155 181
134 154 181
134 154 180
133 154 181
134 154 180
133 154 181
134 154 181
133 154 181
134 154 181
134 154 181
133 154 181
134 154 181
134 154 181
134 154 181
134 154 181
134 154 181
134 154 181
135 155 181
134 154 181
133 154 181
134 154 181
133 154 181
134 154 181
134 154 181
134 154 181
134 154 181
134 154 181
134 154 181
134 154 180
134 154 181
134 154 180
134 154 181
134 154 181
134 154 181
133 154 180
133 154 181
134 154 180
133 154 181
134 154 181
135 155 181
134 154 181
134 154 181
134 154 181
134 154 180
133 154 181
134 154 181
134 154 181
134 154 181
134 154 181
133 154 181
133 154 181
134 154 181
134 154 181
132 153 180
134 154 181
134 154 181
134 154 181
134 154 181
134 154 181
134 154 181
134 154 181
134 154 181
133 154 181
133 154 180
135 155 181
133 154 181
132 153 180
133 154 181
134 154 181
134 154 181
133 154 181
134 154 181
133 154 181
133 154 181
133 154 181
134 154 181
135 155 181
134 154 181
134 154 181
134 154 181
133 154 181
134 154 181
134 154 181
135 155 181
134 154 181
134 154 181
134 154 181
135 155 181
133 154 181
133 154 181
134 154 181
134 154 181
134 154 180
134 154 181
134 154 181
134 154 181
133 154 181
134 154 181
135 155 181
134 154 181
134 154 181
134 154 181
134 154 181
135 155 181
133 154 181
134 154 181
134 154 181
133 154 181
133 154 181
134 154 181
134 154 181
134 154 181
134 155 181
134 154 180
134 154 181
134 154 181
134 154 181
133 154 181
134 154 181
134 154 181
134 154 181
134 154 181
133 154 181
134 154 181
134 154 181
134 154 181
133 154 181
134 154 181
133 154 181
135 155 181
134 154 181
134 154 181
134 154 181
133 154 181
134 154 181
134 154 181
133 154 181
133 154 181
134 155 181
134 154 181
134 154 181
134 154 181
134 154 181
135 155 181
134 154 181
134 154 181
135 155 181
134 154 181
134 154 181
134 154 181
133 154 180
134 154 181
133 154 181
133 154 181
133 154 181
134 154 181
133 154 181
134 154 181
133 154 181
134 154 181
134 154 181
133 154 180
134 154 181
134 154 181
133 154 181
135 155 181
133 154 181
133 154 181
133 154 181
133 154 181
133 154 181
133 154 181
134 154 181
133 154 181
134 154 181
134 154 181
133 154 181
135 155 181
135 155 181
134 154 181
133 154 181
134 154 181
134 154 181
134 154 180
134 154 181
134 154 181
133 154 181
134 154 181
133 154 180
133 154 181
134 154 181
134 154 181
133 154 181
134 154 181
134 154 181
134 154 181
133 154 181
134 154 181
133 154 181
133 154 181
135 155 181
134 154 181
134 154 181
134 154 181
134 154 181
133 153 180
134 154 181
134 155 181
133 154 181
134 154 181
133 154 181
133 154 181
133 154 181
134 154 181
134 154 181
134 154 181
134 154 181
133 154 181
134 154 181
134 154 181
134 154 181
134 154 181
134 155 181
134 154 181
134 154 181
133 154 181
134 154 181
134 154 181
133 154 181
134 154 181
134 154 181
133 154 181
133 154 181
134 154 181
133 154 181
133 154 181
134 154 181
133 154 181
134 154 180
134 154 181
134 154 180
134 154 181
134 154 181
134 154 181
133 154 181
134 154 181
134 154 181
134 154 181
133 154 181
134 155 181
134 154 181
133 154 181
134 154 181
134 154 181
134 154 181
134 154 181
133 154 180
133 154 181
134 154 181
133 154 181
133 154 180
135 155 181
133 154 181
134 154 181
134 154 181
133 154 181
134 154 181
134 154 181
134 154 181
134 154 181
133 154 181
134 154 181
134 154 181
134 154 181
134 154 181
133 154 181
134 154 181
134 154 181
133 154 181
134 154 181
135 155 181
133 154 181
135 155 181
133 154 181
135 155 181
135 155 181
133 154 181
134 154 181
133 154 181
134 154 181
134 154 181
134 154 181
134 154 181
133 154 181
134 154 181
133 154 180
134 154 180
134 154 181
133 154 181
135 155 181
134 154 181
134 155 181
134 154 181
133 154 181
133 154 181
132 153 181
133 154 181
134 154 181
134 154 181
134 154 181
134 154 181
134 154 181
133 154 181
134 154 181
133 154 180
134 154 181
134 154 181
134 154 181
134 154 181
134 154 181
133 154 181
133 154 181
135 155 181
133 154 181
134 154 181
135 155 181
133 154 181
134 154 181
133 154 181
135 155 181
135 155 181
133 154 181
133 153 180
134 154 181
133 153 180
134 154 181
133 154 181
133 154 181
133 154 181
134 154 181
135 155 181
134 155 181
133 154 181
134 154 181
133 154 181
135 155 181
135 155 181
133 154 181
132 153 180
134 154 181
134 154 181
134 154 181
135 155 181
134 154 181
133 154 181
133 154 181
133 154 181
133 154 181
134 154 181
134 154 181
133 154 181
133 154 181
134 154 181
134 155 181
133 154 181
134 154 181
134 154 181
134 154 181
134 154 181
133 154 181
133 153 180
133 154 180
134 154 180
134 154 181
134 154 181
134 154 181
133 154 181
134 154 181
134 154 181
134 154 181
134 154 181
134 154 181
135 155 181
134 154 181
134 154 181
134 154 181
133 154 181
134 154 181
133 154 181
133 154 181
133 154 181
134 154 181
133 154 181
134 154 181
134 154 181
134 154 181
133 154 181
134 154 181
134 154 181
133 154 181
133 154 181
133 154 181
135 155 181
133 154 181
133 154 181
134 154 181
134 154 180
133 153 180
133 154 180
134 154 181
134 154 181
133 154 181
134 154 181
134 154 181
134 154 181
134 154 181
134 154 181
133 154 181
133 154 181
134 154 180
134 154 181
134 155 181
134 154 181
133 154 181
133 154 181
133 154 181
134 154 181
135 155 181
135 155 181
134 154 181
135 155 181
134 154 181
134 154 181
134 154 181
134 154 181
134 154 181
134 154 181
134 154 181
133 154 181
134 154 181
134 154 181
134 154 181
134 154 180
134 154 181
134 154 181
134 154 181
133 154 181
134 154 181
133 154 181
134 154 181
133 154 181
134 154 181
133 154 181
133 154 181
133 154 180
134 154 181
133 154 181
133 154 181
134 154 181
134 154 181
135 155 181
133 154 181
133 154 181
134 154 181
134 154 181
134 154 181
134 154 181
134 154 181
134 154 181
134 154 181
134 154 181
133 154 181
133 154 181
134 154 181
134 155 181
133 154 181
133 154 181
133 154 181
135 155 181
133 154 181
133 154 181
133 154 181
133 153 180
134 154 181
134 154 181
133 154 181
134 154 181
133 153 180
135 155 181
134 154 181
133 154 181
134 154 181
134 154 181
133 154 180
134 154 181
133 154 181
133 154 180
134 154 181
133 154 181
134 154 181
134 154 181
134 154 181
133 154 181
134 154 181
134 154 181
134 154 181
133 154 181
133 154 181
134 154 181
134 154 181
135 155 181
134 154 181
135 155 181
133 154 181
135 155 181
133 154 181
133 154 180
134 154 181
134 154 181
134 154 181
134 154 181
134 154 181
134 154 181
133 154 181
134 154 181
135 155 181
134 154 181
134 154 181
133 154 181
133 154 181
133 154 181
134 154 181
134 154 181
133 154 180
134 154 181
134 154 181
134 154 181
134 154 181
133 154 180
134 154 181
134 154 181
134 154 181
134 154 181
134 154 181
134 154 181
134 154 181
134 154 181
133 154 181
133 154 181
134 154 181
133 154 181
134 154 181
134 154 181
134 154 181
134 154 181
132 153 180
134 154 181
134 154 181
134 154 181
133 154 180
134 154 181
134 154 181
135 155 181
134 154 181
135 155 181
133 154 181
133 154 181
134 154 181
135 155 181
134 154 180
134 154 181
134 154 181
134 154 181
134 154 181
134 154 181
133 154 181
133 154 181
133 154 181
134 154 181
133 154 180
134 154 181
135 155 181
134 154 181
135 155 181
134 154 180
134 154 181
133 154 181
134 154 181
134 154 181
134 154 181
134 154 181
134 154 181
134 154 181
133 154 180
134 154 181
134 154 181
133 154 180
133 154 181
133 154 181
133 154 181
135 155 181
134 154 181
133 154 181
134 154 181
133 154 181
134 154 181
134 154 181
134 154 181
134 154 181
133 154 181
134 154 181
134 154 181
134 155 181
133 154 181
134 154 181
134 154 181
133 154 181
134 154 181
133 154 181
134 154 181
133 154 181
134 154 181
134 154 181
134 154 181
134 154 180
133 154 181
133 154 181
134 154 181
133 154 181
134 154 181
133 154 181
134 154 181
133 154 181
134 154 181
134 154 181
133 154 181
134 154 181
134 154 181
134 154 181
134 154 181
134 154 181
134 154 180
134 154 181
133 154 181
135 155 181
134 154 181
133 154 181
134 155 181
133 154 181
134 154 181
134 154 181
134 154 180
134 154 181
134 154 181
133 154 181
133 154 181
133 154 181
133 154 181
133 154 181
134 154 181
134 154 181
134 154 181
134 154 181
135 155 181
133 154 181
134 154 181
134 154 181
134 154 181
133 154 181
134 154 181
133 154 181
132 153 180
133 154 181
133 154 181
133 154 181
134 154 181
133 153 180
134 154 181
133 154 181
134 154 181
134 154 181
133 154 181
134 154 181
133 154 181
134 154 181
134 154 180
135 154 180
134 154 181
134 154 181
134 154 181
134 154 181
134 154 181
134 154 181
134 154 181
134 154 181
134 154 181
134 154 181
135 155 181
133 154 181
134 154 181
134 154 181
134 154 181
133 154 181
133 154 181
133 154 181
134 154 181
133 154 181
134 154 181
133 154 181
134 154 181
132 154 181
134 154 181
134 154 181
134 154 181
133 154 181
133 154 181
133 154 181
134 154 181
133 154 181
135 155 180
134 154 181
134 154 181
133 154 181
134 154 181
133 154 180
133 154 181
135 155 181
134 154 181
134 154 181
134 154 181
134 154 181
133 154 181
135 155 181
134 154 181
133 154 181
133 154 181
134 154 181
133 154 181
134 154 181
135 155 181
134 154 181
133 154 181
134 154 181
133 154 180
134 154 181
134 154 181
134 154 181
134 154 181
134 154 181
133 154 181
133 154 180
133 154 181
135 155 181
133 154 181
134 154 181
133 154 181
135 155 181
134 154 181
133 154 181
134 154 181
134 154 181
134 154 181
134 154 181
135 155 181
133 154 181
133 154 181
134 154 181
135 155 181
133 154 181
134 154 181
134 154 181
133 154 180
133 154 181
134 154 181
133 154 181
133 154 181
134 154 181
134 154 180
134 154 181
134 154 181
134 154 181
133 154 181
133 154 181
133 154 180
134 154 181
134 154 181
134 154 181
133 154 180
133 154 181
134 155 181
134 154 181
134 154 181
134 154 181
135 155 181
133 154 181
134 154 181
133 154 181
134 154 181
133 154 181
134 154 181
134 154 181
133 154 181
133 154 180
134 154 181
133 154 181
132 153 180
134 154 181
133 154 181
135 155 181
134 154 181
134 154 181
134 154 181
134 154 181
134 154 181
133 154 181
134 154 181
134 154 181
134 154 181
133 154 181
133 154 181
133 154 181
133 154 181
133 154 180
133 154 181
134 154 180
134 154 181
134 154 181
134 155 181
133 154 181
133 154 181
134 154 181
134 154 181
133 154 181
134 154 181
134 154 181
134 154 181
133 154 181
133 154 181
134 154 181
134 154 181
134 154 181
134 154 181
134 154 181
134 154 181
133 154 181
134 154 181
134 154 181
134 154 181
135 155 181
133 154 181
134 154 181
134 154 181
134 154 181
133 154 181
134 154 181
134 154 181
133 154 181
134 154 181
134 154 181
134 154 181
134 154 181
133 154 181
134 154 181
134 154 181
134 154 181
133 154 181
134 154 180
133 153 180
134 154 181
134 154 180
134 154 181
134 154 181
134 154 181
134 154 181
134 154 181
133 153 180
133 154 181
134 154 181
134 154 181
134 154 181
133 154 181
133 154 181
134 154 181
134 154 181
133 154 181
134 154 181
134 154 181
134 154 181
133 154 181
133 154 181
133 154 181
134 154 181
133 154 181
133 154 181
134 154 181
133 154 181
133 154 181
134 154 181
135 155 181
133 154 181
133 154 181
134 154 181
134 154 181
134 154 181
134 154 181
134 154 181
134 154 181
134 154 181
134 154 181
134 154 181
133 154 181
133 154 181
133 154 181
134 154 181
134 154 181
134 154 181
133 154 181
134 154 181
134 154 181
134 154 181
134 154 181
134 154 181
135 154 180
134 154 181
134 154 181
134 155 181
134 154 180
134 154 181
134 154 181
135 155 181
134 154 181
135 155 181
135 155 181
133 153 180
134 154 181
134 154 181
133 154 181
134 154 181
134 154 181
133 154 181
134 154 181
134 154 181
133 153 180
134 154 181
134 154 181
134 154 181
133 154 181
134 154 181
134 154 181
134 154 181
134 154 181
134 154 180
134 154 181
134 154 181
134 154 181
133 154 180
134 154 181
133 154 181
134 154 180
134 154 181
134 154 180
134 154 181
133 154 181
133 154 181
134 154 181
133 154 181
133 154 181
134 154 181
134 154 181
134 154 181
134 154 181
134 154 181
133 154 181
134 155 181
134 154 181
133 154 181
134 154 181
134 154 181
134 154 181
134 155 181
132 153 181
134 154 181
134 154 181
133 154 180
134 154 180
133 154 181
134 154 181
134 154 181
134 154 180
133 154 181
134 154 181
133 154 180
134 154 181
134 154 181
134 154 181
133 154 181
134 155 181
134 154 181
135 155 181
134 154 181
133 154 181
133 153 180
134 154 181
134 154 181
134 154 181
134 154 181
133 154 180
133 154 181
134 155 181
134 155 181
134 154 181
133 154 181
133 154 181
134 154 181
134 154 181
134 154 181
133 154 181
134 154 181
134 154 181
135 155 181
134 154 181
133 154 180
134 154 181
133 154 181
133 154 181
134 154 180
133 154 181
133 154 181
134 154 181
134 154 181
134 154 181
134 154 181
133 154 181
134 154 181
134 154 181
134 154 181
133 153 180
133 154 181
133 154 181
133 154 181
134 154 181
134 154 181
133 154 181
134 154 181
134 154 181
133 154 181
135 155 181
133 154 181
133 154 181
134 154 180
133 154 181
134 154 181
134 155 181
133 154 181
133 154 181
133 154 181
134 154 181
134 154 181
134 154 181
134 155 181
134 154 181
134 154 180
133 154 181
133 154 181
133 154 181
133 154 181
133 154 181
134 154 181
133 154 181
134 154 181
134 154 181
134 154 181
133 154 181
134 154 181
134 154 181
134 154 181
133 154 180
133 154 181
134 154 181
133 154 181
133 154 181
135 155 181
134 154 181
133 154 181
134 154 181
133 154 181
133 154 181
133 154 181
134 154 181
134 154 181
134 154 181
134 154 181
134 154 181
133 154 181
134 154 181
133 154 181
133 154 181
133 154 180
134 154 181
134 154 181
132 153 180
134 154 181
134 154 181
133 154 181
133 154 181
134 154 181
134 154 181
133 154 181
134 154 181
133 154 181
134 154 181
134 154 181
133 154 181
134 154 180
134 154 181
133 154 181
133 154 181
135 155 181
134 154 181
134 155 181
133 154 181
134 154 181
133 154 181
133 154 181
134 154 181
134 154 180
133 154 181
134 154 181
134 154 181
135 155 181
134 154 181
135 155 181
133 154 180
134 154 181
134 155 181
134 154 181
133 154 180
134 154 181
133 154 181
134 154 181
134 154 181
134 154 181
134 154 181
133 154 181
134 154 180
134 154 181
133 154 181
134 154 181
133 154 181
133 154 181
133 154 181
134 154 181
134 154 181
133 154 181
133 153 180
134 154 181
134 154 181
133 154 181
133 154 181
134 154 181
134 154 181
133 154 181
133 154 181
133 154 181
134 154 181
133 154 181
133 154 181
133 154 181
134 154 181
134 154 181
133 153 180
134 155 181
134 154 181
133 154 181
133 154 180
135 155 181
134 154 181
135 155 181
133 154 181
133 154 181
134 154 181
135 155 181
134 154 181
134 154 181
133 154 181
133 154 181
133 154 181
134 154 181
134 154 181
134 154 181
133 154 181
134 154 181
135 155 181
134 155 181
134 154 181
134 154 181
134 154 181
134 154 180
133 154 181
134 154 181
133 154 180
133 154 180
133 154 181
134 154 181
133 154 181
134 154 181
134 154 180
134 154 181
133 154 181
133 154 181
134 154 181
134 154 181
133 154 181
134 154 181
135 155 181
133 154 180
133 154 181
134 154 181
133 154 181
133 154 181
134 154 181
134 154 181
134 155 181
134 154 181
134 154 181
135 155 181
133 154 181
134 154 181
134 154 181
134 154 181
135 155 181
133 154 181
134 154 181
134 154 181
134 154 181
134 154 181
134 154 181
134 154 180
133 154 181
133 154 181
134 154 181
134 155 181
133 154 180
134 154 181
134 154 181
133 154 181
135 155 181
134 154 181
134 154 181
134 154 180
134 155 181
133 154 180
134 154 181
134 154 181
134 154 181
133 154 181
134 154 181
133 154 181
133 154 181
133 154 181
135 155 181
133 154 181
134 154 181
134 154 180
134 154 181
134 154 181
134 154 181
133 154 181
134 154 181
133 154 181
135 155 181
133 154 181
134 154 181
133 154 181
133 154 181
134 154 181
134 154 181
134 154 181
134 154 181
133 154 181
134 155 181
133 154 181
133 154 181
133 154 181
134 154 181
134 155 181
134 154 181
133 154 181
134 154 181
133 154 181
134 154 181
133 154 181
135 155 181
134 154 181
133 154 181
134 154 181
134 154 181
134 154 181
133 154 181
134 154 181
134 154 181
133 154 181
134 154 181
133 154 181
135 155 181
134 154 181
134 154 181
134 154 181
135 155 181
132 153 181
135 155 181
134 154 181
134 154 181
134 154 181
134 154 181
134 154 181
134 154 181
134 154 181
133 154 181
133 154 181
134 154 181
133 154 181
134 154 181
134 154 181
134 154 181
132 153 181
133 154 181
133 154 181
132 154 181
133 154 181
133 154 181
133 154 181
134 154 181
134 154 181
134 154 181
133 154 181
133 154 180
132 153 181
134 155 181
134 154 181
134 154 181
134 154 181
134 154 181
133 154 181
133 154 181
133 154 181
133 154 181
133 154 181
133 154 181
134 154 181
134 154 181
134 154 181
133 154 180
134 154 181
133 154 181
135 155 181
134 154 181
133 154 181
134 154 181
133 154 181
134 154 181
133 154 181
135 155 181
134 154 181
134 154 181
134 154 181
134 154 181
134 154 181
134 154 181
134 154 181
134 154 181
135 155 181
135 155 181
133 154 181
134 154 181
134 154 181
133 154 181
134 154 181
134 154 181
134 154 181
132 153 180
133 154 180
134 154 181
133 154 181
134 154 181
133 154 181
133 154 181
134 154 181
133 154 181
133 154 181
134 154 181
133 154 181
134 154 181
133 154 181
135 155 181
134 154 181
133 154 181
134 154 181
133 154 181
133 154 181
133 154 181
133 154 181
133 154 181
133 154 181
134 154 181
135 155 181
134 154 181
133 154 181
133 154 180
134 154 181
134 154 181
134 154 181
133 154 181
133 154 181
134 154 181
134 154 181
134 154 181
133 154 181
134 154 181
134 154 181
133 154 181
133 154 181
133 154 180
133 154 181
134 154 181
133 154 181
134 154 181
133 154 181
133 154 181
133 154 181
134 154 180
133 154 181
134 154 181
133 154 181
134 154 181
134 154 181
135 155 181
134 154 181
134 154 181
134 154 181
133 154 181
134 154 181
134 154 181
133 153 180
134 154 181
133 154 180
133 154 181
134 154 181
133 153 180
133 154 181
134 154 181
134 154 181
134 154 181
133 154 181
133 154 180
134 154 181
135 155 181
134 154 181
134 154 181
134 154 181
134 154 181
134 154 181
134 154 181
134 154 181
134 154 181
134 154 181
134 154 181
133 154 181
134 154 181
134 154 181
134 154 181
134 154 181
134 154 181
133 154 181
133 154 181
134 154 180
133 154 181
133 154 181
134 154 181
133 154 181
134 154 181
133 154 181
134 154 181
134 154 181
133 154 181
134 154 181
133 154 181
133 154 181
134 154 181
133 154 181
134 154 181
135 155 181
134 154 181
133 154 181
135 155 181
133 154 181
134 155 181
134 154 181
133 154 181
133 154 181
133 154 181
132 153 180
133 154 181
135 155 181
134 154 181
134 154 181
133 154 181
134 154 181
134 154 181
133 154 181
134 154 181
134 154 181
133 154 181
134 154 181
133 153 180
134 154 181
135 155 181
133 154 180
134 154 181
134 154 181
134 154 181
133 154 181
134 154 181
133 154 181
134 154 181
134 154 181
133 154 181
135 155 181
133 154 181
134 154 181
134 154 181
133 154 181
133 154 181
133 154 181
134 154 181
133 154 181
134 154 181
133 154 181
135 155 181
133 154 181
134 154 181
135 155 181
133 153 180
134 154 181
133 154 181
133 154 181
134 154 181
134 154 181
134 154 180
133 154 181
133 154 181
134 154 181
134 154 181
133 154 181
134 154 181
133 154 181
135 155 181
134 154 181
134 154 181
134 154 181
134 154 181
134 154 181
133 154 181
134 154 181
134 154 181
134 154 181
133 154 181
134 155 181
133 154 181
134 154 181
134 154 181
133 153 180
134 154 181
134 154 181
134 154 181
133 154 181
133 154 181
133 154 181
133 154 180
133 154 181
133 154 181
133 154 181
134 154 181
134 154 181
133 154 181
135 155 181
135 155 181
134 154 181
134 154 181
133 154 181
134 154 181
134 154 181
133 154 181
133 154 181
134 154 181
133 154 180
134 154 181
134 154 181
133 154 181
134 154 181
133 154 181
133 153 180
134 154 181
134 154 181
133 154 181
134 154 181
134 154 181
134 154 181
134 154 181
135 155 181
134 154 181
134 154 181
134 154 181
134 154 181
134 154 181
134 154 181
134 154 181
133 154 181
133 154 181
133 153 180
133 154 181
135 155 181
134 154 181
133 154 181
133 154 181
133 154 180
133 153 180
134 154 181
133 154 181
134 154 181
134 154 181
133 154 181
133 154 180
134 154 181
134 154 181
134 154 181
134 154 181
133 154 181
134 154 181
133 154 181
134 154 181
134 154 181
133 154 181
134 154 181
133 154 181
134 154 181
134 154 181
133 154 181
133 154 180
134 155 181
134 154 181
134 154 181
134 154 181
134 154 181
134 154 181
134 154 181
133 154 181
133 154 181
134 154 181
134 154 181
132 154 181
134 154 181
133 154 181
134 154 181
133 154 180
133 154 181
134 154 181
134 154 181
133 154 181
133 154 181
133 154 181
133 154 181
134 154 181
133 154 181
134 154 181
133 154 181
135 155 181
133 154 180
133 154 181
133 154 181
134 154 181
134 154 181
134 154 181
134 154 181
135 155 181
134 154 181
134 154 181
134 154 181
134 154 180
133 154 181
134 154 181
133 154 181
133 154 181
134 154 181
134 154 181
134 154 180
134 154 180
133 154 181
134 154 181
133 154 181
134 154 181
134 154 181
133 154 181
134 154 181
135 155 181
133 154 180
132 153 181
134 155 181
134 154 181
134 154 181
134 154 180
135 155 181
135 155 181
133 154 180
133 153 180
134 154 181
134 154 181
134 154 181
134 154 181
133 154 181
135 155 181
133 154 181
133 154 181
133 154 181
133 154 181
133 154 181
133 154 181
134 154 181
134 154 181
133 154 181
134 154 181
133 154 181
134 154 181
134 154 181
134 154 181
134 154 181
134 154 181
135 155 181
133 154 181
135 155 181
134 154 181
134 154 181
133 154 181
133 154 181
133 154 181
134 154 181
134 154 181
135 155 181
134 154 181
134 154 181
134 154 181
133 154 181
134 154 181
133 154 181
134 154 181
133 154 180
133 154 181
134 155 181
133 154 181
134 154 181
135 155 181
134 154 181
133 154 181
133 154 181
134 154 181
133 154 181
134 154 181
133 154 181
134 154 181
134 154 181
134 154 181
133 154 181
134 154 181
134 154 181
133 154 181
135 155 181
134 154 181
134 154 181
134 154 181
134 155 181
134 154 181
133 154 181
133 154 181
133 154 181
134 154 181
134 155 181
134 154 181
133 154 181
134 154 181
133 154 181
134 154 181
134 154 181
133 154 181
133 154 181
134 154 181
134 154 181
133 154 181
134 154 181
134 154 181
135 155 181
135 155 181
134 154 181
135 155 181
133 154 181
134 155 181
134 155 181
133 154 181
134 154 180
133 154 181
133 154 181
134 154 181
135 155 181
134 154 181
133 154 181
133 154 181
134 154 181
134 154 181
135 155 181
134 154 181
134 154 181
133 154 181
134 154 181
134 154 181
133 154 181
133 154 181
133 154 181
134 154 181
133 154 181
134 154 181
134 154 181
133 154 181
133 154 181
134 154 181
134 154 181
133 154 181
133 154 180
134 154 181
133 153 180
133 153 180
134 154 181
134 154 181
134 154 180
134 154 181
134 154 181
134 154 181
133 154 181
134 154 181
134 154 181
133 154 181
134 154 181
134 154 181
133 154 181
133 154 181
133 154 181
133 154 181
134 154 181
134 154 181
134 154 181
133 154 181
134 154 181
134 154 181
133 153 180
134 154 181
134 155 181
134 154 181
134 154 181
135 155 181
134 154 181
134 154 181
133 154 181
133 154 181
132 153 179
135 155 181
134 154 181
134 154 181
134 154 181
134 154 181
134 154 181
133 154 180
134 154 181
133 154 181
134 154 181
134 154 181
134 154 181
133 154 181
133 154 180
134 155 181
133 154 181
135 155 181
134 154 180
134 154 181
134 154 181
133 154 181
134 154 181
132 153 180
135 155 181
134 154 181
133 154 181
133 154 181
133 154 181
134 154 181
133 154 181
133 154 181
135 155 181
133 154 181
134 154 181
135 155 181
133 154 181
134 154 181
134 154 181
134 154 181
134 154 181
134 154 181
134 154 181
134 154 181
134 154 181
133 154 181
134 154 181
134 155 181
134 154 181
134 155 181
134 154 181
134 154 181
134 154 181
134 154 181
133 154 181
134 154 181
134 154 181
134 154 181
134 154 181
133 154 181
134 154 181
134 154 181
134 154 181
133 154 180
133 154 181
134 154 181
134 154 181
133 154 181
133 154 180
134 154 181
133 154 181
133 154 181
133 154 181
134 154 181
133 154 181
134 154 181
133 154 180
134 154 181
135 155 181
134 154 181
133 154 181
133 154 181
132 153 181
134 154 181
134 154 181
133 154 181
133 154 181
134 154 181
133 153 180
134 154 181
134 154 181
134 154 181
135 155 181
134 154 181
133 154 181
134 154 181
134 154 181
133 154 181
134 154 181
134 154 181
134 154 181
133 154 181
133 154 181
134 154 181
134 154 181
134 154 181
133 154 180
134 154 181
133 154 181
133 154 181
133 154 181
133 154 181
134 154 181
134 154 181
133 154 181
133 154 181
135 155 181
133 154 181
133 154 181
134 154 180
133 154 181
134 154 181
133 154 181
133 154 181
134 154 181
134 154 181
133 154 180
133 154 181
133 154 181
134 154 180
133 154 181
134 154 181
134 154 181
134 154 181
134 154 181
134 154 180
135 155 181
133 154 181
134 154 181
135 155 181
134 154 181
134 154 181
134 154 181
133 154 180
134 155 181
133 154 181
134 155 181
134 154 181
133 154 181
134 154 181
133 153 180
133 153 180
134 154 181
134 154 181
134 154 181
133 153 180
135 154 180
134 154 181
134 154 181
136 155 181
134 154 181
134 154 181
134 154 181
133 154 181
134 154 181
134 154 181
134 154 181
133 154 181
133 153 180
134 154 181
134 154 181
133 154 181
134 154 181
133 154 181
133 154 181
133 153 180
133 154 181
134 154 181
134 154 181
133 154 181
134 154 181
133 154 181
133 153 180
133 154 181
133 154 181
133 154 181
133 154 181
134 154 181
134 154 181
134 154 181
135 155 181
134 154 181
134 154 181
134 154 181
133 154 181
133 154 181
133 154 181
135 155 181
134 154 181
134 154 181
134 154 181
134 154 181
134 154 181
134 154 181
133 154 181
134 154 181
134 154 181
133 154 181
134 154 181
134 154 181
134 154 181
134 154 181
134 154 181
134 154 181
134 154 181
133 154 181
133 153 180
133 154 181
133 154 181
135 155 181
133 154 181
134 154 181
134 154 181
134 154 181
134 154 181
134 154 180
133 154 181
133 154 181
134 154 181
135 155 181
134 154 181
133 154 181
133 154 180
134 154 181
134 154 181
134 154 181
134 155 181
134 154 181
133 154 181
133 154 181
134 154 181
134 154 181
134 154 181
134 154 181
133 154 181
134 154 181
134 154 181
134 154 181
134 154 181
134 154 181
134 154 181
135 155 181
135 155 181
135 155 181
133 154 181
134 154 181
134 154 181
135 155 181
134 154 181
133 154 181
134 154 181
134 154 181
133 154 181
134 154 181
134 154 181
133 154 181
133 154 181
134 154 181
134 154 181
134 154 181
134 154 181
134 154 180
134 154 181
134 154 181
134 154 181
134 154 181
134 154 181
133 154 181
134 154 181
135 155 181
134 154 181
134 154 181
133 154 181
133 154 181
134 154 181
134 154 181
133 153 180
134 154 181
134 154 181
135 155 181
134 154 181
134 154 181
133 154 181
133 154 180
133 154 181
134 154 181
133 154 181
135 155 181
133 154 181
135 155 181
134 154 181
134 154 181
134 154 181
134 154 181
133 154 180
133 154 181
134 155 181
134 154 181
134 154 181
134 154 181
134 154 181
133 154 180
133 154 181
133 154 180
132 153 180
134 154 181
133 154 181
135 155 181
134 154 181
134 154 181
134 154 181
132 153 181
133 154 181
133 154 180
135 155 181
135 155 181
133 154 181
134 154 181
134 154 181
134 154 181
134 154 181
134 154 181
134 154 181
134 154 181
133 154 180
133 154 181
134 154 181
134 154 181
134 154 181
134 154 181
134 154 181
134 154 181
133 154 180
135 155 181
134 154 181
134 154 181
134 154 181
134 154 181
134 154 181
134 154 181
134 154 180
134 154 180
134 154 181
134 154 181
133 154 181
135 155 181
134 154 181
134 154 181
134 154 181
133 154 181
133 154 181
134 154 181
134 154 181
134 154 181
134 154 181
134 154 181
135 155 181
134 154 181
133 154 180
134 154 181
133 154 181
134 154 181
134 154 181
133 153 180
134 154 181
134 154 181
133 154 181
133 154 181
133 154 181
133 154 181
133 154 181
134 154 181
134 154 181
134 154 181
134 154 181
133 154 181
134 154 181
134 154 181
134 154 181
134 154 181
133 154 181
134 154 181
134 154 181
134 154 181
133 154 181
134 154 181
133 153 180
134 154 181
134 154 181
133 154 180
134 154 181
134 154 181
133 154 181
134 154 181
134 155 181
133 154 181
134 154 181
133 154 181
134 154 181
134 154 181
133 154 181
133 154 181
134 154 181
134 154 181
134 154 181
135 155 181
134 154 181
133 154 180
133 154 181
134 154 181
133 154 181
133 154 180
134 154 181
134 154 181
133 154 181
134 154 181
133 154 180
134 154 181
134 154 181
133 154 181
133 154 181
134 154 181
133 154 181
134 154 181
133 154 181
135 155 181
133 154 181
133 153 180
134 154 180
134 154 181
133 153 180
133 154 181
134 154 181
134 154 181
134 154 181
133 154 181
134 154 181
133 154 181
134 154 181
134 154 181
134 154 181
134 154 181
134 154 181
134 154 181
134 154 181
134 154 180
134 154 181
134 154 181
133 154 181
134 154 181
133 153 180
133 153 180
134 154 181
134 154 181
133 154 181
133 154 181
133 154 181
134 154 181
133 154 181
134 154 181
134 155 181
133 154 181
133 154 181
134 154 181
134 154 181
134 154 181
134 154 181
133 154 181
133 154 181
133 154 181
134 154 181
134 154 181
134 154 181
134 154 181
133 154 180
134 154 181
135 155 181
133 154 181
134 155 181
134 154 181
134 154 181
133 154 181
134 154 180
133 154 181
133 154 181
133 154 181
134 154 181
133 154 181
133 154 181
134 154 181
133 154 181
134 154 181
134 154 181
134 154 181
135 155 181
134 154 181
134 154 181
134 154 181
134 154 181
133 153 180
134 155 181
134 154 180
134 154 181
134 154 181
134 154 181
133 154 181
133 154 181
134 154 181
134 154 181
133 154 181
133 154 181
134 154 181
134 154 181
134 154 181
134 154 181
134 154 181
134 154 181
134 154 181
133 154 181
133 154 181
134 154 181
133 154 181
134 154 180
133 154 181
135 155 181
134 154 181
134 154 181
134 154 181
134 154 181
134 154 181
133 154 181
134 154 181
135 155 181
133 154 180
134 154 181
133 154 181
134 154 180
134 154 180
134 154 181
134 154 181
133 154 181
134 154 181
134 154 181
134 154 181
134 154 181
134 154 181
133 154 181
133 154 181
134 155 181
134 154 181
134 154 181
133 154 181
133 154 180
134 154 181
134 154 181
134 154 181
134 154 181
134 154 181
133 154 181
134 154 180
134 154 181
134 154 180
134 154 181
133 154 181
134 154 181
134 154 181
134 154 181
133 154 181
134 154 181
134 154 181
134 155 181
133 154 181
134 154 181
134 154 181
133 153 180
134 154 181
135 155 181
133 154 181
134 154 181
133 153 180
133 154 181
134 154 181
133 154 181
133 154 181
133 154 181
134 154 181
134 154 181
134 154 181
133 154 181
134 154 181
134 154 180
134 154 181
134 154 181
134 154 181
133 154 181
133 154 181
134 154 181
134 154 181
134 154 181
134 154 181
134 154 180
133 154 181
134 154 181
133 154 181
134 154 181
134 154 181
134 154 181
133 154 181
133 154 181
134 154 180
134 154 181
133 154 181
133 153 180
134 154 181
134 154 181
133 154 181
134 154 181
134 154 181
135 155 181
134 154 181
134 154 181
134 154 181
134 154 181
134 154 181
134 154 181
134 154 181
135 155 181
133 154 181
134 154 181
133 154 181
134 154 181
134 154 181
134 154 181
133 154 181
134 154 180
133 154 181
134 154 181
134 154 181
133 154 181
134 154 181
134 154 181
134 154 181
134 155 181
133 154 181
134 154 181
134 154 181
134 154 181
134 154 181
134 154 181
134 154 181
134 154 181
135 155 181
134 154 181
134 154 181
133 154 181
134 154 181
133 154 181
133 154 181
133 154 181
134 154 181
134 154 181
134 154 181
133 154 181
133 154 181
134 155 181
134 154 181
135 155 181
134 154 181
133 154 181
134 154 181
134 154 181
134 154 181
134 154 181
135 155 181
133 154 181
133 154 181
133 154 181
133 154 181
133 154 181
134 154 180
134 154 181
133 154 181
133 154 181
134 154 181
134 154 181
133 154 181
133 154 181
133 154 181
134 154 181
134 154 181
134 154 181
135 155 181
135 155 181
134 154 181
133 154 181
133 154 181
134 154 181
134 154 181
134 154 181
133 154 181
133 154 181
133 154 181
134 154 181
133 154 181
133 154 181
134 154 181
134 154 181
135 155 181
134 154 181
133 154 181
134 154 181
134 154 181
133 154 181
134 154 181
134 154 181
134 154 181
135 155 181
134 154 181
134 154 181
133 154 180
133 154 181
133 154 181
133 154 181
133 154 181
133 154 181
133 154 180
133 154 181
133 154 181
135 155 181
133 154 181
134 154 181
133 154 181
134 154 181
133 154 181
134 154 181
134 154 181
134 154 181
133 154 181
133 154 181
133 154 181
134 154 181
134 154 181
134 154 181
133 154 181
134 154 181
133 154 181
133 154 181
135 155 181
133 154 181
133 154 181
134 154 181
134 154 181
134 154 181
134 154 181
134 154 181
135 155 181
133 154 181
134 155 181
133 154 180
133 154 180
134 154 181
133 154 181
134 154 181
134 154 181
134 154 181
134 154 180
134 154 181
134 154 181
134 154 181
134 154 181
135 155 181
133 154 181
134 154 181
135 155 181
134 154 181
134 154 181
134 154 181
135 155 181
134 154 181
133 154 181
134 155 181
133 154 181
134 154 181
134 155 181
133 154 181
134 155 181
134 154 181
134 154 181
133 154 180
134 154 181
135 155 181
134 154 181
133 154 181
134 154 181
134 154 181
133 154 181
133 154 181
134 154 180
133 154 181
134 154 181
135 155 181
134 154 181
133 154 181
133 154 181
134 155 181
134 155 181
134 154 181
134 154 181
134 154 181
135 155 181
134 154 181
134 154 181
133 154 181
133 154 180
133 154 181
133 154 181
134 154 181
132 153 180
134 154 181
134 155 181
134 154 181
133 154 181
133 154 181
134 154 181
133 154 181
135 155 181
134 154 181
134 154 181
133 154 181
134 154 181
134 154 181
133 154 181
134 154 181
133 154 181
134 154 181
135 155 181
134 154 181
134 154 181
134 154 181
133 154 181
133 154 181
134 154 181
134 154 181
134 154 181
134 154 181
133 154 180
134 154 181
134 155 181
134 154 181
134 154 181
133 154 181
135 155 181
133 154 181
133 154 181
134 154 181
133 154 181
134 155 181
133 154 181
134 154 181
134 154 181
134 154 181
134 154 181
134 154 181
134 154 180
133 154 180
134 154 181
133 154 181
133 154 181
134 154 181
134 154 181
133 154 181
135 155 181
134 155 181
134 154 181
134 154 181
133 154 181
134 154 180
133 154 181
133 154 181
134 154 181
134 154 181
134 154 181
134 154 181
133 154 181
134 154 181
134 154 181
133 154 181
134 154 181
134 154 181
134 154 181
133 154 180
133 154 181
133 154 181
132 153 181
134 154 180
134 154 180
134 154 181
134 154 181
133 154 181
134 154 181
134 154 181
134 154 181
133 154 181
134 154 181
134 154 181
134 154 181
133 154 181
134 154 181
133 154 181
133 154 181
133 154 181
134 154 181
134 154 181
135 155 181
133 154 181
134 154 181
133 154 181
133 154 181
133 154 181
134 154 181
134 154 181
133 154 181
133 154 181
134 154 181
134 154 181
134 154 181
133 154 181
133 154 181
134 154 181
133 154 181
133 154 180
134 155 181
133 154 181
133 154 181
134 154 181
134 154 181
134 154 181
133 154 181
134 154 181
134 154 181
134 154 181
134 154 181
134 154 181
134 154 181
134 154 181
133 154 181
134 154 181
134 154 181
133 154 181
133 154 181
133 154 180
134 154 181
134 154 181
134 154 180
133 154 181
134 154 181
134 154 181
134 154 181
134 154 181
134 154 181
134 154 181
134 154 180
133 154 181
134 154 181
134 154 181
134 154 181
133 154 181
133 154 181
134 154 181
134 154 181
134 154 181
134 154 181
133 154 181
133 154 181
133 154 181
134 154 181
134 154 181
134 154 181
134 154 181
134 154 181
132 153 181
134 154 181
134 154 181
133 154 180
134 154 181
134 154 181
133 154 181
134 154 181
133 154 181
133 154 181
133 153 180
134 154 181
133 154 181
133 154 181
134 154 181
134 154 181
134 154 181
134 154 181
134 154 181
133 154 181
134 154 181
133 154 181
134 154 181
133 154 181
134 154 181
133 154 181
134 154 181
133 154 181
134 154 181
133 154 181
134 154 181
135 155 181
135 155 181
134 154 181
134 154 181
134 154 181
133 154 181
133 154 181
134 154 181
134 154 181
134 154 181
133 154 181
135 155 181
135 155 181
133 154 181
133 154 181
135 155 181
133 154 181
133 154 181
134 154 181
134 154 181
134 154 181
133 153 180
133 154 181
134 154 181
135 155 181
134 154 181
135 155 181
134 154 181
133 154 181
134 154 181
134 154 181
133 154 181
133 154 180
134 154 181
134 154 181
134 154 181
133 154 181
134 154 181
134 154 181
134 154 181
134 154 181
134 154 181
134 154 181
133 154 181
133 154 181
134 154 181
134 154 181
134 154 181
134 154 181
134 154 181
133 154 180
134 154 181
134 154 181
133 154 181
134 154 181
135 155 181
134 154 181
134 155 181
134 154 181
134 154 181
134 154 181
133 154 181
134 154 181
133 154 181
134 154 181
134 154 181
134 154 180
134 154 181
134 154 181
134 154 181
135 155 181
133 154 181
134 154 181
133 154 181
133 154 181
134 154 181
135 155 181
133 154 181
134 154 181
135 155 181
135 155 181
133 154 181
134 154 181
134 154 181
134 154 181
134 154 181
133 154 181
133 154 181
134 154 181
134 154 181
134 154 181
134 154 181
134 154 181
134 154 181
134 155 181
133 154 181
134 154 181
134 154 181
133 154 181
134 154 181
133 153 180
133 154 181
133 154 181
134 154 181
134 154 180
133 154 181
133 154 181
133 154 180
133 154 180
134 154 181
134 154 181
134 154 181
134 154 181
134 154 181
134 154 181
133 154 181
134 154 181
134 154 181
134 154 181
134 154 181
133 154 181
133 154 181
133 154 181
133 154 181
134 154 181
133 154 181
133 154 181
133 154 181
134 154 181
133 154 181
133 154 181
134 154 181
133 154 181
133 153 180
135 155 181
133 154 181
134 154 181
134 154 181
133 154 181
134 154 181
133 154 181
134 154 181
134 154 181
134 154 181
134 154 181
133 154 181
134 155 181
134 154 180
133 154 181
134 154 181
135 155 181
134 154 181
133 154 181
133 154 181
134 154 181
135 155 181
134 154 181
134 154 181
133 154 181
134 154 181
134 154 181
132 153 181
133 154 181
134 154 181
134 155 181
133 154 181
133 154 181
133 154 181
133 154 181
134 154 180
134 154 180
134 154 181
134 154 181
133 154 181
134 154 181
133 153 180
134 154 181
134 154 181
133 154 181
133 154 181
134 154 181
134 154 181
134 154 181
134 154 181
134 154 181
134 154 181
134 154 181
134 155 181
134 155 181
134 154 181
134 154 181
134 154 181
134 154 181
134 154 181
134 155 181
134 154 181
133 154 181
134 154 181
134 155 181
134 154 181
133 154 181
134 154 181
134 154 181
133 154 181
133 154 181
134 154 180
133 154 181
133 154 181
133 154 181
133 154 181
134 154 181
133 154 181
134 154 181
133 154 181
133 154 181
135 155 181
134 154 181
133 154 181
134 154 181
133 154 181
134 154 181
134 154 180
134 154 181
134 154 181
134 154 181
134 154 181
134 154 181
134 154 181
134 154 181
134 154 180
133 154 181
134 154 181
134 154 181
134 154 181
133 154 181
135 155 181
133 154 181
134 154 181
134 154 181
134 154 181
134 154 181
135 155 181
134 154 181
133 154 181
133 154 181
134 154 181
133 154 181
133 154 181
133 154 181
134 154 181
133 154 181
133 154 181
133 154 181
133 154 181
133 154 181
134 154 181
134 154 181
134 154 180
133 154 181
133 154 180
134 154 181
133 154 181
133 154 181
133 154 181
133 154 181
133 154 181
134 154 181
134 154 181
133 154 181
134 154 181
134 154 181
134 154 181
134 154 181
133 154 181
133 154 181
134 154 181
133 154 181
134 154 181
134 154 181
134 154 181
134 154 181
135 155 181
134 154 181
134 154 181
133 154 181
133 154 181
134 154 181
134 154 181
133 154 181
135 155 181
135 155 181
134 154 181
133 154 181
134 154 181
134 154 181
135 155 181
134 154 181
134 154 181
134 154 181
133 154 181
135 155 181
133 154 181
133 154 181
133 154 181
133 154 181
134 154 181
134 154 181
134 154 181
134 154 181
133 154 181
133 154 181
135 155 181
134 154 181
135 155 181
134 154 181
134 154 181
134 154 181
134 154 181
134 154 181
133 154 181
134 154 181
133 154 180
134 154 181
134 154 181
134 154 181
134 154 181
134 154 181
134 154 181
134 154 180
133 154 181
134 154 181
134 154 181
133 154 181
135 155 181
134 154 181
133 154 181
134 154 181
134 154 181
133 154 181
134 154 181
134 154 181
134 154 181
134 155 181
134 154 181
134 154 181
133 154 181
134 154 181
134 154 181
134 154 181
134 154 181
134 154 181
135 155 181
133 154 181
133 154 180
133 154 181
134 154 181
134 154 181
134 154 181
133 154 181
133 154 181
133 154 181
133 154 181
134 154 181
134 154 181
134 154 181
134 154 181
133 154 181
134 154 181
133 154 181
134 154 181
134 154 181
134 154 181
134 154 181
133 154 181
133 154 181
134 154 181
134 154 181
133 154 181
133 154 181
133 154 181
134 154 181
133 154 181
133 154 181
134 154 181
134 154 180
133 154 181
134 154 181
133 154 181
133 154 181
134 154 181
134 154 181
134 154 180
133 153 180
133 154 181
133 154 180
134 154 181
133 154 181
133 154 181
134 154 181
134 154 181
133 154 180
134 154 181
133 154 180
133 154 181
134 155 181
133 154 181
135 155 181
134 154 181
133 154 181
134 154 181
133 154 181
134 154 181
134 154 181
133 154 181
133 154 181
134 154 181
134 154 181
134 154 181
133 153 180
134 154 181
134 154 181
134 154 181
134 154 181
134 154 181
133 154 181
135 155 181
134 154 181
134 154 181
134 154 181
133 154 181
133 154 180
133 154 180
133 154 180
134 154 181
134 154 181
133 154 181
134 154 181
134 154 181
134 154 181
133 154 181
133 154 181
135 155 181
134 154 181
134 154 181
133 154 181
134 154 181
133 153 180
133 154 181
134 154 181
134 154 181
134 155 181
134 154 180
132 153 181
134 154 181
134 154 181
134 154 181
134 154 181
133 154 181
133 154 181
134 154 181
134 154 181
133 154 181
134 154 181
133 154 181
134 154 181
134 155 181
134 154 181
133 154 181
135 155 181
134 154 181
134 154 181
133 154 181
134 154 181
134 154 181
134 154 181
133 154 181
133 154 181
133 154 181
134 154 181
135 155 181
133 154 180
134 155 181
134 154 181
134 154 181
134 154 181
134 154 181
133 154 181
133 154 181
134 154 181
133 154 181
134 154 181
134 154 180
133 154 181
133 154 181
133 154 181
133 154 181
133 154 181
134 154 181
133 154 181
134 154 181
134 154 180
133 154 181
133 154 181
134 154 181
134 154 181
134 154 181
134 154 181
134 154 181
134 154 181
133 153 180
134 154 180
134 154 181
134 154 181
134 154 181
134 154 181
133 154 181
134 154 181
133 154 181
134 154 181
134 154 181
134 154 181
134 154 180
134 154 181
134 154 181
133 154 181
134 154 181
134 154 181
134 154 181
133 154 181
134 154 181
134 154 181
134 154 181
134 154 181
133 154 181
133 154 181
134 154 181
133 154 181
133 154 181
134 154 181
134 154 181
134 154 181
133 154 180
134 154 181
134 154 181
133 154 181
134 154 181
134 154 181
134 154 181
134 154 181
134 154 181
133 154 181
133 153 180
133 154 181
134 154 181
133 154 181
134 154 181
133 154 181
134 154 181
133 154 181
134 154 181
134 155 181
134 154 181
133 154 181
134 154 181
133 154 181
133 154 181
134 154 181
134 154 181
134 154 180
134 154 181
134 154 181
134 154 181
133 154 181
134 154 181
133 154 180
134 154 181
134 154 181
134 154 181
133 154 181
134 155 181
133 154 181
133 154 181
134 154 181
133 154 181
134 154 181
134 154 181
135 155 181
134 154 180
133 154 180
133 154 181
134 154 181
133 154 181
134 154 181
133 154 181
134 154 181
133 154 181
134 154 181
134 154 181
134 154 181
134 154 181
134 154 181
134 154 180
134 154 181
133 154 181
134 154 181
133 154 181
134 154 181
133 154 181
134 154 181
134 154 181
133 154 181
134 154 181
134 154 181
134 154 181
134 154 181
134 154 181
133 154 181
134 154 181
134 154 181
134 154 181
134 154 181
133 154 181
133 154 181
134 155 181
134 154 181
134 154 181
134 154 181
133 154 181
135 155 181
134 154 180
133 154 181
134 154 181
133 154 181
133 154 180
134 154 181
133 154 181
134 154 181
133 154 181
135 155 181
134 154 181
134 154 181
133 154 181
134 154 181
133 154 181
134 154 181
134 154 181
133 154 181
135 155 181
134 154 181
134 154 181
134 154 181
134 154 180
134 154 181
133 154 181
134 154 181
134 155 181
134 154 181
134 154 181
133 153 180
134 154 180
134 154 181
133 153 180
134 154 181
134 154 181
134 154 181
134 154 181
133 154 181
133 154 181
134 154 181
134 154 181
133 154 181
133 154 181
133 154 181
133 154 181
134 154 181
133 154 181
134 154 181
135 155 181
133 154 181
134 154 181
133 154 181
133 154 181
133 154 181
133 154 181
135 155 181
134 155 181
134 154 181
134 154 181
133 154 181
133 154 181
133 154 181
134 154 181
135 155 181
133 154 181
134 154 181
134 155 181
134 154 181
133 154 181
133 154 181
135 155 181
134 154 181
134 154 180
133 154 181
133 154 180
134 154 180
133 154 181
133 154 181
134 154 181
134 154 181
134 154 181
134 154 181
133 154 181
135 155 181
135 155 181
133 153 180
134 154 181
134 154 181
134 154 181
133 154 181
134 154 181
134 154 181
133 154 181
133 154 181
134 154 181
134 154 181
133 154 181
133 154 181
133 154 181
133 154 181
133 154 181
134 154 181
134 154 181
133 154 181
133 154 181
133 154 181
134 154 181
134 154 181
133 154 181
133 154 181
134 154 181
134 154 181
134 154 181
134 154 181
133 154 181
134 154 181
134 154 181
133 154 181
134 154 180
134 154 181
134 154 181
133 154 181
133 154 181
134 154 181
133 154 181
133 154 181
134 154 181
134 154 181
133 154 181
133 154 181
134 154 181
134 155 181
134 154 181
134 154 181
133 154 181
133 154 181
134 154 181
134 154 181
134 155 181
133 154 181
134 154 181
133 154 181
134 154 181
133 154 181
134 154 181
134 154 181
133 154 181
134 154 180
133 154 181
134 155 181
134 154 181
134 154 181
133 154 181
134 154 181
133 154 181
134 154 181
133 154 181
134 154 181
133 154 181
134 154 181
134 154 181
133 154 181
134 154 181
134 154 181
134 154 181
134 154 181
133 154 180
135 155 181
133 154 180
134 154 181
134 154 181
134 154 181
133 154 181
134 154 181
133 153 180
134 154 181
135 155 181
134 154 181
134 154 181
134 154 181
133 154 181
133 154 181
134 154 181
133 154 181
133 154 180
135 155 181
133 154 180
133 154 181
133 154 181
133 154 181
133 154 181
133 154 181
134 154 181
133 154 181
134 154 181
134 154 181
133 154 181
134 154 181
135 155 181
133 154 181
133 154 180
133 154 181
135 155 181
133 154 181
133 154 181
133 154 180
133 154 181
134 154 181
134 154 181
134 154 181
133 154 181
133 154 181
133 154 181
134 154 181
134 154 181
133 154 181
134 154 181
133 154 181
134 155 181
134 154 181
134 154 181
133 153 180
135 155 181
134 154 181
134 154 181
134 154 181
134 154 181
134 154 181
133 154 181
133 154 181
133 154 181
133 154 181
134 154 181
134 154 181
134 154 181
134 155 181
134 154 181
133 154 181
134 154 181
134 154 181
134 154 181
134 154 181
134 154 181
134 154 181
133 154 181
134 154 180
133 154 181
133 154 181
133 154 181
133 154 181
133 154 181
134 154 181
134 154 181
134 154 181
134 155 181
134 154 181
133 154 180
134 154 181
134 154 181
134 154 181
135 155 181
134 154 181
134 154 181
134 154 181
134 154 181
134 154 181
134 154 181
135 155 181
134 154 181
133 154 181
134 154 181
133 154 181
133 154 181
135 155 181
132 153 181
133 154 181
134 154 181
133 153 180
134 154 181
133 154 181
134 154 181
133 154 181
134 154 181
134 154 181
135 155 181
134 155 181
134 154 181
133 154 181
133 154 181
134 154 181
134 155 181
135 155 181
134 154 181
134 154 181
134 154 181
133 154 181
133 154 181
134 154 180
134 154 181
134 154 181
134 154 181
134 154 181
134 154 181
133 154 181
134 154 181
133 154 181
133 154 181
134 154 181
133 154 181
134 154 181
133 154 181
134 154 181
133 154 181
134 154 181
134 154 181
135 155 181
133 154 181
134 154 181
134 154 181
133 154 181
134 154 180
134 154 181
134 154 181
134 154 181
133 154 181
133 154 181
133 154 181
134 154 181
133 154 181
135 155 181
133 154 181
134 154 181
134 154 181
133 154 181
133 154 181
134 154 180
133 154 181
134 154 181
134 154 181
133 153 180
134 154 181
134 154 181
134 154 181
135 155 181
133 154 181
134 154 181
134 154 181
133 154 181
133 154 181
134 154 181
134 154 181
134 154 181
133 154 181
133 154 181
134 154 181
134 154 181
133 154 181
134 154 181
134 154 181
134 154 181
134 154 181
133 154 181
134 154 181
133 154 181
134 154 181
134 154 181
134 154 181
134 154 181
134 154 181
134 154 181
133 154 181
134 154 181
133 154 181
134 154 181
134 154 181
134 154 180
134 154 180
134 154 181
134 154 181
133 154 181
133 154 181
133 154 181
134 154 181
134 154 181
135 155 181
134 154 181
134 154 181
134 154 181
134 154 181
133 154 181
135 155 181
134 154 181
133 154 181
134 154 181
134 154 181
134 154 181
133 154 181
133 154 181
133 154 181
133 154 181
132 153 181
133 154 181
134 154 180
133 154 181
134 154 181
133 154 181
133 154 181
134 154 181
133 154 181
134 154 181
133 154 181
134 154 181
134 154 181
134 154 181
134 154 181
133 154 180
134 154 181
133 154 181
135 155 181
133 154 181
133 154 181
133 154 181
134 154 181
135 155 181
134 154 181
133 154 181
134 154 181
133 154 181
133 154 181
134 154 181
134 154 181
134 154 181
134 154 181
133 154 181
133 154 181
133 154 181
134 154 181
134 154 181
133 154 181
134 154 181
134 154 181
134 154 181
134 154 181
134 154 181
133 154 181
133 154 181
134 154 181
133 154 181
133 154 181
134 154 181
134 154 181
133 154 181
133 154 181
134 154 181
134 154 181
133 154 181
135 155 181
134 154 181
134 154 181
134 154 181
134 154 181
134 154 181
134 154 181
133 154 181
133 154 181
134 154 181
133 154 181
134 154 181
134 154 181
133 153 180
133 154 181
133 153 180
134 154 181
134 154 181
133 153 180
134 154 181
133 154 181
133 154 181
133 154 181
134 154 181
134 154 181
133 154 181
134 154 181
134 154 181
133 154 181
134 154 181
133 154 181
133 153 180
134 154 181
134 154 181
133 154 181
133 154 181
133 154 181
134 154 181
134 154 181
134 154 181
133 154 181
134 154 181
134 154 181
135 155 181
134 154 181
133 154 181
135 155 181
134 154 181
134 154 181
134 154 181
133 154 181
133 154 181
134 154 181
133 154 181
133 154 181
134 154 181
133 154 181
133 154 181
134 154 181
134 154 181
133 154 181
134 154 181
134 154 181
133 154 181
133 154 181
134 154 181
134 155 181
133 154 181
134 154 181
134 154 181
134 154 181
134 154 181
133 154 181
134 154 181
135 155 181
133 154 181
134 154 181
133 154 181
133 154 181
133 154 181
133 154 181
134 154 181
134 154 181
133 154 181
134 154 181
134 154 181
134 154 181
134 154 181
134 154 181
134 154 181
133 154 181
134 154 181
134 154 181
134 154 181
134 154 181
134 154 181
134 154 181
134 154 180
135 155 181
135 155 181
134 154 181
135 155 181
134 154 181
135 155 181
134 154 181
134 154 181
134 154 181
134 154 181
134 154 181
134 154 181
133 154 181
134 154 181
134 154 181
134 154 181
133 154 181
133 154 181
134 154 181
133 154 181
134 154 181
134 154 181
134 154 181
133 154 180
133 154 181
133 154 181
134 154 181
134 154 181
134 154 180
133 154 181
133 154 181
133 154 181
133 154 181
133 154 181
134 154 181
133 154 181
134 155 181
134 154 181
134 154 181
134 154 181
134 154 181
134 154 181
134 154 181
134 154 181
134 154 181
134 154 181
134 154 181
134 154 181
134 154 181
134 154 181
134 154 181
134 154 181
135 155 181
135 155 181
132 153 181
134 154 181
134 154 181
134 154 181
134 154 181
133 154 181
134 154 181
133 154 181
134 154 181
134 154 181
134 154 181
134 154 181
134 154 180
135 155 181
133 154 181
134 154 181
134 154 181
134 154 181
134 154 181
134 154 181
133 154 181
134 154 181
134 154 181
134 154 181
134 155 181
134 155 181
133 154 181
134 155 181
133 154 181
134 154 181
133 154 181
135 155 181
133 154 181
133 154 181
133 154 181
133 154 181
134 154 181
133 154 181
134 154 181
134 154 181
134 154 181
133 154 181
134 154 181
133 153 180
133 154 181
133 154 181
135 155 181
133 154 180
133 154 181
134 154 181
134 154 181
133 154 181
134 154 181
133 154 181
133 154 181
134 154 181
133 154 181
133 154 181
133 154 181
134 154 181
134 154 181
133 154 181
134 154 181
133 154 181
134 154 181
134 154 181
134 154 181
134 154 181
134 154 181
134 154 181
134 155 181
134 154 181
134 154 181
134 154 181
133 154 181
133 154 181
133 154 181
134 154 181
133 154 181
133 154 181
134 154 181
133 154 181
133 154 180
133 154 181
134 154 181
134 155 181
133 154 181
133 154 181
134 154 181
134 154 181
134 154 181
133 154 180
134 154 181
133 154 181
134 154 181
134 154 181
134 154 180
134 154 181
133 154 181
133 153 180
133 154 181
134 154 181
133 154 181
134 154 180
134 154 181
134 154 181
134 154 181
133 154 181
134 154 181
134 154 181
134 154 180
134 154 181
132 153 180
133 154 181
133 154 181
133 154 181
134 154 181
135 155 181
134 154 181
133 154 181
134 154 181
132 153 180
133 154 180
134 154 181
134 154 181
134 155 181
134 154 180
133 154 181
134 155 181
134 154 181
133 154 181
134 154 181
134 154 181
133 154 181
134 154 181
134 154 181
134 154 181
133 154 181
134 154 180
133 154 181
133 154 181
133 154 181
134 154 181
134 154 181
133 154 181
133 154 181
134 155 181
134 154 181
133 154 181
134 154 181
133 154 181
134 154 181
133 154 181
133 154 181
134 154 181
135 155 181
134 155 181
133 154 181
133 154 181
133 154 181
133 154 181
133 154 181
134 155 181
133 154 181
134 155 181
134 154 181
133 154 181
133 154 181
133 154 181
133 154 181
134 154 181
134 154 181
134 154 181
133 153 180
134 154 181
133 154 181
133 154 181
134 154 181
133 154 181
134 154 181
133 154 181
133 154 181
134 154 181
135 155 181
133 154 181
134 154 181
133 154 181
134 154 181
133 154 180
133 154 181
133 154 181
134 154 181
132 153 180
134 154 181
133 154 181
134 154 181
134 154 181
133 154 181
134 154 181
134 154 181
134 154 181
134 154 181
133 154 181
134 154 181
133 154 181
133 154 181
134 154 181
134 154 181
134 154 181
134 154 181
133 154 181
133 154 181
135 155 181
133 154 181
134 154 180
134 154 181
135 155 181
133 154 181
133 154 181
134 154 181
134 154 181
134 154 181
134 154 181
134 154 181
134 154 181
134 154 181
134 154 181
133 154 181
134 154 181
133 154 181
133 154 181
133 154 181
134 154 181
133 154 181
134 154 181
134 154 181
135 155 181
134 154 181
134 154 181
134 154 181
133 154 181
134 154 181
133 154 181
133 154 181
134 154 180
134 154 181
133 154 181
133 154 181
134 154 180
134 154 181
134 154 181
134 154 181
133 154 181
134 154 181
134 154 181
133 153 180
134 154 181
133 154 181
134 154 180
133 154 180
133 154 181
133 154 181
135 155 181
135 155 181
134 154 181
133 154 181
134 154 181
133 154 181
134 154 181
133 154 181
134 154 181
134 154 181
133 154 181
134 154 181
135 155 181
134 154 181
134 154 181
134 154 181
135 155 181
134 154 181
133 154 181
133 154 181
134 154 181
134 154 181
133 154 180
134 154 181
134 154 181
133 154 181
134 154 180
134 154 181
134 154 181
134 154 181
134 154 181
134 154 181
133 154 181
134 154 181
133 154 181
134 154 181
134 154 181
135 155 181
134 154 181
133 154 181
134 154 181
134 154 181
134 154 180
133 154 181
133 154 181
135 155 181
133 154 181
134 154 181
133 154 180
133 154 181
134 154 181
134 154 181
134 154 181
133 154 181
134 154 181
135 155 181
133 154 181
134 154 181
133 154 181
134 154 181
134 155 181
133 154 181
134 154 181
134 154 181
134 154 181
133 154 181
134 154 181
133 154 181
134 154 181
134 155 181
134 154 181
133 154 181
134 154 181
134 154 181
133 154 181
134 154 181
133 154 181
134 154 181
134 154 181
134 154 180
134 154 181
133 154 180
133 154 181
134 154 181
133 154 181
134 154 181
135 155 181
133 154 181
133 154 181
135 155 181
133 154 181
134 154 181
133 154 180
133 154 181
134 154 181
134 154 181
134 154 181
133 154 181
132 153 181
134 154 180
132 153 181
133 154 181
133 154 181
134 154 181
134 154 181
134 154 181
134 154 180
133 154 181
134 154 181
134 154 181
133 154 181
134 154 181
134 154 181
134 154 181
134 154 181
134 154 181
134 154 181
132 154 181
133 154 181
134 154 181
133 154 181
134 154 181
134 154 181
133 154 181
133 154 181
133 154 181
134 154 181
134 154 181
134 154 181
133 154 181
134 154 181
134 154 181
135 155 181
134 154 181
134 154 181
133 154 180
134 154 181
133 154 181
133 154 181
134 154 181
134 154 181
133 154 181
133 154 180
133 154 181
133 154 181
134 154 180
134 154 181
133 154 181
134 154 181
133 154 181
133 154 181
134 154 181
134 154 181
135 155 181
135 155 181
134 154 181
134 154 181
133 154 181
134 154 181
135 155 181
135 155 181
134 154 181
133 154 181
134 154 181
134 154 181
132 153 180
134 154 180
134 154 181
133 154 181
135 155 181
133 154 181
134 154 181
134 154 181
134 154 181
133 154 181
133 154 181
134 154 181
134 154 181
134 154 181
133 154 181
133 154 181
134 154 181
134 154 181
134 154 181
134 154 181
134 154 181
134 154 181
134 154 181
133 154 181
133 154 181
133 154 181
135 155 181
134 154 181
135 155 181
134 154 181
134 155 181
134 154 181
134 154 181
135 155 181
134 154 181
134 154 181
134 154 181
134 154 181
134 154 181
135 155 181
134 154 181
134 154 181
134 154 181
133 154 180
134 154 181
134 154 181
133 154 181
133 154 181
134 154 181
132 153 181
133 154 181
134 154 181
132 153 180
134 154 181
133 154 181
133 154 181
135 155 181
133 154 181
133 154 181
134 154 181
134 154 181
134 154 181
134 154 181
133 154 181
134 154 181
133 154 181
134 154 181
134 154 181
134 154 181
134 154 181
134 154 180
134 154 181
134 154 181
134 154 181
133 154 181
134 155 181
134 154 181
135 155 181
133 154 181
134 154 181
133 154 181
133 154 181
134 154 181
133 154 181
134 154 181
135 155 181
134 154 181
134 154 181
134 154 181
133 154 181
133 154 180
134 154 181
134 154 181
134 154 181
133 154 181
133 154 181
133 154 181
135 155 181
134 154 181
133 154 181
133 154 180
134 154 181
134 154 181
134 154 181
134 154 181
133 154 181
134 154 181
134 154 181
133 154 181
134 154 181
134 154 181
133 154 181
134 154 181
133 154 180
134 154 181
134 154 180
133 154 180
133 154 181
134 154 181
134 154 181
134 154 181
134 154 180
134 154 181
134 154 181
133 154 181
134 154 181
135 155 181
133 154 181
133 153 180
134 154 181
134 154 181
133 154 181
134 154 181
134 154 181
134 154 181
133 154 181
133 153 180
134 154 181
133 154 181
134 154 181
133 154 181
134 154 180
134 154 181
133 154 181
134 154 181
133 154 181
133 154 180
134 154 181
134 154 180
134 154 181
133 154 181
134 154 181
132 153 180
134 154 181
133 154 181
134 154 181
135 154 180
133 154 181
135 155 181
135 155 181
135 155 181
134 155 181
133 154 181
134 154 181
134 154 181
133 154 181
134 154 181
133 154 181
134 154 181
133 154 181
133 154 181
133 153 180
133 154 181
134 154 181
134 154 181
134 154 180
133 154 181
133 154 181
134 154 181
133 154 180
133 154 181
133 154 181
133 153 180
135 155 181
133 154 181
133 154 181
133 154 180
134 154 181
133 154 181
134 154 181
133 154 181
133 154 181
134 154 181
135 155 181
133 154 181
135 155 181
134 154 181
133 154 181
134 154 181
133 154 181
134 154 181
134 154 181
132 153 181
135 155 181
134 154 181
134 154 181
134 154 181
133 153 180
134 154 181
133 154 181
134 154 181
133 153 180
134 155 181
133 154 181
133 154 181
133 154 180
133 153 180
134 154 181
134 154 181
133 154 181
134 154 181
134 154 181
134 154 181
135 155 181
133 154 181
134 154 181
133 154 181
134 154 181
135 155 181
133 154 181
134 154 181
133 154 181
133 154 181
133 154 180
134 154 181
135 155 181
134 154 181
133 154 181
134 154 181
134 154 181
134 154 181
133 154 181
133 153 180
134 154 181
134 154 181
133 154 181
133 154 181
133 154 181
134 154 181
134 154 181
133 154 181
133 154 181
134 154 181
133 154 181
134 154 181
134 154 181
135 155 181
134 154 180
134 154 181
133 154 181
134 154 181
134 154 181
134 154 181
134 154 181
134 154 181
132 153 180
133 154 181
134 154 181
134 154 181
133 154 181
134 154 181
134 154 181
133 154 181
134 154 181
133 154 180
133 154 181
134 154 181
135 155 181
134 154 181
134 154 181
134 154 181
134 154 181
134 154 181
135 154 180
135 155 181
134 154 181
135 155 181
133 154 181
133 154 181
133 154 181
133 153 180
133 154 181
134 154 181
134 154 180
133 154 181
134 154 181
134 154 181
133 154 181
134 154 181
134 154 181
133 154 181
134 154 181
135 155 181
133 154 180
134 154 181
134 154 181
134 154 181
134 154 181
133 154 181
134 154 180
134 154 181
134 154 181
132 153 180
134 154 181
133 154 181
133 154 180
134 154 181
134 154 181
134 154 181
134 154 181
134 154 181
134 154 181
133 154 181
134 154 181
133 154 181
134 154 181
134 154 181
134 154 181
133 154 181
134 154 181
134 154 181
134 154 181
133 154 181
134 154 181
134 154 181
134 154 181
134 154 181
134 155 181
133 154 181
134 154 181
134 154 181
133 154 181
134 154 181
134 154 181
133 154 181
133 154 181
134 154 181
134 154 181
134 154 181
133 154 181
133 154 181
134 154 181
134 154 181
135 155 181
134 154 181
133 154 181
133 154 181
134 154 181
135 155 181
134 154 181
134 154 181
135 155 181
135 155 181
134 154 181
134 154 181
133 154 181
134 154 181
132 153 180
133 154 181
134 154 181
133 154 181
134 154 181
134 154 181
133 154 181
133 154 181
134 154 181
134 154 181
134 154 181
133 154 181
134 154 181
133 154 181
134 154 181
134 154 181
135 155 181
134 154 181
134 154 181
133 154 181
133 154 181
134 154 181
135 155 181
133 154 181
134 154 181
133 154 181
133 154 181
133 154 181
134 154 181
133 154 181
134 154 181
134 154 181
134 154 181
133 154 181
133 154 181
134 154 181
133 154 181
133 154 181
134 154 181
134 154 181
134 154 181
133 154 181
134 155 181
135 155 181
134 154 181
133 154 181
133 154 181
133 154 181
134 154 181
134 154 181
133 154 181
133 154 181
134 154 181
134 154 181
134 154 181
135 155 181
133 154 181
133 154 181
133 154 181
134 154 181
134 154 181
133 154 181
133 154 181
134 155 181
133 154 181
133 154 181
134 154 181
134 155 181
134 155 181
133 154 181
135 155 181
134 154 181
134 154 181
133 154 181
134 154 181
133 154 181
134 154 181
133 153 180
133 154 181
134 154 181
134 154 181
133 154 181
133 154 181
134 154 181
134 154 181
134 154 181
134 154 181
134 154 181
134 154 181
134 154 181
135 155 181
134 154 181
134 154 181
134 154 181
134 154 181
134 154 181
134 154 181
133 154 181
134 154 181
133 154 181
134 154 181
134 154 181
134 154 181
134 154 180
133 154 181
134 154 181
134 154 181
134 154 181
133 154 181
134 155 181
134 154 181
133 154 180
133 154 181
134 154 181
133 154 181
134 154 181
134 154 181
134 155 181
135 155 181
133 154 181
133 154 180
135 154 180
134 154 181
134 154 181
134 154 181
134 155 181
133 154 181
134 154 181
134 154 181
134 154 181
133 154 181
134 154 181
134 154 181
134 154 181
135 155 181
133 154 181
133 154 181
135 155 181
133 154 181
134 154 181
134 154 181
133 154 181
134 154 181
133 154 180
135 155 181
134 154 181
134 154 181
134 154 181
133 154 181
134 155 181
135 155 181
134 154 181
133 154 181
134 154 181
134 154 181
134 154 181
133 154 180
133 154 181
134 154 181
134 154 181
134 154 181
133 154 181
134 154 181
134 154 181
134 154 181
133 154 181
133 154 181
134 154 181
134 154 180
134 154 181
134 154 181
133 154 181
134 154 181
134 154 181
133 154 181
133 154 181
133 154 181
134 154 180
134 154 180
134 154 181
135 155 181
134 154 181
133 154 181
133 154 181
133 154 181
133 154 181
134 154 181
133 154 181
134 154 181
134 154 181
133 154 181
134 154 181
134 154 181
134 154 181
134 154 181
134 154 181
134 154 181
134 154 181
133 154 181
133 154 181
133 154 180
133 154 181
134 154 181
133 154 181
132 153 181
134 154 181
134 154 181
133 154 181
134 154 181
133 154 181
134 154 181
134 154 181
134 154 181
133 154 181
133 154 181
135 155 181
134 154 181
134 154 181
134 154 181
134 154 181
134 154 181
134 154 181
134 154 181
133 154 181
134 154 181
134 154 181
134 154 181
135 155 181
134 154 181
134 154 181
135 155 181
134 154 181
134 154 181
135 155 181
134 154 181
134 154 181
134 154 181
134 154 181
134 154 181
134 154 181
134 154 181
133 153 180
134 154 181
133 154 181
133 154 181
133 154 181
134 154 181
134 154 181
133 154 181
133 154 181
133 154 181
134 154 181
134 154 181
134 155 181
134 154 181
134 155 181
134 154 181
135 155 181
133 154 181
133 154 181
133 154 181
134 154 181
133 154 181
134 154 181
135 155 181
134 154 180
134 154 181
133 154 181
132 153 181
134 154 180
134 154 181
134 154 181
134 154 181
134 154 181
133 154 181
134 154 181
135 155 181
134 154 181
134 154 181
134 154 181
133 154 181
134 154 181
133 154 181
134 154 181
134 154 181
133 154 181
134 154 181
134 154 181
134 154 181
133 154 181
134 154 181
133 154 181
134 154 181
133 154 181
134 154 181
134 154 180
134 154 181
134 154 181
134 154 181
134 154 181
134 154 181
133 154 181
134 154 181
133 154 181
134 154 181
134 154 181
133 154 181
133 154 181
134 154 181
134 154 181
133 154 181
134 154 181
135 155 181
134 154 181
133 154 181
133 154 181
135 155 181
134 154 181
133 154 180
133 154 180
133 154 181
133 154 181
134 154 181
133 154 181
134 154 181
133 154 181
133 154 181
133 154 181
134 154 181
133 154 181
134 154 181
134 154 181
134 154 181
134 154 181
134 154 181
135 155 181
134 154 181
134 154 181
133 154 181
134 154 181
133 154 181
134 154 181
134 155 181
134 154 181
134 154 181
133 154 181
134 154 181
133 154 181
134 154 181
133 154 181
134 154 181
132 153 181
133 154 181
135 155 181
133 154 181
132 153 180
134 154 181
134 154 181
133 154 181
134 154 181
134 154 181
133 154 181
133 154 181
134 154 181
133 153 180
134 154 181
134 154 181
134 154 181
133 154 181
133 154 181
134 154 181
134 154 181
134 154 181
134 154 181
134 154 181
133 154 181
133 154 181
134 154 181
134 154 181
134 154 181
133 154 181
134 154 181
134 154 181
134 154 181
134 154 181
133 154 181
134 154 181
135 155 181
133 154 181
134 154 181
134 154 181
133 154 181
134 154 181
133 154 180
133 154 181
134 154 181
134 155 181
134 154 181
133 154 181
133 154 181
134 154 181
134 154 181
134 154 181
134 154 181
135 155 181
134 154 181
134 155 181
134 154 181
133 154 181
134 154 180
134 154 181
133 154 181
134 155 181
134 154 181
133 154 181
134 154 181
134 154 181
134 154 181
134 154 181
133 154 181
133 154 181
133 154 181
134 154 181
133 154 181
134 154 181
134 154 181
134 154 181
133 154 181
134 154 181
133 154 181
133 154 180
133 154 181
134 154 181
134 154 181
133 153 180
133 154 181
134 154 181
135 155 181
134 154 180
134 154 181
134 154 181
133 154 181
133 154 181
134 154 181
133 154 181
133 154 181
133 154 181
135 155 181
134 154 181
133 154 181
134 154 181
133 153 180
134 154 181
134 154 181
134 154 181
134 154 181
134 154 181
134 154 181
134 154 181
134 154 181
133 154 181
134 154 181
133 154 181
134 154 181
134 154 181
134 154 181
134 154 181
134 154 181
132 153 181
134 154 181
134 154 181
134 154 180
135 155 181
134 154 181
133 154 181
133 154 181
133 154 181
134 154 181
134 154 181
133 154 181
134 154 181
134 154 181
134 154 181
134 154 181
134 154 181
134 154 181
133 154 181
135 155 181
135 155 181
134 154 181
133 154 181
133 154 181
134 154 181
134 154 181
133 154 181
133 154 181
134 154 181
134 154 181
133 154 181
134 154 181
134 154 181
133 154 181
133 154 181
133 154 181
134 154 181
134 155 181
134 154 181
134 154 181
134 154 181
133 154 181
134 154 181
134 154 181
134 154 181
134 154 181
134 154 181
134 154 180
134 154 181
133 154 181
134 154 180
134 154 181
133 154 181
133 154 181
134 154 181
133 154 180
134 154 181
134 154 181
133 154 181
134 154 181
133 154 181
133 154 181
134 154 181
134 154 181
133 154 181
134 154 181
135 155 181
134 154 181
133 154 181
134 154 180
134 154 181
134 154 181
134 154 181
134 154 181
133 154 181
134 154 181
134 154 181
133 154 180
133 154 181
133 154 181
134 154 181
134 154 181
134 154 181
133 154 181
134 154 181
134 154 181
134 154 181
133 154 181
134 154 181
134 154 181
134 155 181
134 154 181
133 154 181
134 154 181
135 155 181
134 154 181
134 154 181
134 154 181
133 154 181
133 154 181
132 153 181
134 154 181
133 153 180
135 155 181
133 154 181
134 154 181
135 155 181
133 154 181
134 154 181
134 154 181
134 154 181
134 154 181
134 154 181
133 154 180
133 154 181
134 154 181
135 155 181
134 154 181
134 154 181
134 154 181
133 154 181
134 154 181
135 155 181
134 154 181
133 154 181
134 154 181
133 154 181
133 154 181
134 154 181
134 154 181
133 154 181
133 154 181
133 153 180
134 154 181
133 154 181
133 154 181
134 154 181
135 155 181
134 154 181
134 154 181
134 154 181
133 154 181
134 154 180
133 154 181
134 154 180
133 154 181
133 154 181
135 155 181
133 154 181
134 154 181
133 154 181
133 154 181
134 154 181
133 154 181
134 154 181
135 155 181
134 154 181
134 154 181
134 154 181
134 154 181
133 154 181
134 154 181
134 154 181
135 155 181
134 154 180
133 154 181
134 154 181
134 154 181
133 154 181
133 154 181
134 154 181
134 154 181
133 154 181
134 154 181
134 154 181
134 154 181
133 154 181
134 154 181
134 154 181
133 154 181
134 154 180
133 154 180
134 154 181
134 154 181
134 154 180
133 154 180
133 154 181
134 154 181
133 154 181
134 154 181
134 154 181
134 154 181
133 154 181
133 154 181
133 154 181
134 154 181
134 154 181
134 154 181
134 154 181
134 154 181
133 154 180
134 154 181
133 154 181
134 154 181
134 154 181
134 154 181
134 154 180
133 154 181
133 154 181
134 154 181
134 154 181
133 154 181
134 154 181
134 154 181
134 154 181
134 154 181
134 155 181
135 155 181
133 154 181
133 154 181
134 154 180
135 155 181
133 153 180
133 154 181
134 154 181
134 154 180
133 154 181
134 154 181
134 154 181
134 154 181
133 154 181
134 154 181
134 154 181
134 154 181
133 154 181
134 154 181
134 154 181
135 155 181
134 154 181
134 154 181
134 154 181
134 154 180
134 154 180
134 154 181
133 154 181
133 154 181
134 154 181
134 154 181
134 154 181
134 154 181
133 154 181
134 154 180
133 154 181
134 154 181
133 154 181
134 154 180
134 154 181
134 154 181
134 154 181
134 154 181
134 154 181
134 154 181
134 154 181
134 154 181
133 154 181
133 154 181
133 154 180
134 154 181
133 154 181
134 154 181
133 153 180
134 154 181
133 154 181
133 154 181
134 154 181
133 154 181
132 153 181
134 154 181
133 154 181
134 154 181
134 154 181
134 154 181
133 154 181
134 154 181
134 154 181
133 154 181
133 154 181
134 154 181
134 154 181
134 154 181
133 154 181
132 153 181
134 154 181
134 154 181
134 154 181
133 154 181
133 154 181
135 155 181
134 154 181
134 154 181
134 154 181
134 154 181
133 154 181
134 154 181
135 155 181
133 154 181
133 154 181
135 155 181
134 154 181
134 154 181
134 154 181
133 154 181
133 154 181
133 154 180
134 154 181
134 154 181
134 154 181
133 153 180
134 154 181
133 154 181
133 154 180
134 154 181
134 154 181
134 154 181
133 154 181
134 154 181
134 154 181
134 154 181
134 154 181
134 154 181
133 154 181
134 154 181
132 153 180
134 154 181
133 154 181
134 154 181
133 154 181
134 154 181
134 154 181
134 154 181
133 153 180
134 154 181
134 154 181
134 154 181
133 154 181
134 154 181
134 154 181
134 154 181
135 155 181
134 154 181
134 154 181
133 154 181
135 155 181
133 154 181
133 154 181
133 154 181
133 154 181
133 154 181
134 154 181
134 155 181
134 154 181
134 154 181
133 154 181
134 154 181
134 154 181
133 154 181
134 154 181
134 154 181
134 154 181
134 154 181
134 154 181
133 154 181
134 154 181
133 154 181
134 154 181
135 155 181
134 154 181
133 154 181
134 154 181
134 154 181
134 154 181
134 154 181
133 154 181
134 154 181
133 154 181
134 154 181
134 154 181
134 154 181
134 154 181
133 154 181
133 154 181
134 154 181
134 154 181
134 154 181
134 154 181
134 154 180
133 154 181
134 154 181
135 155 181
133 154 181
134 154 181
134 154 180
134 154 181
134 154 181
133 154 181
133 154 180
134 154 181
134 154 181
133 154 181
134 154 181
135 155 181
134 154 181
133 154 181
134 154 181
134 154 181
133 154 181
134 154 181
134 154 181
134 154 181
134 154 181
133 154 181
132 153 180
134 154 181
134 154 181
134 154 181
133 154 181
133 154 181
134 154 181
134 154 181
134 154 181
133 154 181
133 154 181
133 154 181
134 154 181
134 154 181
134 154 181
134 154 181
134 154 181
134 154 181
134 154 181
133 154 181
134 154 181
134 154 181
134 154 181
135 155 181
134 154 181
134 154 181
135 155 181
134 155 181
133 154 181
134 154 181
133 154 181
134 155 181
134 154 181
133 154 181
134 154 181
133 154 181
133 154 181
133 154 181
134 154 181
134 154 181
133 154 181
134 154 181
134 155 181
133 154 181
134 154 181
133 154 181
134 154 181
134 154 181
134 154 181
134 154 181
134 154 181
134 154 181
133 154 181
134 154 181
135 155 181
133 154 181
134 155 181
133 154 181
134 154 181
134 154 181
134 154 181
135 155 181
134 154 181
134 154 181
134 154 181
135 155 181
135 155 181
133 154 181
134 154 181
133 154 181
133 154 180
134 154 181
133 154 181
133 154 181
134 154 181
133 154 181
133 154 181
134 154 181
134 154 181
134 154 181
134 154 181
135 155 181
134 154 181
134 154 181
134 154 181
133 154 181
133 154 181
134 154 181
133 154 181
135 155 181
134 155 181
134 154 181
133 154 180
133 154 181
133 154 181
134 154 181
134 154 181
134 154 181
134 154 181
133 154 181
133 154 181
134 154 181
133 154 180
134 154 181
133 153 180
133 154 181
134 154 180
135 155 181
134 154 181
134 154 181
134 154 181
134 154 181
133 153 180
134 154 181
134 154 181
133 154 181
134 154 181
134 155 181
133 154 181
134 154 181
134 154 181
135 155 181
134 154 181
134 154 181
133 154 181
133 154 181
134 154 181
134 154 181
134 154 181
135 155 181
134 154 181
133 154 181
133 154 181
134 154 181
133 154 181
134 154 181
133 154 180
133 153 180
134 154 181
133 154 181
135 155 181
133 154 181
134 154 181
134 154 181
134 154 181
133 154 180
134 154 181
133 154 181
134 154 181
134 155 181
133 154 181
135 155 181
134 154 181
134 155 181
134 154 181
133 154 181
134 154 181
134 154 181
134 154 181
134 154 181
133 154 181
133 154 181
134 154 181
133 154 181
134 155 181
134 154 181
134 154 181
134 154 181
133 154 181
133 154 181
133 154 181
133 154 181
133 154 180
133 154 181
133 154 181
135 155 181
134 154 181
134 154 181
134 154 181
133 154 180
134 154 181
134 154 181
135 155 181
133 154 181
134 154 181
133 154 181
134 154 181
134 154 181
134 154 181
134 154 181
134 154 181
133 154 181
133 154 181
134 154 181
134 154 181
134 154 181
134 154 181
133 154 181
133 154 181
134 154 181
133 154 181
133 154 181
134 154 181
133 154 181
134 154 181
134 154 181
134 154 181
134 154 180
134 154 181
133 154 180
135 155 181
133 154 181
134 154 181
135 155 181
133 154 181
133 154 181
134 154 181
134 154 181
133 154 181
134 154 181
134 154 180
133 154 181
133 153 180
134 154 181
134 154 181
134 154 181
134 154 181
134 154 181
135 155 181
134 154 181
133 153 180
134 154 181
133 154 181
133 154 181
133 154 181
134 154 181
134 154 181
134 154 181
134 154 181
134 154 180
133 154 181
133 154 180
133 154 181
134 154 181
135 155 181
133 154 181
134 154 181
134 154 181
134 154 181
134 155 181
134 154 181
133 154 181
134 154 181
134 154 181
133 154 181
134 154 181
133 154 181
134 154 181
134 154 181
133 154 181
135 155 181
133 154 181
134 154 181
134 154 181
133 154 181
133 154 181
134 154 181
133 154 181
133 154 181
134 154 181
133 154 181
133 154 181
134 154 181
134 154 181
134 154 181
134 154 181
133 154 181
133 154 181
134 154 181
133 154 181
134 154 181
134 154 181
133 154 181
133 154 181
134 155 181
133 154 181
134 154 181
133 154 181
134 154 181
134 155 181
133 154 181
134 154 181
134 154 181
134 154 181
134 154 181
133 154 181
133 154 181
134 154 181
134 154 181
134 154 181
134 154 181
135 155 181
134 154 181
133 154 181
134 154 181
133 154 181
134 154 181
134 154 181
133 154 181
134 154 181
134 154 181
134 154 181
133 154 181
133 154 181
133 154 181
133 154 181
134 154 181
133 154 181
133 154 181
133 154 181
134 154 181
134 154 181
133 154 181
134 154 181
134 154 181
134 154 181
133 154 181
134 154 180
133 154 181
134 154 181
134 154 181
134 154 181
134 154 181
133 154 181
134 154 181
134 154 181
134 154 181
134 154 181
133 154 181
134 154 181
133 154 181
132 153 180
133 154 181
134 154 181
134 154 181
133 154 181
134 154 181
133 154 181
134 154 181
133 154 181
134 154 181
133 154 181
133 154 180
133 154 181
133 154 181
135 155 181
133 154 181
134 154 181
134 154 181
134 154 181
134 154 181
134 154 181
133 154 181
134 154 181
133 154 181
133 154 181
133 154 181
134 154 181
134 154 181
134 154 181
135 155 181
134 154 181
133 154 181
133 154 181
133 154 181
133 154 181
134 154 181
134 154 181
133 154 181
133 154 181
134 154 181
133 154 181
133 154 181
133 154 181
134 154 181
134 154 181
134 154 181
133 154 181
134 154 181
134 154 180
134 154 181
133 153 180
134 154 181
134 154 181
134 154 181
133 154 181
134 154 181
134 154 181
133 154 181
133 154 181
133 154 181
134 154 181
134 154 181
134 154 181
134 155 181
134 154 181
133 154 181
134 154 181
135 155 181
133 154 181
133 154 181
133 154 181
134 154 181
134 154 181
134 154 181
133 154 181
133 154 181
134 154 181
134 154 181
134 154 181
134 154 181
133 154 180
133 153 180
134 154 181
134 154 181
133 154 181
133 154 181
134 154 181
133 154 181
133 154 181
134 154 181
134 154 181
133 154 181
134 154 181
133 154 181
134 154 181
134 154 181
134 154 181
133 154 181
133 154 181
134 154 181
133 154 181
135 155 181
133 154 181
133 154 181
133 154 181
133 154 181
134 154 181
133 154 181
134 154 181
134 154 181
133 154 181
135 155 181
133 154 181
133 154 181
134 154 181
134 154 181
133 154 180
134 154 181
134 154 181
134 154 181
133 154 181
134 154 181
134 155 181
134 154 181
135 155 181
134 154 181
134 154 181
135 155 181
134 155 181
134 154 181
134 154 181
135 155 181
134 154 181
133 154 181
134 154 181
134 154 181
134 154 181
134 154 181
135 155 181
134 154 181
134 155 181
133 154 181
133 154 181
134 154 181
133 154 181
134 154 181
134 154 181
134 154 181
134 154 181
134 154 181
134 154 181
134 154 181
134 154 181
134 154 181
134 154 181
135 155 181
132 153 180
134 154 180
134 154 181
134 154 180
134 154 181
134 154 181
133 154 181
134 154 181
133 154 181
133 154 181
133 154 181
135 155 181
134 154 181
134 154 181
134 154 181
133 154 181
134 154 181
134 154 181
134 154 181
134 154 181
134 154 181
134 154 181
134 154 181
132 153 181
133 154 181
135 155 181
134 155 181
133 153 180
133 154 181
133 154 181
134 154 180
134 154 181
134 154 181
133 154 181
134 154 181
134 154 181
134 154 181
133 154 181
133 154 181
134 154 181
133 154 181
134 154 181
134 154 181
134 154 181
134 154 181
133 154 180
134 154 181
134 154 181
134 154 181
134 154 181
135 155 181
134 154 181
133 154 181
134 154 180
133 154 181
134 154 181
133 154 181
134 154 181
134 154 181
133 154 181
134 154 181
134 154 181
133 154 181
133 154 181
133 154 180
133 154 181
134 154 181
135 155 181
134 154 181
135 155 181
133 154 181
134 154 181
134 154 181
134 155 181
134 154 181
133 154 181
133 154 181
133 154 181
133 153 179
134 154 181
134 154 181
134 154 181
134 155 181
134 154 181
134 154 181
134 154 181
133 154 180
134 154 181
133 154 181
133 154 181
133 154 181
133 154 180
135 155 181
133 154 181
135 155 181
134 154 180
133 154 181
134 154 181
134 154 181
134 154 180
134 154 181
133 154 181
134 154 180
133 154 181
133 154 181
135 155 181
133 154 181
133 154 180
135 155 181
134 154 181
135 155 181
133 154 181
133 154 181
134 154 181
134 154 181
133 154 181
132 153 181
134 154 181
134 154 181
134 154 181
134 154 181
134 154 181
134 154 181
134 154 181
134 154 181
134 154 180
134 154 181
134 154 181
134 154 181
134 154 181
134 154 181
133 154 181
133 154 180
134 154 181
134 154 181
133 154 181
133 154 181
134 154 181
135 155 181
134 154 181
135 155 181
134 154 181
134 154 181
134 154 181
134 154 181
134 154 181
134 154 181
134 154 180
134 154 181
133 154 180
135 155 181
134 154 181
134 154 181
133 154 181
134 154 181
134 154 181
133 154 181
134 154 181
133 154 181
134 154 181
134 154 181
135 155 181
135 155 181
134 154 181
134 154 181
134 154 181
134 154 180
134 154 181
134 154 181
133 154 181
133 154 181
134 154 181
134 154 181
134 154 181
134 154 181
134 154 181
134 155 181
134 154 181
135 155 181
134 154 181
134 154 181
134 154 181
133 154 181
134 154 181
134 155 181
133 154 181
134 154 181
133 154 181
134 154 181
134 154 181
134 154 181
134 154 181
134 154 181
134 155 181
133 154 181
133 154 181
133 154 181
134 154 181
134 154 181
133 154 181
134 154 181
135 155 181
134 154 181
133 154 181
133 154 181
133 154 181
134 154 181
133 154 181
134 154 181
133 154 181
133 153 180
134 154 181
134 154 181
133 154 181
133 154 181
133 154 181
133 154 181
133 154 181
135 155 181
134 154 181
133 154 181
133 154 181
135 155 181
132 153 181
134 154 181
133 154 181
134 154 181
134 154 181
133 154 181
134 154 180
134 154 181
134 154 181
134 154 181
134 154 180
133 154 181
134 154 181
133 154 180
134 154 181
134 154 181
134 154 181
134 154 181
134 154 181
134 154 181
134 154 181
133 154 180
133 154 181
133 154 181
133 154 181
133 154 181
134 154 181
134 154 181
133 154 181
134 154 181
133 154 181
134 154 181
133 154 181
134 154 181
134 154 181
135 155 181
134 154 181
133 154 181
133 154 181
134 154 181
133 154 181
133 154 181
134 154 181
133 154 181
134 154 181
135 155 181
134 154 181
133 154 181
135 155 181
134 154 181
134 155 181
134 154 181
133 154 180
134 154 180
134 154 181
134 154 181
134 154 181
133 154 181
134 154 180
134 154 181
133 154 181
134 154 181
134 154 181
134 154 181
134 154 181
134 154 181
135 155 181
134 154 181
133 154 181
133 154 180
134 154 181
133 153 180
134 154 181
133 154 181
134 154 181
133 154 181
134 154 180
134 154 181
134 154 181
133 154 181
132 153 180
134 154 181
135 155 181
134 154 181
133 154 181
134 154 181
133 154 181
133 154 181
134 154 181
134 154 181
133 154 181
133 154 181
134 154 181
134 154 180
133 154 181
133 154 181
133 154 181
134 154 181
134 154 181
133 154 181
134 154 181
134 154 181
134 154 181
134 154 181
134 154 181
133 154 181
134 154 181
133 154 181
135 155 181
134 154 181
134 154 181
134 154 181
134 154 181
133 153 180
134 154 181
134 154 180
134 154 180
133 154 181
134 154 181
132 153 181
133 154 181
133 154 181
134 154 181
134 154 181
133 154 181
134 154 181
134 154 181
133 154 181
132 153 181
133 154 181
133 154 181
134 154 181
134 154 180
134 154 181
134 154 181
134 154 181
134 154 181
134 155 181
133 154 181
134 154 181
133 154 181
134 154 181
134 154 181
133 154 181
134 154 181
134 154 181
134 154 181
134 154 181
134 154 181
134 154 181
134 154 181
134 154 181
134 154 181
133 154 180
135 155 181
133 154 181
133 154 181
133 154 181
135 155 181
134 154 180
133 154 181
133 154 181
133 154 180
133 154 181
134 154 181
133 154 181
134 154 181
134 154 181
134 155 181
133 154 181
134 154 181
133 154 181
133 154 181
134 154 181
134 154 181
134 154 180
133 154 181
134 154 181
135 155 181
134 154 181
134 154 181
134 154 181
133 154 181
133 154 181
134 154 181
133 154 181
134 154 181
134 154 180
134 154 181
134 154 181
134 154 181
133 154 181
134 154 181
133 154 181
134 154 181
134 154 181
133 154 180
134 154 181
133 154 181
134 154 181
133 154 181
134 155 181
134 154 181
133 154 181
135 155 181
133 154 181
134 154 181
133 154 181
135 155 181
133 154 181
133 154 181
135 155 181
134 154 181
134 154 181
133 154 181
134 154 180
133 154 181
133 154 181
134 154 181
134 154 181
133 154 181
134 154 181
134 154 180
133 154 181
133 154 181
134 154 181
134 154 181
133 154 181
134 154 181
133 154 181
133 154 181
134 154 181
133 154 181
133 154 181
133 154 181
135 155 181
134 154 181
134 154 181
134 154 181
135 155 181
134 154 181
135 155 181
133 154 181
134 154 181
134 154 181
134 154 181
133 154 181
133 154 181
134 154 181
133 154 181
134 154 181
134 154 181
134 154 181
133 154 180
133 154 181
134 154 181
134 154 181
134 154 180
134 154 181
134 154 181
134 154 181
133 154 181
134 154 181
134 154 181
133 154 181
134 154 180
134 154 181
134 154 181
135 155 181
134 154 181
134 154 181
133 154 181
133 154 181
134 154 181
134 154 181
134 154 181
133 154 180
133 154 181
133 154 181
135 155 181
134 154 181
134 154 180
134 154 181
134 154 181
133 154 181
134 154 181
133 154 181
133 154 181
134 154 181
134 154 181
134 154 181
135 155 181
134 155 181
134 154 181
133 153 180
134 155 181
133 154 180
133 154 181
133 154 181
135 155 181
133 154 180
134 154 181
134 154 181
133 154 181
134 154 180
134 154 181
134 154 181
134 154 181
134 154 181
133 154 181
134 154 181
133 154 181
134 154 180
133 154 181
134 154 181
134 154 181
134 154 181
133 154 181
133 154 181
134 154 181
133 154 181
134 154 181
133 154 181
133 154 181
134 154 181
133 154 181
133 154 181
134 154 181
132 153 181
133 154 181
134 154 181
133 154 181
134 154 181
134 154 181
134 154 181
134 154 180
134 154 181
132 153 181
134 154 180
133 154 180
134 154 181
134 154 181
133 154 181
134 154 181
133 154 181
134 154 181
133 154 181
134 154 181
134 154 181
134 154 181
134 154 181
134 154 181
134 154 181
134 154 181
133 154 181
133 154 181
133 154 181
134 154 181
134 155 181
133 154 181
134 154 181
134 154 181
134 154 180
134 154 181
134 154 181
134 154 181
133 154 181
134 154 181
134 154 181
134 154 181
134 154 181
135 155 181
134 154 181
134 154 181
134 155 181
133 154 181
134 155 181
135 155 181
134 154 181
133 154 181
133 154 181
134 154 181
133 154 181
134 154 181
134 154 181
133 154 181
134 154 181
134 154 181
134 154 181
134 154 181
133 154 180
134 154 181
134 154 181
133 154 181
134 154 181
134 154 181
133 154 181
134 154 181
134 154 181
133 154 181
134 154 181
133 154 181
134 154 181
134 154 181
134 154 181
134 154 181
133 154 181
134 154 181
134 154 181
133 154 181
134 155 181
134 154 181
135 155 181
134 154 181
134 154 181
133 154 181
135 155 181
134 154 181
133 154 181
134 154 181
134 154 181
132 153 180
134 154 181
133 154 181
134 154 180
133 154 181
135 155 181
134 154 181
134 154 181
134 154 181
133 154 181
134 154 181
133 154 181
134 154 181
134 154 181
133 154 181
133 154 181
133 154 181
133 154 181
133 154 181
135 155 181
135 155 181
134 154 181
134 154 181
133 154 181
133 153 180
133 154 181
134 154 181
133 154 181
133 154 181
134 154 181
134 154 181
133 154 181
133 154 181
134 154 181
134 154 181
134 154 181
134 154 181
134 155 181
133 154 181
134 154 181
134 154 181
133 154 181
133 154 181
134 155 181
134 154 181
135 155 181
134 154 181
134 154 181
133 154 181
134 154 181
133 154 181
133 154 181
133 154 181
134 154 181
134 154 181
134 154 181
134 154 181
134 154 181
134 154 181
134 154 181
133 154 181
133 154 181
133 154 181
134 154 181
133 154 181
134 154 181
133 154 181
134 154 181
133 154 181
134 154 181
134 154 181
133 154 181
134 154 181
133 154 181
135 155 181
134 154 181
134 154 181
133 154 181
134 154 181
134 154 181
133 154 181
134 154 181
134 155 181
134 154 181
133 154 181
133 154 181
134 154 181
134 154 181
134 154 181
133 154 181
133 154 181
134 154 181
134 154 181
134 154 181
134 154 181
133 154 181
134 154 180
133 154 181
134 154 181
133 154 181
134 154 181
134 154 181
134 154 181
134 154 181
133 154 181
135 154 180
134 154 181
133 154 181
135 155 181
133 154 181
134 154 181
135 155 181
133 154 181
134 154 181
134 154 180
134 154 181
133 154 181
133 153 180
134 154 181
134 154 181
134 154 181
133 154 181
133 154 181
134 154 181
134 154 181
134 154 181
134 154 181
134 154 181
134 154 181
133 154 181
134 154 181
133 154 181
134 154 181
133 154 181
134 154 181
135 155 181
134 154 181
134 154 181
134 154 181
134 154 181
135 155 181
134 154 181
133 154 181
134 154 181
134 154 181
135 155 181
134 154 181
134 154 181
134 154 181
134 154 181
134 154 181
134 154 181
134 154 181
134 154 180
133 154 181
134 155 181
134 154 181
134 154 181
134 154 181
133 154 181
133 154 181
134 154 181
134 154 181
134 154 181
133 154 181
133 154 181
133 154 181
133 154 181
134 154 181
135 155 181
134 154 181
133 154 181
134 154 181
134 154 181
134 154 181
135 155 181
133 154 181
133 154 181
134 154 181
134 154 181
134 154 181
134 154 180
133 153 180
134 154 181
134 154 181
135 155 181
134 154 181
134 154 181
133 153 180
134 154 181
134 154 181
134 154 180
133 154 180
134 154 181
134 154 181
134 154 181
133 154 181
134 154 181
134 154 181
134 154 181
134 154 181
133 154 181
134 154 181
134 154 181
133 153 180
133 153 180
134 154 181
133 154 181
134 154 181
133 154 181
134 154 181
134 154 181
134 154 181
134 154 181
134 154 181
135 155 181
134 154 181
134 154 180
134 154 181
134 154 181
135 155 181
134 154 181
134 154 181
134 154 181
133 154 181
134 154 181
133 154 181
134 154 181
134 154 181
134 154 181
135 155 181
135 155 181
134 155 181
134 154 181
134 155 181
133 154 181
133 154 181
133 154 181
134 154 181
133 154 181
134 155 181
133 154 180
133 154 181
134 154 181
134 154 181
134 154 181
134 154 181
135 155 181
134 154 181
134 154 181
134 154 181
134 154 181
134 154 181
133 154 181
134 154 181
133 154 181
134 154 181
133 153 180
134 154 181
134 154 181
133 154 181
133 154 181
134 154 181
135 155 181
133 154 181
134 154 180
133 154 181
133 154 181
133 154 181
133 154 181
133 154 181
134 154 181
134 154 181
133 154 181
134 154 181
134 154 181
134 154 181
134 154 181
133 154 181
133 154 181
134 154 181
134 154 181
133 154 181
134 154 181
135 155 181
134 154 181
135 155 181
134 154 181
134 154 181
134 154 181
134 154 181
133 154 181
134 154 181
134 154 181
133 154 181
133 154 181
134 154 181
134 154 181
133 154 181
134 154 181
133 154 181
135 155 181
133 154 180
133 154 181
134 154 181
133 154 181
134 154 181
134 154 181
134 154 181
133 153 180
134 154 181
135 155 181
134 154 181
133 154 181
134 154 181
134 154 181
133 154 180
134 154 181
133 154 181
134 154 181
133 154 181
134 154 181
134 154 181
135 155 181
134 154 181
135 155 181
134 154 181
133 154 181
134 154 181
134 154 181
134 154 181
133 154 181
134 154 181
134 154 181
134 154 181
134 154 181
133 153 180
133 154 180
134 154 181
134 154 180
134 154 181
134 154 181
134 154 181
134 154 181
133 154 181
134 154 181
134 154 181
133 154 181
135 155 181
133 154 181
133 153 180
134 154 181
133 154 181
134 154 181
135 155 181
134 154 181
134 154 181
134 154 181
133 154 180
134 154 181
134 154 181
134 154 181
134 154 181
135 155 181
133 154 181
134 154 181
133 153 180
133 154 181
134 154 181
134 154 181
133 154 181
134 154 181
134 154 181
134 154 181
134 155 181
133 154 181
134 154 181
134 154 181
134 154 181
134 154 181
134 154 181
133 154 181
134 154 181
133 154 181
134 154 181
134 154 181
134 154 181
134 154 181
134 154 181
134 154 181
134 154 181
133 154 181
134 154 181
133 154 181
133 154 181
134 154 181
134 154 181
134 154 181
133 154 181
134 154 181
134 154 181
133 154 181
133 154 181
133 154 181
133 154 181
134 154 181
134 154 181
134 154 181
133 154 181
134 154 181
134 154 181
134 154 181
133 154 181
133 154 181
134 154 181
135 155 181
134 154 181
134 154 181
133 154 181
134 154 181
133 154 181
134 154 181
133 153 180
133 154 181
134 154 181
134 154 181
134 154 181
133 154 181
133 154 181
134 154 181
133 154 181
133 153 180
133 154 181
134 154 181
134 154 181
134 154 181
133 154 181
134 154 181
134 154 181
133 154 181
133 154 181
134 154 181
134 154 181
134 154 181
134 154 181
134 154 181
133 154 181
134 154 180
134 154 181
133 154 181
133 154 181
133 154 181
134 154 181
134 154 181
134 154 181
133 154 181
135 155 181
133 154 181
134 154 181
134 154 181
134 154 181
134 154 181
133 154 181
133 154 181
134 154 181
134 154 181
134 154 181
134 154 181
134 154 181
133 154 181
134 154 181
133 154 181
134 154 181
134 154 181
133 154 181
134 154 181
134 154 181
134 154 181
133 154 181
134 154 181
134 154 180
134 154 181
134 154 181
133 154 181
135 155 181
132 153 180
134 155 181
133 154 181
133 154 181
134 154 181
135 155 181
134 154 181
134 154 181
133 154 181
133 154 180
134 154 181
133 154 181
135 155 181
134 154 181
133 154 181
135 155 181
134 154 181
134 154 181
133 154 181
134 154 181
133 154 181
134 154 181
134 154 181
134 155 181
134 154 181
133 154 181
134 154 181
135 155 181
134 154 181
133 154 181
133 154 181
134 154 181
133 154 181
134 154 181
134 154 181
133 154 181
134 154 181
134 154 181
135 155 181
133 154 181
132 153 181
134 155 181
134 154 181
134 154 181
135 155 181
133 154 181
134 154 181
134 154 181
133 154 181
133 154 181
134 154 181
133 154 180
133 154 181
133 154 181
133 154 181
133 154 181
133 154 181
133 154 181
134 154 181
135 155 181
133 154 181
133 154 181
134 154 181
134 154 181
134 154 181
133 153 180
134 154 181
133 154 181
134 154 181
134 154 181
134 154 181
134 154 181
134 154 181
134 154 181
133 154 181
134 154 181
133 154 181
134 155 181
135 155 181
133 154 181
134 154 181
133 154 181
134 154 181
133 154 181
133 154 181
133 154 181
134 154 181
133 154 181
134 154 181
132 153 180
133 154 181
133 154 181
134 154 181
132 153 181
134 154 181
134 154 181
134 154 181
134 154 181
134 154 181
134 154 180
134 154 181
134 154 181
134 154 181
134 154 181
134 154 181
134 154 181
134 154 181
134 154 181
134 154 181
134 154 181
133 154 181
134 154 181
134 154 181
134 154 181
133 154 181
134 155 181
133 154 180
134 154 181
134 154 181
135 155 181
134 154 181
134 154 181
134 154 180
134 154 181
133 154 181
132 153 181
134 154 181
134 154 181
133 153 180
134 154 181
133 153 180
133 154 181
134 155 181
134 154 181
134 154 181
133 154 181
133 154 181
133 154 181
133 154 181
133 154 181
134 154 181
134 154 181
134 154 181
133 154 181
134 154 181
134 154 181
133 154 181
135 155 181
133 154 181
135 155 181
135 155 181
133 154 181
135 155 181
133 154 181
134 154 181
135 155 181
133 154 181
133 154 181
133 154 181
134 154 181
135 155 181
133 153 180
134 154 181
133 153 180
134 154 181
134 154 181
133 154 181
134 154 181
134 154 181
133 154 181
134 155 181
133 154 181
134 154 181
134 154 181
133 154 181
133 154 181
133 154 181
134 154 181
134 154 181
134 154 181
135 155 181
134 154 181
134 154 181
133 154 181
134 154 181
134 154 181
134 154 181
133 154 181
134 154 181
134 154 181
134 154 181
133 154 181
134 154 181
134 154 181
133 154 181
134 154 180
134 154 181
133 154 181
134 154 181
134 154 181
133 154 181
134 154 181
134 154 181
133 154 181
133 153 180
135 155 181
133 154 181
134 154 181
134 154 181
134 154 181
134 154 181
134 154 181
133 154 181
134 154 181
133 154 181
134 154 181
134 154 181
134 155 181
134 154 181
134 154 181
134 154 181
134 154 181
133 154 181
134 154 181
133 154 181
134 154 181
133 154 181
134 154 180
133 154 181
134 154 181
133 154 181
133 154 181
133 154 181
135 155 181
133 154 181
134 154 181
133 154 181
134 154 181
133 154 181
133 154 181
133 154 181
133 154 180
134 154 181
132 153 181
133 154 181
133 154 181
134 154 181
134 154 181
133 154 181
134 154 181
134 155 181
134 154 181
134 154 181
134 154 181
134 154 181
133 154 181
134 154 181
134 154 180
133 154 180
134 154 181
134 154 181
134 154 181
134 154 181
134 154 181
134 154 181
133 154 181
134 154 181
133 154 181
134 154 181
133 154 181
134 154 181
135 155 181
133 154 181
134 154 181
134 154 181
134 154 181
134 154 181
133 154 181
133 154 181
134 154 181
133 154 181
134 154 181
134 154 181
134 154 181
134 154 181
133 154 181
134 154 181
133 154 181
133 154 181
134 154 181
134 154 181
133 154 181
134 154 181
134 154 181
134 154 181
135 155 181
133 154 181
133 154 181
134 154 181
134 154 181
133 154 181
134 155 181
133 154 181
134 154 181
133 154 181
134 154 181
134 154 181
134 154 181
135 155 181
134 154 181
134 154 181
133 154 181
134 154 181
134 154 181
134 154 181
134 154 181
134 154 181
134 154 181
134 154 181
133 154 181
133 153 180
134 154 181
133 154 181
134 154 181
133 154 181
133 153 180
133 154 181
134 154 181
133 153 180
134 154 181
133 154 181
134 154 181
134 154 181
133 154 181
134 154 181
134 154 180
134 154 181
135 155 181
133 154 181
135 155 181
133 154 181
135 155 181
133 154 180
135 155 181
134 154 181
133 154 181
133 154 181
134 154 181
134 154 181
134 154 181
133 154 181
134 154 181
134 154 181
134 154 181
134 154 181
133 154 181
134 154 181
133 154 181
134 154 181
134 154 181
134 154 181
133 154 181
133 154 181
134 154 181
133 154 181
133 154 181
135 155 181
134 154 181
135 155 181
134 154 181
133 154 181
134 154 181
133 154 181
134 154 181
133 154 181
134 154 181
134 154 181
134 154 181
134 154 181
134 154 181
135 155 181
134 154 181
134 154 181
135 155 181
133 154 181
134 154 181
133 154 181
134 155 181
134 155 181
133 154 181
134 154 181
134 154 181
133 154 181
133 154 181
133 154 181
133 154 181
133 154 181
134 154 181
135 155 181
134 154 180
134 154 181
134 155 181
135 155 181
134 154 181
133 154 181
135 155 181
134 154 181
134 154 181
134 154 181
133 154 181
134 154 181
134 154 181
134 154 181
133 154 181
135 155 181
134 154 181
134 154 181
133 154 181
134 154 181
133 154 181
133 154 181
134 154 181
134 154 181
134 154 181
133 154 181
133 154 181
134 154 181
133 154 181
134 154 181
134 154 181
134 154 181
133 154 181
133 154 181
134 154 181
135 155 181
134 154 181
134 154 180
134 155 181
134 154 181
135 155 181
134 154 181
134 154 181
133 154 181
133 154 181
134 154 181
134 154 181
134 154 181
133 154 181
134 154 181
134 154 181
134 154 181
134 154 181
134 154 180
134 154 181
134 154 181
134 155 181
134 155 181
134 154 181
134 154 181
133 154 181
133 154 181
135 155 181
135 155 181
134 154 181
134 155 181
134 154 181
134 154 181
133 154 181
133 154 181
134 154 181
134 154 181
133 154 181
134 154 181
134 154 181
134 155 181
134 154 181
134 154 181
134 154 181
133 154 180
133 154 181
133 154 181
134 154 181
133 154 181
134 154 181
134 154 181
133 154 181
133 154 181
134 154 181
135 155 181
134 154 181
133 154 181
134 154 181
134 154 181
134 154 181
134 154 180
133 154 181
134 154 181
134 154 181
134 154 181
134 155 181
134 154 181
134 154 181
135 155 181
134 154 180
134 154 181
134 154 181
133 154 181
133 154 181
134 155 181
134 154 181
134 154 181
133 154 181
134 154 181
134 154 181
134 154 181
133 154 181
134 154 181
134 154 181
134 154 181
132 153 180
133 154 181
133 154 181
134 154 181
134 154 181
134 154 181
133 154 181
134 154 181
134 154 180
133 153 180
134 154 181
133 154 181
133 154 181
134 154 181
134 154 180
133 154 181
134 154 181
134 154 181
134 154 181
134 154 181
133 154 181
133 154 181
134 154 181
134 154 181
133 154 181
134 154 181
133 154 181
132 153 181
134 154 181
133 154 180
134 154 181
133 154 181
134 154 181
134 154 181
133 154 181
134 154 181
133 154 181
133 154 181
133 154 181
133 154 181
133 154 181
133 154 181
134 154 181
134 154 181
134 154 181
134 154 181
134 154 181
134 154 181
133 154 181
134 154 181
133 154 181
133 154 181
134 154 181
134 154 181
133 154 181
134 154 181
134 154 181
135 155 181
134 154 181
133 154 181
134 154 181
133 154 181
133 154 180
133 154 181
134 154 181
133 154 181
134 154 181
135 155 181
133 154 181
133 154 181
134 154 181
134 154 181
134 154 181
133 154 181
133 154 181
134 154 181
134 154 181
134 154 181
133 154 181
134 154 181
133 154 180
134 154 181
135 155 181
134 155 181
134 154 181
133 154 180
134 154 180
133 154 181
134 154 181
133 154 181
134 154 181
134 154 181
134 154 181
134 154 181
134 154 181
133 154 181
134 154 181
134 154 181
134 154 181
135 155 181
133 154 181
134 154 181
132 153 180
133 154 181
134 154 181
134 154 181
133 154 181
134 154 181
132 153 180
134 154 181
134 154 181
133 154 180
134 154 181
134 154 181
134 154 180
134 154 181
133 154 181
134 154 181
133 153 180
133 154 181
133 154 180
133 154 180
134 154 181
134 154 181
133 154 181
134 154 181
133 154 181
134 154 181
133 154 181
133 154 181
134 154 181
134 154 181
134 154 181
133 154 181
134 154 181
135 155 181
134 154 180
134 154 181
134 154 181
133 154 181
134 154 181
134 154 181
133 154 181
134 154 181
133 154 181
133 154 181
134 154 181
134 154 181
135 155 181
134 154 181
135 155 181
133 154 181
133 154 181
135 155 181
134 154 181
135 155 181
134 154 181
134 154 181
134 154 181
133 154 181
134 155 181
134 154 181
133 153 180
134 154 181
133 154 181
134 154 181
134 154 181
134 154 181
134 154 181
134 154 181
134 154 181
134 154 181
133 154 181
134 154 181
134 154 181
133 154 181
134 154 181
134 154 181
134 154 181
134 154 181
134 154 181
133 154 181
134 154 181
135 155 181
134 155 181
134 154 181
134 154 181
135 155 181
134 154 181
134 154 181
135 155 181
135 155 181
133 154 181
134 154 181
133 154 181
134 154 181
134 154 181
135 155 181
135 155 181
134 154 181
134 154 181
134 154 181
134 154 181
134 154 181
134 154 181
133 154 180
134 154 181
132 153 181
133 154 181
134 154 181
134 154 180
133 154 181
134 154 181
134 154 181
133 154 181
133 154 181
134 154 181
134 154 181
133 154 180
134 154 181
134 154 181
133 154 181
134 154 181
134 154 181
134 154 181
133 153 179
133 154 181
134 154 181
135 155 181
134 154 181
133 154 181
134 154 181
134 154 181
133 154 181
134 154 181
133 154 181
133 154 181
134 154 181
133 154 181
134 154 180
134 154 181
133 154 181
135 155 181
133 154 181
133 154 181
134 154 181
133 154 180
133 154 180
134 154 181
133 154 181
133 154 181
134 154 181
133 154 181
133 154 181
134 154 180
134 154 181
134 154 181
134 154 181
134 154 181
134 154 181
133 154 181
134 154 181
134 154 181
134 154 181
134 154 180
134 154 181
133 154 181
133 154 181
134 154 181
133 154 181
135 155 181
133 154 181
133 154 181
134 154 181
133 153 180
134 154 181
134 154 181
134 154 181
133 153 180
134 154 181
133 154 181
134 154 181
135 155 181
133 154 181
134 154 181
133 154 181
134 154 181
132 153 181
134 154 181
134 154 180
133 154 181
133 154 181
134 154 181
134 154 181
133 154 181
134 154 181
134 154 181
135 155 181
133 154 181
134 154 181
134 154 181
134 154 181
134 154 181
134 154 181
134 154 180
134 154 181
134 154 181
134 155 181
134 154 181
133 154 181
134 154 181
132 153 181
134 154 181
134 154 181
134 154 180
133 154 181
134 154 181
134 154 181
134 154 181
134 154 181
134 154 181
134 154 181
133 154 181
133 154 181
134 154 181
134 154 181
134 154 181
133 154 181
133 154 181
134 154 181
133 154 181
134 154 180
133 154 181
134 154 180
133 154 181
134 154 181
134 154 181
134 154 180
133 154 181
133 154 181
133 154 181
135 155 181
133 154 181
134 154 181
134 154 181
133 154 181
135 155 181
133 154 181
133 154 181
133 154 181
133 154 181
134 154 181
133 154 181
133 154 181
135 155 181
134 154 181
133 154 181
134 154 181
134 154 181
134 154 181
135 155 181
134 154 181
134 154 181
134 154 181
133 154 181
134 154 181
134 154 181
133 154 181
134 154 180
133 154 180
134 154 181
133 154 181
134 154 181
134 154 181
134 154 181
135 155 181
133 154 181
133 154 181
133 154 181
134 154 181
134 154 181
134 154 181
134 154 181
134 154 181
133 154 181
134 155 181
133 154 181
133 154 181
133 154 181
133 154 181
134 154 181
134 154 181
134 154 181
134 154 181
134 154 181
134 154 181
134 154 181
133 154 181
134 154 181
134 154 181
134 154 181
134 154 180
134 154 181
134 154 181
133 154 181
134 154 181
133 154 181
133 154 181
134 154 181
134 154 181
133 154 181
134 154 181
133 154 180
134 154 181
134 154 181
133 154 181
133 154 181
135 155 181
133 154 181
135 155 181
134 154 181
135 155 181
134 154 181
134 154 181
134 154 181
134 154 181
133 154 181
134 154 180
133 154 181
134 154 181
134 154 181
134 154 181
135 155 181
134 154 181
134 154 181
133 154 181
133 154 181
133 154 181
134 154 181
133 154 181
135 155 181
134 154 181
133 154 181
134 154 181
134 154 181
134 154 181
133 154 181
133 154 181
133 154 181
134 154 181
134 154 181
134 154 181
134 154 181
134 154 181
133 154 181
134 154 181
134 154 181
133 154 181
134 154 181
133 154 181
134 154 181
133 154 181
134 154 181
133 154 180
134 154 181
133 154 180
133 154 181
135 155 181
133 153 180
134 154 181
134 155 181
133 154 181
134 154 180
134 154 181
134 154 181
135 154 180
134 154 181
133 154 180
134 154 181
135 155 181
134 154 181
134 155 181
135 155 181
134 155 181
134 155 181
133 154 181
133 154 180
134 154 181
135 155 181
133 154 181
134 154 181
134 154 181
134 154 181
135 155 181
133 154 181
134 154 181
134 154 181
134 154 180
134 154 181
134 154 181
134 154 181
134 154 181
133 154 181
133 154 181
133 154 181
133 154 180
134 154 181
133 154 181
133 154 180
135 155 181
133 154 181
135 155 181
133 154 181
134 154 181
134 154 181
133 154 180
133 154 181
135 155 181
134 154 181
134 154 181
134 154 181
132 153 181
134 154 181
134 155 181
132 153 181
133 154 181
134 154 181
133 154 181
133 154 181
134 154 181
133 154 181
133 154 181
133 154 181
134 154 181
134 154 181
134 154 181
133 154 181
134 154 180
134 154 181
134 154 181
134 154 181
134 154 181
134 154 181
134 154 181
134 154 181
134 154 181
134 154 181
134 154 181
132 153 180
134 154 181
133 154 181
134 154 181
134 154 181
133 154 181
134 154 181
132 153 180
133 154 181
133 154 181
133 154 181
133 154 181
133 154 181
133 154 181
133 154 181
134 154 181
134 154 181
135 155 181
133 154 180
134 154 181
135 155 181
133 154 181
133 153 180
133 154 181
134 154 181
134 154 181
133 154 181
134 154 180
133 154 181
134 154 181
133 154 181
134 154 180
134 154 181
134 154 181
133 154 181
133 154 181
134 155 181
133 154 181
134 154 181
134 154 181
134 154 181
133 154 181
133 154 181
133 154 181
134 154 181
134 154 181
133 154 181
133 154 181
134 154 181
134 154 181
134 154 181
133 154 181
133 154 181
134 154 181
133 154 181
133 154 180
134 154 181
135 155 181
133 154 181
132 153 180
135 155 181
134 154 181
135 155 181
134 154 181
134 155 181
134 154 181
134 154 181
134 154 181
132 153 181
134 154 181
134 154 181
133 154 181
133 154 181
134 154 181
134 154 181
134 155 181
134 154 181
134 154 181
133 154 181
134 154 181
135 155 181
133 154 181
133 154 181
134 154 181
134 154 181
134 154 181
133 154 180
135 155 181
133 154 181
134 154 181
133 154 181
134 154 181
134 154 181
133 154 181
133 154 181
133 154 181
133 154 181
134 154 180
135 155 181
134 154 181
133 154 180
133 154 181
133 154 180
134 154 181
134 154 181
134 154 181
135 155 181
133 154 181
133 154 181
134 154 181
134 154 181
134 154 181
134 154 181
135 155 181
134 154 181
134 154 181
134 154 181
133 154 181
133 154 181
133 154 181
134 154 181
133 154 181
134 154 181
133 154 181
134 154 181
134 154 181
134 154 181
134 154 181
134 154 181
134 154 181
133 153 180
134 154 181
134 154 181
134 154 181
134 154 181
134 154 181
134 154 181
133 154 180
133 154 180
134 154 181
134 154 181
134 154 181
134 154 181
134 154 181
133 154 181
133 154 181
134 154 181
133 154 181
134 154 181
135 155 181
135 155 181
134 154 181
133 154 180
134 154 181
133 154 181
134 154 181
134 154 181
134 154 181
134 154 181
134 154 181
134 154 181
134 154 181
135 155 181
134 154 181
134 154 181
133 154 181
133 154 181
133 154 181
135 155 181
134 154 181
133 154 180
135 155 181
134 154 180
134 154 181
133 154 181
134 154 181
133 153 180
133 154 180
134 154 181
134 154 181
134 154 181
134 154 181
133 154 181
133 154 181
133 154 181
134 154 181
133 154 181
134 154 181
134 154 181
133 154 181
134 154 181
134 154 180
133 154 181
133 154 181
134 154 181
133 154 181
134 154 181
134 154 180
134 154 181
134 154 181
133 154 180
134 154 181
134 154 181
134 154 181
134 154 180
133 154 181
134 154 181
134 154 181
134 154 181
133 154 181
134 154 181
133 154 181
133 154 181
134 154 181
134 154 181
132 153 180
134 154 181
134 154 181
134 154 181
133 154 181
133 154 181
134 154 181
134 154 181
135 155 181
134 155 181
134 154 181
133 154 181
134 154 181
134 154 181
133 154 181
135 154 180
134 154 181
133 154 181
134 154 181
134 154 181
133 154 181
133 154 180
134 154 180
134 154 181
134 154 181
134 155 181
134 154 181
133 154 181
134 154 181
134 154 181
133 154 181
134 154 181
133 154 181
134 154 181
134 155 181
133 154 181
133 154 181
134 154 181
134 154 181
134 154 181
134 154 181
134 154 181
134 154 181
133 154 181
133 154 180
135 154 180
134 154 181
134 155 181
134 154 181
134 154 180
134 154 181
134 154 181
132 153 181
134 154 181
135 155 181
134 154 181
134 154 181
133 154 181
133 153 180
133 154 181
133 154 181
134 154 181
134 154 181
134 154 180
133 154 181
134 154 181
134 154 181
134 154 181
133 154 181
134 154 181
134 154 181
134 154 181
134 154 181
134 154 181
134 154 181
134 154 181
134 154 181
134 154 181
133 154 181
135 155 181
135 155 181
134 154 181
135 155 181
133 154 181
134 154 181
133 154 181
134 154 181
133 154 181
133 153 180
134 154 181
134 155 181
134 154 181
134 154 181
133 154 181
134 154 181
133 154 180
133 154 181
134 154 181
134 154 181
133 154 180
134 154 181
133 154 181
134 154 181
133 154 181
134 154 181
133 154 181
134 154 181
134 154 181
134 154 181
134 155 181
135 155 181
133 154 181
134 154 181
135 155 181
134 154 181
134 154 181
133 154 181
134 154 181
135 155 181
134 154 181
134 154 181
134 154 181
134 155 181
134 155 181
134 154 181
133 154 181
134 154 181
134 154 181
134 154 181
134 154 181
133 154 181
133 154 181
133 154 181
134 154 181
134 154 181
134 154 181
134 154 181
134 155 181
133 154 181
134 154 181
134 155 181
135 155 181
134 154 181
133 154 181
133 154 181
133 154 181
134 154 181
134 154 181
133 154 181
133 154 180
134 154 181
133 154 181
134 154 181
133 154 181
133 154 181
134 154 181
133 154 181
133 154 181
133 154 181
134 154 181
133 154 181
134 154 181
134 154 181
133 154 181
133 154 181
133 154 181
133 154 181
134 154 180
134 154 181
134 154 181
135 155 181
133 153 180
134 154 181
134 154 181
133 154 181
133 154 181
135 155 181
134 154 181
134 154 181
134 154 181
133 154 181
134 154 181
133 154 181
133 154 181
134 154 181
134 154 181
133 154 181
134 154 181
134 154 181
133 154 181
134 154 181
134 154 181
134 154 181
133 154 181
134 155 181
133 154 181
134 155 181
133 154 181
134 154 181
133 154 181
134 154 181
135 155 181
134 154 181
134 154 181
134 155 181
134 154 181
134 154 181
134 154 181
133 153 180
133 154 181
134 154 181
133 154 181
134 154 181
134 154 181
133 154 181
134 154 181
133 154 181
134 154 181
134 154 181
135 155 181
134 154 181
134 155 181
134 154 181
133 154 180
134 154 181
134 154 181
133 154 181
133 154 180
134 154 181
134 154 181
134 154 181
135 155 181
134 154 181
134 154 181
133 154 180
134 154 181
134 154 181
133 154 181
134 154 181
134 154 181
134 154 181
134 154 181
134 154 181
134 154 181
134 154 181
134 154 181
133 154 181
134 154 181
133 154 181
133 154 181
134 154 181
133 154 180
133 154 181
133 154 181
134 154 181
134 154 181
133 154 181
134 155 181
133 154 181
134 154 181
134 154 181
135 155 181
133 154 181
134 154 181
135 155 181
134 154 181
134 154 181
133 154 181
133 154 181
134 154 181
134 154 181
133 154 181
134 154 181
134 154 181
134 154 181
133 154 181
134 154 181
134 154 181
134 154 181
134 154 181
134 154 180
133 154 181
133 154 181
135 155 181
134 154 181
133 154 181
133 154 181
135 155 181
134 154 181
134 155 181
134 154 181
133 154 181
134 154 181
134 154 181
134 154 181
134 154 181
134 154 181
134 154 181
133 154 181
133 154 181
134 154 181
134 154 181
133 154 181
133 154 181
134 154 181
134 154 181
135 155 181
134 154 181
134 154 181
134 154 181
132 153 180
134 154 181
133 154 181
133 154 181
134 154 181
134 154 180
133 153 180
134 154 181
134 154 181
133 154 181
134 154 181
133 154 181
134 154 181
133 154 181
134 154 181
133 154 181
134 154 181
134 154 181
134 154 181
134 154 181
133 154 181
134 154 181
134 155 181
134 154 181
133 154 181
133 154 181
134 154 180
133 154 181
133 154 181
134 154 181
133 154 181
133 154 181
134 154 181
134 154 181
134 154 181
133 154 181
134 154 181
133 154 181
134 154 181
134 154 181
134 154 181
133 154 181
134 154 181
134 154 181
133 154 181
134 154 181
133 154 180
134 155 181
133 154 181
133 154 181
134 154 181
133 154 181
133 154 181
134 154 181
134 154 181
133 154 181
134 154 181
134 155 181
133 154 181
133 154 181
134 154 181
134 154 181
134 154 180
133 154 181
134 154 181
134 154 181
134 154 181
134 154 181
134 154 181
134 154 181
134 154 181
135 155 181
134 154 181
134 154 181
134 154 181
134 154 181
134 154 181
134 154 181
133 154 181
134 154 181
135 155 181
133 154 181
134 154 181
133 154 180
134 154 181
134 154 181
134 154 181
135 155 181
134 154 181
134 154 181
133 154 181
134 154 181
134 154 181
134 154 181
133 154 181
134 154 181
133 154 181
133 154 181
134 154 181
134 154 181
134 154 181
134 154 181
134 154 181
134 154 181
135 155 181
134 154 181
135 155 181
134 154 181
134 154 181
134 154 181
134 154 181
134 154 181
134 154 181
133 154 181
134 154 181
133 154 181
133 154 181
134 154 181
133 154 181
134 154 181
134 154 181
134 154 181
133 154 181
135 155 181
135 155 181
134 154 181
133 154 181
134 154 181
134 154 181
134 154 181
133 154 181
134 154 181
134 155 181
134 154 181
134 154 181
134 154 181
135 155 181
134 154 181
133 154 181
134 154 181
135 155 181
134 154 181
134 154 181
133 154 181
134 154 181
134 154 181
134 154 181
133 154 181
133 154 181
135 155 181
133 154 181
134 154 181
134 154 181
134 154 181
134 154 180
133 154 180
134 155 181
134 154 181
135 155 181
134 154 181
133 154 181
133 154 181
134 155 181
134 154 181
134 154 181
134 154 181
134 154 181
133 154 181
134 154 180
133 154 181
134 154 181
133 154 181
134 154 181
134 154 181
135 155 181
133 154 181
134 154 181
134 154 181
135 155 181
133 154 181
133 154 181
134 154 181
133 153 180
133 154 181
133 154 181
134 154 181
133 154 181
134 154 181
133 154 181
134 154 181
133 154 181
134 154 181
134 154 181
134 154 181
134 154 181
134 154 181
135 155 181
133 154 181
134 154 181
134 154 181
134 154 181
133 154 181
134 154 181
134 154 181
134 154 181
133 154 181
133 154 181
133 154 181
133 154 181
134 154 181
133 154 181
134 154 181
133 154 181
134 154 181
134 154 181
134 154 181
133 154 181
135 155 181
134 154 181
133 154 181
133 154 181
133 154 181
133 154 180
133 154 181
133 154 180
133 154 181
134 154 181
132 153 181
134 154 181
133 154 181
133 154 181
134 154 181
134 154 180
133 154 181
134 154 180
135 155 181
133 154 181
134 154 181
134 154 181
133 154 181
133 154 181
134 154 181
134 154 181
134 154 181
133 154 181
133 154 181
132 153 181
134 154 181
134 154 181
134 154 181
134 154 181
134 154 181
134 154 181
134 154 181
134 154 181
134 154 181
134 154 181
133 154 181
133 154 181
133 154 180
134 154 181
134 154 180
134 154 181
134 154 181
133 154 181
134 154 181
133 154 181
134 154 181
134 154 181
134 154 181
133 154 181
134 154 181
133 154 181
135 155 181
134 154 181
134 154 181
134 154 181
134 154 181
133 154 181
133 154 181
133 154 181
134 154 181
133 154 181
135 154 180
134 154 181
134 154 181
134 154 181
134 154 181
133 154 181
133 154 181
133 154 181
134 154 181
133 154 181
134 154 181
133 154 181
135 155 181
134 154 181
134 154 181
134 154 181
134 154 181
134 154 181
134 154 181
133 154 181
133 154 181
133 154 181
134 154 181
133 154 181
135 155 181
134 154 181
134 154 181
133 154 181
134 154 181
135 155 181
133 154 180
134 154 181
134 154 181
134 154 181
134 154 181
134 154 181
133 154 181
134 154 181
133 154 181
134 155 181
134 155 181
133 154 181
134 154 180
133 154 181
133 154 181
133 154 181
134 154 181
134 154 181
134 154 181
134 154 181
134 154 181
133 154 180
134 154 181
134 154 181
133 154 181
133 153 180
134 154 181
134 154 181
134 154 181
135 155 181
134 154 181
134 154 181
133 154 181
134 154 181
133 154 181
134 154 181
133 154 181
134 154 181
134 154 180
134 154 181
134 154 181
135 155 181
134 154 181
134 154 181
134 154 181
133 154 181
134 154 181
133 154 181
134 154 180
134 154 180
133 154 181
134 154 181
134 154 181
135 155 181
134 154 181
133 154 181
133 154 181
133 154 181
135 155 181
134 154 181
133 154 180
134 154 181
134 154 181
133 154 180
134 154 181
134 154 181
133 154 181
133 154 181
134 154 181
134 154 181
134 154 181
134 155 181
134 154 181
133 154 181
134 154 181
134 154 181
134 154 180
134 154 181
133 154 181
134 154 181
134 154 181
134 154 181
134 154 181
133 154 181
134 154 181
134 154 181
133 154 181
134 154 181
133 154 181
134 154 181
133 154 181
134 154 181
134 154 181
134 154 181
134 154 181
134 154 181
133 154 181
133 154 181
133 154 181
134 154 181
134 154 181
133 154 181
134 154 181
134 154 181
133 154 181
133 154 181
134 155 181
134 154 181
133 154 181
133 154 181
134 154 181
133 154 181
134 154 181
134 154 181
134 154 181
133 153 180
134 154 181
134 154 181
134 155 181
134 154 181
134 154 181
134 155 181
133 154 181
134 154 181
133 154 181
134 154 181
134 154 181
133 154 181
133 154 180
133 154 181
134 154 181
133 154 181
134 154 181
134 154 181
133 154 181
133 154 181
134 154 181
134 154 181
133 154 181
134 154 181
134 154 181
133 154 181
134 154 181
134 155 181
133 154 181
134 154 181
133 154 181
134 154 181
134 154 181
135 155 181
134 154 181
134 154 181
133 154 181
134 154 181
134 154 181
133 154 181
134 154 181
134 154 181
133 154 181
133 154 181
134 154 181
135 155 181
134 154 181
134 154 181
133 154 181
133 154 181
133 154 181
135 155 181
134 154 181
134 154 181
134 154 181
134 154 181
134 154 181
134 154 181
135 155 181
134 154 181
134 154 181
134 154 181
133 154 180
134 154 181
134 154 181
133 154 181
134 154 181
134 154 181
134 154 181
134 154 181
134 154 181
133 154 181
133 154 180
133 154 181
134 154 181
134 154 181
133 154 181
134 154 181
133 154 181
134 154 181
133 154 180
134 154 181
133 154 181
134 154 181
133 154 180
134 154 181
135 155 181
134 154 181
134 154 181
134 154 181
133 154 181
134 154 181
134 154 181
134 154 181
134 154 181
134 154 181
133 154 181
134 154 181
134 154 181
134 154 181
133 154 181
134 154 181
133 154 181
133 154 181
133 154 181
134 154 181
134 154 181
134 154 181
134 154 181
134 154 181
134 154 181
134 154 181
135 155 181
133 154 181
134 154 180
134 154 181
133 154 181
134 154 181
133 154 181
133 154 180
134 154 181
134 154 180
134 154 181
133 154 181
134 154 181
134 154 181
135 155 181
134 154 181
134 154 181
135 155 181
133 154 181
134 154 181
134 154 181
133 154 180
134 154 181
134 154 181
134 154 181
133 154 181
134 154 180
134 154 180
133 154 181
134 154 181
133 154 181
134 154 181
132 153 181
133 154 181
133 154 181
133 154 181
133 154 181
134 154 181
133 154 180
134 154 181
134 154 181
134 154 181
133 154 181
134 154 181
134 154 181
134 154 181
133 154 181
134 154 181
133 154 180
133 154 181
134 154 181
134 154 181
134 154 181
133 154 180
134 154 181
133 154 180
133 154 181
134 154 181
133 154 181
133 154 181
134 154 181
134 154 181
133 154 181
134 154 181
134 154 181
134 154 181
134 154 181
133 154 181
133 154 180
134 154 181
134 154 181
133 154 181
134 154 181
134 154 181
134 154 181
134 154 181
134 155 181
134 154 181
133 154 181
133 154 181
133 154 181
135 155 181
134 154 181
133 153 180
134 154 181
134 154 181
133 154 181
133 154 181
134 154 181
134 154 181
134 154 181
134 154 181
134 154 181
134 154 181
133 154 180
134 154 181
134 154 181
133 154 181
134 154 181
135 155 181
135 155 181
133 154 181
133 154 181
133 154 181
133 154 181
133 154 180
135 155 181
133 154 180
134 154 181
134 154 181
134 154 181
134 154 181
134 154 181
133 154 181
134 154 181
134 154 181
133 154 181
134 154 181
133 154 181
134 154 181
134 154 181
134 154 181
133 154 181
133 154 180
132 153 181
134 154 181
135 155 181
133 154 181
134 154 181
134 154 181
133 154 181
134 154 181
133 154 181
133 154 181
133 154 181
134 154 181
134 154 181
134 154 181
134 154 181
134 154 181
133 154 181
134 154 181
134 155 181
134 154 181
134 154 181
134 154 181
134 154 181
133 154 181
134 154 181
134 154 181
133 153 180
134 154 181
133 153 180
134 154 180
133 154 180
134 154 181
133 154 181
135 155 181
133 154 181
133 154 181
134 154 181
134 154 181
134 154 181
133 154 181
133 154 181
133 154 181
133 153 180
133 154 181
134 154 181
134 154 181
134 154 181
133 154 181
134 154 181
134 154 181
134 154 181
133 154 181
133 154 181
134 154 181
134 154 181
133 154 181
133 154 181
133 154 181
133 154 181
134 155 181
133 154 181
134 154 181
134 154 181
134 154 181
133 154 180
133 154 181
134 154 181
134 154 181
134 154 181
134 154 181
134 154 181
135 155 181
134 154 181
133 154 181
133 154 181
134 154 181
134 154 181
133 154 181
134 154 181
134 154 181
134 154 181
133 154 181
134 154 181
134 154 181
134 154 181
133 154 181
133 154 181
135 155 181
134 154 181
134 154 181
134 154 181
135 155 181
133 154 181
134 154 181
133 154 181
133 154 181
134 154 181
134 154 181
134 154 181
134 154 181
134 154 181
133 154 181
134 154 181
134 154 181
134 154 180
134 154 181
134 154 181
134 154 181
133 154 181
134 154 181
134 154 181
134 154 181
134 154 181
135 155 181
133 154 181
134 154 181
133 154 181
134 154 181
134 154 181
134 154 181
134 154 181
134 154 181
134 154 181
133 154 181
133 154 181
134 154 181
134 154 181
133 154 181
132 153 181
133 154 181
134 154 181
134 155 181
134 154 181
133 154 181
133 153 180
133 154 181
134 154 181
134 154 181
133 154 181
134 154 181
134 154 181
134 154 181
134 154 181
133 154 181
134 154 181
133 153 180
133 154 181
133 154 181
134 154 181
134 154 181
134 154 181
133 154 181
133 154 181
133 154 181
133 154 181
133 154 181
133 154 181
135 155 181
134 154 181
133 154 181
134 154 181
133 154 181
134 154 181
133 154 181
135 155 181
133 154 181
133 154 181
133 154 181
135 155 181
134 154 181
134 154 181
133 154 181
134 154 181
133 154 181
134 154 181
134 154 181
133 154 181
133 154 181
133 154 180
134 154 181
133 154 181
133 154 181
134 154 181
134 154 181
134 154 181
135 155 181
134 154 181
133 154 181
134 154 181
134 154 181
134 154 181
134 154 181
134 154 181
134 154 181
134 154 181
134 154 181
134 154 181
135 155 181
134 154 181
134 154 181
134 154 181
134 154 181
133 154 181
134 154 181
134 154 181
134 154 181
133 154 181
134 154 181
135 155 181
133 154 181
134 154 181
133 154 181
135 155 181
134 154 181
134 154 181
134 155 181
134 154 181
134 154 181
133 153 180
135 155 181
134 154 181
134 154 181
133 154 181
134 154 180
135 155 181
134 154 181
134 154 181
134 154 181
133 154 181
133 154 181
133 154 181
134 154 181
135 155 181
133 154 181
134 154 181
134 154 181
134 154 181
133 154 181
134 154 181
134 154 181
134 154 181
134 154 181
134 154 181
133 154 181
133 154 181
135 155 181
133 154 181
134 154 181
134 154 181
133 153 180
134 154 181
134 154 181
133 154 181
134 154 181
134 154 181
134 154 181
134 154 181
133 154 181
133 154 181
134 154 181
133 154 181
134 154 181
133 154 181
134 154 181
134 154 181
134 154 181
134 154 181
133 154 181
134 154 181
133 154 181
133 154 181
135 155 181
133 154 181
133 154 181
134 154 181
134 154 180
134 154 181
134 154 181
133 154 181
134 154 181
133 154 180
133 154 181
134 154 181
134 154 181
134 154 181
134 154 181
133 154 180
134 154 181
134 154 181
134 154 181
135 155 181
134 154 181
134 154 181
135 155 181
134 154 181
133 154 181
134 154 181
133 154 181
134 154 181
133 154 181
134 154 181
133 154 181
134 154 181
134 154 180
134 154 181
134 154 181
134 154 181
133 154 181
135 155 181
134 154 181
134 154 181
134 154 181
133 154 181
134 154 180
134 154 181
133 154 180
133 154 181
133 153 179
134 154 181
134 155 181
134 154 181
134 154 181
134 154 181
134 155 181
133 154 181
135 154 180
134 154 181
134 154 181
134 154 181
134 155 181
133 154 181
134 154 181
133 154 181
133 153 180
133 153 180
132 153 181
132 153 180
133 154 181
134 154 181
133 154 181
134 154 181
134 154 181
134 154 181
134 155 181
134 154 181
133 154 181
134 154 181
133 154 180
133 154 181
133 154 181
134 154 181
134 154 181
134 154 181
133 154 181
133 154 181
133 154 181
133 154 180
134 154 181
135 155 181
134 154 181
133 154 180
134 154 181
133 154 181
134 154 181
134 154 180
133 154 181
133 154 181
134 154 181
133 154 181
134 154 181
134 154 181
133 154 181
134 154 181
133 154 181
134 154 181
133 154 181
133 154 181
134 154 181
134 154 181
134 154 181
133 154 181
133 154 181
133 154 181
133 154 181
134 154 180
134 154 181
133 154 180
134 154 181
133 154 181
133 154 181
133 154 181
134 154 181
133 154 181
134 154 180
133 154 181
134 154 181
134 154 181
135 155 181
134 154 181
134 154 181
133 154 181
133 154 181
133 154 181
133 154 181
134 154 181
134 154 181
134 154 181
135 155 181
134 154 181
134 154 181
134 154 181
134 154 181
134 154 181
134 154 181
133 154 181
133 154 181
134 154 181
133 154 181
135 155 181
133 154 181
134 154 181
134 154 181
134 154 181
134 154 181
134 154 181
133 154 181
135 155 181
133 154 181
134 154 181
134 154 181
133 154 181
134 154 181
134 154 181
134 154 181
133 154 181
134 154 181
134 154 181
134 154 181
134 154 181
134 154 181
134 154 181
134 154 181
134 154 181
133 154 181
134 155 181
133 154 181
134 154 181
135 155 181
133 154 181
134 154 181
134 155 181
134 154 181
135 155 181
133 154 181
134 154 181
134 154 181
135 155 181
133 154 181
133 154 181
135 155 181
134 154 181
133 154 181
134 154 181
133 154 181
133 154 181
133 154 181
133 154 181
134 154 181
134 154 181
134 154 181
133 154 181
134 154 180
135 155 181
134 154 181
133 154 181
134 154 181
133 154 181
134 155 181
133 154 181
133 154 181
135 155 181
133 154 181
135 155 181
134 154 181
134 154 181
134 154 181
134 154 181
134 154 181
134 154 181
134 154 181
133 154 181
134 154 181
133 154 181
133 154 181
134 154 181
134 154 181
134 154 181
134 155 181
134 154 181
134 154 181
134 154 181
134 154 181
135 155 181
134 154 181
134 154 181
134 154 181
134 154 181
133 154 181
134 154 181
134 154 181
134 154 181
134 154 180
133 154 181
134 154 181
133 154 181
134 154 181
133 154 181
133 154 181
134 154 181
133 154 181
134 154 181
133 154 181
134 154 181
134 154 181
135 155 181
134 154 181
133 154 181
133 154 181
133 154 181
134 154 181
134 154 181
134 155 181
133 154 180
134 154 180
134 154 181
134 154 181
134 154 181
132 153 180
134 154 181
133 154 181
134 154 181
135 155 181
133 154 181
133 154 181
133 154 181
134 154 181
133 154 181
133 154 181
134 154 180
133 154 181
132 153 181
133 154 181
134 154 181
134 154 181
134 154 181
134 155 181
133 154 181
133 154 181
134 154 181
133 154 181
133 154 181
134 154 181
134 154 181
134 154 181
133 154 181
133 154 181
133 154 181
134 154 181
133 154 181
134 154 181
133 154 181
134 154 181
133 154 181
133 154 181
133 153 180
133 154 181
134 154 181
133 154 181
133 154 181
135 155 181
134 154 181
133 154 181
134 154 181
133 154 181
133 154 180
134 154 181
134 154 181
134 154 181
134 154 181
134 154 181
134 154 181
133 154 181
134 154 181
134 154 181
134 154 181
134 154 181
133 154 181
134 154 181
133 154 181
134 154 181
134 154 181
134 154 181
134 154 181
134 154 181
134 154 181
133 154 181
134 155 181
134 154 181
134 154 181
134 154 181
133 154 180
134 154 181
134 154 181
134 154 181
134 154 181
134 154 181
134 154 181
134 154 181
133 154 181
134 154 181
134 154 181
134 154 181
134 154 181
134 154 181
134 154 180
134 154 181
134 154 181
133 154 181
133 154 181
134 154 181
135 155 181
135 154 180
133 154 181
133 154 180
133 154 181
134 154 181
134 154 181
134 154 180
133 154 181
133 154 181
134 154 181
133 154 181
134 154 181
135 155 181
134 154 181
134 154 181
134 154 181
135 155 181
134 154 180
134 154 181
134 154 181
134 154 181
133 154 180
134 154 181
133 154 181
133 154 181
134 154 180
132 153 181
133 154 181
134 154 181
133 154 181
133 154 181
134 154 181
133 154 181
134 154 181
134 154 181
134 154 181
133 154 181
133 154 181
133 154 181
134 154 181
134 154 181
133 154 181
133 154 181
134 154 181
133 154 181
134 154 181
134 154 181
134 154 181
134 154 181
134 154 181
133 154 180
134 154 181
134 154 181
134 154 181
134 154 181
133 154 180
133 154 181
133 154 180
133 154 181
133 154 181
134 154 181
134 154 181
134 154 181
133 154 181
133 154 180
135 155 181
133 154 181
134 154 181
133 154 180
133 154 181
133 154 180
134 154 181
134 154 181
133 154 181
134 154 181
134 155 181
135 155 181
133 154 181
134 154 181
134 154 181
134 154 181
133 154 181
134 154 181
134 154 181
134 154 181
134 154 181
134 154 181
134 154 181
134 154 181
134 154 181
134 154 181
134 154 181
134 154 181
134 154 181
134 154 181
134 154 181
132 153 181
134 154 181
134 154 181
134 154 181
134 154 181
133 154 181
133 154 180
134 154 181
133 154 181
134 154 181
133 153 180
134 154 181
133 154 181
133 154 181
134 154 181
134 154 181
134 154 181
133 154 181
134 155 181
134 154 180
134 154 181
134 154 181
134 154 181
134 154 181
133 154 181
134 154 181
134 154 181
133 154 180
135 155 181
133 154 180
134 154 181
133 154 181
134 154 181
134 155 181
134 155 181
133 154 181
134 154 181
133 154 181
135 155 181
134 154 181
133 154 181
134 154 181
134 154 180
134 154 181
134 154 181
134 154 181
134 154 181
135 155 181
133 154 180
134 154 181
134 154 181
134 154 181
133 154 181
133 154 181
134 155 181
133 154 181
134 154 181
134 154 181
134 154 181
133 154 181
134 154 181
134 154 181
134 154 181
133 154 181
134 154 181
133 154 181
133 154 181
134 154 181
135 155 181
134 154 181
134 154 181
134 154 181
135 155 181
134 154 181
134 154 181
135 155 181
134 154 181
134 154 181
134 154 181
134 154 181
134 154 181
133 154 181
134 154 181
134 154 181
133 154 181
133 154 181
133 154 181
134 154 181
134 154 181
134 154 181
134 154 181
133 154 181
134 154 181
133 154 181
134 154 180
134 155 181
133 154 181
134 154 180
135 155 181
134 154 181
134 155 181
134 154 181
134 154 181
133 154 181
133 154 181
134 154 181
134 154 181
133 154 181
134 154 181
133 154 181
133 154 181
134 154 181
133 154 181
133 154 181
134 154 181
134 154 181
134 154 181
134 154 181
135 155 181
134 154 181
134 154 181
134 154 181
133 154 181
133 154 181
134 154 181
133 154 181
134 154 181
133 154 181
133 154 180
134 154 181
133 154 181
134 154 181
133 154 181
134 154 181
134 154 181
135 155 181
134 154 181
134 154 181
134 154 181
134 155 181
134 154 181
133 154 181
135 155 181
134 154 181
134 154 181
134 154 181
135 155 181
133 154 180
133 154 181
134 154 181
134 154 180
133 154 181
133 154 180
134 154 181
134 154 181
134 154 181
133 154 181
134 154 181
134 154 181
134 154 181
134 154 181
134 154 181
134 154 181
134 154 181
133 154 180
135 155 181
133 153 180
134 154 181
134 154 181
134 154 181
134 154 181
134 154 181
133 154 181
133 154 180
134 154 181
133 154 181
135 155 181
134 154 181
133 154 181
134 154 181
133 154 181
134 154 181
134 154 181
134 154 181
133 154 181
133 154 181
134 154 181
134 154 181
133 154 181
133 154 180
134 154 181
133 154 181
134 154 181
134 154 181
133 154 181
134 155 181
135 155 181
134 154 181
134 154 181
134 154 181
134 154 181
133 154 181
133 154 181
133 154 181
134 154 181
133 154 181
134 154 181
134 154 181
134 154 181
134 154 181
134 154 181
134 154 181
133 154 181
133 154 181
133 154 181
134 154 181
134 154 181
134 154 181
133 154 180
133 154 181
133 154 181
134 154 181
133 154 181
134 154 181
133 154 181
134 154 181
134 154 181
134 154 181
133 154 181
134 154 181
133 154 181
134 154 181
134 154 181
134 154 181
133 153 180
134 155 181
133 154 181
134 154 181
133 154 181
133 154 181
133 154 181
133 154 181
133 154 180
133 154 181
133 154 181
133 154 181
134 154 181
133 154 181
134 154 181
135 155 181
134 154 181
134 154 181
133 154 181
134 154 181
134 154 181
134 155 181
133 154 180
134 154 181
134 155 181
134 154 181
133 154 181
134 154 181
133 154 181
133 154 181
134 154 181
133 154 181
133 154 181
133 154 181
134 154 181
133 154 181
134 154 181
134 154 181
135 155 181
134 154 181
134 154 181
134 155 181
134 154 180
133 154 181
134 154 181
133 154 181
134 154 181
134 154 181
133 154 180
133 154 181
134 154 181
133 154 181
134 154 181
134 154 181
133 154 181
134 154 181
134 154 181
134 154 181
133 154 181
133 154 181
134 155 181
134 154 181
134 154 181
134 154 181
133 154 181
134 154 181
133 154 181
134 154 181
133 154 180
133 154 181
134 154 180
134 154 181
134 154 181
133 154 180
134 154 181
135 155 181
135 155 181
134 154 181
134 154 181
134 154 180
134 154 180
133 154 181
134 154 181
134 154 181
134 154 181
134 154 181
134 154 181
134 154 181
133 154 181
134 154 180
133 154 181
134 154 181
133 153 180
134 154 181
134 155 181
133 154 181
134 155 181
133 154 181
134 154 181
134 154 181
133 154 181
134 154 181
134 154 181
134 154 181
134 154 181
134 154 181
134 154 181
134 154 181
134 154 181
134 154 181
134 154 181
134 154 181
134 154 181
134 154 180
133 154 181
134 154 181
133 154 181
133 154 181
133 154 181
133 154 181
133 154 181
134 154 181
134 154 181
133 154 181
133 154 181
134 154 181
134 154 181
134 154 181
134 154 181
133 154 180
133 154 181
133 154 181
133 154 181
134 154 181
134 154 181
133 154 181
133 154 180
134 154 181
134 154 181
134 154 181
134 154 181
134 154 181
134 154 181
133 154 181
135 155 181
134 154 181
134 154 181
134 154 181
134 154 181
133 154 181
134 154 180
134 154 181
134 154 181
134 154 181
133 154 180
134 154 180
133 154 181
133 154 181
134 154 181
134 154 181
134 154 180
134 154 181
134 154 181
134 154 181
134 154 181
133 154 181
133 154 181
133 154 181
133 154 181
134 155 181
134 154 181
134 154 181
133 154 181
134 154 181
133 154 181
135 154 180
134 155 181
133 154 181
135 155 181
134 154 181
134 154 181
134 154 181
133 154 181
135 155 181
134 154 180
133 154 181
134 154 181
134 154 181
132 153 180
135 155 181
133 154 181
133 154 180
134 154 181
134 154 181
134 154 181
133 154 181
134 154 181
135 155 181
133 154 181
134 154 181
133 154 181
133 154 181
134 154 181
134 154 181
135 155 181
133 154 181
133 154 181
133 154 181
133 154 181
134 154 181
134 154 181
134 154 181
133 154 181
134 154 181
134 154 181
133 154 181
134 154 181
133 154 180
134 154 181
133 154 181
134 154 181
134 154 181
133 154 181
133 154 181
134 154 181
135 155 181
134 154 181
135 155 181
134 154 181
133 154 181
134 154 181
134 154 181
134 154 180
135 155 181
134 154 181
134 154 181
133 154 180
133 154 181
134 154 181
133 154 181
133 154 181
134 154 181
134 154 181
135 155 181
135 155 181
134 154 181
134 154 181
133 154 181
134 154 181
134 154 181
133 154 181
133 154 181
133 154 181
133 154 181
134 154 181
134 154 181
134 154 181
133 154 181
134 154 181
134 154 181
134 154 181
134 154 181
134 155 181
134 154 181
133 154 181
134 154 180
133 154 181
134 154 181
134 154 181
133 154 181
133 154 181
133 154 180
134 154 181
133 154 181
134 154 181
135 155 181
134 154 181
134 154 181
134 154 181
134 154 181
133 153 180
134 154 181
134 154 181
133 154 181
134 154 181
134 154 181
133 154 181
134 154 181
134 154 181
133 154 181
134 154 181
134 154 180
134 154 181
134 154 181
134 154 181
134 154 181
133 154 181
133 153 180
134 155 181
133 154 181
134 154 181
134 154 181
134 154 181
133 154 181
134 154 181
133 154 181
134 154 181
134 154 181
134 154 181
134 154 181
133 154 181
134 154 181
133 154 181
134 154 181
134 154 181
135 155 181
134 154 181
134 154 181
133 154 181
134 154 181
133 154 181
133 154 181
133 154 181
134 154 181
133 154 181
133 154 181
134 154 181
134 155 181
134 154 181
134 154 180
132 153 181
133 154 181
134 154 181
134 154 181
133 154 181
134 154 181
134 154 181
134 154 181
133 154 181
134 154 181
134 154 181
134 154 181
134 154 180
134 154 181
134 154 181
133 154 181
133 154 181
133 154 181
135 155 181
134 154 181
134 154 181
134 154 181
134 154 181
134 154 181
134 154 181
134 154 181
134 154 181
134 154 181
134 154 181
134 154 181
133 154 181
134 154 181
134 154 180
134 154 181
134 154 181
134 154 181
133 154 180
133 154 181
134 154 181
133 154 181
134 154 181
134 155 181
134 154 181
134 154 181
134 154 181
134 154 181
133 154 181
134 154 181
134 154 181
133 154 181
134 154 181
134 154 181
134 154 181
133 154 181
133 154 181
134 154 180
134 154 181
134 154 181
134 154 181
134 154 180
134 154 181
133 154 181
134 154 181
133 154 181
133 154 181
134 154 181
134 154 181
133 154 181
133 154 181
134 154 181
134 154 181
133 154 181
134 154 181
134 154 181
133 154 181
133 154 181
133 154 180
133 154 181
134 154 181
133 154 181
134 154 181
134 154 181
134 154 181
134 154 181
134 154 181
133 154 181
133 154 181
134 154 181
134 154 181
133 154 181
134 154 181
134 154 181
134 154 181
133 154 181
133 154 181
134 154 181
134 154 181
134 154 181
133 154 181
134 154 181
134 154 181
134 154 181
134 154 181
134 154 181
134 154 181
133 154 181
133 153 180
135 155 181
133 154 181
134 154 181
134 154 181
133 154 181
133 154 181
134 154 181
133 154 181
134 154 181
134 154 181
134 154 181
134 154 181
133 154 181
134 154 181
133 154 180
134 154 181
134 154 181
134 154 181
134 154 181
133 154 181
134 154 181
134 154 181
134 155 181
133 153 180
133 154 181
133 154 181
134 154 181
134 154 181
135 155 181
132 153 181
134 154 181
134 154 181
134 154 181
134 154 181
134 154 181
133 154 181
134 154 181
134 154 181
133 154 181
133 154 181
133 154 181
134 154 181
133 154 180
134 154 181
134 154 181
134 154 181
134 154 181
134 154 181
134 154 180
134 154 181
134 155 181
134 154 181
133 154 181
134 154 180
134 154 181
133 154 181
134 154 181
133 154 180
133 154 181
134 154 181
134 154 181
133 154 180
134 154 181
134 154 181
133 154 181
133 154 181
134 154 181
134 154 181
133 154 181
133 154 181
134 154 181
134 154 181
134 154 181
134 154 181
134 154 181
133 154 181
133 154 181
134 154 181
134 154 181
134 154 181
133 153 180
135 155 181
134 154 181
132 153 181
135 155 181
135 155 181
134 154 181
134 154 181
133 154 181
133 154 181
134 154 181
134 154 181
135 155 181
133 154 181
134 154 181
134 154 181
133 154 181
134 154 181
134 154 181
134 154 181
134 154 181
134 154 181
134 154 181
134 154 181
134 154 181
133 153 179
133 154 180
134 154 181
134 154 181
134 154 181
133 154 181
133 154 180
135 155 181
134 154 180
134 154 181
132 153 181
135 155 181
133 154 181
134 154 181
133 154 181
134 154 181
133 154 181
134 154 181
134 154 181
133 154 181
134 154 180
134 154 181
134 154 181
133 154 181
135 155 181
133 154 181
134 154 181
133 154 181
135 155 181
134 154 181
134 154 181
134 154 181
134 154 181
134 154 181
134 154 181
134 154 181
133 154 181
134 154 181
134 154 181
133 154 181
134 154 180
133 154 181
134 154 181
134 154 181
133 154 181
134 154 180
134 154 181
134 154 181
133 154 181
133 154 181
134 154 181
134 155 181
133 154 181
133 154 181
134 154 181
134 154 181
134 154 181
133 154 181
134 154 181
134 154 181
133 153 180
133 154 181
133 154 181
133 154 181
133 154 181
134 154 181
134 154 181
134 154 181
134 154 181
135 155 181
134 154 181
134 154 181
133 154 181
133 154 181
134 154 181
134 154 181
134 154 181
133 154 181
134 154 181
135 155 181
134 154 181
134 154 181
133 154 181
133 154 181
135 155 181
133 154 181
133 154 181
135 155 181
133 154 180
133 153 179
134 154 181
134 154 181
133 154 181
134 154 181
135 155 181
133 154 181
135 155 181
134 154 181
133 154 181
133 154 181
134 154 181
134 154 181
134 154 181
133 154 181
134 154 181
134 155 181
134 154 181
133 154 181
133 154 181
134 154 181
134 154 181
134 154 181
134 154 181
134 154 181
134 154 181
133 154 181
133 154 181
133 154 181
133 154 181
134 154 181
134 154 181
133 154 180
134 154 181
134 154 181
134 154 181
133 154 181
134 154 181
134 154 180
133 154 181
133 154 181
135 155 181
134 154 181
134 154 181
133 154 181
134 154 181
134 154 181
134 154 181
134 154 181
134 154 181
134 154 181
134 154 181
134 154 181
133 154 181
134 154 181
133 154 181
134 154 181
133 154 181
134 154 181
133 154 180
134 154 181
134 154 181
134 154 181
134 154 181
135 155 181
135 155 181
134 154 181
133 154 181
134 154 181
134 154 181
133 154 181
134 154 181
134 154 181
134 154 181
134 154 181
134 154 181
134 154 181
133 154 181
134 154 181
134 154 181
134 154 181
134 155 181
133 154 181
134 155 181
133 154 181
133 154 181
134 154 181
135 155 181
133 154 181
134 154 181
133 154 181
134 154 181
134 154 181
133 154 181
134 155 181
134 154 181
133 154 181
134 154 181
134 154 181
133 154 181
135 155 181
134 154 181
134 154 181
133 154 181
134 154 181
134 154 181
134 154 180
134 154 181
134 154 181
133 154 181
133 154 180
133 154 181
133 154 181
134 154 181
133 154 181
134 154 181
134 154 181
134 154 181
134 154 181
134 154 181
134 154 181
133 154 180
134 154 181
134 154 181
133 154 181
133 154 181
133 154 181
134 154 181
134 154 181
134 154 181
134 154 181
133 154 181
134 154 181
134 154 181
133 154 181
134 154 181
134 154 181
133 154 181
134 154 180
134 154 180
134 154 181
134 154 181
134 154 181
134 154 181
134 154 181
134 154 181
134 154 181
133 153 180
134 154 181
134 154 181
133 154 181
133 154 181
134 154 181
135 155 181
133 153 180
134 154 181
134 154 181
133 154 181
134 154 181
133 154 181
133 154 181
134 154 181
134 154 181
135 155 181
134 154 181
133 154 181
135 155 181
134 154 181
134 154 181
133 154 181
132 153 181
134 155 181
134 154 181
134 154 181
133 154 181
134 154 181
134 154 181
133 154 181
134 154 181
133 154 181
134 154 181
134 154 181
133 154 181
133 154 181
133 154 181
134 154 181
133 154 181
133 154 181
134 154 181
134 154 181
134 154 180
134 155 181
134 154 181
134 154 181
134 154 181
134 154 181
134 154 181
134 154 180
134 154 181
133 154 181
134 154 181
133 154 181
134 154 181
134 154 181
133 154 181
134 154 181
134 154 181
133 154 181
133 154 181
134 154 181
134 154 181
134 154 181
134 154 181
133 154 181
134 154 181
134 154 181
134 154 181
134 154 181
133 154 181
134 154 181
133 154 181
134 154 180
134 154 181
133 154 181
134 154 180
133 154 181
134 154 181
133 154 180
134 154 181
134 154 181
132 153 181
134 154 181
134 154 181
134 154 181
133 154 180
135 155 181
134 154 181
134 154 181
133 154 181
134 154 181
134 154 181
133 154 181
133 154 181
133 154 181
133 154 181
134 154 181
133 154 181
134 154 181
134 154 181
134 154 181
135 155 181
134 154 181
134 154 181
134 154 181
134 154 181
133 154 181
133 154 181
133 154 181
134 154 181
134 155 181
133 154 181
134 154 181
133 154 181
134 154 181
133 154 181
133 154 180
134 154 181
134 154 180
134 154 181
134 154 181
133 154 181
134 154 181
133 154 181
134 154 181
134 154 181
134 154 181
134 154 181
134 154 181
134 154 181
134 155 181
134 154 181
133 154 181
133 154 181
135 155 181
133 154 180
134 154 181
133 154 181
134 154 181
133 154 181
135 155 181
133 154 181
134 154 181
133 154 181
133 154 180
134 154 181
133 154 181
135 155 181
134 154 181
134 154 181
134 154 181
134 154 181
134 155 181
133 154 180
135 155 181
134 154 181
134 154 181
134 154 180
134 154 181
133 154 181
133 154 181
135 155 181
134 154 181
133 154 181
135 155 181
134 154 181
134 154 181
134 154 181
133 154 181
134 154 181
134 154 181
134 154 181
133 154 181
133 154 181
134 154 181
134 154 181
133 154 181
133 154 181
133 154 181
134 154 181
134 154 181
134 155 181
133 154 181
134 154 181
133 154 181
134 154 180
133 154 181
134 154 181
134 153 179
133 154 181
134 154 181
133 154 181
134 154 181
134 154 181
133 153 180
133 154 181
133 154 181
133 154 181
134 154 181
133 154 181
134 154 181
134 154 181
135 155 181
133 154 181
133 154 181
134 154 181
134 154 181
133 154 180
133 154 181
134 154 181
133 154 181
135 155 181
134 154 181
133 153 180
132 153 181
133 154 181
134 154 181
134 154 181
133 154 181
135 155 181
133 154 181
133 154 181
134 154 181
134 154 181
134 154 181
135 155 181
132 153 181
134 154 181
134 154 180
133 154 181
133 154 181
134 154 180
133 154 181
134 154 181
134 154 180
134 154 181
134 154 181
134 154 181
134 154 181
134 154 181
134 154 181
134 154 181
135 155 181
134 154 181
134 154 180
134 154 181
133 154 181
134 155 181
134 154 181
133 154 181
134 154 181
133 154 181
133 154 181
135 155 181
134 154 181
134 154 181
134 154 181
134 154 181
134 154 181
133 154 181
133 154 181
135 155 181
134 154 181
133 154 181
134 154 181
134 154 181
134 154 181
134 154 181
134 154 181
134 154 181
133 154 181
135 155 181
134 154 181
134 154 181
134 155 181
134 154 181
133 154 181
134 154 180
134 154 181
134 154 181
134 154 181
134 154 181
133 154 181
133 154 181
133 154 181
134 154 181
133 154 181
134 154 181
134 155 181
134 154 181
134 154 181
134 154 181
134 154 181
134 154 181
134 154 181
134 154 180
134 154 180
134 154 181
134 154 181
133 154 181
133 154 181
134 154 181
135 155 181
134 154 181
133 154 181
134 154 181
134 154 181
134 154 181
134 155 181
133 154 180
135 155 181
134 155 181
135 155 181
134 154 181
135 155 181
134 154 181
133 154 181
134 154 181
134 154 181
135 155 181
134 154 181
133 154 180
134 154 181
133 154 181
133 153 180
134 154 181
134 154 181
133 154 181
134 154 181
133 154 181
134 154 181
134 154 181
133 154 181
134 154 181
133 154 180
134 154 181
134 154 181
134 154 181
134 154 181
133 154 181
134 154 181
134 154 181
133 154 181
134 154 181
134 155 181
134 154 181
135 155 181
134 154 181
133 154 181
134 154 181
134 154 181
134 154 181
133 154 181
134 155 181
135 155 181
134 154 181
135 155 181
133 154 181
133 154 181
133 154 181
133 154 180
134 154 181
134 154 181
135 155 181
134 154 181
134 154 181
134 154 181
134 154 181
133 154 181
133 154 181
134 154 181
133 154 181
133 154 181
133 154 181
134 154 181
134 154 181
133 154 181
134 154 181
134 154 181
133 154 181
134 154 181
133 154 181
134 154 181
133 154 181
133 154 181
134 154 181
134 154 181
134 154 181
135 155 181
134 155 181
133 154 181
135 155 181
134 154 181
134 154 181
134 154 181
134 154 181
134 154 181
133 154 181
134 154 181
133 154 181
134 154 181
134 154 180
134 154 181
134 154 181
134 154 181
134 154 181
134 154 181
134 154 181
134 154 181
134 154 181
134 154 181
133 154 181
134 154 181
134 154 181
133 154 181
133 154 181
134 154 181
134 154 181
134 154 181
134 154 181
134 154 181
133 154 181
134 154 181
133 154 181
134 154 181
133 154 180
133 154 181
133 154 181
133 154 181
135 155 181
133 154 181
134 154 181
134 154 181
134 154 181
134 154 181
134 154 181
134 154 181
134 154 181
133 154 181
134 154 181
134 154 181
133 154 181
133 154 181
133 154 180
135 155 181
134 154 181
133 154 180
133 154 181
134 154 181
134 154 181
134 154 181
134 154 181
133 154 181
134 154 181
134 154 181
133 154 181
134 154 181
134 154 181
134 154 181
135 155 181
134 154 181
135 155 181
133 154 181
132 153 181
133 154 181
134 154 181
134 154 181
134 154 181
133 154 181
133 154 181
133 154 181
134 154 181
133 154 181
135 155 181
133 154 181
133 154 181
133 154 181
133 154 181
134 154 181
134 154 181
134 154 181
135 155 181
134 154 181
132 154 181
134 154 181
133 154 181
134 154 181
134 154 181
134 154 181
133 154 181
134 154 181
134 154 181
133 154 180
132 153 180
135 155 181
134 154 181
134 154 181
134 154 181
133 154 181
133 154 180
133 154 181
134 155 181
133 154 181
134 154 181
134 154 181
133 154 180
133 154 181
135 155 181
134 154 181
133 154 181
134 154 181
134 154 181
134 154 181
134 154 181
132 153 181
133 154 180
134 154 181
134 154 181
134 154 181
133 154 181
134 154 181
135 155 181
134 154 180
134 154 181
133 154 181
133 154 181
134 154 181
135 155 181
134 154 181
133 154 181
134 154 181
134 154 181
133 154 181
134 154 181
133 154 181
134 154 181
133 154 181
134 154 181
133 154 181
134 154 181
134 154 181
133 154 180
134 154 181
133 154 181
134 154 181
134 154 181
134 154 181
134 154 181
133 154 181
133 154 181
133 154 181
133 154 181
133 154 181
134 154 181
133 154 181
134 154 181
133 154 181
134 154 181
134 154 181
134 155 181
133 154 181
134 154 181
134 154 181
134 154 181
134 155 181
134 154 181
133 154 181
134 154 181
133 154 181
134 154 181
134 154 181
134 154 181
134 154 181
133 154 181
133 154 181
134 154 181
134 155 181
134 154 181
133 154 181
134 154 181
133 154 181
133 154 181
133 154 181
134 154 181
134 154 181
133 154 181
134 154 181
133 154 181
133 154 181
133 154 181
134 154 181
134 154 181
134 154 181
133 154 181
134 154 181
134 154 181
133 154 181
134 154 181
134 154 181
133 153 180
133 154 181
134 154 181
134 154 181
134 154 181
134 154 181
135 155 181
133 154 181
134 154 181
134 154 181
133 154 181
134 154 181
133 154 181
133 154 181
134 155 181
133 154 181
133 154 181
133 154 181
134 154 181
133 154 181
134 154 181
134 154 180
133 154 181
134 154 181
135 155 181
134 154 181
134 154 181
133 154 181
134 154 181
134 154 181
134 154 181
133 154 181
133 154 181
133 154 181
134 154 181
134 154 181
134 155 181
134 154 180
133 154 181
133 154 181
133 154 181
134 154 181
134 154 181
133 154 181
133 154 181
133 153 180
134 154 181
134 154 181
134 154 181
134 154 181
134 154 181
134 154 181
134 154 181
133 154 181
133 154 181
133 154 181
134 154 181
135 155 181
134 154 181
133 154 180
133 154 181
134 154 181
135 155 181
134 154 181
134 154 181
133 154 181
134 154 181
133 154 181
134 154 181
133 154 180
133 154 181
134 154 181
134 154 181
133 154 181
135 155 181
134 154 181
134 154 181
134 154 181
134 154 181
134 154 181
133 154 181
134 154 181
134 154 181
134 154 181
133 153 180
134 154 180
133 154 181
134 154 181
135 155 181
133 154 181
134 155 181
134 154 181
133 154 181
134 154 181
133 154 181
134 154 181
134 154 180
135 155 181
134 154 181
134 154 181
133 154 181
134 154 181
134 154 181
133 154 181
134 154 181
134 154 181
133 154 181
133 154 181
134 154 181
134 154 181
134 154 181
133 154 181
134 154 181
134 154 181
134 154 181
133 154 181
134 154 181
133 154 181
134 154 181
133 154 180
134 154 181
134 154 181
134 154 181
134 154 181
134 155 181
134 154 181
135 154 180
133 154 181
134 154 181
134 154 181
133 154 181
133 154 181
134 154 181
133 154 181
133 154 181
134 154 181
134 154 181
133 154 181
133 154 181
134 154 181
134 154 181
134 154 180
134 154 181
133 154 181
134 154 181
134 154 181
134 154 181
134 154 181
134 154 180
134 154 181
134 154 180
134 154 181
134 154 181
133 154 181
134 154 181
134 154 181
133 154 181
133 154 181
134 154 181
134 154 181
133 154 180
133 154 181
133 153 180
134 154 181
133 153 180
133 154 181
134 155 181
134 154 181
133 154 181
134 154 181
135 155 181
134 154 181
135 155 181
134 154 181
134 154 181
133 154 181
134 154 181
133 154 181
133 154 180
133 154 181
133 154 181
133 154 181
134 154 181
133 154 181
133 154 181
134 154 181
134 154 181
133 154 181
134 154 181
135 155 181
134 154 181
134 154 181
133 154 181
134 154 181
133 154 180
134 154 181
134 154 181
134 154 181
133 154 181
134 154 181
134 154 181
134 154 181
134 154 181
133 154 181
134 154 181
134 154 181
133 154 181
134 154 181
134 154 181
134 154 181
134 154 181
134 154 181
134 154 180
134 154 181
133 154 181
134 154 181
133 154 181
134 154 181
134 154 181
134 154 181
134 155 181
134 154 181
134 154 181
134 154 181
134 154 181
134 154 181
134 154 181
134 154 181
134 154 181
133 154 181
133 154 181
133 154 181
134 154 181
133 154 181
133 154 181
132 153 181
134 154 181
135 155 181
134 154 181
134 154 181
135 155 181
134 154 181
134 154 181
134 154 181
134 154 181
133 154 181
134 154 181
134 154 181
134 154 181
134 154 181
134 155 181
134 154 181
134 154 180
134 153 179
133 154 181
133 154 181
134 154 181
133 154 181
133 154 181
134 154 181
134 154 181
134 154 181
134 154 181
133 154 181
134 154 181
134 154 181
133 154 181
134 154 181
133 154 181
133 154 181
134 154 181
134 154 181
133 154 180
133 154 181
133 154 181
133 154 181
134 154 181
134 154 181
134 154 181
134 154 181
134 154 181
134 154 181
134 154 181
134 155 181
133 154 181
134 154 181
134 154 181
134 154 181
134 154 181
134 154 180
134 154 181
133 154 181
133 154 181
134 154 181
133 154 181
133 154 181
133 154 181
134 155 181
134 154 181
134 154 181
134 154 181
133 154 181
134 154 181
133 154 181
134 154 181
133 154 181
134 154 181
133 154 180
133 154 181
134 154 181
134 154 181
132 153 181
133 154 181
134 154 181
134 154 181
133 154 180
134 154 181
134 154 181
134 154 181
134 154 181
133 154 181
133 154 181
133 154 180
134 154 181
133 154 181
134 154 181
134 154 181
135 155 181
133 154 181
135 155 181
133 154 180
134 154 181
133 154 181
136 155 181
134 154 181
134 154 181
134 154 181
134 154 181
134 154 181
134 154 181
134 154 181
134 154 181
135 155 181
133 154 181
133 154 181
133 154 180
134 154 181
134 154 181
134 154 180
133 154 181
133 154 181
134 154 181
134 154 181
133 154 181
133 154 181
134 154 181
134 154 181
133 154 181
134 154 181
134 154 181
133 154 180
133 154 181
134 154 181
133 154 181
134 154 181
133 154 181
134 154 181
134 154 181
134 154 181
135 155 181
133 154 181
134 154 181
134 154 181
134 154 181
134 154 181
134 154 180
135 155 181
134 154 181
133 154 181
134 154 180
134 154 181
134 154 181
134 154 181
133 154 181
135 155 181
134 154 181
134 154 181
135 155 181
135 155 181
133 154 181
134 154 181
134 154 181
134 154 181
134 154 181
134 154 181
134 154 180
134 154 181
135 155 181
134 154 180
134 154 181
134 154 181
134 154 181
134 154 181
134 154 181
134 154 181
134 154 181
134 154 181
134 154 181
135 155 181
134 154 181
134 154 181
133 154 181
134 154 181
133 154 181
133 154 181
133 154 181
134 154 181
134 154 181
134 154 181
134 155 181
133 154 180
134 154 181
133 154 181
134 154 181
133 154 180
134 154 181
133 154 181
133 154 181
133 154 180
134 154 180
133 154 181
134 154 181
134 154 181
135 155 181
133 154 181
135 155 181
134 154 181
134 154 181
133 154 181
134 154 181
134 154 181
133 154 181
133 154 180
134 154 181
135 155 181
133 154 181
135 155 181
134 154 181
134 154 181
134 154 181
133 154 181
134 154 180
134 154 181
134 154 181
133 154 181
133 154 181
134 154 181
134 154 181
134 154 180
133 154 180
134 154 181
135 155 181
134 154 181
133 154 181
134 154 181
134 154 181
134 154 181
134 154 181
133 154 181
134 154 181
134 154 181
134 154 181
134 154 181
134 154 180
135 155 181
134 154 181
134 154 181
134 154 181
133 154 181
134 154 181
134 154 181
133 154 181
134 154 181
134 154 181
133 154 181
133 154 181
133 154 181
133 154 181
133 154 181
134 154 181
133 153 180
134 154 181
134 154 181
134 154 181
134 154 180
133 154 181
133 154 181
134 154 181
134 154 181
135 155 181
135 155 181
134 154 181
133 154 181
134 154 181
135 155 181
133 154 181
134 154 181
133 154 181
134 154 181
134 154 181
135 155 181
133 154 181
134 154 181
133 154 181
133 154 181
133 154 181
133 154 181
134 154 181
134 154 181
134 154 181
133 154 181
133 154 181
134 154 181
134 154 181
134 154 181
133 154 181
134 154 181
133 154 181
134 154 181
133 154 181
134 154 181
133 154 180
134 154 181
134 154 181
133 154 181
134 154 180
134 154 181
134 154 181
133 154 181
134 154 181
134 154 181
134 154 181
134 154 181
133 154 181
134 154 181
134 154 181
133 154 181
134 154 181
134 154 181
133 154 181
134 154 181
134 154 181
133 154 181
133 154 181
133 154 181
133 154 181
133 154 181
133 154 181
133 154 181
134 154 181
135 155 181
133 153 180
133 154 181
134 154 181
134 154 181
134 154 181
134 154 181
133 154 180
134 154 181
134 154 181
133 154 181
134 154 181
134 154 181
133 154 181
134 154 181
135 155 181
134 154 181
134 154 181
133 154 181
134 154 181
134 154 181
134 154 180
134 154 181
133 154 181
134 154 181
133 154 181
134 154 181
134 154 181
134 154 181
133 154 181
134 154 181
133 154 181
133 154 180
133 154 181
134 154 181
134 154 181
133 154 181
133 154 181
134 154 181
133 154 181
134 154 181
134 154 181
134 154 181
134 154 181
134 154 181
133 154 181
134 154 181
133 154 181
134 154 181
134 154 181
133 154 180
134 155 181
133 154 181
133 154 181
134 154 181
134 155 181
133 154 181
134 154 181
134 154 181
134 154 181
133 154 181
134 154 181
134 154 181
133 154 181
135 155 181
134 154 181
133 154 181
134 154 181
133 154 181
134 154 181
133 154 181
133 154 181
134 154 181
134 154 181
133 154 181
134 155 181
133 154 181
134 154 181
134 154 181
133 154 181
134 154 181
133 154 181
134 154 181
134 154 181
134 154 181
134 154 181
134 155 181
134 154 181
133 154 181
133 154 181
134 155 181
133 153 180
134 154 181
133 154 181
133 154 181
133 154 181
134 154 180
135 155 181
134 154 181
134 154 181
133 154 181
133 154 181
133 154 181
134 154 181
134 154 181
133 154 181
134 154 181
133 154 181
134 154 181
134 154 181
134 154 181
134 154 181
134 155 181
133 154 181
133 154 181
134 154 181
134 154 180
134 154 181
134 154 181
134 154 181
134 154 181
133 154 181
133 154 181
134 154 181
134 154 181
134 154 181
133 154 181
134 154 181
134 154 181
134 154 181
134 154 181
134 154 181
134 154 181
134 154 181
133 154 181
135 155 181
133 154 181
135 155 181
134 154 181
134 155 181
134 154 181
134 154 181
133 154 181
135 155 181
133 154 181
133 154 181
134 154 181
134 154 181
133 154 181
134 154 181
133 154 181
134 154 181
135 155 181
134 154 181
133 154 181
134 154 181
134 154 181
134 154 181
135 155 181
134 154 181
134 155 181
133 154 181
134 154 181
134 154 181
133 154 181
135 155 181
134 154 181
133 154 181
134 154 181
134 154 180
133 154 181
134 154 181
133 154 181
134 154 181
134 154 181
134 154 181
133 154 181
134 154 181
134 154 181
134 154 181
134 154 181
133 154 181
134 154 181
134 154 181
135 155 181
135 155 181
134 154 181
134 155 181
134 154 181
132 153 181
134 154 181
134 154 181
134 154 181
133 154 181
133 154 181
133 154 181
135 155 181
134 154 180
134 154 181
133 154 181
134 154 181
133 154 181
134 154 181
134 154 181
133 154 181
134 154 181
134 154 181
133 154 181
133 154 181
133 154 181
134 154 181
134 154 181
133 154 181
134 154 181
133 154 181
133 154 181
134 154 181
134 154 181
134 154 181
134 154 181
135 155 181
134 154 181
133 154 181
134 154 181
134 154 181
133 154 181
134 154 181
134 154 180
133 153 180
135 155 181
134 154 181
134 154 181
133 154 181
134 154 181
134 154 181
133 154 181
135 155 181
134 154 181
135 155 181
134 155 181
133 154 181
133 154 181
134 154 181
134 154 181
133 154 181
134 154 181
135 155 181
134 155 181
133 154 181
134 154 181
134 154 181
133 154 181
133 154 181
133 154 181
134 154 181
134 154 181
133 154 181
134 154 181
133 154 181
134 154 181
133 154 181
134 154 181
134 154 181
134 154 181
133 154 181
133 154 181
133 154 181
134 154 181
134 154 181
133 154 181
134 155 181
133 154 181
134 154 181
134 154 181
133 154 181
134 154 181
134 154 181
134 154 181
133 154 181
134 154 181
134 154 181
134 154 181
133 154 181
134 154 181
134 154 181
133 154 181
133 154 181
134 154 180
133 154 181
134 154 181
134 154 181
133 154 181
133 154 181
134 154 181
134 154 181
134 154 181
133 154 181
133 154 180
134 154 181
134 154 181
135 155 181
134 154 181
133 154 181
134 154 181
135 155 181
134 154 181
134 154 181
133 154 181
134 154 181
134 154 181
134 154 180
134 155 181
134 155 181
132 153 180
134 154 181
133 154 180
134 154 181
133 154 181
133 154 181
134 154 181
133 154 181
134 154 181
134 154 181
134 154 181
133 154 181
134 154 181
134 154 181
134 154 181
133 154 181
133 154 181
134 154 181
134 154 181
133 154 180
134 155 181
134 154 181
134 154 181
135 155 181
133 154 181
134 154 181
134 154 181
133 154 181
134 154 181
134 154 181
133 154 181
133 154 181
133 154 181
134 154 181
134 154 181
134 154 181
133 154 181
134 154 181
134 154 181
134 155 181
134 154 180
134 154 181
134 154 181
134 154 181
134 154 181
134 154 181
135 155 181
135 155 181
133 154 181
133 154 181
133 154 181
135 155 181
133 154 180
133 154 181
134 154 181
134 155 181
135 155 181
133 154 181
133 154 181
133 154 181
134 154 181
134 154 181
134 154 181
134 154 181
133 153 180
134 154 181
134 154 181
134 154 181
133 153 180
134 154 181
133 154 181
133 154 181
134 155 181
134 155 181
134 154 181
134 154 181
134 154 181
133 154 181
134 154 181
134 154 181
134 154 181
135 155 181
135 155 181
134 154 181
135 155 181
133 154 181
133 154 181
134 154 181
133 154 181
134 154 181
134 154 181
133 153 180
133 154 181
134 154 181
134 154 181
134 154 181
134 154 181
134 154 181
133 154 181
133 154 181
135 155 181
133 154 181
133 154 181
132 153 181
134 154 181
134 154 181
134 154 181
134 154 181
134 154 181
134 154 181
133 154 181
133 154 181
134 154 181
134 154 181
133 154 181
134 154 181
134 154 181
134 154 181
134 154 181
134 154 181
134 154 181
134 154 181
133 154 180
134 154 181
134 154 181
133 154 181
133 154 181
134 154 181
134 154 181
134 154 181
134 154 181
134 154 181
134 154 181
133 154 181
134 155 181
134 154 181
133 154 181
134 154 181
133 154 181
134 154 181
133 154 181
134 154 181
133 154 181
135 155 181
135 155 181
134 154 181
134 154 181
134 154 181
134 154 181
134 154 181
133 154 181
134 155 181
134 154 181
133 154 181
133 154 181
134 154 181
133 154 181
134 154 181
134 154 181
134 154 181
134 154 180
134 155 181
134 154 181
134 154 181
134 154 181
133 154 181
133 154 181
133 154 181
133 154 180
134 154 180
133 154 181
133 154 181
134 154 181
133 154 181
134 154 181
133 154 181
134 154 181
134 154 181
134 154 181
134 154 181
134 154 181
134 154 181
133 154 181
134 154 181
133 154 180
133 153 180
134 154 181
134 154 181
133 154 181
133 154 181
133 154 181
134 155 181
134 154 181
133 154 180
134 154 181
133 154 181
134 154 181
134 154 181
134 154 180
134 154 181
134 154 181
134 154 181
134 154 181
134 154 181
134 154 181
134 154 181
134 154 180
133 154 181
133 153 180
133 154 181
134 154 181
133 153 180
134 154 181
134 154 181
134 154 181
133 154 181
134 154 181
133 154 181
135 155 181
134 154 181
134 154 181
134 154 181
133 154 181
134 154 181
133 154 181
135 155 181
133 154 181
134 154 180
134 154 181
134 154 181
133 154 181
134 154 181
132 153 181
135 155 181
134 154 181
133 154 181
133 154 180
135 155 181
133 154 181
133 154 180
132 153 180
134 154 181
134 154 181
133 154 181
134 154 181
135 155 181
134 154 181
133 154 181
134 154 181
133 154 181
134 154 181
133 154 181
134 155 181
134 154 181
133 154 181
133 154 181
133 154 181
133 154 180
133 153 180
134 154 181
134 155 181
134 154 181
135 155 181
133 154 181
133 154 181
133 154 181
134 154 181
134 154 181
134 154 181
134 154 181
133 154 181
134 154 181
134 154 181
134 154 181
133 154 181
134 154 181
134 154 181
134 154 181
134 154 181
134 154 181
133 154 181
133 154 181
134 154 181
133 153 180
134 154 181
134 154 181
134 154 181
133 154 181
133 154 181
134 154 181
134 154 181
133 154 181
134 155 181
134 154 181
133 154 181
135 155 181
133 154 181
134 154 180
134 154 181
133 154 181
135 155 181
133 154 181
134 154 181
134 154 181
134 154 181
133 154 180
134 154 181
134 154 181
133 154 181
134 154 181
134 154 181
133 154 181
134 154 181
133 154 181
134 154 181
133 154 181
133 154 181
133 154 181
134 154 181
134 154 180
134 154 181
135 155 181
134 154 181
134 154 180
135 155 181
134 154 181
134 154 181
134 154 181
133 154 181
134 154 181
133 154 181
134 154 181
134 154 181
133 154 180
133 154 181
134 154 181
135 155 181
134 154 181
133 153 180
135 155 181
134 154 181
133 154 181
134 154 181
134 154 181
133 154 181
134 154 181
133 154 181
134 154 181
134 154 181
134 154 181
134 154 181
133 154 181
134 154 181
134 154 181
133 154 181
133 154 181
134 154 181
134 154 181
133 154 181
134 154 181
134 154 181
133 154 181
134 154 181
134 154 181
134 154 181
133 154 181
134 154 181
134 154 181
134 154 181
134 154 181
134 154 181
134 154 181
134 154 181
133 154 181
135 155 181
133 154 181
134 154 181
134 155 181
134 154 181
133 154 181
134 154 181
134 154 181
135 154 180
133 154 181
134 154 181
133 154 181
133 154 181
134 154 181
133 154 181
134 154 181
135 155 181
134 154 181
135 155 181
134 154 181
135 155 181
133 154 181
134 154 181
133 154 181
134 154 181
135 155 181
133 154 181
134 154 181
134 154 181
133 154 181
133 154 181
134 154 181
134 154 181
134 154 181
133 154 181
134 154 181
134 154 181
134 154 181
134 154 181
133 154 181
133 154 181
134 154 181
134 154 181
134 154 180
133 154 181
133 154 181
133 154 181
134 154 181
135 155 181
134 154 181
134 154 181
134 154 181
134 154 181
133 154 181
134 154 181
135 155 181
133 154 180
134 154 181
134 154 181
134 154 181
134 154 181
134 154 181
134 154 181
134 154 181
133 154 181
134 154 181
134 154 181
134 154 181
134 154 181
133 154 181
134 154 181
134 154 180
134 154 180
135 155 181
133 154 181
134 154 181
133 154 181
134 154 181
134 154 181
134 154 181
134 154 181
133 154 181
134 154 181
134 154 181
134 154 181
133 154 181
134 154 181
134 154 181
133 154 181
134 154 181
134 154 181
134 154 181
134 154 181
134 154 181
132 153 181
133 154 181
133 154 181
132 153 180
134 154 181
134 154 181
134 154 180
134 154 181
134 154 181
135 155 181
133 154 181
134 154 181
134 154 181
133 154 181
134 154 181
133 154 181
133 154 181
134 154 181
134 154 181
134 154 181
135 155 181
133 154 181
134 154 181
135 155 181
133 154 181
135 155 181
134 154 181
133 154 181
133 154 181
134 154 181
134 154 181
135 155 181
134 155 181
133 154 181
133 154 181
134 154 181
134 154 181
134 154 180
134 154 181
134 154 181
134 154 180
134 154 181
134 154 181
134 154 181
134 154 181
134 154 181
134 154 181
134 154 181
133 154 181
135 155 181
134 154 181
134 154 181
134 154 181
134 154 181
134 155 181
134 155 181
134 154 181
134 155 181
134 154 180
134 154 181
134 154 181
134 154 181
133 154 181
134 154 181
134 154 181
134 155 181
134 154 181
134 154 181
134 154 181
133 154 181
133 154 181
134 154 180
134 154 181
134 154 181
134 154 181
134 154 180
134 154 181
134 154 181
133 154 181
133 154 180
134 154 181
134 154 181
134 154 181
134 154 181
134 154 181
135 155 181
134 154 181
133 154 181
135 155 181
134 154 181
133 154 181
134 154 181
133 154 180
134 154 181
134 154 181
134 154 181
134 154 181
134 154 181
134 154 181
134 154 181
134 154 181
134 154 181
133 154 181
134 154 181
134 155 181
134 154 181
134 154 181
134 154 181
133 154 181
134 154 181
134 154 181
134 154 181
133 154 181
134 154 181
133 153 180
133 154 181
133 154 181
134 154 181
133 154 181
134 154 181
134 154 181
134 154 181
134 154 181
133 154 181
134 154 181
134 154 181
133 154 181
133 154 181
134 154 181
134 154 181
135 155 181
133 154 181
134 154 181
134 155 181
134 154 181
133 154 181
134 154 181
133 154 181
133 153 180
133 154 181
134 154 180
133 154 180
134 154 181
134 154 181
133 154 181
134 154 181
133 154 181
134 154 181
134 154 181
134 154 181
133 154 181
133 154 181
133 154 181
134 154 181
134 154 181
134 154 181
133 154 180
132 153 181
133 154 181
135 155 181
133 154 181
134 154 181
133 154 181
134 154 181
133 154 181
135 155 181
134 154 181
134 154 181
134 154 181
134 154 181
134 154 181
134 154 181
134 154 181
134 154 181
134 154 181
134 154 181
134 154 181
133 154 181
134 154 181
135 155 181
135 155 181
134 154 181
134 154 181
135 155 181
133 153 180
134 154 181
133 154 181
133 153 180
133 154 180
134 154 181
133 154 181
134 154 181
133 154 181
134 154 181
134 155 181
135 155 181
134 154 181
133 154 181
133 154 181
134 154 181
134 154 181
134 154 181
133 154 181
135 155 181
134 154 180
134 154 181
134 154 181
133 154 181
134 154 181
134 154 180
133 154 181
133 154 181
134 154 181
134 154 181
134 154 181
135 155 181
133 154 181
135 155 181
134 154 181
134 154 181
133 154 181
134 154 181
134 154 181
134 154 181
133 154 181
135 155 181
133 154 180
134 154 181
133 154 181
133 154 181
134 154 180
134 154 181
134 154 181
133 154 181
134 154 181
134 154 181
134 154 181
134 154 181
134 154 181
134 154 181
133 154 181
134 154 181
134 154 181
134 154 181
134 154 180
133 154 181
133 154 181
134 154 181
134 154 181
134 154 181
134 154 181
134 154 181
134 154 181
134 154 181
133 154 181
134 154 181
133 154 181
133 154 181
133 154 181
134 154 181
134 154 181
135 155 181
134 154 181
134 154 181
132 153 181
134 154 180
133 154 180
133 154 181
133 154 181
135 155 181
133 154 181
135 155 181
134 154 181
134 154 181
133 154 181
134 154 181
133 154 181
134 154 181
134 154 181
133 154 181
134 154 181
134 154 181
134 154 181
134 154 181
134 154 181
134 154 181
133 154 181
133 154 181
135 155 181
134 154 181
134 154 181
133 154 181
134 154 181
134 154 181
134 154 181
134 154 181
134 154 181
134 154 181
135 155 181
134 154 181
133 154 180
134 154 181
134 154 181
134 154 181
133 154 181
134 154 181
133 154 181
135 155 181
134 154 181
133 154 180
133 154 181
133 154 181
134 154 181
133 154 181
133 154 181
134 154 181
135 155 181
134 154 181
134 154 181
134 154 181
134 154 181
134 154 181
134 154 181
133 154 181
133 154 181
134 155 181
134 154 181
133 154 181
134 154 181
133 154 181
134 154 181
134 154 181
135 155 181
133 154 181
135 155 181
133 154 181
133 154 180
134 154 181
133 154 181
134 154 181
134 154 181
134 154 181
134 154 181
134 155 181
133 154 181
134 154 181
133 154 181
134 154 181
134 154 181
133 154 181
134 154 181
135 155 181
134 154 181
134 154 181
134 154 181
134 154 181
134 154 181
133 154 181
134 154 181
133 154 181
134 154 181
134 154 181
134 154 181
133 154 180
134 154 181
133 154 181
133 154 181
133 154 181
133 154 181
134 154 181
134 154 181
134 154 181
134 154 181
134 154 181
134 154 181
133 154 181
134 154 181
133 154 181
133 154 181
133 154 181
134 154 181
133 154 181
133 153 180
134 154 181
133 154 181
133 154 181
133 154 181
133 154 181
133 154 181
134 154 181
133 154 181
134 154 181
134 154 181
135 155 181
133 154 181
134 154 181
134 154 181
133 154 181
135 155 181
133 154 181
134 154 181
134 154 181
133 154 181
134 154 181
133 154 181
133 154 181
134 154 181
134 154 181
134 154 181
133 154 181
134 154 181
134 154 181
134 154 181
133 154 181
133 154 181
133 154 181
134 154 181
133 154 181
134 154 181
134 154 181
133 154 181
133 154 181
134 154 181
134 154 181
134 154 181
134 154 181
134 154 181
134 154 181
134 154 181
133 154 181
133 154 181
134 155 181
135 155 181
133 154 181
134 154 181
134 154 181
134 154 181
133 154 181
133 154 181
134 154 181
133 154 181
134 154 181
134 154 181
133 154 181
134 154 181
134 154 181
134 154 180
133 154 181
133 154 180
134 154 181
134 154 181
134 154 181
133 154 181
134 154 181
134 154 181
134 154 181
135 155 181
133 154 181
133 154 181
133 154 181
134 154 181
133 154 181
134 154 181
134 154 181
134 154 181
134 154 181
133 154 181
134 154 181
133 154 181
133 154 181
133 154 181
134 154 181
133 154 181
134 154 181
133 154 181
134 154 181
134 154 181
134 154 180
134 154 181
134 154 181
133 154 181
133 154 181
134 155 181
133 154 181
134 154 181
133 154 180
133 154 181
133 154 181
133 154 181
134 154 181
134 154 180
134 154 181
133 153 180
134 154 181
133 154 181
134 154 181
134 154 181
134 154 181
134 154 181
133 154 180
133 153 180
132 153 181
134 154 180
134 154 181
133 154 181
134 154 181
133 154 181
134 154 181
133 154 181
133 154 181
134 154 181
134 155 181
133 154 181
133 154 181
133 154 181
133 154 180
134 154 181
134 154 181
134 154 181
134 154 181
133 154 180
133 154 181
134 155 181
134 154 181
134 154 181
134 154 181
134 154 181
133 154 180
134 154 181
135 155 181
133 154 181
134 155 181
134 154 181
133 154 181
134 154 181
134 154 181
133 154 181
133 154 181
134 154 181
134 154 181
134 154 181
134 154 181
135 155 181
134 154 181
135 155 181
134 154 181
133 154 180
134 154 181
134 154 181
135 155 181
134 154 181
134 154 181
134 154 181
134 154 181
133 154 180
134 154 181
133 154 181
133 154 181
133 154 181
134 154 181
134 154 181
133 154 181
134 154 181
133 154 181
133 154 181
134 155 181
134 154 181
135 155 181
134 154 181
134 154 181
133 154 181
134 154 181
133 154 181
134 154 181
134 154 181
134 154 180
134 154 181
134 154 181
134 154 181
133 154 181
134 154 181
133 153 180
133 154 181
134 154 181
134 154 181
134 154 181
133 154 181
134 154 181
134 154 181
134 154 181
133 154 181
134 154 181
134 154 181
134 154 181
133 154 181
134 154 181
133 154 181
133 154 181
134 154 181
134 154 181
133 154 181
135 155 181
134 154 181
133 154 181
134 154 181
134 154 181
135 155 181
134 154 181
133 154 181
133 154 181
133 154 180
134 154 181
134 154 181
133 154 181
133 154 181
134 154 181
133 154 181
134 154 181
134 154 181
133 154 181
134 154 181
134 154 180
135 155 181
134 154 180
134 155 181
134 154 181
134 154 180
134 154 180
133 154 181
134 154 181
134 154 180
133 154 181
134 154 181
134 154 181
133 154 181
134 154 181
133 153 180
134 154 181
134 154 180
134 154 180
134 154 181
133 154 180
134 154 181
134 154 181
134 154 181
134 154 181
133 154 181
134 154 181
133 154 180
134 154 181
133 153 180
134 154 181
134 154 181
134 154 181
133 154 181
134 154 181
134 154 181
134 154 181
133 154 181
134 154 181
134 154 181
134 154 181
133 154 181
134 154 181
133 154 181
133 154 181
134 154 181
134 154 181
133 154 181
134 154 181
133 154 181
133 154 181
134 154 181
134 155 181
133 154 181
134 154 180
134 154 181
134 155 181
134 154 181
133 154 181
134 154 181
133 154 181
135 155 181
133 154 181
133 154 181
133 154 181
134 154 181
134 154 181
134 154 181
135 155 181
134 154 181
134 154 181
133 154 181
134 154 181
134 154 181
134 154 181
134 154 181
133 154 181
134 154 181
133 154 181
133 154 181
133 154 181
135 155 181
134 154 180
134 155 181
134 155 181
134 154 181
133 154 181
134 154 181
134 154 181
133 154 181
134 154 181
134 154 181
135 155 181
133 154 181
134 154 181
134 154 181
133 154 181
134 154 181
134 154 181
134 154 181
134 154 181
135 155 181
134 154 181
134 154 181
134 154 181
134 154 181
134 154 181
134 154 181
133 154 181
134 154 181
134 154 181
133 154 181
133 154 181
134 154 181
134 154 181
134 154 181
133 154 181
134 154 181
134 154 181
134 154 181
134 154 181
134 154 181
134 154 181
133 154 181
133 154 181
132 153 180
135 155 181
134 154 181
133 154 181
134 154 181
134 154 181
134 154 181
133 154 181
133 154 181
134 154 181
133 153 180
133 154 181
134 154 181
134 154 181
134 154 181
134 154 181
133 154 181
134 154 181
133 154 181
134 154 181
133 154 181
134 154 181
134 155 181
133 154 181
134 154 181
133 154 181
134 155 181
133 154 181
134 154 181
134 154 180
133 154 181
134 154 181
134 154 181
134 154 181
133 154 181
133 154 181
133 154 180
134 154 181
133 154 181
135 155 181
134 154 181
133 154 181
133 154 181
134 154 181
134 154 181
134 154 181
134 154 181
134 154 181
134 154 181
133 154 181
134 154 181
135 155 181
134 154 181
133 154 180
133 154 181
134 154 181
133 154 181
133 154 181
135 155 181
135 155 181
134 154 181
133 154 181
133 154 181
134 154 181
134 154 181
133 154 181
133 154 181
132 153 181
134 154 181
133 154 181
134 154 181
134 155 181
133 154 181
133 154 181
133 154 181
133 154 181
133 154 181
135 155 181
134 154 180
134 154 181
134 154 181
134 154 181
133 154 181
133 154 181
133 154 181
134 154 181
134 154 181
133 154 181
135 155 181
134 155 181
134 154 181
133 154 180
133 154 181
134 154 181
133 153 180
133 154 181
134 154 181
134 154 181
133 154 180
134 154 181
134 154 181
133 154 181
135 155 181
135 155 181
134 154 181
135 155 181
134 154 181
134 154 181
133 154 181
133 154 181
134 154 181
134 154 181
133 154 181
134 154 181
135 155 181
134 154 181
133 154 181
133 154 181
134 154 181
134 154 181
133 154 181
134 154 181
134 154 181
134 154 181
134 154 181
133 154 181
134 154 181
135 155 181
133 154 181
135 155 181
134 154 181
134 154 181
135 155 181
134 154 181
133 154 181
133 154 180
134 154 181
132 153 180
133 154 181
134 154 181
134 154 181
134 154 181
133 154 181
133 154 181
134 154 181
135 155 181
134 154 181
134 154 181
133 154 181
133 154 181
133 154 181
133 154 181
135 155 181
134 154 181
134 155 181
134 154 181
134 154 181
133 154 181
133 154 181
134 154 181
133 154 181
133 154 181
133 154 181
134 154 181
133 154 181
134 154 181
134 154 181
134 154 181
134 154 181
133 153 180
134 154 181
134 154 181
133 154 181
134 154 181
134 154 181
134 154 181
133 153 180
135 155 181
135 155 181
133 154 181
133 154 181
134 154 181
133 154 181
134 154 181
133 154 181
134 154 181
134 154 181
133 154 181
134 154 181
134 154 181
134 154 180
133 154 181
134 154 181
134 154 181
133 154 181
134 154 181
134 154 181
134 154 181
134 154 181
133 154 181
133 154 181
134 154 181
134 154 181
134 154 180
134 154 181
134 154 181
134 154 181
133 154 181
133 153 180
133 154 181
134 154 181
134 154 181
134 154 180
133 154 181
133 154 180
134 154 181
134 154 181
134 154 181
133 154 181
134 154 181
134 154 181
134 154 181
133 154 181
133 154 181
133 154 181
134 154 181
134 154 181
133 154 181
133 154 181
134 154 181
134 154 181
134 154 181
133 154 181
134 154 181
134 154 180
135 155 181
133 154 181
133 154 181
134 154 181
134 154 181
134 154 181
134 154 181
134 154 181
133 154 181
133 154 180
134 154 181
135 155 181
134 154 181
134 154 181
134 155 181
133 154 181
134 154 181
134 154 181
134 154 181
134 154 181
134 154 181
134 154 181
134 154 180
133 154 181
134 154 181
134 154 181
134 154 181
133 154 181
134 154 181
133 154 181
134 154 180
134 154 181
134 154 181
134 154 181
134 154 181
134 154 181
133 154 181
133 154 181
133 154 181
134 154 181
133 154 181
134 154 181
135 155 181
135 155 181
134 154 181
134 154 181
134 154 181
133 154 181
133 154 181
134 154 181
133 154 181
134 154 181
134 154 181
134 154 181
134 154 181
135 155 181
133 154 181
133 154 181
134 154 181
133 154 181
134 154 181
133 154 181
134 154 181
134 154 180
133 154 180
134 154 181
134 154 181
134 154 181
134 154 181
134 154 181
134 154 181
133 154 181
134 154 181
134 154 181
133 154 181
134 154 180
134 154 181
133 154 181
133 154 181
133 154 181
133 154 181
134 154 181
133 154 181
134 154 181
134 155 181
134 154 181
134 154 181
133 154 181
133 154 181
134 154 181
134 154 180
134 154 181
133 154 181
134 154 181
133 154 181
134 154 181
133 154 181
134 154 181
134 154 181
134 154 181
134 154 181
133 154 181
134 154 181
134 154 180
134 154 181
133 154 181
134 154 181
133 154 181
134 154 181
134 154 181
133 154 181
133 154 181
133 154 181
133 154 181
134 154 180
133 154 181
134 154 181
134 154 181
135 155 181
134 154 181
134 154 181
134 154 181
134 155 181
134 154 181
134 154 181
135 155 181
134 154 181
134 154 181
134 154 181
134 154 181
134 154 181
133 154 181
133 153 180
134 154 181
133 154 181
134 154 181
134 154 181
