P3
400 200
255
133 154 181
133 154 181
135 155 181
134 154 181
134 154 181
134 154 181
133 154 181
133 154 181
134 154 181
134 154 181
134 154 181
133 154 181
135 155 181
134 154 181
133 154 181
134 154 181
134 154 181
134 154 181
135 155 181
133 154 181
133 154 181
134 154 181
134 154 181
133 154 181
134 154 181
134 154 181
134 154 181
134 154 181
134 154 181
133 154 181
134 154 181
135 155 181
134 154 181
134 154 181
134 154 181
133 154 181
134 154 181
134 154 181
134 154 180
133 154 181
134 154 181
133 154 181
134 154 181
134 154 181
134 155 181
133 154 181
134 154 181
134 154 181
134 154 181
133 153 180
134 154 181
133 154 181
133 154 181
134 154 181
134 154 181
135 155 181
134 154 181
133 154 181
134 154 181
133 154 181
134 154 181
134 154 181
133 154 181
134 154 181
133 154 181
133 154 181
133 154 180
134 154 181
133 154 180
134 154 181
134 154 181
133 154 181
133 154 181
134 154 181
134 154 181
134 154 181
134 154 181
134 154 181
134 154 181
135 155 181
134 154 181
134 154 181
133 154 181
133 154 181
133 154 181
134 154 181
134 154 181
133 154 181
133 154 181
134 154 181
134 154 181
133 154 181
134 154 181
134 154 181
133 154 181
133 154 181
133 154 181
133 154 181
134 154 181
135 155 181
134 155 181
133 154 181
134 154 181
134 154 181
134 154 181
135 155 181
133 154 181
134 154 181
134 154 181
134 154 181
133 154 181
133 154 181
134 154 181
134 154 181
133 154 181
134 154 181
134 154 181
134 154 181
133 154 181
134 154 181
133 154 181
134 154 181
134 154 181
133 154 181
133 154 181
134 154 181
134 154 181
134 154 181
134 154 181
134 154 181
133 154 181
133 154 181
135 155 181
134 155 181
134 154 181
134 154 181
133 154 181
135 155 181
134 154 181
134 154 181
134 154 181
133 154 181
133 154 181
133 154 181
133 154 181
134 154 181
133 154 181
133 154 181
134 154 181
134 154 181
134 154 181
134 154 181
134 154 181
134 154 181
133 154 181
134 154 181
134 154 181
134 154 181
133 154 181
135 155 181
133 154 181
134 154 181
134 154 181
134 154 181
133 154 181
134 154 181
134 154 181
133 154 181
133 154 181
135 155 181
134 154 181
135 155 181
134 154 181
134 154 181
134 154 181
134 154 181
134 154 181
133 154 181
133 154 181
134 154 181
133 154 181
134 154 181
133 154 181
134 154 181
134 154 181
133 154 181
134 154 181
134 154 181
134 154 181
134 154 180
134 154 181
134 154 181
134 154 181
134 154 181
135 155 181
133 154 181
134 154 181
134 154 181
134 154 181
134 154 181
135 155 181
134 154 181
134 154 181
133 154 181
133 153 180
134 154 181
134 154 181
134 155 181
133 154 181
134 154 181
134 154 181
134 154 181
133 154 181
133 154 181
134 154 181
134 154 181
134 154 181
134 154 181
134 154 181
134 155 181
133 154 181
134 154 181
134 154 181
134 154 181
133 154 181
134 154 181
134 154 181
134 154 181
134 154 181
134 154 181
134 154 181
133 154 181
134 154 181
134 154 181
134 154 181
134 154 181
134 154 181
134 154 181
133 154 181
133 154 181
134 154 181
134 154 181
134 154 181
134 154 181
133 154 181
133 154 181
133 154 181
133 154 181
134 154 181
134 154 181
133 154 180
134 154 181
134 154 181
134 154 181
133 154 181
133 154 180
134 154 181
133 154 181
134 154 181
134 155 181
133 154 181
134 154 181
134 154 181
134 154 181
135 155 181
134 154 181
134 154 181
134 154 181
133 154 181
133 154 181
134 154 181
134 154 181
134 154 181
135 155 181
134 154 181
133 153 180
133 154 181
134 154 181
134 154 181
134 154 181
133 154 181
133 154 181
134 154 181
134 154 181
134 154 181
133 154 181
133 154 181
133 154 181
134 154 181
133 154 181
134 154 180
133 154 180
134 154 181
133 154 181
133 154 181
133 154 181
134 154 181
133 154 181
133 154 181
133 154 181
134 154 181
133 154 181
133 154 181
134 154 181
134 154 181
134 154 181
134 154 181
134 155 181
133 154 181
134 154 181
133 154 181
135 155 181
134 154 181
134 154 181
134 154 181
134 154 181
134 155 181
134 154 181
135 155 181
134 154 180
134 154 181
134 154 181
134 154 181
134 154 181
134 154 181
133 154 181
133 154 181
133 154 181
135 155 181
133 154 181
134 154 181
134 154 181
134 154 181
134 154 181
133 154 181
133 154 181
134 154 181
134 154 181
133 154 180
134 154 181
134 154 181
135 155 181
133 154 181
134 154 181
134 154 181
134 154 181
133 154 181
133 154 180
135 155 181
135 155 181
133 153 180
134 154 181
134 154 181
134 154 181
134 154 181
134 154 181
133 154 181
134 154 181
134 154 181
134 154 181
134 154 181
134 154 181
135 155 181
133 154 181
134 154 181
133 154 181
134 154 181
133 154 181
133 154 180
134 154 181
134 154 181
133 154 181
134 154 181
133 154 181
134 154 181
134 154 181
133 154 181
134 154 181
133 154 181
134 154 181
134 154 181
133 154 181
134 154 181
134 154 181
134 154 181
135 155 181
133 154 181
134 154 181
133 154 180
133 154 181
133 154 181
133 154 181
133 154 181
133 154 181
133 154 181
134 155 181
133 154 181
134 155 181
134 154 180
133 154 181
134 154 181
134 154 181
134 154 181
135 155 181
134 155 181
134 154 181
133 154 181
133 154 181
134 154 181
134 154 181
135 155 181
133 154 181
134 154 181
134 154 181
134 154 181
134 154 181
133 154 181
133 154 181
133 154 181
134 154 181
134 154 181
134 154 181
134 154 181
133 154 181
133 154 181
134 154 181
134 154 181
134 154 181
134 154 181
134 154 181
133 154 181
133 154 181
133 154 181
134 154 181
133 154 181
133 154 181
134 154 181
133 154 181
135 155 181
133 154 181
134 154 181
134 154 181
134 154 181
134 154 181
134 154 181
133 154 181
134 154 181
134 154 181
133 154 181
132 153 181
133 154 181
134 154 181
133 154 181
134 154 181
133 154 181
134 154 181
134 154 181
134 154 181
133 154 181
134 154 181
133 154 181
134 154 181
134 154 181
134 154 181
134 154 181
133 154 181
133 154 181
134 154 181
134 154 181
134 154 181
133 154 181
134 154 181
134 154 181
134 154 181
133 154 181
133 154 180
134 154 181
134 154 181
135 155 181
134 154 181
134 154 181
133 154 181
133 154 181
134 154 181
133 154 181
134 154 181
133 154 181
134 154 181
134 154 181
134 154 181
134 154 181
134 154 181
134 154 181
134 155 181
133 154 181
133 154 181
134 154 181
133 154 181
134 154 181
133 154 181
133 154 181
134 154 181
134 154 181
133 154 181
134 154 181
134 154 181
134 154 181
133 154 181
134 154 181
134 154 181
134 154 181
133 154 181
132 153 181
134 154 181
135 155 181
134 154 181
134 154 181
134 154 181
133 154 181
134 154 181
134 154 181
133 154 181
133 154 181
133 154 181
134 154 181
133 154 181
134 154 181
133 154 181
134 154 181
134 154 181
134 154 181
133 154 180
133 154 181
134 154 181
133 154 181
133 154 180
134 154 181
134 154 181
134 154 181
134 154 181
134 154 181
134 154 181
134 154 181
134 154 181
134 154 181
133 154 181
134 154 181
133 154 181
134 154 181
134 154 181
132 153 181
134 154 181
134 154 181
134 154 181
134 154 181
134 154 181
133 154 181
133 154 180
134 154 181
134 154 181
133 154 181
134 154 181
134 154 181
133 154 181
134 154 181
134 154 181
135 155 181
134 154 181
133 154 180
133 154 181
134 154 181
133 154 180
134 154 181
134 154 181
134 154 181
134 154 181
134 154 181
134 154 181
134 154 181
133 154 181
134 154 181
134 154 181
134 154 181
133 154 181
135 155 181
133 154 181
134 154 181
133 154 181
134 154 181
134 154 181
134 154 181
133 154 181
134 154 181
133 154 180
134 154 181
133 154 181
133 154 181
133 154 181
134 154 181
134 154 181
134 154 181
135 155 181
134 155 181
134 154 181
135 155 181
133 154 181
133 154 181
134 154 181
134 154 181
134 154 181
134 154 181
134 154 181
134 154 181
134 154 181
134 154 181
134 154 181
134 154 181
133 154 181
133 153 180
134 154 181
133 154 181
134 154 181
134 154 181
134 154 181
133 154 181
133 154 181
134 154 181
134 154 181
134 154 181
134 154 181
133 154 181
133 154 181
134 154 181
133 154 181
134 154 181
135 155 181
134 154 181
134 154 181
134 154 181
134 154 181
134 154 181
135 155 181
134 154 181
134 154 181
134 154 181
134 154 181
134 154 181
133 154 181
133 154 181
133 154 181
134 154 181
133 154 181
134 154 181
134 154 181
134 154 181
134 154 181
134 154 181
135 155 181
133 154 181
134 154 181
133 154 181
133 154 180
133 154 181
134 155 181
134 154 181
133 154 181
134 154 181
134 154 181
133 154 181
133 154 181
134 154 181
134 154 181
133 154 181
134 154 181
134 154 181
135 155 181
134 154 181
134 154 181
134 154 181
132 153 180
133 154 181
133 154 181
134 154 181
134 154 181
134 154 181
134 154 181
134 154 181
134 154 181
134 154 181
134 154 181
133 154 181
133 154 181
134 154 181
133 154 180
135 155 181
135 155 181
135 155 181
133 154 181
134 154 181
135 155 181
133 154 181
133 154 181
133 154 181
134 154 181
133 154 181
133 154 181
134 154 181
134 154 180
133 154 181
134 154 181
134 154 181
134 154 181
133 154 181
133 154 181
133 154 181
134 154 181
134 154 181
134 154 181
133 154 181
133 154 181
134 154 181
134 154 181
133 154 181
135 155 181
133 154 181
133 154 180
133 154 181
135 155 181
133 154 180
134 154 181
133 154 181
134 154 181
134 154 181
134 154 181
135 155 181
134 154 180
133 154 181
134 154 181
134 154 181
134 154 181
134 154 181
133 154 181
134 154 181
134 154 181
134 154 181
133 154 181
134 154 181
134 154 181
134 154 181
134 154 181
134 154 181
134 154 181
133 154 181
134 154 181
133 154 181
135 155 181
134 154 181
134 154 181
133 154 181
134 154 181
134 154 181
133 154 181
134 154 181
133 154 181
134 154 181
134 154 181
133 154 181
133 154 181
134 154 180
134 154 181
135 155 181
134 154 181
133 154 181
134 154 181
134 154 181
134 154 181
133 154 181
134 154 181
134 154 181
133 154 181
135 155 181
135 155 181
134 154 181
135 155 181
134 154 181
133 154 181
134 154 181
133 154 181
134 154 181
134 154 181
134 154 181
134 155 181
133 154 181
134 154 181
134 154 181
134 154 181
134 154 181
134 154 181
134 154 181
133 154 181
133 154 181
133 154 181
134 154 181
133 154 181
133 154 181
134 155 181
133 154 181
134 154 181
133 154 180
133 154 181
134 154 181
134 154 181
132 153 181
134 154 181
134 154 181
134 154 181
134 154 181
133 154 181
134 154 181
134 154 181
133 154 181
134 154 181
134 154 181
134 154 181
134 154 181
134 154 181
134 154 181
134 154 181
134 154 181
134 154 181
133 154 181
134 154 181
134 154 181
134 154 181
133 154 181
134 154 181
134 154 181
134 154 181
134 154 181
134 154 181
133 154 181
134 154 181
133 154 181
134 154 181
134 154 181
134 154 181
133 154 181
134 154 181
134 154 181
134 154 181
133 154 181
133 154 181
134 154 181
133 154 181
133 154 181
134 154 181
134 154 181
134 154 181
134 154 181
134 154 181
134 154 181
134 154 181
133 154 181
134 154 181
134 154 181
134 154 181
133 154 181
134 154 181
134 154 181
134 154 181
133 154 181
133 154 181
133 154 181
134 154 181
134 154 181
134 154 181
134 155 181
134 154 181
134 154 181
134 154 181
134 154 181
134 154 181
133 154 181
134 154 181
134 154 181
133 154 181
133 154 181
134 154 181
133 154 181
134 154 181
135 155 181
134 154 181
134 154 181
133 154 181
133 154 181
133 154 181
134 154 181
133 154 181
134 154 181
133 154 181
133 154 181
133 154 181
133 153 180
133 154 181
134 154 181
134 154 181
133 154 181
134 154 181
134 154 181
134 154 181
133 154 181
134 155 181
134 154 181
134 154 181
134 154 181
134 154 181
134 154 181
134 154 181
134 154 181
133 154 181
133 154 181
134 154 181
134 154 181
134 154 181
133 154 181
134 154 181
134 154 181
134 154 181
134 154 181
134 154 181
135 155 181
135 155 181
134 154 181
134 154 181
134 154 181
133 154 181
133 154 181
134 154 181
134 154 181
134 154 181
134 154 181
134 154 181
133 154 181
134 154 181
133 154 181
133 154 181
133 154 181
134 155 181
133 154 181
133 154 181
134 154 181
133 154 181
135 155 181
134 154 181
134 154 181
133 154 181
134 154 181
134 154 181
135 155 181
134 154 181
133 154 181
133 154 181
133 154 181
133 154 181
134 154 181
133 154 181
135 155 181
134 154 181
134 154 181
134 154 181
133 154 181
134 154 181
134 154 181
134 154 181
134 154 181
133 154 181
133 154 181
133 154 181
134 154 181
133 154 181
133 154 181
134 154 181
134 154 181
134 154 181
134 155 181
133 154 181
134 154 181
134 154 181
134 154 181
134 154 181
133 154 181
134 154 181
134 154 181
134 154 181
134 154 181
135 155 181
134 154 181
134 154 181
133 154 181
133 154 181
134 154 181
134 154 181
134 154 181
134 154 181
134 154 181
133 154 181
134 154 181
134 154 181
134 154 181
134 154 181
134 154 181
134 154 181
134 154 181
134 154 181
133 154 181
134 154 181
133 154 181
134 154 181
134 154 181
134 154 181
133 154 181
134 154 181
134 154 181
135 155 181
133 154 181
134 154 181
134 154 181
135 155 181
134 154 181
133 154 180
134 154 181
134 154 181
134 154 181
133 154 181
134 154 181
133 154 181
134 154 181
135 155 181
135 155 181
134 154 181
134 154 181
133 154 181
133 154 181
134 154 181
133 154 181
134 155 181
134 154 181
134 154 181
134 154 181
134 154 181
134 154 181
134 154 181
134 154 181
134 154 181
134 154 181
134 154 181
133 154 181
134 154 181
133 154 181
134 154 181
134 154 181
134 154 181
133 154 181
133 154 181
134 154 181
134 154 181
134 154 181
134 154 181
133 154 181
134 154 181
134 154 181
133 154 181
133 154 181
134 154 181
133 154 181
134 154 181
134 154 181
133 154 181
134 154 181
133 154 181
134 154 181
134 154 181
134 154 181
134 154 181
134 154 181
134 154 181
133 154 181
134 154 181
134 154 181
134 154 181
134 154 181
134 154 181
133 154 181
133 154 181
134 154 181
134 154 181
134 154 181
135 155 181
134 154 181
134 154 181
134 154 181
134 154 180
134 154 181
135 155 181
134 154 181
134 154 181
134 154 181
134 154 181
134 154 181
134 154 181
134 154 181
133 154 181
134 154 181
133 154 181
133 154 181
133 154 181
133 154 181
134 154 181
134 154 181
134 154 180
134 154 181
133 154 181
134 154 181
134 154 181
135 155 181
134 154 181
133 154 181
133 154 181
134 154 181
133 154 181
134 154 181
134 154 180
133 154 181
134 154 181
134 154 181
134 154 181
135 155 181
133 154 181
134 154 181
135 155 181
133 154 181
133 154 180
134 154 181
134 154 181
134 154 181
134 154 181
133 154 181
134 154 181
133 154 181
133 154 181
133 154 181
134 154 181
133 154 181
134 154 181
134 154 181
134 154 181
134 154 181
133 153 180
134 154 181
134 154 181
133 154 181
134 154 181
134 154 181
133 154 181
134 154 181
134 154 181
134 154 180
134 154 181
134 155 181
134 154 181
134 154 181
134 154 181
134 154 181
134 154 181
133 154 181
134 154 181
134 154 181
133 154 181
133 154 181
134 154 181
134 154 181
133 154 181
135 155 181
134 154 181
134 154 181
134 154 181
134 154 181
134 154 181
133 154 181
134 154 181
134 154 181
133 154 181
133 154 181
134 154 181
134 154 181
133 154 181
134 154 181
134 154 181
134 154 181
134 154 181
134 154 181
134 154 181
134 154 181
133 154 181
133 154 181
134 154 181
133 154 181
134 154 181
133 154 181
134 154 181
135 155 181
134 154 181
134 154 181
133 154 181
134 154 181
134 154 181
134 154 181
133 154 181
135 155 181
133 154 181
134 154 181
135 155 181
134 154 181
135 155 181
135 155 181
134 154 181
134 154 181
134 154 181
133 154 181
134 154 181
134 154 181
135 154 180
133 154 181
134 154 181
133 154 181
133 154 181
133 154 181
133 154 181
133 154 181
133 154 181
134 154 181
134 154 181
133 154 181
133 154 181
133 154 181
133 154 181
134 154 181
134 154 181
134 154 181
134 154 181
134 154 181
134 154 181
134 154 181
133 154 180
134 154 181
134 154 181
133 154 181
134 154 181
135 155 181
134 154 181
133 154 181
133 154 181
134 154 181
134 154 181
134 154 181
135 155 181
134 154 181
133 154 181
134 154 181
133 154 181
134 154 181
135 155 181
134 154 181
133 154 181
134 154 181
134 155 181
134 154 181
134 154 181
134 154 181
133 154 181
133 154 181
134 154 181
133 154 181
135 155 181
133 154 181
134 154 181
134 154 181
134 154 181
133 154 181
134 154 181
133 154 181
134 154 181
134 154 181
134 154 181
134 154 181
133 154 181
133 154 181
133 154 181
134 154 181
133 154 181
133 154 181
133 154 181
133 154 181
134 155 181
133 154 181
133 154 181
133 154 181
134 154 181
134 154 181
134 154 181
134 154 181
134 154 181
134 155 181
133 154 181
134 154 181
134 154 181
134 154 181
133 154 180
133 154 181
133 154 181
134 154 181
132 153 181
134 154 181
133 154 181
134 154 181
135 155 181
134 155 181
133 154 181
134 154 181
134 154 181
133 154 180
134 155 181
134 154 181
133 154 180
134 154 181
134 154 181
135 155 181
133 154 181
134 154 181
133 154 181
134 154 181
133 154 181
134 154 181
134 154 181
134 154 181
134 154 181
134 155 181
135 155 181
134 154 181
134 154 181
133 154 181
134 154 181
134 154 181
134 154 181
134 154 181
134 154 181
133 154 181
133 154 181
134 154 181
134 154 181
134 154 181
134 154 181
133 154 181
134 154 181
134 154 181
134 155 181
134 154 181
134 154 181
135 155 181
133 154 181
133 154 181
134 154 181
133 153 180
133 154 181
133 154 181
133 154 181
134 155 181
134 154 181
133 154 181
133 154 181
133 154 181
134 154 181
134 154 181
134 155 181
133 154 181
134 154 181
134 154 181
134 154 181
134 154 181
134 154 181
134 154 181
134 154 181
134 154 181
133 154 181
133 154 181
135 155 181
134 154 181
134 154 181
134 154 181
134 154 181
134 154 181
134 154 181
133 154 181
134 154 181
134 154 181
135 155 181
134 154 181
133 154 181
135 155 181
134 154 181
134 154 181
134 154 181
134 154 181
134 154 180
134 154 181
133 154 181
133 154 181
133 154 181
134 154 181
134 154 181
134 154 181
134 154 181
134 154 181
134 155 181
134 154 181
133 154 181
133 154 181
134 154 181
134 154 181
133 154 181
133 154 181
134 154 181
133 154 181
133 153 180
133 154 181
134 154 181
133 154 181
133 154 181
134 154 181
133 154 181
134 154 181
134 155 181
134 154 181
134 154 181
134 154 181
134 154 181
134 154 181
133 154 181
134 154 181
134 154 181
133 154 181
134 154 181
133 154 181
134 154 181
133 154 181
133 154 181
134 154 181
134 154 181
134 154 181
134 154 181
133 154 181
134 154 181
134 154 181
133 154 181
133 154 181
135 155 181
133 154 181
133 154 181
134 154 181
134 154 181
134 154 181
133 154 181
133 154 181
134 154 181
135 155 181
133 154 181
134 154 181
133 154 181
133 154 181
134 154 181
133 154 181
133 154 181
134 154 181
133 154 181
133 154 181
133 154 181
133 154 181
133 154 181
134 154 181
134 154 181
135 155 181
133 154 181
134 154 181
134 154 181
132 153 181
134 154 181
133 154 181
133 154 181
134 154 181
133 154 181
134 154 181
134 154 181
134 154 181
134 154 181
134 154 181
134 154 180
133 154 181
133 154 181
134 155 181
133 154 181
134 154 181
134 154 181
134 154 181
133 154 181
134 155 181
133 154 181
133 153 180
135 155 181
133 154 181
134 154 181
134 155 181
134 155 181
134 154 181
134 154 181
135 155 181
133 154 181
132 153 180
132 153 180
134 154 181
134 154 181
135 155 181
134 154 181
134 154 181
135 155 181
133 154 181
134 154 181
133 154 181
133 154 181
134 154 181
134 154 181
134 154 180
133 154 181
135 155 181
134 154 181
134 154 181
133 154 181
134 154 181
133 154 181
134 154 181
133 154 181
134 154 181
133 154 181
133 154 181
134 154 181
134 154 181
134 154 181
134 154 181
134 154 181
134 154 181
134 154 181
134 154 181
133 154 181
133 154 181
133 154 180
133 154 181
133 154 181
135 155 181
134 154 181
134 154 181
134 154 181
133 154 181
134 154 181
133 154 181
133 154 181
134 155 181
133 154 181
134 154 181
134 154 181
134 154 181
134 154 181
134 154 181
134 154 181
133 154 181
133 154 181
133 154 181
133 154 181
135 155 181
133 154 181
134 154 181
134 154 181
134 154 181
134 154 181
135 155 181
135 155 181
134 154 181
134 154 181
133 154 181
134 155 181
135 154 180
134 154 181
134 154 181
134 154 181
134 154 181
134 154 181
134 154 181
134 154 181
133 154 181
134 154 181
133 154 181
133 154 181
134 154 180
134 154 181
133 154 181
135 154 180
134 154 181
134 154 181
133 154 181
134 154 180
134 154 181
134 154 181
133 154 181
134 154 181
134 154 181
134 154 181
134 154 181
134 154 181
134 154 181
134 154 181
132 153 181
133 154 180
134 154 181
133 154 181
134 154 181
134 154 181
134 154 181
133 154 181
134 154 181
134 154 181
134 154 181
134 154 181
133 154 181
133 154 181
133 154 181
135 155 181
134 154 181
134 154 181
133 154 181
134 154 181
134 154 181
133 154 181
134 154 181
133 154 181
134 154 181
134 154 181
134 154 181
133 154 181
133 154 181
133 154 181
133 154 181
135 155 181
133 153 180
134 154 181
134 154 181
134 154 181
135 155 181
134 154 181
134 154 181
134 154 181
133 154 180
133 154 181
133 154 181
134 155 181
134 154 181
134 154 181
134 154 181
134 154 181
134 154 181
134 154 181
134 154 181
135 155 181
133 154 181
133 154 181
134 154 181
134 154 181
134 154 181
133 154 181
134 154 181
134 154 181
133 154 181
134 154 181
134 154 181
133 154 181
134 154 181
133 154 181
133 154 181
133 154 181
133 154 181
134 154 181
134 154 181
134 154 181
134 154 181
134 154 181
134 154 181
134 154 181
134 155 181
133 154 181
134 154 181
134 154 181
133 154 181
134 154 181
134 154 181
134 154 181
133 154 181
134 154 181
134 154 181
134 154 181
133 154 181
134 154 181
133 154 181
134 154 181
134 154 181
134 154 181
134 154 181
134 154 181
135 155 181
134 154 181
134 154 181
134 154 181
134 154 181
134 154 181
134 154 181
134 154 181
133 154 181
133 154 180
133 154 181
134 154 181
134 154 181
134 154 181
133 154 181
132 153 181
133 154 181
134 154 181
134 154 180
134 154 181
133 154 181
134 154 181
133 154 181
134 154 181
133 154 181
135 155 181
133 154 181
133 154 181
135 155 181
134 154 181
134 154 181
134 155 181
134 154 181
134 154 181
134 154 181
134 154 181
133 154 181
133 154 181
134 154 181
134 154 181
133 154 181
134 154 181
134 154 181
134 154 181
134 154 181
133 154 180
134 154 181
133 154 181
134 154 181
134 154 181
134 154 181
135 155 181
134 154 181
134 154 181
134 154 181
134 154 181
134 154 181
134 154 181
133 154 181
134 154 181
133 154 181
134 154 181
134 154 181
134 154 181
134 154 181
135 155 181
133 154 181
134 154 181
133 154 181
134 154 181
134 154 181
134 154 181
134 154 181
134 155 181
134 154 181
134 154 181
134 154 181
134 154 181
134 154 181
134 154 181
133 154 181
133 154 181
133 154 181
134 154 181
134 154 181
134 154 181
134 154 181
134 154 181
133 154 181
133 154 181
134 155 181
134 154 181
134 154 181
134 154 181
135 155 181
134 154 181
134 154 181
133 154 181
133 154 181
133 154 181
133 154 181
134 154 181
134 155 181
133 154 180
133 154 181
134 154 181
134 154 181
133 154 181
134 154 181
134 154 181
134 154 181
133 154 181
134 154 181
133 154 181
134 154 181
134 154 180
134 154 181
134 154 181
134 155 181
133 154 181
135 155 181
133 154 180
133 154 181
134 154 181
133 154 181
133 154 181
134 154 181
133 154 181
133 154 181
134 154 181
134 154 181
133 154 181
134 154 181
135 155 181
134 154 181
134 154 181
134 154 181
133 153 180
134 154 181
134 154 181
134 154 181
134 154 181
134 154 181
134 154 181
134 154 181
134 154 181
135 155 181
134 154 181
133 154 181
133 154 181
134 154 181
134 154 181
134 154 181
134 155 181
134 154 181
134 154 181
134 154 181
134 154 181
133 154 181
134 154 181
134 154 181
134 154 181
134 154 181
133 154 181
134 154 181
135 155 181
134 155 181
134 154 181
133 154 181
134 154 181
133 154 181
135 155 181
134 154 181
134 154 181
134 154 181
133 154 181
134 154 181
134 155 181
134 154 181
134 154 181
134 154 181
133 154 181
134 154 181
134 154 181
133 154 181
134 154 181
133 154 180
134 154 181
134 154 181
134 154 181
134 154 181
133 154 181
134 154 181
134 154 181
134 155 181
133 154 180
134 154 181
134 154 181
134 154 181
133 154 181
133 154 181
134 154 181
134 154 181
134 154 181
135 155 181
135 155 181
134 154 181
133 154 181
133 154 181
133 154 181
134 154 181
133 154 181
134 154 181
133 154 181
133 154 181
133 154 181
134 154 181
134 154 181
134 154 181
133 154 181
134 154 181
134 154 181
133 154 181
134 154 181
133 154 180
134 154 181
133 154 181
134 154 181
133 154 181
134 154 181
134 154 181
133 154 181
134 154 181
134 154 181
134 154 181
134 154 181
133 154 181
134 154 181
135 155 181
133 154 181
133 154 181
133 154 181
134 155 181
134 154 181
135 155 181
134 154 181
134 154 180
134 154 181
134 154 181
134 154 180
134 154 181
134 154 181
134 154 181
134 155 181
134 154 181
134 154 181
134 154 181
134 155 181
133 153 180
133 154 181
134 154 181
134 154 180
134 154 181
133 154 181
133 154 181
134 155 181
135 155 181
134 154 181
135 155 181
133 154 181
133 154 181
133 154 181
134 154 181
134 154 181
133 154 181
134 154 180
134 154 181
134 154 180
133 154 181
135 155 181
133 154 181
134 154 181
134 154 181
134 154 181
134 154 181
133 154 181
134 154 181
134 154 181
134 154 181
133 154 180
133 154 181
134 154 181
134 154 181
134 154 181
134 154 181
134 154 181
134 154 181
133 154 181
134 154 181
133 154 181
133 154 180
134 154 181
135 155 181
134 154 181
133 154 181
134 154 181
133 154 181
134 154 181
134 154 181
134 154 181
134 154 181
133 154 181
133 154 181
133 154 180
134 154 181
134 154 181
134 154 181
133 154 181
134 154 181
134 154 181
134 154 181
133 154 181
134 154 181
134 154 180
133 154 181
133 154 181
134 154 181
134 154 181
134 154 181
134 154 181
134 154 181
133 154 181
134 154 181
133 154 181
133 154 181
134 154 181
134 154 181
133 154 181
134 154 181
133 154 181
133 154 181
134 154 181
134 154 181
133 154 181
134 154 181
133 154 181
134 155 181
134 154 181
134 154 181
134 154 181
134 154 181
134 154 181
134 154 181
134 154 181
134 154 181
134 154 181
133 154 181
133 154 181
133 154 181
133 154 181
133 154 181
134 154 181
134 154 180
133 154 181
133 154 181
134 154 181
134 154 181
134 155 181
133 154 181
133 154 181
134 154 181
134 154 181
133 154 180
134 154 180
132 153 180
134 154 181
134 154 181
134 154 181
134 154 181
134 155 181
134 154 181
134 154 181
134 154 181
133 154 181
135 155 181
134 154 181
134 154 181
134 154 181
134 154 181
133 154 181
134 154 181
134 154 181
134 154 181
133 154 181
134 154 181
133 154 180
134 154 181
133 154 181
134 154 181
134 154 181
134 154 181
134 154 181
133 154 181
133 154 181
134 154 181
133 154 181
134 154 181
134 154 181
134 155 181
134 154 181
134 154 181
133 154 181
133 154 181
135 155 181
135 155 181
133 154 181
133 154 181
133 154 181
134 154 181
134 154 181
133 154 181
134 154 181
135 155 181
134 154 181
134 154 181
133 154 181
133 154 180
134 154 181
134 154 181
133 154 181
134 154 181
134 154 181
134 154 181
134 154 181
133 154 181
134 154 181
134 154 181
133 154 181
134 154 181
134 154 181
134 154 181
133 154 181
134 154 181
132 153 181
133 154 181
133 154 181
133 154 181
134 154 181
134 154 181
133 154 181
133 154 181
134 154 181
133 154 181
134 154 180
134 154 181
134 154 181
133 154 181
134 155 181
133 154 181
134 154 181
133 154 181
133 154 181
133 154 181
134 154 181
134 155 181
134 154 181
135 155 181
134 154 181
133 154 181
134 154 181
134 154 181
133 154 181
133 154 181
134 154 181
134 154 181
135 155 181
133 154 181
133 154 181
133 154 181
133 154 181
133 154 181
135 155 181
133 154 181
133 154 181
134 154 181
134 154 181
134 154 181
134 154 181
133 154 181
133 154 181
134 154 181
132 153 181
133 154 181
133 154 181
133 154 181
133 154 181
134 154 181
134 154 181
135 155 181
134 154 181
133 154 181
134 154 181
133 154 181
134 154 181
134 154 181
134 154 181
133 154 181
134 154 181
134 154 181
134 154 181
133 154 181
134 154 181
133 154 181
134 154 181
134 154 181
135 155 181
134 154 181
134 154 181
133 154 181
134 154 181
133 154 181
133 154 181
133 154 181
135 155 181
135 155 181
134 154 181
133 153 180
133 154 181
134 154 181
134 154 181
134 154 181
134 154 181
134 154 181
134 154 181
134 154 181
135 155 181
134 154 181
133 154 181
134 155 181
134 154 181
133 154 181
134 154 180
133 154 181
134 154 181
135 155 181
134 154 181
134 154 181
134 154 181
134 154 180
135 155 181
134 154 181
133 154 180
133 154 181
134 154 181
135 155 181
134 154 181
133 154 181
134 154 181
134 154 181
134 154 181
134 154 181
133 154 181
134 154 181
134 154 181
134 154 181
135 155 181
134 154 181
133 153 180
133 154 181
134 154 181
134 154 181
134 154 181
134 154 181
133 154 181
133 154 181
133 154 180
134 154 181
134 154 181
134 154 181
133 154 181
134 154 181
135 155 181
133 154 181
134 154 181
134 155 181
134 154 181
134 154 181
134 154 181
134 154 181
134 154 181
134 154 181
134 154 181
133 154 181
135 155 181
134 154 181
133 154 181
134 154 181
135 154 180
134 154 181
133 154 181
134 154 181
134 154 181
134 154 181
134 154 181
132 153 180
134 154 181
133 154 181
133 154 181
134 154 181
133 153 180
134 154 181
134 154 181
135 155 181
134 154 181
133 154 180
133 154 181
135 155 181
133 154 181
134 154 181
134 154 181
134 155 181
134 154 181
134 154 181
133 154 181
133 154 181
133 154 181
133 154 181
133 154 181
133 154 181
133 154 181
134 154 181
134 154 181
134 154 181
133 154 181
133 154 181
134 154 181
134 154 181
133 154 181
134 154 181
134 154 181
133 154 181
134 154 181
133 154 181
133 154 181
135 155 181
133 154 181
134 155 181
133 154 180
134 154 181
134 154 181
135 155 181
135 155 181
133 154 181
134 154 181
134 154 181
134 154 181
134 155 181
134 154 181
134 154 181
134 154 181
134 154 181
134 154 181
133 154 181
134 154 181
134 154 181
134 154 181
134 154 181
135 155 181
134 154 181
134 154 181
135 155 181
133 154 181
134 154 181
134 154 181
135 155 181
134 154 181
134 154 181
134 154 181
135 155 181
134 154 181
134 154 180
134 154 181
134 154 181
133 154 181
133 154 181
134 154 181
133 154 181
133 154 181
134 154 181
135 155 181
134 154 181
134 154 181
133 154 181
134 154 181
134 154 181
134 154 181
134 154 181
134 154 181
133 154 181
134 154 181
134 154 181
134 154 181
134 154 181
134 154 181
133 154 181
134 154 181
133 154 181
134 154 181
134 154 181
135 155 181
133 154 181
134 154 181
134 154 181
134 154 181
134 154 181
133 154 181
134 154 181
133 154 181
133 154 181
134 154 181
134 154 181
134 154 181
133 154 181
134 154 181
134 154 181
133 154 181
133 154 181
134 154 181
135 155 181
134 154 181
134 154 181
134 154 181
133 154 181
133 154 181
134 154 181
133 154 181
134 154 181
133 154 181
133 154 181
133 154 181
134 154 181
134 154 181
135 155 181
134 154 181
134 154 181
134 154 181
133 154 181
133 154 181
134 154 181
134 154 180
133 154 181
134 155 181
134 154 181
133 154 181
134 154 181
134 155 181
133 154 181
134 154 181
134 155 181
134 154 181
134 154 181
133 154 180
134 154 181
134 154 181
134 154 181
134 154 181
134 154 181
133 154 181
133 154 181
134 154 181
134 154 181
134 154 181
134 154 181
133 154 181
134 154 181
134 154 181
134 154 181
134 154 181
134 154 180
134 154 181
134 154 181
134 154 181
133 154 181
134 154 181
133 154 181
134 154 181
134 154 180
133 154 181
134 154 181
134 154 181
134 154 181
133 154 181
134 154 181
134 154 181
134 154 181
133 154 181
133 154 181
133 154 181
133 154 180
134 154 181
134 154 181
134 154 181
134 154 181
134 154 181
134 154 181
134 154 181
133 154 181
134 154 181
134 154 181
135 155 181
134 154 181
133 154 181
134 154 180
134 154 181
133 154 181
134 154 181
134 154 181
133 154 181
133 154 181
134 154 181
133 154 181
134 154 181
134 154 181
135 155 181
134 154 181
134 154 181
134 154 181
134 154 181
133 154 181
134 154 181
133 154 181
134 154 181
133 154 181
133 154 181
134 154 181
133 154 181
134 154 181
134 154 181
133 154 181
134 154 181
134 154 181
134 154 181
134 154 181
133 154 181
135 155 181
133 154 181
133 154 181
133 154 181
133 154 181
134 154 181
134 154 181
134 154 181
134 154 181
134 154 181
134 154 181
134 154 181
133 154 181
134 154 181
133 154 181
133 153 180
134 154 181
134 154 181
133 154 181
133 154 181
134 154 181
133 154 181
134 154 181
134 154 181
134 154 181
134 154 181
134 154 181
134 154 181
133 154 181
134 154 181
134 154 181
134 154 181
133 154 181
134 154 181
133 154 181
134 154 181
134 154 181
134 154 180
133 154 181
134 154 181
133 154 181
134 154 181
134 154 181
134 154 181
134 155 181
134 154 181
134 154 181
134 154 181
133 154 180
134 154 181
134 154 181
133 154 181
135 155 181
133 154 181
133 154 181
133 154 181
133 154 181
134 154 181
134 154 181
133 154 181
133 154 181
135 155 181
133 154 181
134 154 181
134 154 181
134 154 181
133 154 181
134 154 181
134 154 181
133 153 180
133 154 181
134 154 181
134 154 181
133 154 180
134 154 181
134 154 181
133 154 181
134 154 181
133 154 181
134 154 181
134 154 180
133 154 181
134 154 181
134 154 181
134 154 181
134 154 181
134 154 181
134 154 181
132 153 180
133 154 181
134 154 181
134 154 181
133 154 181
134 154 181
135 155 181
133 154 181
134 154 181
134 154 181
134 154 181
133 154 181
133 154 181
134 154 181
133 154 181
133 154 181
133 154 181
134 154 181
134 154 181
135 155 181
134 154 181
134 154 181
133 154 181
134 154 181
134 154 181
134 155 181
134 154 181
134 154 181
135 155 181
133 154 181
133 154 181
133 154 181
134 154 181
134 154 181
133 154 181
134 154 181
134 154 181
134 154 181
133 154 181
135 155 181
133 154 181
134 154 181
133 154 181
133 154 181
133 154 181
134 154 181
133 154 181
135 155 181
134 154 181
134 154 181
134 154 181
134 154 181
135 155 181
133 154 181
134 154 181
134 154 181
134 154 181
134 155 181
134 154 181
133 154 181
134 154 181
134 154 181
134 154 181
133 153 180
134 154 181
134 154 181
134 154 181
134 154 181
134 154 181
134 154 181
134 154 181
134 154 180
134 154 181
134 154 181
133 154 181
134 154 181
135 155 181
134 154 181
134 154 181
134 154 181
133 154 181
134 154 181
134 154 181
134 154 181
133 154 181
135 155 181
134 154 181
134 154 181
133 154 181
134 154 181
134 154 181
133 154 181
134 154 181
134 154 181
133 153 180
133 154 181
133 154 181
134 154 181
134 154 181
134 154 181
134 154 181
134 154 181
133 154 181
133 154 181
134 154 181
134 154 181
133 154 181
133 154 181
134 154 181
134 154 181
134 154 181
134 154 181
134 154 181
133 154 181
134 154 181
133 154 181
134 154 181
133 154 181
134 154 181
133 154 181
133 154 181
134 155 181
134 154 181
134 154 181
134 154 181
133 154 181
134 155 181
134 154 181
133 154 181
134 154 181
133 154 181
134 154 181
134 154 181
134 154 180
133 154 180
134 154 181
134 154 181
133 154 181
134 154 181
133 154 181
133 154 181
134 154 181
133 154 181
134 154 181
134 154 181
134 154 181
134 154 181
134 154 181
133 154 181
134 154 181
135 155 181
134 154 181
134 154 181
133 154 181
133 154 181
133 154 181
134 154 181
134 154 181
134 154 181
133 154 181
134 154 181
134 154 181
134 154 181
134 155 181
135 155 181
134 154 181
134 154 181
135 155 181
133 154 181
134 154 181
134 154 181
135 155 181
133 154 181
134 154 181
134 154 181
133 154 181
133 154 181
134 154 181
133 154 181
134 155 181
135 155 181
134 154 181
134 154 181
134 154 181
133 154 181
133 154 181
134 154 181
134 154 181
134 154 181
134 154 181
134 154 181
134 154 181
134 154 181
134 154 181
134 154 181
134 155 181
134 154 181
133 154 181
133 154 181
134 154 181
134 154 181
134 154 181
133 154 181
134 155 181
134 154 181
134 154 181
134 154 181
134 154 181
133 154 181
134 154 181
134 155 181
134 154 181
134 155 181
134 154 181
134 154 181
134 154 181
134 154 181
134 154 181
135 155 181
134 154 181
134 154 181
133 154 181
133 154 181
133 154 181
134 154 181
134 155 181
135 155 181
134 154 181
134 154 181
134 154 181
134 154 181
134 154 181
134 154 181
134 154 181
134 154 181
135 155 181
134 154 181
133 154 181
134 154 181
134 154 181
134 155 181
134 154 181
133 154 181
134 155 181
133 154 181
134 154 181
134 154 181
135 155 181
133 154 181
134 154 181
135 155 181
134 154 181
133 154 181
134 155 181
134 154 181
133 154 181
134 154 181
133 154 181
133 154 181
135 155 181
133 154 181
134 154 181
135 155 181
134 154 181
133 154 181
134 154 181
134 154 181
134 155 181
133 154 181
133 154 181
134 154 181
134 154 181
134 154 181
134 154 181
133 154 181
134 154 181
134 154 181
133 154 181
133 154 181
134 154 181
133 154 180
133 154 181
134 154 181
134 154 181
133 154 181
134 154 181
133 153 180
133 154 181
134 154 181
134 154 181
133 154 181
133 154 181
134 154 181
133 154 181
133 154 181
134 154 181
134 154 181
134 154 181
133 154 181
134 154 181
134 155 181
133 154 180
133 154 181
135 155 181
133 154 181
134 154 181
134 154 181
134 154 181
133 154 181
133 154 181
134 154 181
134 154 181
135 155 181
133 154 181
134 154 181
134 154 181
133 154 181
134 154 181
134 154 181
134 154 181
134 154 181
134 154 181
134 154 181
133 154 181
133 154 181
133 154 181
134 154 181
134 154 181
134 154 181
133 154 181
134 154 181
134 154 181
133 154 181
134 154 181
134 154 181
134 154 181
133 154 181
133 154 181
133 154 181
133 154 181
134 154 181
134 154 181
134 154 181
133 154 180
134 154 181
133 154 181
134 154 181
134 154 181
133 154 181
134 154 181
133 154 181
134 155 181
134 154 181
134 154 181
134 154 181
135 155 181
134 155 181
133 154 181
135 155 181
134 154 181
134 154 181
135 155 181
134 155 181
134 154 181
134 154 181
134 154 181
133 154 180
134 154 181
133 154 181
133 154 181
134 154 181
133 154 181
133 154 181
134 154 181
134 154 181
133 154 181
133 154 181
133 154 181
134 154 181
134 154 181
134 154 181
135 155 181
134 154 181
133 154 181
134 154 181
134 154 181
134 154 181
133 154 181
135 155 181
134 154 181
133 154 181
133 154 181
134 154 181
133 154 181
134 154 181
133 154 181
133 154 181
134 154 181
134 154 181
134 154 181
133 154 181
134 154 181
135 155 181
134 154 181
134 154 181
134 154 181
134 154 181
133 154 181
134 154 181
133 154 181
134 154 181
134 154 181
134 154 181
134 154 181
134 154 181
134 154 181
134 154 181
132 153 181
134 154 181
133 154 181
134 154 181
134 154 181
134 154 181
133 154 181
134 154 181
134 154 181
133 154 181
134 154 181
134 154 181
134 154 181
132 153 180
134 154 181
133 154 180
133 154 181
134 154 181
135 155 181
133 154 181
133 154 181
134 154 181
133 154 181
134 154 181
134 154 181
134 154 181
134 154 181
134 154 181
133 154 180
134 155 181
133 154 181
134 154 181
133 154 181
134 154 181
134 154 181
134 154 180
134 154 181
133 154 181
134 154 181
133 154 181
134 154 181
134 154 181
133 154 181
134 154 181
133 154 181
134 154 181
133 154 181
133 154 181
134 154 181
133 154 181
134 154 181
134 154 181
134 154 181
134 154 181
133 154 181
134 154 181
134 154 181
135 155 181
134 154 181
134 154 181
133 154 181
133 154 181
134 154 181
134 154 181
133 154 181
133 154 181
134 154 181
134 154 181
134 154 181
134 154 181
134 154 181
134 154 181
134 154 181
134 154 181
133 154 181
133 154 181
134 154 181
133 154 181
134 154 181
133 154 181
134 154 181
133 154 181
135 155 181
133 154 181
134 154 181
134 154 181
133 154 181
134 154 181
134 154 181
134 154 181
134 154 181
133 154 181
134 154 181
133 154 181
133 154 181
134 154 181
133 154 181
133 154 181
135 155 181
134 154 181
133 154 181
133 154 181
135 155 181
135 155 181
134 154 181
134 154 181
134 154 181
135 155 181
133 154 181
134 154 181
134 155 181
133 154 181
133 154 180
133 154 181
134 154 181
133 154 181
134 154 181
134 154 181
134 154 180
134 154 181
134 155 181
134 154 181
133 154 181
134 154 181
134 154 181
133 154 181
134 155 181
135 155 181
133 154 181
133 154 181
134 154 181
134 154 181
134 154 181
133 154 181
134 154 181
133 154 181
133 154 181
133 154 181
133 154 181
133 153 180
133 154 181
134 154 181
134 154 181
133 154 181
134 154 181
134 154 181
133 154 181
134 154 181
134 154 181
133 154 181
134 154 181
133 154 180
133 154 181
133 154 181
134 154 181
134 154 181
135 155 181
133 154 181
134 154 181
134 154 181
133 154 181
133 154 181
134 154 181
134 154 181
134 154 181
134 154 181
134 154 181
134 154 181
133 154 181
134 154 181
133 154 181
134 154 181
133 154 181
134 154 181
133 154 180
134 154 181
134 154 181
134 154 181
134 154 181
133 154 181
134 154 181
134 154 181
133 154 181
134 154 181
134 155 181
133 154 181
134 154 181
134 154 181
133 154 181
133 154 181
134 154 181
136 155 181
133 154 181
134 154 181
134 154 181
134 154 181
134 154 181
134 154 181
134 154 181
134 154 181
134 154 181
132 153 180
134 154 181
134 154 181
134 154 181
133 154 181
134 154 181
134 154 181
134 154 181
134 154 181
133 154 181
134 154 181
133 154 181
134 154 181
134 154 181
134 154 181
134 154 181
134 155 181
134 154 181
134 154 181
134 155 181
134 154 181
134 154 181
134 154 181
134 154 181
134 154 181
133 154 181
134 154 181
134 154 181
133 154 181
134 154 181
133 154 181
133 154 181
134 154 181
134 154 180
134 154 181
134 154 181
134 154 181
135 155 181
133 154 181
133 154 181
134 154 181
133 154 181
134 154 181
134 154 181
133 154 181
134 154 181
134 154 181
133 154 181
133 154 181
133 154 181
133 154 181
133 154 181
134 154 181
134 154 181
134 154 181
133 154 181
133 154 181
134 154 181
133 154 181
134 154 181
134 154 181
134 154 181
134 154 181
133 154 181
133 154 181
134 154 181
134 154 181
133 154 181
133 154 181
134 154 181
134 154 181
134 154 181
133 154 181
134 154 181
134 154 181
134 154 181
134 154 181
133 154 181
134 154 181
133 154 181
134 154 181
134 154 181
134 154 181
133 154 181
134 154 181
133 154 181
133 154 181
134 154 181
133 154 181
134 155 181
133 154 181
134 154 181
133 154 181
133 154 181
133 154 181
134 154 181
134 154 181
134 154 181
134 154 181
134 154 181
135 155 181
133 154 181
134 154 181
133 154 181
133 154 180
133 154 181
134 154 181
134 154 181
134 154 180
134 154 181
133 154 181
134 154 181
134 154 181
134 154 181
135 155 181
134 154 180
134 154 181
134 154 181
135 155 181
134 154 181
134 154 181
133 154 181
134 154 181
134 154 181
133 154 181
134 154 181
134 154 181
134 154 181
133 154 181
135 155 181
134 154 181
134 154 181
134 154 181
134 154 181
134 154 181
134 154 181
134 154 181
134 154 181
134 154 181
133 154 181
134 154 181
134 154 181
134 154 181
133 154 181
132 153 181
134 154 181
134 154 181
133 154 181
134 154 181
134 154 181
133 154 181
134 154 181
133 154 181
133 154 181
133 154 181
134 154 181
135 155 181
133 154 181
134 154 181
135 155 181
133 154 181
134 154 181
134 155 181
134 154 181
133 154 181
134 154 181
134 154 181
133 154 181
134 154 181
133 154 181
133 154 181
134 154 181
134 154 181
134 154 181
134 154 181
133 154 181
134 154 181
135 155 181
134 154 181
134 154 181
134 154 181
134 154 181
135 155 181
133 154 181
134 154 181
134 154 181
134 154 181
134 154 181
134 154 181
134 154 181
134 154 181
133 154 181
133 154 180
133 154 180
134 154 181
134 154 181
134 154 181
133 154 181
134 154 181
134 154 181
134 154 181
133 154 181
134 154 181
133 154 181
133 154 181
134 154 181
134 154 181
134 154 181
135 155 181
133 154 181
134 154 181
135 155 181
134 154 181
134 154 181
134 154 181
134 154 181
135 155 181
134 154 181
134 155 181
133 154 181
134 154 181
134 154 181
134 154 181
133 154 181
134 154 181
133 154 180
134 154 180
133 154 180
134 154 181
133 154 181
134 154 181
133 154 181
134 154 181
134 154 181
135 155 181
133 154 181
134 154 181
134 154 181
134 154 181
133 154 181
134 154 181
134 154 181
133 154 181
133 154 181
133 154 181
133 154 181
134 154 181
134 154 181
134 154 181
133 154 181
133 154 181
134 154 181
134 154 181
134 154 181
134 154 181
134 154 181
133 154 181
134 154 181
134 154 181
134 154 181
133 154 180
135 155 181
134 154 181
134 154 181
133 153 180
133 154 180
133 154 181
134 154 181
134 154 181
134 154 181
134 154 181
133 154 181
135 155 181
133 154 181
135 155 181
134 154 181
134 154 181
133 154 181
135 155 181
133 154 181
134 154 181
134 154 181
133 154 181
134 154 181
133 154 181
134 154 181
133 154 181
134 154 181
134 154 181
133 154 181
134 154 181
133 154 181
134 154 181
133 154 181
134 154 181
134 154 181
134 154 181
134 155 181
133 154 181
134 154 181
134 154 181
134 154 181
134 154 181
133 154 181
134 154 181
134 154 181
135 155 181
134 154 181
134 154 181
133 154 181
134 154 181
133 154 181
133 154 181
134 154 181
133 154 181
133 154 181
133 154 181
134 154 181
134 154 181
134 154 181
134 154 181
133 154 181
134 154 181
134 154 181
133 154 181
134 154 181
134 154 181
133 154 180
133 154 181
133 154 181
134 154 181
134 154 181
134 154 181
134 154 181
134 154 181
133 154 181
134 154 181
134 154 181
134 154 181
134 154 181
133 154 181
134 154 181
133 154 180
135 155 181
134 154 181
133 154 181
135 155 181
134 154 180
133 154 181
134 154 181
133 154 181
133 154 181
133 154 180
134 154 181
133 154 181
134 154 181
133 154 181
133 154 181
135 155 181
133 154 181
133 154 181
133 154 181
134 154 181
134 154 181
134 155 181
134 155 181
135 155 181
134 154 181
134 154 181
134 154 181
133 154 181
134 154 181
133 154 180
135 155 181
135 155 181
133 154 181
134 154 181
133 154 181
133 154 181
134 154 181
134 154 181
134 154 181
134 154 180
133 154 181
133 154 181
133 154 181
134 154 181
134 154 181
135 155 181
133 154 181
133 154 181
134 154 181
134 154 181
135 155 181
134 154 181
134 154 181
133 154 181
133 154 180
133 154 181
134 154 181
133 154 181
133 154 181
134 154 181
133 154 181
133 154 181
134 154 181
133 154 181
134 154 181
135 155 181
134 154 181
135 155 181
134 154 181
133 154 181
134 154 181
134 154 181
133 154 181
133 154 181
134 154 181
134 154 181
133 154 181
135 155 181
133 154 181
133 154 181
134 154 181
134 154 181
134 154 181
133 154 181
135 155 181
134 154 181
134 154 181
134 154 181
134 154 181
133 154 181
133 154 181
134 154 181
133 154 181
134 154 181
133 154 181
133 154 181
134 154 181
134 154 181
134 154 181
133 154 181
134 155 181
133 154 181
134 154 180
134 154 181
133 154 181
134 154 181
134 155 181
134 154 181
133 154 181
134 154 181
134 154 181
134 154 181
133 154 181
134 154 181
135 155 181
133 154 181
134 154 181
133 154 181
134 154 181
134 154 181
134 154 181
133 154 181
133 154 181
134 154 181
134 154 181
134 154 180
133 154 181
134 154 181
133 154 181
133 154 181
134 155 181
134 154 181
134 154 181
133 154 181
134 155 181
134 154 181
133 154 181
133 154 181
134 154 181
133 154 180
134 154 181
135 155 181
134 154 181
134 154 181
133 154 181
133 154 181
134 154 181
135 155 181
133 154 181
133 154 181
133 154 181
135 155 181
134 154 181
133 154 181
134 154 181
134 154 181
134 154 181
134 154 181
134 154 181
134 154 181
134 154 181
133 154 181
133 154 181
134 154 181
134 154 181
133 154 181
134 154 181
134 154 181
134 154 181
134 154 181
133 154 181
134 154 181
133 154 181
135 155 181
133 154 181
133 154 181
134 154 181
134 154 181
134 154 180
133 154 181
135 155 181
133 154 181
133 154 181
134 154 181
133 154 180
134 154 181
134 154 181
133 154 181
133 154 181
133 154 181
134 154 181
134 154 181
134 154 181
134 154 181
133 154 181
135 155 181
134 155 181
134 154 181
134 154 181
134 154 181
134 154 181
133 154 181
133 154 181
134 154 181
133 154 181
134 155 181
133 154 180
134 154 181
133 154 181
133 154 181
134 154 181
134 154 181
133 154 181
134 154 181
134 154 181
134 154 181
134 155 181
134 154 180
133 154 181
134 154 181
134 154 181
135 155 181
134 154 181
135 155 181
134 154 181
134 154 181
134 154 181
134 154 181
134 154 181
133 154 181
134 154 181
134 154 181
134 154 181
134 154 181
133 154 181
134 154 181
133 154 181
133 154 181
134 154 181
134 154 181
134 154 181
134 155 181
133 154 181
134 154 181
133 154 181
134 154 181
134 154 181
134 154 181
134 154 181
134 154 181
133 154 181
133 154 181
134 154 181
133 154 181
133 154 181
134 154 181
134 154 181
132 153 181
134 154 181
134 154 181
134 154 181
134 154 181
133 154 181
135 155 181
134 154 181
134 154 181
134 154 181
134 154 181
134 154 180
133 154 181
134 154 181
133 154 180
134 154 181
133 154 181
133 154 181
134 154 181
134 154 181
134 154 181
134 154 181
134 154 181
134 154 181
134 154 181
133 154 181
133 154 181
134 154 181
133 154 181
133 154 181
133 154 181
133 154 181
134 154 181
134 154 181
133 154 181
134 155 181
134 154 181
134 154 181
133 154 181
134 154 181
134 154 181
134 154 181
134 154 181
133 154 181
134 154 181
134 154 181
135 155 181
133 154 181
134 154 181
134 154 181
134 154 181
133 154 181
134 154 181
133 154 181
135 155 181
134 154 181
134 154 181
134 154 181
133 154 181
134 154 181
134 154 181
133 154 180
133 154 181
134 155 181
134 154 181
134 154 181
133 154 181
134 154 181
134 154 181
133 154 181
134 154 181
134 154 181
133 154 181
133 154 181
133 154 181
134 154 181
134 154 181
134 155 181
134 154 181
134 154 181
133 154 181
133 154 181
134 154 181
133 154 181
135 155 181
133 154 181
134 154 181
133 154 181
135 155 181
134 154 181
134 154 181
135 155 181
133 154 181
134 154 181
133 154 181
134 154 181
134 154 181
134 154 181
133 154 181
133 154 181
134 154 181
134 154 180
133 154 181
134 154 181
135 155 181
133 154 181
135 155 181
133 154 181
133 154 181
133 154 181
133 154 181
134 154 181
133 154 181
134 154 181
132 153 181
134 154 181
134 154 181
133 153 180
134 154 181
134 154 181
133 154 181
134 155 181
134 154 181
134 154 181
135 155 181
134 154 181
134 154 181
134 154 181
133 154 181
134 154 181
133 154 181
133 154 181
134 154 181
135 155 181
134 154 181
133 154 181
135 155 181
134 154 181
134 154 181
135 155 181
133 154 181
135 155 181
134 154 181
134 154 181
134 154 181
133 154 181
134 154 181
134 154 181
134 154 181
134 154 181
134 154 181
134 154 181
134 154 181
133 154 181
133 154 181
133 154 181
135 155 181
134 154 181
133 154 181
133 154 181
134 154 181
133 154 181
134 154 181
134 154 181
134 154 181
134 154 181
134 154 181
134 154 181
133 154 181
133 154 181
133 154 181
133 154 181
134 155 181
133 154 181
134 154 181
133 154 181
133 154 181
133 154 181
134 154 181
133 154 181
134 154 181
134 154 181
134 154 181
134 154 181
134 154 181
134 154 181
133 154 181
134 154 181
133 154 181
134 154 181
134 154 181
133 154 180
134 154 181
134 154 181
134 154 181
133 154 181
134 154 181
134 154 181
134 154 181
134 154 181
133 154 181
134 154 181
134 154 181
133 154 181
134 154 181
133 154 181
134 154 181
134 154 181
135 155 181
133 154 181
134 154 181
133 154 181
134 154 181
133 154 181
135 155 181
134 154 181
133 154 181
134 154 181
133 154 181
134 154 181
134 154 181
135 155 181
133 154 181
134 154 181
134 154 181
134 154 181
134 154 181
133 154 181
134 154 181
133 154 181
133 154 181
133 154 181
134 154 181
134 154 181
134 154 181
134 154 181
134 154 181
134 154 181
134 154 181
133 154 181
134 154 181
134 154 181
134 154 181
134 154 181
134 154 181
134 154 181
134 154 181
134 154 181
134 154 181
134 155 181
133 154 181
133 154 181
134 154 181
134 154 181
133 154 180
134 154 181
134 154 181
134 154 181
134 154 181
134 154 181
134 154 181
134 154 181
133 154 181
134 154 181
133 154 181
133 154 181
134 154 181
134 154 181
134 154 181
134 154 181
134 154 181
133 154 181
135 155 181
135 155 181
134 154 181
134 154 181
134 154 181
134 154 181
133 154 181
134 154 181
134 154 181
133 154 181
133 154 181
134 154 181
133 154 181
134 154 181
133 154 181
134 154 181
134 154 181
134 155 181
133 154 181
133 154 181
133 154 181
134 154 181
133 154 181
134 154 181
134 154 181
134 154 181
134 154 181
134 154 181
135 155 181
134 154 181
134 154 181
133 154 181
134 154 181
134 154 181
134 154 181
133 154 181
134 154 181
133 154 181
134 154 181
134 154 181
133 154 181
133 154 181
133 154 181
135 155 181
134 154 181
133 154 181
134 154 181
134 154 181
133 154 181
135 155 181
133 154 181
133 154 181
133 154 181
134 154 181
134 154 181
133 154 181
134 154 181
134 154 181
133 154 181
134 154 181
133 154 181
133 154 181
133 154 181
134 154 181
135 155 181
134 154 181
134 154 181
134 154 181
134 154 181
133 154 181
134 154 181
134 154 181
135 155 181
134 154 181
134 154 181
133 154 181
134 154 181
134 154 181
134 154 181
133 154 181
135 155 181
133 154 181
134 155 181
134 154 181
133 154 181
133 154 181
133 154 181
134 154 181
134 155 181
133 154 181
133 154 181
133 154 181
135 155 181
133 154 181
133 154 181
133 154 181
134 154 181
134 154 181
134 154 181
133 154 181
134 154 181
134 154 181
134 154 181
134 154 180
134 154 181
135 155 181
134 154 181
134 154 181
134 154 181
134 154 181
134 154 181
134 154 181
134 154 181
134 154 181
133 154 181
134 154 181
133 154 181
133 154 181
134 154 180
134 154 181
134 154 180
133 154 181
134 154 181
134 154 181
132 153 181
134 154 181
133 154 181
133 154 181
133 154 181
134 154 181
133 154 181
134 154 181
134 154 181
134 154 181
134 154 181
134 154 181
135 155 181
134 154 181
134 154 181
135 155 181
133 154 181
134 154 181
134 154 181
135 155 181
133 154 181
134 154 181
133 154 181
133 154 181
133 154 181
134 154 181
134 154 181
134 154 181
135 155 181
134 154 181
133 154 181
134 154 181
133 154 181
134 154 181
134 154 181
134 154 181
134 154 181
133 154 181
135 155 181
133 154 181
134 154 181
135 155 181
134 154 181
133 154 181
133 154 181
134 154 181
134 154 181
133 154 181
134 154 181
133 154 181
133 154 181
135 155 181
134 154 180
133 154 181
133 154 181
134 154 181
134 154 180
134 154 181
134 154 181
133 154 181
134 154 181
133 154 181
133 154 181
135 155 181
134 154 181
134 154 181
134 154 181
134 154 181
134 154 181
133 154 181
134 154 181
133 153 180
133 154 181
134 154 181
134 154 180
134 154 181
135 155 181
134 154 181
134 154 181
133 154 181
134 154 181
133 154 180
133 154 181
133 154 181
134 154 181
133 154 180
133 154 181
134 154 181
135 155 181
135 155 181
134 154 181
135 155 181
134 154 181
133 154 181
133 154 181
134 154 181
134 154 181
134 154 181
134 154 181
134 154 181
134 154 181
135 155 181
134 154 181
133 154 181
134 154 181
134 154 181
134 154 181
133 154 181
134 154 181
134 154 181
134 154 181
133 154 181
133 154 181
134 155 181
134 154 181
134 154 181
134 154 181
133 154 181
134 154 181
134 154 181
134 154 181
134 154 181
133 154 181
134 154 181
134 154 181
134 154 181
133 154 181
134 154 181
134 154 181
134 154 181
134 154 181
134 154 181
134 154 181
134 154 181
134 154 181
133 154 181
134 154 181
134 154 181
134 154 181
134 154 181
133 154 181
133 154 181
134 154 181
135 155 181
134 154 181
134 154 181
134 154 181
133 154 181
133 154 181
134 154 181
134 154 181
134 154 181
134 154 181
133 154 181
133 154 181
134 154 181
134 154 180
134 154 181
134 154 181
133 154 181
133 154 181
133 154 181
133 154 181
134 154 181
134 154 181
133 154 181
134 154 181
133 154 181
134 155 181
134 154 181
134 154 181
133 154 181
135 155 181
134 154 181
134 154 181
135 155 181
134 154 180
134 154 181
134 154 181
133 154 181
135 155 181
135 155 181
134 154 181
134 154 181
134 154 181
134 154 181
134 154 181
134 154 181
134 154 181
133 154 181
134 154 180
134 154 181
133 154 181
133 154 181
134 154 181
135 155 181
134 154 181
134 154 181
134 154 181
133 154 181
134 154 181
134 154 181
133 154 181
134 154 181
134 154 181
134 154 181
133 154 181
134 154 181
133 154 181
134 154 181
134 154 180
134 154 181
134 154 181
133 154 181
134 154 181
134 154 180
134 154 180
134 154 181
133 154 181
134 154 181
134 154 181
133 154 181
135 155 181
134 154 181
134 154 181
134 154 181
133 154 180
133 154 181
135 155 181
133 154 181
133 154 181
134 154 181
134 154 181
135 155 181
134 154 181
134 154 181
134 154 181
133 154 181
134 154 181
133 154 181
134 154 181
133 154 181
133 154 181
133 154 181
133 154 181
133 154 180
135 155 181
134 154 181
134 154 181
134 154 181
134 154 181
134 154 181
134 154 181
134 154 181
133 154 180
134 154 181
134 154 181
133 154 181
134 154 181
135 155 181
133 154 180
134 154 181
133 154 181
134 154 180
134 154 181
134 154 181
134 154 181
134 154 181
133 154 181
134 154 181
134 154 181
133 154 181
134 154 181
134 154 181
134 154 181
134 154 181
134 154 181
134 154 180
135 155 181
134 154 181
134 154 181
134 154 181
133 154 181
134 154 181
134 154 181
134 154 181
133 154 181
134 154 181
134 154 181
134 154 181
133 154 181
133 154 181
134 154 181
134 155 181
134 154 181
134 154 181
133 153 180
134 154 181
134 154 181
133 154 181
133 154 180
134 154 181
135 155 181
134 154 181
134 154 181
134 154 181
134 154 181
134 154 181
134 154 181
134 154 181
134 154 181
134 154 181
133 154 181
134 154 181
134 154 181
134 154 181
133 154 181
134 154 181
134 154 181
134 154 181
133 154 181
133 154 181
134 154 181
134 154 181
135 155 181
133 154 181
134 154 181
134 154 180
134 154 181
134 154 181
134 154 181
134 154 181
134 154 181
135 155 181
133 154 181
134 154 181
133 154 181
134 154 181
134 154 181
135 155 181
134 154 181
134 154 181
134 154 181
133 154 181
133 154 181
133 154 181
134 154 181
134 154 181
134 154 181
133 154 181
134 154 181
134 154 181
134 155 181
134 154 181
134 154 181
133 154 181
134 154 181
133 154 181
134 154 181
133 154 181
134 154 181
134 154 181
134 154 181
134 154 181
134 154 181
134 154 181
133 154 181
134 154 181
133 154 181
133 154 181
134 154 181
133 154 181
134 154 181
133 154 181
133 154 181
133 154 181
134 154 181
134 154 181
134 154 180
133 154 181
134 154 181
134 154 181
134 154 181
133 154 181
134 154 180
134 154 181
134 154 181
133 154 181
134 154 181
134 154 181
134 154 181
134 154 181
133 154 181
133 154 180
134 154 181
134 154 181
134 154 181
134 154 181
134 154 181
133 154 181
133 154 181
133 154 181
134 154 181
134 154 181
133 154 181
134 154 181
135 155 181
134 154 181
134 154 181
134 154 181
134 154 181
133 154 181
134 154 181
133 154 181
134 154 181
134 154 181
134 154 181
133 154 181
134 154 181
134 154 181
133 154 181
134 155 181
134 154 181
133 154 181
134 154 181
133 153 180
134 154 181
133 154 181
134 154 181
133 154 181
134 154 181
134 154 181
133 154 181
133 154 181
133 154 181
135 155 181
134 154 181
133 154 181
134 154 181
133 154 181
133 154 181
133 154 181
134 154 181
134 154 181
133 154 181
134 154 181
134 154 181
134 154 181
135 155 181
134 154 181
133 154 181
133 154 181
133 154 181
134 154 181
133 154 181
133 154 181
133 154 181
133 154 181
134 154 180
133 154 181
133 154 181
134 154 181
134 154 180
134 154 180
133 154 181
134 154 181
134 154 181
133 154 181
133 154 181
135 155 181
135 155 181
134 154 181
134 154 181
134 154 181
134 154 181
134 154 181
133 154 180
134 154 181
133 154 181
133 154 181
134 154 181
133 154 181
134 154 181
132 153 181
134 154 181
133 154 181
134 154 181
134 154 181
134 154 181
133 154 181
133 154 181
134 154 181
133 154 181
134 154 181
134 154 181
133 154 181
135 155 181
133 154 181
134 154 181
134 154 181
134 155 181
134 154 181
133 154 181
134 154 181
133 154 180
134 154 181
133 154 181
134 154 181
134 154 181
134 154 181
134 154 180
133 154 181
135 155 181
133 154 181
134 154 181
134 154 181
134 154 181
134 154 181
133 154 181
134 154 181
133 154 181
133 154 181
134 154 181
133 154 181
134 154 181
133 154 181
134 154 181
134 154 181
134 154 181
132 153 181
134 154 181
133 154 181
134 154 181
134 154 181
134 155 181
134 154 181
134 154 181
134 154 181
133 154 181
134 154 181
134 154 180
134 154 181
134 154 181
134 154 181
133 154 181
134 154 181
134 154 181
134 154 181
133 154 181
133 154 181
133 154 181
134 154 181
133 154 181
134 154 181
134 154 181
134 154 181
132 153 181
134 154 181
134 154 181
134 154 181
133 154 181
133 154 181
134 154 181
133 154 181
134 154 181
134 154 181
134 154 181
133 154 180
134 154 181
133 154 181
134 154 181
134 155 181
133 154 181
133 154 181
133 154 181
133 154 181
135 155 181
133 154 181
134 154 180
133 154 181
134 154 181
134 154 181
134 154 181
133 154 181
134 154 181
133 154 181
135 155 181
134 154 181
134 154 181
133 154 181
133 154 181
134 154 181
133 154 181
134 155 181
134 154 181
133 154 180
133 154 181
134 154 181
134 154 181
134 154 181
133 154 181
134 154 181
134 154 181
133 154 181
134 154 181
134 154 181
134 154 181
134 154 181
134 154 181
134 154 181
134 154 181
134 154 181
134 154 181
134 154 181
134 155 181
134 154 181
134 154 181
134 154 181
134 154 181
134 154 181
133 154 181
133 154 181
134 154 181
134 154 181
133 154 181
134 154 181
133 154 181
134 154 181
134 154 181
134 154 181
134 154 181
133 154 181
134 154 181
134 154 181
134 154 181
133 154 181
135 155 181
134 154 181
135 155 181
134 154 181
134 154 181
134 154 181
133 154 181
133 154 181
134 154 181
135 155 181
134 154 181
134 154 181
135 155 181
133 154 181
135 155 181
134 155 181
134 154 181
132 154 181
134 154 181
133 154 181
134 154 181
134 154 181
134 154 181
134 155 181
134 154 181
134 154 181
134 154 181
134 154 181
134 154 181
134 154 181
134 154 181
134 154 181
133 154 181
133 154 181
134 154 181
134 154 181
134 154 181
134 154 181
134 154 181
134 154 181
134 154 181
135 155 181
134 154 181
134 154 181
133 154 181
133 154 180
134 154 181
133 154 181
133 154 181
134 155 181
133 154 181
134 154 181
134 154 181
134 154 181
133 154 181
134 154 181
134 154 181
134 154 181
134 154 181
134 154 181
134 155 181
134 154 181
133 154 180
134 154 181
134 154 181
134 154 181
133 154 181
134 154 181
134 154 181
134 154 181
133 154 181
134 154 181
134 154 181
134 154 181
135 155 181
134 154 181
133 154 181
134 154 181
134 154 181
133 154 181
134 154 181
134 154 181
133 154 181
133 154 181
134 154 181
134 154 180
134 154 181
133 154 181
134 154 181
134 154 181
134 154 181
134 154 181
133 154 181
134 154 181
134 154 181
134 154 181
133 154 181
134 154 181
133 154 181
134 154 181
134 154 181
134 154 181
133 154 181
134 154 181
134 154 181
134 154 181
134 154 181
135 155 181
134 154 181
134 154 181
134 154 181
134 154 181
134 154 181
134 154 181
134 154 181
134 154 181
133 154 181
133 154 181
133 154 181
133 154 181
134 154 181
134 154 181
134 155 181
133 154 181
134 154 181
134 154 180
134 154 181
134 154 181
134 154 181
133 154 181
134 154 181
133 154 181
135 155 181
134 154 181
134 154 181
133 154 181
134 154 181
133 154 181
133 154 181
133 154 181
133 154 181
134 154 181
134 154 181
134 154 181
134 154 181
133 154 181
134 154 181
135 155 181
134 154 181
134 154 181
134 155 181
134 154 181
134 154 181
134 154 181
134 154 181
133 154 181
133 154 181
133 154 181
134 154 181
133 154 181
134 154 181
134 154 181
133 154 181
134 155 181
134 154 181
133 154 181
134 154 181
134 154 181
134 154 181
133 154 181
134 154 181
133 154 181
134 154 181
133 154 181
134 154 181
133 154 181
134 154 181
134 154 181
134 154 181
134 154 181
134 154 181
134 154 181
134 154 181
133 154 181
134 154 181
134 154 181
133 154 181
134 154 181
134 154 181
133 154 181
134 154 181
134 154 181
134 154 181
134 154 181
133 154 181
134 154 181
133 154 181
134 154 181
134 154 181
134 154 181
134 154 181
134 154 181
134 154 181
133 154 181
134 154 181
134 154 181
134 154 181
134 154 181
134 154 181
134 154 181
134 154 181
133 154 181
134 154 181
133 154 181
134 154 181
134 154 181
133 154 181
134 154 181
134 154 181
134 154 181
133 154 181
133 154 181
133 154 181
134 154 180
134 154 181
134 154 181
135 155 181
133 154 181
134 154 181
133 154 181
134 154 181
133 154 181
134 154 181
133 154 181
134 154 181
133 154 181
134 154 181
133 154 181
134 154 181
133 154 181
132 153 180
133 154 181
134 154 181
133 154 180
134 154 181
133 154 181
134 154 181
133 154 181
133 154 181
134 154 181
134 154 181
134 155 181
133 154 181
135 155 181
134 154 181
134 154 181
134 154 181
133 154 181
133 154 180
133 154 181
134 154 181
134 154 181
133 154 181
134 154 181
133 154 181
133 154 181
134 154 181
135 155 181
133 154 181
133 154 181
134 154 181
134 154 181
133 154 181
134 154 181
134 154 181
134 154 181
134 154 181
133 154 181
134 154 181
133 154 181
133 154 180
134 154 181
133 154 181
135 155 181
133 154 181
134 154 181
134 154 181
134 154 181
134 154 181
134 154 181
134 154 181
134 154 181
133 154 181
133 154 181
134 154 181
133 154 181
135 155 181
133 154 181
134 154 181
134 154 181
134 154 181
133 154 181
133 154 181
134 154 181
134 154 181
134 154 181
134 154 181
134 154 181
133 154 181
133 154 181
134 155 181
134 154 181
133 154 181
133 154 181
134 154 181
133 154 181
133 154 180
133 154 181
134 154 181
134 154 181
134 154 181
134 154 181
133 154 181
133 154 181
132 154 181
134 154 181
133 154 181
134 154 181
133 154 181
133 154 181
134 154 181
135 155 181
134 154 181
134 154 181
134 154 181
134 154 181
133 154 181
134 154 181
135 155 181
134 154 181
134 154 181
134 154 181
133 154 181
134 155 181
134 154 181
133 154 181
134 154 181
134 155 181
134 154 181
134 154 181
134 154 181
134 154 181
134 154 181
133 154 181
134 154 181
133 154 181
134 154 181
133 154 181
134 154 181
133 154 181
134 154 181
134 154 181
134 154 181
134 154 181
134 154 181
134 154 181
134 154 181
134 154 181
134 154 181
133 154 181
134 154 181
134 155 181
134 154 181
134 154 181
134 154 181
134 154 181
134 154 181
134 154 181
133 154 181
134 154 181
134 154 181
134 154 181
134 154 181
133 154 181
133 154 181
134 154 181
134 154 181
133 154 181
134 154 181
134 154 181
134 154 181
134 154 181
133 154 181
134 154 181
133 154 181
133 154 181
134 154 181
133 154 181
134 154 181
133 154 181
134 154 181
133 154 181
134 154 181
134 154 181
134 154 181
133 154 181
134 154 181
133 154 180
133 154 181
133 154 181
133 154 181
134 154 181
134 154 181
134 154 181
134 154 181
133 154 181
133 154 181
133 154 181
135 155 181
134 154 181
134 154 181
134 154 181
132 153 181
134 154 181
133 154 181
134 154 181
134 154 181
134 154 181
134 154 181
135 155 181
134 154 181
134 154 181
133 154 181
134 154 181
134 154 181
134 154 181
134 154 181
134 154 181
133 154 181
133 154 181
134 154 181
133 154 181
134 154 181
133 154 181
134 154 181
135 155 181
134 154 181
133 154 181
134 154 181
134 154 181
134 154 181
133 154 180
133 154 181
135 155 181
135 155 181
134 154 181
134 154 180
133 154 181
134 154 181
133 154 181
133 154 181
134 154 181
134 154 181
133 154 180
134 154 181
134 154 181
133 154 181
135 155 181
133 154 181
134 154 181
133 154 181
133 154 181
133 154 181
133 154 181
133 154 181
134 154 180
134 154 181
134 154 181
134 154 181
135 155 181
134 154 181
133 154 181
135 155 181
134 154 181
134 154 181
134 154 181
134 154 181
133 154 181
133 154 181
133 154 181
134 154 181
134 154 181
133 154 181
134 154 181
134 154 181
134 154 181
134 154 181
134 154 181
133 154 181
134 155 181
134 154 181
134 154 181
134 154 181
133 154 181
134 154 181
134 154 181
135 155 181
133 154 181
134 154 181
133 154 181
134 154 181
133 154 181
133 154 181
133 154 181
134 154 181
133 154 181
133 154 181
134 154 181
134 154 181
133 154 181
133 154 181
134 154 181
134 154 181
135 155 181
134 154 181
134 154 181
134 154 181
133 154 181
134 154 181
134 154 181
134 154 180
133 154 181
134 154 181
134 154 181
134 154 181
133 154 181
134 154 181
134 154 181
134 154 181
134 154 181
134 154 181
134 154 181
134 154 181
133 154 181
134 154 181
134 154 181
133 154 181
134 154 181
134 154 181
134 154 181
134 154 181
134 154 181
134 154 181
135 155 181
134 154 181
134 154 181
133 154 181
134 154 181
134 154 181
134 154 181
134 154 181
134 154 181
134 154 181
135 155 181
133 154 181
134 154 181
133 154 181
134 154 181
134 154 181
134 154 181
134 154 181
133 154 181
134 154 181
134 154 181
134 154 181
134 154 181
134 154 181
134 154 180
134 154 181
134 154 181
135 155 181
134 154 181
134 154 181
134 154 181
134 154 181
134 154 181
134 154 181
133 154 181
134 154 181
134 154 181
134 154 181
133 154 181
134 154 181
133 154 181
134 154 181
134 154 181
133 154 181
133 154 181
133 154 181
134 154 181
134 154 181
134 154 181
134 154 181
133 154 181
134 154 181
134 154 181
133 154 181
133 154 181
134 154 181
133 154 181
134 154 180
134 154 181
134 154 181
133 154 181
134 154 181
134 154 181
134 154 181
134 155 181
133 154 181
134 154 181
133 154 181
133 154 181
133 154 181
134 154 181
135 155 181
134 154 181
133 154 181
134 154 181
133 154 181
134 154 181
133 154 181
134 154 181
133 154 181
134 154 181
134 154 181
133 154 181
134 154 181
134 154 181
134 154 181
134 154 181
134 154 180
134 154 181
133 154 181
134 154 181
134 154 181
134 155 181
133 154 181
134 154 181
135 155 181
134 154 181
134 154 181
134 154 181
134 154 181
134 154 181
134 154 181
134 154 181
133 154 181
134 154 181
133 154 181
134 154 181
133 154 181
133 154 181
134 154 181
134 154 181
134 154 181
134 154 181
134 154 181
134 154 181
134 154 181
135 155 181
133 154 181
134 154 181
134 154 181
134 154 181
134 154 181
134 154 181
134 154 181
133 154 181
133 154 181
134 154 181
134 154 181
133 154 180
133 154 181
133 154 181
134 154 181
135 155 181
133 154 181
133 154 181
134 154 181
134 154 181
135 155 181
134 154 181
133 154 181
133 154 181
134 154 181
134 154 181
134 154 181
133 154 181
133 154 180
134 154 181
134 154 181
134 155 181
134 154 181
134 154 181
134 154 181
133 154 181
133 154 181
134 154 181
134 154 181
133 154 181
134 154 181
133 154 181
134 154 181
135 155 181
133 154 181
133 154 181
133 154 181
134 154 181
134 154 181
133 154 181
133 154 181
134 154 181
133 154 181
134 154 181
134 154 181
133 154 181
134 154 181
134 154 181
134 154 181
133 154 181
134 154 181
134 154 181
134 154 181
133 154 181
134 154 181
134 154 181
134 154 181
133 154 181
134 154 181
134 155 181
133 154 181
133 154 181
133 154 181
134 154 181
133 154 181
135 155 181
133 154 181
134 154 181
133 154 181
135 155 181
134 154 181
135 155 181
134 154 181
133 154 181
134 154 181
133 154 181
134 154 181
134 154 181
134 155 181
133 154 180
134 154 181
133 154 181
134 154 181
134 154 181
135 155 181
134 154 180
134 154 181
134 154 181
134 154 181
134 154 181
134 154 181
134 154 181
134 154 181
135 155 181
135 155 181
134 155 181
134 154 181
134 154 181
135 155 181
134 154 181
134 154 181
133 154 181
134 154 181
134 154 181
134 154 181
133 154 181
133 154 181
134 154 181
134 154 181
135 155 181
133 154 181
135 155 181
134 154 181
134 154 181
134 154 181
134 154 181
135 155 181
134 154 181
133 154 181
133 154 181
133 154 181
134 154 181
134 154 181
133 154 181
134 154 181
134 154 181
133 154 181
133 154 181
134 154 181
134 154 181
135 155 181
133 154 181
134 154 181
134 154 181
134 154 181
134 154 181
133 154 181
133 153 180
135 155 181
135 155 181
134 154 181
134 154 181
133 154 180
134 154 181
133 154 181
134 154 181
134 154 180
134 154 181
134 154 181
134 154 181
134 154 181
133 154 181
134 154 181
134 154 181
133 154 181
134 154 181
134 154 181
134 154 181
133 154 181
134 154 181
134 154 181
134 154 181
133 154 181
134 154 181
134 154 181
134 154 181
134 154 181
133 154 181
134 154 181
133 154 181
133 154 181
133 154 181
133 154 181
134 154 181
134 154 181
133 154 181
134 154 181
134 154 181
134 154 181
134 154 181
133 154 181
133 154 181
133 154 181
134 154 181
134 154 181
133 154 181
134 154 181
133 154 181
134 154 181
133 154 181
134 154 181
134 154 181
134 154 181
134 155 181
134 154 181
134 154 181
133 154 181
134 154 181
134 154 181
134 154 181
135 155 181
133 154 181
134 154 181
134 154 181
135 155 181
134 154 181
134 154 181
134 154 181
133 154 180
134 154 181
133 154 181
134 154 181
134 154 181
134 154 181
133 154 181
133 154 181
133 154 180
133 154 181
133 154 181
134 154 181
133 154 181
134 154 181
134 154 181
133 154 181
134 154 181
133 154 181
133 154 181
135 155 181
133 154 181
134 154 181
134 154 181
133 154 181
134 154 181
134 154 181
134 154 180
134 154 180
134 154 181
134 154 181
134 154 181
133 154 181
133 154 181
134 154 181
134 154 181
134 154 181
134 154 181
134 154 181
134 154 181
134 154 181
134 154 181
134 154 181
134 154 181
134 154 181
133 154 181
134 154 181
133 154 181
134 154 181
134 155 181
134 154 181
134 154 181
134 154 181
133 154 180
134 154 181
134 154 181
133 154 181
134 154 181
134 154 181
135 155 181
134 154 181
134 154 181
133 154 181
134 154 181
133 154 180
133 154 181
134 154 181
134 154 181
134 154 181
133 154 181
134 154 181
133 154 180
134 154 181
134 154 181
134 154 181
134 154 181
133 154 181
134 154 181
135 155 181
133 154 181
135 155 181
135 155 181
133 154 181
134 154 181
134 154 181
133 154 181
133 154 181
134 154 181
134 154 181
133 154 181
133 154 181
133 154 181
133 154 181
133 154 181
134 154 180
133 154 181
134 155 181
134 154 181
134 154 181
134 154 181
134 154 181
135 155 181
134 154 181
133 154 181
134 154 181
134 154 181
134 154 181
134 154 181
133 154 181
133 154 181
134 154 181
134 155 181
133 154 180
134 155 181
134 154 181
134 154 181
134 154 181
133 154 181
133 154 181
134 154 181
134 154 181
133 154 181
134 154 181
135 155 181
134 154 181
133 154 181
133 154 181
134 154 181
133 154 181
134 154 181
133 154 181
134 154 181
134 154 181
134 154 181
135 155 181
134 154 181
134 154 181
135 155 181
133 154 181
134 154 181
134 154 181
134 154 181
133 154 181
133 154 181
134 154 180
133 154 181
134 154 181
134 154 181
134 154 181
134 154 181
134 154 181
134 154 181
133 154 181
134 154 181
135 155 181
133 154 181
134 154 181
134 154 181
134 154 181
134 154 181
133 154 181
133 154 181
133 154 181
134 154 181
134 154 181
133 154 181
135 155 181
134 154 181
134 154 181
134 154 181
135 155 181
133 154 181
133 154 181
133 154 181
134 154 181
134 154 181
134 154 181
134 154 181
134 154 181
133 154 181
134 155 181
133 154 180
133 154 180
134 154 181
133 154 181
134 154 181
133 154 181
134 154 181
135 155 181
134 154 181
133 154 180
134 154 181
133 154 181
133 154 181
134 154 181
133 154 181
133 154 181
134 154 181
134 154 181
133 154 181
134 154 181
134 154 181
133 154 181
133 153 180
134 154 181
134 154 181
134 154 181
134 154 181
133 154 181
133 154 181
133 154 181
134 155 181
133 154 181
134 154 181
134 154 181
134 154 181
134 154 181
134 154 181
134 154 181
134 154 181
133 154 181
133 154 181
134 154 181
133 154 181
134 154 181
135 154 180
135 155 181
133 154 181
134 154 181
135 155 181
134 154 181
134 154 181
133 154 181
134 154 181
134 154 180
134 154 181
134 154 181
134 154 181
134 154 181
134 154 181
133 154 181
134 154 181
134 154 181
134 154 181
133 154 181
133 154 181
134 154 181
133 154 181
134 154 181
133 154 181
134 154 181
135 155 181
134 154 181
133 154 181
133 154 181
133 154 181
134 154 181
134 154 181
134 154 181
134 154 181
134 154 181
134 154 181
134 154 181
134 154 181
135 155 181
133 154 181
134 154 181
134 154 181
134 154 181
134 154 181
134 154 181
133 154 181
134 154 181
133 154 181
133 154 181
133 154 181
133 154 181
134 154 181
134 154 181
134 154 181
133 154 181
134 154 181
134 154 181
133 154 181
133 154 181
134 154 181
133 154 181
134 154 180
133 154 180
134 154 181
134 154 181
135 155 181
133 154 180
133 154 181
134 154 181
134 154 181
134 154 181
134 154 181
133 154 181
134 154 181
134 154 181
134 154 181
133 154 181
134 154 181
134 154 181
134 154 181
133 154 181
133 154 181
134 154 181
134 154 181
134 154 181
135 155 181
135 155 181
135 155 181
133 154 181
134 154 181
133 154 181
135 155 181
135 155 181
134 154 181
134 154 181
135 155 181
134 155 181
134 154 181
134 154 181
134 154 181
134 154 181
133 154 181
133 154 181
134 154 181
134 154 181
135 155 181
133 154 181
133 154 181
133 154 181
134 154 180
134 154 180
134 154 181
134 154 181
135 155 181
133 154 181
134 154 181
134 154 181
134 155 181
134 154 181
133 154 181
134 154 181
134 154 181
134 154 181
133 154 181
134 154 181
133 154 181
133 154 180
134 154 181
134 154 181
134 154 181
134 154 181
133 154 181
134 154 181
133 154 181
133 153 180
134 154 181
133 154 181
133 154 180
135 155 181
134 154 181
134 154 181
134 154 181
134 154 181
134 154 181
134 154 181
135 155 181
133 154 181
134 154 181
133 154 180
132 154 181
134 154 181
135 155 181
134 154 181
134 154 181
134 154 181
133 154 181
133 154 181
133 154 181
134 154 181
133 154 180
134 154 181
134 154 181
134 154 181
134 154 181
134 154 181
134 154 181
134 154 181
135 155 181
133 154 181
133 154 181
134 154 181
133 154 181
134 154 181
134 154 181
134 154 181
133 154 181
133 154 181
134 154 181
133 154 181
134 154 181
134 154 181
134 154 181
135 155 181
133 154 181
134 154 181
134 154 181
133 154 181
133 154 181
133 154 181
133 154 181
134 154 181
134 154 181
134 154 181
134 154 181
134 154 181
133 154 181
134 154 181
133 154 181
133 154 181
133 154 181
134 154 181
133 154 181
134 154 181
134 154 181
133 154 181
134 154 181
135 155 181
134 154 181
133 154 181
133 154 181
134 154 181
133 154 181
133 154 181
133 154 181
134 154 181
134 154 181
133 154 181
135 155 181
135 155 181
134 154 181
134 154 181
135 155 181
134 154 181
135 155 181
134 154 181
134 154 181
133 154 181
134 154 181
134 154 181
134 154 181
134 155 181
133 154 181
135 155 181
134 154 181
134 154 181
134 154 181
133 154 181
134 154 181
133 154 181
133 154 181
133 154 181
133 154 181
134 154 181
134 154 181
136 155 181
134 154 181
133 154 181
134 154 181
135 155 181
133 154 181
134 154 181
134 154 181
133 154 181
133 154 181
133 154 181
134 154 181
134 154 181
134 154 181
134 154 181
134 154 181
134 154 181
133 154 181
134 154 181
134 154 181
133 154 181
134 154 181
134 154 181
133 154 181
134 154 181
133 154 181
134 154 181
134 154 181
134 154 180
133 154 181
134 154 181
134 154 181
134 154 181
134 154 180
134 154 181
133 154 181
134 154 181
133 154 181
134 154 181
134 154 181
134 154 181
134 154 181
133 154 181
134 154 181
133 154 181
134 154 181
135 155 181
133 154 180
133 154 181
133 154 181
134 154 181
133 154 181
134 154 181
133 154 181
134 154 181
134 154 181
134 154 181
133 154 181
133 154 181
134 154 181
133 154 181
134 154 181
134 154 181
133 154 180
133 154 181
134 154 181
134 154 181
134 154 181
134 154 181
134 154 181
133 154 181
135 155 181
134 154 181
134 155 181
134 154 181
134 155 181
135 155 181
134 154 181
134 154 181
134 154 181
134 154 181
133 154 181
133 154 181
135 155 181
134 154 181
135 155 181
134 154 181
134 154 181
133 154 181
134 154 181
134 154 181
133 154 181
135 155 181
133 154 181
133 154 181
133 154 181
134 154 181
133 154 181
133 154 181
134 155 181
134 154 181
134 154 181
134 154 181
134 154 181
134 154 181
134 154 181
134 154 181
134 154 181
133 154 181
134 154 181
133 154 180
134 154 181
134 154 181
134 154 181
133 154 181
134 154 181
134 154 181
134 154 181
134 154 181
135 155 181
134 155 181
133 154 181
135 155 181
133 154 181
134 154 181
134 154 181
133 154 181
134 154 181
134 155 181
134 154 181
134 154 181
134 154 181
134 154 181
133 154 181
134 155 181
133 154 181
134 154 181
133 154 181
133 154 181
134 154 181
134 154 181
134 154 181
134 154 181
133 154 181
135 155 181
134 154 181
134 154 181
135 155 181
134 154 181
134 154 181
134 154 181
133 154 181
134 154 181
133 154 181
133 154 181
134 154 181
134 154 181
135 155 181
134 154 181
133 154 181
134 154 181
134 154 181
134 154 181
134 154 181
133 154 181
134 154 181
133 154 181
134 154 181
133 154 180
133 154 181
134 155 181
133 154 180
132 153 181
133 154 181
134 154 181
134 154 181
133 154 181
134 154 181
134 154 181
134 154 181
134 154 181
135 155 181
134 154 181
134 154 181
133 154 181
134 154 181
134 154 181
134 154 181
134 154 181
134 154 181
133 154 181
134 154 181
133 154 181
133 154 181
134 154 181
133 154 181
134 154 181
134 154 181
134 154 181
134 154 181
134 154 181
135 155 181
134 154 181
134 154 181
134 154 181
134 154 181
134 154 181
133 154 180
134 154 181
133 154 181
134 155 181
135 155 181
134 155 181
132 154 181
134 154 181
134 154 181
134 154 181
134 154 181
134 154 181
133 154 181
134 154 181
134 154 181
133 154 181
134 154 181
133 154 181
134 154 181
135 155 181
134 154 181
133 154 181
133 154 181
134 154 181
134 154 181
133 154 181
134 154 181
134 154 181
133 154 181
133 154 181
134 154 181
134 154 181
134 154 181
133 153 180
134 154 181
133 154 181
134 154 181
133 154 181
134 154 181
133 154 181
133 154 181
134 154 181
133 154 181
134 154 181
133 154 181
133 154 181
135 155 181
133 154 181
133 154 181
134 154 181
134 154 181
134 154 181
133 154 181
132 154 181
134 154 181
133 154 181
135 155 181
134 154 181
134 154 181
133 154 181
134 154 181
134 154 181
133 154 181
133 154 181
133 154 181
134 154 181
134 154 181
134 154 181
133 154 181
134 154 181
134 154 181
133 154 181
134 154 181
134 154 181
134 154 181
134 154 181
134 154 181
134 154 181
134 154 181
134 154 181
134 154 181
134 154 181
133 154 180
133 154 181
134 154 181
133 154 181
133 153 180
133 153 180
133 154 181
134 154 181
133 154 181
134 154 180
134 154 181
133 154 181
134 154 181
133 154 181
133 154 181
134 154 181
134 154 181
133 154 181
134 154 181
133 154 181
134 154 181
133 154 180
134 154 181
134 154 181
134 154 181
134 154 181
134 154 181
133 154 181
135 155 181
134 154 181
133 154 181
134 154 180
133 154 181
134 154 181
133 154 181
134 154 181
133 154 181
135 155 181
134 154 181
134 154 181
133 154 181
134 154 181
133 154 181
134 154 181
133 154 181
134 154 181
134 154 181
134 154 181
134 154 181
134 154 181
135 155 181
134 154 181
134 154 181
134 154 181
134 154 181
134 154 181
135 155 181
134 154 181
133 154 181
134 154 181
134 154 181
134 154 181
134 154 181
134 154 181
134 154 181
135 155 181
134 154 181
133 154 181
134 154 181
134 154 181
134 154 181
133 154 181
135 155 181
134 154 180
134 154 181
133 154 181
134 154 181
134 154 181
134 154 181
134 154 181
134 154 181
134 154 181
134 154 181
134 154 181
134 154 181
134 154 181
133 154 181
133 154 181
133 154 180
134 154 181
134 154 181
133 154 181
133 154 181
134 154 181
134 154 181
134 154 181
134 155 181
135 155 181
135 155 181
134 154 181
134 155 181
134 154 181
134 154 181
134 154 181
134 154 181
134 154 181
134 154 181
135 155 181
134 154 181
134 154 181
134 154 181
133 154 181
134 154 181
134 154 181
133 154 181
134 154 181
134 154 181
133 154 181
133 154 181
133 154 181
134 154 181
133 154 181
133 154 181
134 154 181
133 154 181
134 154 181
134 154 181
134 154 181
134 154 181
134 154 181
134 154 181
133 154 181
133 154 181
134 154 181
134 154 181
135 155 181
133 154 181
135 155 181
134 154 181
133 154 181
134 154 181
134 154 181
134 154 181
133 154 181
134 154 181
134 154 181
133 154 181
133 154 181
133 154 181
134 154 181
134 154 180
134 154 181
134 154 181
134 154 181
135 155 181
134 154 181
133 154 181
133 154 181
134 154 181
135 155 181
134 154 181
133 154 181
134 154 181
133 154 181
134 154 181
134 154 181
134 154 181
133 154 181
135 155 181
133 154 181
135 155 181
133 154 181
134 155 181
134 154 181
134 154 181
134 154 181
133 154 181
134 154 181
134 154 181
133 154 181
133 154 181
134 154 181
133 154 180
134 154 181
134 154 181
134 154 181
134 154 181
133 154 181
134 154 181
134 154 181
134 154 181
133 154 181
134 154 181
134 154 181
133 154 181
134 154 181
133 154 181
134 154 181
135 155 181
133 154 181
133 154 181
133 154 181
133 154 181
134 154 181
133 154 181
134 154 181
134 154 181
133 154 181
134 154 181
133 154 181
134 154 181
134 154 181
135 155 181
135 155 181
134 154 181
134 154 181
135 155 181
133 154 181
134 154 181
134 154 180
134 154 181
134 154 181
133 154 181
134 154 181
134 154 181
134 154 181
135 155 181
133 154 180
134 154 181
134 154 181
134 154 181
134 154 181
134 154 181
133 154 181
134 154 181
134 154 181
134 154 181
133 154 181
134 154 181
133 154 181
134 154 181
134 154 181
134 154 181
134 154 181
134 154 181
135 155 181
133 154 181
134 154 181
133 154 181
134 154 181
133 154 181
134 154 181
134 154 181
134 154 181
133 154 181
133 154 181
134 154 181
134 154 181
134 154 181
135 155 181
135 155 181
133 154 181
133 154 181
134 154 181
133 154 181
134 154 181
134 154 181
134 154 181
133 154 181
134 154 181
134 154 181
134 155 181
134 154 181
134 154 181
134 154 181
134 154 181
133 154 181
133 154 181
133 154 181
134 154 181
134 154 181
134 154 181
133 154 181
133 154 181
134 154 181
134 154 181
134 154 181
133 154 181
135 155 181
134 154 181
134 154 181
134 154 181
134 154 181
133 154 181
134 154 181
134 154 181
134 154 181
134 154 181
134 154 181
134 154 181
134 154 181
133 154 181
134 154 181
134 154 181
134 154 181
134 154 181
134 154 181
134 154 181
134 154 181
133 154 181
134 154 180
133 154 181
133 154 181
134 154 181
134 154 181
134 154 181
133 154 181
133 154 181
134 154 181
134 154 181
134 154 181
134 154 181
135 155 181
134 154 181
135 155 181
134 154 181
134 154 180
134 154 181
134 154 181
134 154 181
133 154 181
134 154 181
133 154 181
133 154 180
134 154 181
134 154 181
135 155 181
133 154 181
134 155 181
134 154 181
134 154 181
133 154 181
134 155 181
133 154 181
133 154 181
134 154 181
135 155 181
134 154 181
133 154 181
134 154 181
133 154 180
134 154 181
134 154 181
134 154 181
134 155 181
134 154 181
133 154 181
134 154 181
133 154 181
134 154 181
134 154 181
134 154 181
134 154 181
134 154 181
134 154 181
133 154 181
133 154 181
134 154 181
134 154 181
134 154 181
134 154 181
133 154 181
134 154 181
133 154 181
133 154 181
134 154 181
134 154 181
133 154 181
133 154 181
134 154 181
134 154 181
134 154 181
133 154 181
134 154 181
134 154 181
134 154 181
134 154 181
134 154 181
134 154 181
134 154 181
134 154 181
134 154 181
134 154 181
133 154 181
133 154 181
134 154 181
134 154 181
133 154 181
135 155 181
132 154 181
134 155 181
134 154 181
134 154 181
134 154 181
133 154 181
134 154 181
133 154 181
133 154 181
134 154 181
134 154 181
134 154 181
134 154 181
134 154 181
134 154 181
135 155 181
134 154 181
134 154 181
133 154 180
134 154 181
134 154 181
134 154 181
134 154 181
134 154 181
134 154 181
133 154 181
133 154 180
134 154 181
133 154 181
134 154 181
134 155 181
135 155 181
133 154 181
133 154 181
134 154 181
134 154 181
133 154 181
134 154 181
133 154 181
134 154 181
134 154 181
133 154 181
134 154 181
134 154 181
134 154 181
134 154 180
133 154 181
134 154 181
134 154 181
134 154 181
133 154 181
134 154 181
133 154 181
133 154 181
134 154 181
133 154 181
133 154 181
134 154 181
134 155 181
135 155 181
133 154 181
134 154 181
133 154 181
133 154 181
134 154 181
134 154 181
134 154 180
134 154 181
134 154 181
134 154 181
133 154 181
133 154 181
134 154 181
133 154 181
133 154 181
133 154 181
134 154 181
133 154 181
133 154 181
134 154 181
134 154 181
133 154 181
134 154 181
133 154 180
134 154 181
133 154 180
134 154 181
134 154 181
133 154 181
134 154 181
133 154 181
133 154 181
133 154 181
135 155 181
134 154 181
133 154 181
133 154 181
134 154 181
134 154 181
132 153 181
133 154 181
134 154 181
134 155 181
133 154 181
134 154 181
134 154 181
134 154 181
133 154 181
134 154 181
134 154 181
133 154 181
133 154 181
133 154 181
133 154 181
134 154 181
134 154 181
133 154 181
134 154 181
134 154 181
134 154 181
133 154 181
134 154 181
135 155 181
134 154 181
134 154 181
134 154 181
135 155 181
134 154 181
133 154 180
134 154 181
134 154 181
134 154 181
134 154 181
135 155 181
134 154 181
134 154 181
134 154 181
134 154 181
134 154 181
134 154 181
133 154 181
134 154 181
133 154 181
134 154 181
135 155 181
133 154 181
135 155 181
134 154 181
134 154 181
134 155 181
134 155 181
134 154 181
134 154 181
134 154 181
133 154 181
133 154 181
134 154 181
134 154 181
134 154 181
134 154 181
134 154 181
134 154 181
134 154 181
133 154 181
134 154 181
134 154 181
133 154 181
133 154 181
134 154 181
134 154 181
133 154 181
133 154 181
134 154 181
134 154 181
135 155 181
134 154 181
134 154 181
134 154 181
133 154 181
133 154 181
134 154 181
134 154 181
134 154 181
135 155 181
134 154 181
134 154 181
134 154 181
136 155 181
133 154 181
134 154 181
133 154 181
134 154 181
134 154 181
133 154 181
134 154 181
133 154 181
134 154 181
134 154 181
134 154 181
134 154 181
134 154 181
133 154 181
134 154 181
134 154 181
133 154 181
134 154 181
133 154 181
133 154 181
134 154 181
133 154 181
135 155 181
134 154 181
135 155 181
134 154 181
134 154 181
133 154 181
133 154 181
134 154 181
135 155 181
134 154 181
134 154 181
133 154 181
133 154 181
134 154 181
134 154 181
132 153 181
134 154 181
134 154 181
133 154 181
134 154 181
134 154 181
134 154 180
134 154 181
134 154 181
134 154 181
133 154 181
134 154 181
133 154 181
133 154 181
134 154 181
134 154 181
133 154 181
134 154 181
133 154 181
134 154 181
133 154 181
134 154 181
134 154 181
133 154 181
134 155 181
133 154 181
134 154 181
134 154 181
134 155 181
133 154 181
133 154 181
133 154 181
134 154 181
134 154 181
134 154 181
133 154 181
133 154 181
133 154 181
133 154 181
133 154 181
134 154 181
134 154 181
134 154 181
134 154 181
133 154 181
134 154 181
134 154 181
134 154 181
133 154 181
134 154 181
133 154 181
133 154 181
134 154 181
134 154 181
134 154 181
134 154 181
134 154 181
134 154 181
133 154 181
134 154 181
134 154 181
134 154 181
134 154 181
133 154 181
133 154 181
134 154 181
133 154 181
133 154 181
133 154 181
134 154 181
134 154 181
134 154 181
134 154 181
134 154 181
133 154 181
134 155 181
133 154 181
134 154 181
133 154 181
134 154 181
134 154 181
134 154 181
135 155 181
134 154 181
134 154 181
134 154 181
133 153 180
134 154 181
133 154 181
134 154 181
134 154 181
133 154 181
134 154 181
133 154 180
133 154 181
134 154 181
134 154 181
134 154 181
133 154 181
134 154 181
134 154 181
133 154 181
134 154 181
134 154 181
134 154 181
134 154 181
134 154 181
134 154 181
134 154 181
134 154 181
134 154 180
133 154 181
134 154 181
134 154 181
134 154 181
134 154 181
133 154 181
134 154 181
134 154 181
134 154 181
134 154 181
134 154 180
134 154 181
133 154 181
134 154 181
134 154 181
134 154 181
134 154 181
133 154 181
133 154 181
133 154 181
134 154 181
135 155 181
133 154 181
133 154 181
132 153 181
134 154 181
134 154 181
134 154 181
134 154 181
133 154 181
133 154 181
134 154 181
134 154 181
135 155 181
134 154 181
134 154 181
134 154 181
134 154 181
134 154 181
133 154 180
134 154 181
135 155 181
133 154 180
133 154 181
134 154 181
134 154 180
134 154 181
135 155 181
134 154 181
134 154 181
134 154 181
133 154 181
134 154 180
134 154 181
133 154 181
134 154 181
134 154 181
134 154 181
133 154 181
135 155 181
133 154 181
134 154 181
133 154 181
134 154 181
134 154 181
134 154 181
134 154 181
135 155 181
133 154 181
133 154 181
133 154 181
134 154 181
133 154 180
133 154 181
134 154 181
135 155 181
133 154 181
135 155 181
134 154 181
134 154 181
133 154 181
134 154 181
135 155 181
135 155 181
134 155 181
134 154 181
133 154 181
134 155 181
133 154 181
134 154 181
134 154 181
134 154 181
134 154 181
133 154 181
133 154 181
133 154 181
134 154 181
133 154 181
134 154 181
134 154 181
133 154 181
134 154 181
134 154 181
133 154 181
134 154 181
133 154 181
134 154 181
135 155 181
134 155 181
134 154 181
134 154 181
134 154 181
134 154 181
134 154 181
133 154 181
133 154 181
134 155 181
134 154 181
134 155 181
134 154 181
135 155 181
134 154 181
133 154 180
134 154 181
134 154 181
134 154 181
133 154 181
134 154 181
132 153 180
134 154 181
134 154 181
134 154 181
134 154 181
133 154 181
133 154 181
133 154 181
134 154 181
134 154 181
132 153 181
134 154 181
133 154 181
135 155 181
134 154 181
134 154 181
134 154 181
134 154 181
134 154 181
133 154 181
134 154 181
134 154 181
133 154 181
133 154 181
134 154 181
134 154 181
134 154 181
134 154 181
134 154 181
134 154 181
133 154 181
134 154 181
134 154 181
134 154 181
133 154 181
133 154 181
134 154 181
133 154 181
133 154 180
134 155 181
133 154 181
135 155 181
134 154 181
134 154 181
134 154 181
133 154 180
133 154 181
134 154 181
133 154 181
133 154 181
133 154 181
134 154 181
133 154 181
134 155 181
133 154 181
134 154 181
133 154 181
133 154 181
134 154 181
134 154 181
134 154 181
133 154 181
134 154 181
133 154 181
135 155 181
134 154 181
133 154 181
135 155 181
133 154 181
134 154 181
133 154 181
134 154 181
134 154 181
135 155 181
133 154 181
134 154 181
135 155 181
134 154 180
134 154 181
133 154 181
134 154 181
133 154 181
133 154 181
133 154 181
133 154 181
134 154 181
134 154 181
134 154 181
134 154 181
134 154 181
135 155 181
133 154 181
134 154 181
135 155 181
133 154 181
134 154 181
134 154 181
133 154 181
134 154 181
133 154 181
134 154 181
134 154 181
134 154 181
133 154 181
133 154 181
135 155 181
133 154 181
134 154 181
133 154 181
134 154 181
134 154 181
134 154 181
135 155 181
134 155 181
133 154 181
134 155 181
133 154 181
134 154 181
134 154 181
134 154 181
132 153 181
133 154 181
134 154 181
134 154 181
134 154 181
134 154 181
133 154 181
134 154 181
135 155 181
132 153 181
133 154 181
133 154 181
134 154 181
134 154 181
134 154 181
134 154 181
134 154 181
134 154 181
133 154 181
133 154 181
134 154 181
133 154 181
134 154 181
134 154 181
133 154 181
134 154 181
134 155 181
134 154 181
134 154 181
134 154 181
134 154 181
134 154 181
133 154 181
134 154 181
133 154 181
134 154 181
133 154 181
134 154 181
134 154 181
134 154 181
134 154 181
134 154 181
134 154 180
134 154 181
134 154 181
134 154 181
133 154 181
134 155 181
134 154 181
133 154 181
134 154 181
133 154 181
134 154 181
133 154 181
133 154 181
134 154 181
133 154 180
134 154 180
133 154 181
134 154 181
134 154 181
134 154 181
134 154 181
134 154 181
134 154 181
133 154 181
133 154 181
134 154 181
133 154 180
135 155 181
135 155 181
133 154 181
134 154 181
133 154 181
134 155 181
134 154 181
133 154 181
134 154 181
134 155 181
134 154 181
132 153 181
133 154 181
133 154 181
134 154 181
134 154 181
134 154 181
134 154 181
133 154 181
133 154 180
134 154 181
133 154 181
133 154 180
134 154 181
134 154 181
134 154 181
133 154 181
133 154 181
133 154 181
134 154 181
134 154 181
133 154 181
134 154 181
133 154 181
134 154 181
134 154 181
134 154 181
134 154 181
133 154 181
134 154 181
134 154 181
133 154 181
134 154 181
134 154 181
134 155 181
134 154 181
133 154 181
134 154 181
133 154 181
135 155 181
134 154 181
134 155 181
133 154 181
134 154 181
133 154 181
135 155 181
134 154 181
133 154 181
134 154 181
133 154 181
133 154 181
134 154 181
133 154 181
134 154 181
134 154 181
134 154 181
134 154 181
134 154 181
134 154 181
135 155 181
134 154 181
134 154 181
133 154 181
133 154 181
133 154 181
134 154 181
134 154 181
133 154 181
133 154 181
134 154 181
134 154 181
133 154 181
133 154 181
133 154 181
133 154 181
134 154 181
133 153 180
133 154 181
134 154 181
133 154 181
134 154 181
134 154 181
134 154 181
134 154 181
134 154 181
134 154 181
133 154 181
134 154 181
134 154 181
133 154 181
134 154 181
134 154 181
134 154 181
132 153 181
134 154 181
134 154 181
133 154 181
133 154 181
133 154 181
135 155 181
134 154 181
133 154 181
135 155 181
134 154 181
134 154 181
134 154 181
134 154 181
133 154 181
133 154 181
134 154 181
134 154 181
134 154 181
133 154 181
133 154 181
133 154 181
133 154 181
134 154 181
135 155 181
134 154 181
134 155 181
135 155 181
134 154 181
134 154 181
134 154 181
133 154 181
134 154 181
134 154 181
134 154 181
134 154 181
134 154 181
134 154 181
134 154 181
134 154 181
134 154 181
134 154 181
134 154 181
133 154 181
134 154 181
134 154 181
133 154 180
135 155 181
134 154 181
134 154 181
133 154 181
134 155 181
134 154 181
134 154 181
133 154 181
134 154 181
134 154 181
134 154 181
134 154 181
134 154 181
134 154 181
133 154 181
133 154 181
133 154 181
134 154 181
134 154 181
134 154 181
133 154 181
135 155 181
133 154 181
133 154 181
133 154 181
134 154 181
134 154 181
133 154 181
134 154 181
134 154 181
133 154 181
134 154 181
133 153 180
133 154 181
134 154 181
134 154 181
134 154 181
135 155 181
133 154 181
133 154 181
133 154 181
134 154 181
135 155 181
134 154 181
134 154 181
133 154 181
134 154 181
133 154 181
134 154 181
133 154 181
133 154 181
133 154 181
134 154 181
134 154 181
134 154 181
134 154 180
134 154 181
134 154 181
133 154 181
134 155 181
133 154 181
134 154 181
134 154 181
134 154 181
133 154 181
133 154 181
133 154 181
135 155 181
134 154 181
134 154 181
133 154 181
134 155 181
133 154 181
134 154 181
135 155 181
134 155 181
134 154 181
135 155 181
135 155 181
133 154 181
133 154 181
134 154 181
134 154 181
134 154 181
134 154 181
133 154 181
134 154 181
135 155 181
134 154 181
134 154 181
134 154 181
134 154 181
134 154 181
133 154 180
133 154 181
135 155 181
134 154 181
133 154 181
133 154 181
133 154 181
133 154 181
135 155 181
134 154 180
133 154 180
134 154 181
134 154 181
134 154 181
134 154 181
134 154 181
133 154 181
133 154 180
133 154 181
134 155 181
134 154 181
134 155 181
134 154 181
134 154 181
134 154 181
135 155 181
134 154 181
133 154 181
134 154 181
134 155 181
134 154 181
133 154 181
133 154 181
134 154 181
135 155 181
134 154 181
134 154 181
134 154 181
133 154 181
134 154 181
133 154 181
134 154 181
133 154 181
134 154 181
134 154 181
134 154 181
133 154 181
134 154 181
134 154 181
134 154 181
133 154 181
134 154 181
134 154 181
134 154 181
134 154 181
134 154 181
134 154 181
134 155 181
134 154 181
135 155 181
134 154 181
133 154 181
134 154 181
133 154 181
134 154 181
133 154 180
134 154 181
133 154 181
134 154 181
134 154 181
134 154 181
134 154 181
134 154 181
134 154 181
134 155 181
134 154 181
134 154 181
133 154 181
133 154 180
135 155 181
134 154 181
134 154 181
134 154 181
134 154 181
133 154 181
134 154 181
134 154 181
134 154 181
134 154 181
134 154 181
134 154 181
134 154 181
134 154 181
134 154 181
133 154 181
134 154 181
134 154 181
133 154 181
134 154 181
134 154 181
133 154 181
134 154 181
134 154 181
133 153 180
134 154 181
133 154 181
134 154 181
134 154 181
133 154 181
134 154 181
134 154 181
133 154 181
133 154 181
134 154 181
132 153 181
134 154 181
134 154 181
133 154 181
133 154 181
133 154 181
134 154 181
134 154 181
133 154 181
134 154 181
134 154 181
134 154 181
134 154 181
133 154 181
134 154 181
133 154 181
134 154 181
135 155 181
134 154 181
134 154 180
133 154 181
134 154 181
134 154 181
133 154 181
134 154 181
134 154 181
134 154 181
134 154 181
133 154 181
134 154 181
133 154 181
134 154 181
135 155 181
133 154 181
134 154 181
134 154 181
134 154 181
134 154 181
133 154 180
134 154 181
134 154 181
133 154 181
134 154 181
134 155 181
134 154 181
133 154 181
134 154 181
134 154 181
133 154 181
134 154 181
133 154 180
134 154 181
134 154 181
133 154 181
134 154 181
134 154 181
134 154 181
133 154 181
134 154 181
134 154 181
134 154 181
134 154 181
133 154 181
133 154 181
133 154 181
134 154 181
134 154 181
134 155 181
134 154 181
133 154 181
134 154 181
133 153 180
134 154 181
134 154 181
133 154 181
134 154 181
133 154 181
134 154 181
135 155 181
134 154 181
134 154 181
133 154 181
133 154 181
134 154 181
133 154 181
133 154 181
134 154 181
134 154 181
134 154 181
134 154 181
133 154 181
133 154 181
134 154 181
134 154 181
134 154 181
134 154 180
134 154 181
133 154 181
134 154 181
134 154 180
134 154 181
134 154 181
133 154 181
134 154 181
133 154 180
134 154 181
134 154 181
134 154 181
133 154 181
133 154 181
133 154 181
134 154 181
133 154 181
134 154 181
133 154 181
134 154 181
133 154 181
134 154 181
133 154 181
134 154 181
134 154 181
134 154 180
134 154 181
134 155 181
135 155 181
133 154 181
133 154 181
134 154 181
133 154 181
134 154 181
134 154 181
134 154 181
133 154 181
134 154 181
133 154 181
133 154 181
134 154 181
133 154 181
133 154 181
134 154 181
134 154 181
134 154 181
134 154 181
133 154 181
134 154 181
134 154 181
134 154 181
134 154 181
134 154 181
133 154 180
134 154 181
134 154 181
133 154 181
135 155 181
134 154 181
133 154 181
134 154 181
134 154 181
134 154 181
133 154 181
134 154 181
133 154 181
134 154 181
134 154 181
134 154 181
134 154 181
134 154 181
133 154 181
134 154 181
134 154 181
134 154 181
134 154 181
134 154 181
134 154 181
134 154 181
134 154 181
134 154 180
134 154 181
134 154 181
133 154 181
134 154 181
134 154 181
133 154 181
133 154 181
134 154 181
134 154 181
134 154 181
134 154 181
135 155 181
134 154 181
133 154 181
134 154 181
134 154 181
134 154 181
133 154 181
133 154 181
134 154 180
133 153 180
134 154 181
134 154 181
134 154 181
134 154 181
134 154 181
134 154 181
133 154 181
134 154 181
134 154 181
133 154 181
134 154 181
134 154 181
134 154 181
133 154 181
134 154 181
133 154 181
134 154 181
133 154 181
135 155 181
134 154 181
134 154 181
133 154 181
133 154 181
135 155 181
134 154 181
134 154 181
133 154 181
133 154 181
134 154 181
134 154 181
133 154 181
134 154 181
134 154 181
134 154 181
134 154 181
134 154 181
134 154 181
134 154 181
134 154 181
133 154 181
134 154 180
134 154 181
134 154 181
134 154 181
134 155 181
134 154 181
134 154 181
133 154 181
134 154 181
134 154 181
133 154 181
133 153 180
133 154 181
133 154 181
134 154 181
134 154 181
133 154 181
134 154 181
134 154 181
133 154 181
133 154 181
134 154 180
134 154 181
134 154 181
134 154 181
134 155 181
133 154 181
134 154 181
134 154 181
133 154 181
134 154 181
134 154 181
134 154 181
134 154 181
134 154 181
133 154 181
134 154 181
134 154 181
134 154 181
134 154 181
134 154 181
134 154 181
134 154 181
133 154 181
133 154 181
134 155 181
133 154 181
134 154 181
135 155 181
134 154 181
133 154 181
133 154 181
133 154 181
133 154 181
133 154 181
134 154 181
134 154 181
134 154 181
133 154 181
134 154 181
134 154 181
133 154 181
135 155 181
135 155 181
134 154 181
134 154 181
133 153 180
134 154 181
135 155 181
133 154 181
134 154 180
134 154 181
134 154 181
133 154 181
134 154 181
134 154 181
134 154 181
135 155 181
133 154 181
133 154 181
134 154 181
135 155 181
134 154 181
133 154 181
133 154 181
133 154 181
134 154 181
132 154 181
134 155 181
134 154 181
133 154 181
133 154 180
134 154 181
135 155 181
134 154 180
134 154 181
133 154 181
133 154 181
134 154 181
134 154 181
134 154 181
133 154 181
134 154 181
135 155 181
133 154 181
134 154 181
133 154 181
134 155 181
133 154 181
135 155 181
133 154 181
134 154 181
134 154 181
133 154 181
134 154 181
135 154 180
134 155 181
134 154 181
134 154 181
134 154 181
134 154 181
134 154 181
133 154 181
134 154 181
134 154 181
134 154 181
135 155 181
134 154 181
134 154 181
134 154 181
134 154 181
134 154 181
133 154 181
134 154 181
134 154 181
134 154 181
134 154 181
134 154 181
134 154 181
134 154 181
134 154 181
134 154 181
134 154 181
133 154 181
134 154 180
135 155 181
134 154 181
134 154 181
134 154 181
134 154 180
133 154 181
133 154 181
134 154 181
133 154 181
134 154 181
133 154 181
133 154 181
134 154 181
134 154 181
134 154 181
133 154 181
134 154 181
133 154 181
134 154 181
133 154 181
133 154 181
134 154 181
134 154 181
135 155 181
134 154 181
134 154 181
133 154 181
135 155 181
134 155 181
134 154 181
133 154 181
134 154 181
133 154 181
134 154 181
134 155 181
134 154 181
134 154 181
135 155 181
134 155 181
134 154 181
134 154 181
134 154 181
134 154 181
134 154 181
134 155 181
134 154 181
135 155 181
134 154 181
133 154 181
134 155 181
134 154 181
134 154 181
134 154 181
134 154 181
135 155 181
135 155 181
134 154 180
133 154 181
133 154 181
134 154 181
134 154 181
133 154 181
134 154 181
134 154 181
134 154 181
134 154 180
133 154 181
133 154 181
133 154 181
133 154 181
133 154 181
133 154 180
133 154 181
134 155 181
134 154 181
134 154 181
135 155 181
135 155 181
134 154 181
134 154 181
134 154 181
134 154 181
134 154 181
134 154 181
134 154 181
134 154 181
135 155 181
134 154 181
133 154 181
133 154 181
133 154 181
134 154 181
133 154 181
134 154 181
134 154 181
134 154 181
134 154 181
133 154 181
133 154 181
134 154 180
133 154 181
135 155 181
133 154 181
134 154 181
135 155 181
134 154 181
134 154 181
134 154 181
133 154 181
133 154 181
134 154 181
134 154 181
134 154 181
134 154 181
134 154 181
134 154 181
134 154 181
134 154 181
134 154 181
134 154 181
133 154 181
135 155 181
134 154 181
134 154 181
133 154 181
135 155 181
134 155 181
134 154 181
134 154 181
134 154 181
134 154 181
134 154 181
134 154 181
133 154 181
134 154 181
133 154 181
133 154 181
134 155 181
134 154 181
134 154 181
133 154 181
134 154 181
134 154 181
134 154 181
134 154 181
134 154 181
134 154 181
133 154 181
134 154 181
134 154 181
133 154 181
134 154 181
134 154 181
133 154 181
134 154 180
133 154 181
134 154 181
134 154 181
134 154 181
134 154 181
133 154 181
134 154 180
134 154 181
133 154 181
135 155 181
135 155 181
133 154 181
134 154 181
134 154 181
133 154 181
134 154 181
133 154 181
134 154 181
133 154 181
134 154 181
135 155 181
134 154 181
134 154 181
135 155 181
134 154 181
134 154 181
134 154 181
134 155 181
135 155 181
133 154 181
133 154 181
134 154 181
134 154 181
133 154 181
134 154 181
133 154 181
134 154 181
133 153 180
133 154 181
133 154 181
134 154 181
134 154 181
133 154 181
135 155 181
134 154 181
134 154 181
134 154 181
134 154 180
134 154 181
134 154 181
134 154 181
133 154 181
132 153 181
134 154 181
133 154 181
134 154 181
134 154 181
134 154 181
133 154 181
133 154 181
134 154 181
133 154 181
133 154 181
134 154 181
133 154 181
134 155 181
133 153 180
134 154 181
134 154 181
133 154 181
134 154 181
133 154 181
133 154 181
134 154 181
133 154 181
133 154 181
134 154 181
134 154 181
133 154 180
133 153 180
134 154 181
133 154 181
134 154 181
134 154 181
134 154 181
134 154 181
134 154 181
134 154 181
133 154 181
133 154 181
133 154 181
134 154 181
134 154 181
134 154 181
134 154 181
133 154 181
134 154 181
134 155 181
135 155 181
133 154 181
134 154 181
134 154 181
134 154 181
134 154 181
134 154 181
134 154 181
133 154 180
133 154 181
134 154 181
134 154 181
133 154 181
134 154 180
135 155 181
133 154 181
134 154 181
133 154 181
134 154 181
134 154 181
135 155 181
134 154 181
134 154 181
134 154 181
135 155 181
133 154 181
134 154 181
134 154 181
135 155 181
133 154 181
133 154 181
134 154 181
134 154 181
133 154 181
134 155 181
133 154 181
134 154 181
134 154 181
134 154 181
134 154 181
134 154 181
134 154 181
134 154 181
134 154 181
133 154 181
134 154 181
134 154 181
134 154 181
134 154 181
134 154 181
135 155 181
134 154 181
133 154 181
134 154 181
134 154 181
133 154 181
134 154 181
134 154 181
133 154 181
133 154 181
134 154 181
134 154 181
134 154 181
134 154 181
134 154 181
133 154 181
134 154 181
134 154 181
134 154 181
133 154 181
134 154 181
134 154 181
133 154 181
134 154 180
134 154 181
134 154 181
134 154 181
134 154 181
133 154 181
134 154 181
133 154 181
134 154 181
134 154 181
134 154 181
134 154 181
135 155 181
134 154 181
135 155 181
133 154 181
135 155 181
135 155 181
133 154 181
134 154 181
133 154 181
134 154 181
133 154 181
135 155 181
134 154 181
134 154 181
134 154 181
134 154 181
134 154 181
133 154 181
134 154 181
133 154 181
133 154 181
134 154 181
133 154 181
133 154 181
134 154 181
134 154 181
134 154 181
134 154 181
134 154 181
134 154 181
134 154 181
133 154 181
134 154 181
134 154 181
134 154 181
134 154 181
134 154 181
133 154 181
134 154 181
134 154 180
134 154 181
133 154 181
133 154 181
134 154 181
134 154 181
133 154 181
133 154 181
133 154 181
133 154 181
134 154 181
134 154 181
134 154 181
134 154 181
133 154 181
134 154 181
134 154 181
134 154 181
134 154 181
133 154 181
133 154 181
134 154 181
134 154 181
134 154 181
134 154 181
134 154 181
133 154 181
134 154 181
133 154 181
135 155 181
133 154 181
134 154 181
135 155 181
134 154 181
134 155 181
135 155 181
134 154 181
133 154 181
134 154 181
134 154 181
133 154 181
133 154 181
134 154 181
134 154 181
134 154 181
134 154 181
134 154 181
133 154 181
134 154 181
134 154 181
133 154 180
133 154 181
133 154 181
134 154 181
135 155 181
133 154 181
133 154 181
133 154 181
134 154 181
134 154 181
133 154 181
134 154 181
134 154 181
135 155 181
133 154 181
135 155 181
134 154 181
134 154 181
133 154 181
134 154 181
133 154 181
132 153 181
134 154 181
133 154 181
133 154 181
133 154 181
133 154 181
134 154 180
134 154 181
134 154 181
134 154 181
133 154 181
134 154 181
134 154 181
134 154 181
133 154 181
134 154 181
134 154 181
134 154 181
133 154 181
133 154 181
134 154 181
134 154 181
133 154 181
133 154 181
133 154 181
134 154 181
134 154 181
134 154 181
134 154 181
134 154 181
134 154 181
133 154 181
134 154 181
134 154 181
134 154 181
134 154 181
133 154 181
134 154 181
133 154 181
134 154 180
134 154 181
133 154 181
134 154 181
134 154 181
133 154 181
134 154 181
133 154 181
134 154 181
133 154 181
135 154 180
133 153 180
134 154 181
134 154 181
133 154 181
134 154 181
134 154 181
133 154 181
133 154 181
133 154 180
133 154 181
134 154 181
134 154 181
133 154 181
134 154 181
134 154 181
134 155 181
134 154 181
133 154 181
134 154 181
134 154 181
134 154 181
134 154 181
134 154 181
133 154 181
134 154 181
134 154 181
133 154 181
134 154 181
133 154 181
134 154 181
134 154 181
134 154 181
133 154 181
133 154 181
134 154 181
134 154 181
134 154 181
134 154 181
133 154 181
134 154 181
135 155 181
134 154 181
134 154 181
134 154 181
134 154 181
133 154 181
134 154 181
133 154 181
134 154 181
134 154 181
133 154 181
135 155 181
133 154 181
133 154 181
133 154 181
134 154 181
134 155 181
134 154 181
134 154 181
134 154 181
133 154 181
135 155 181
133 154 181
134 154 181
134 155 181
133 154 181
133 154 180
134 154 181
134 154 181
134 154 181
134 154 181
134 154 181
133 154 181
133 154 181
133 154 181
133 154 181
134 154 181
135 155 181
134 154 181
134 154 181
133 154 181
133 154 181
134 154 181
134 154 181
135 155 181
134 154 181
134 154 181
134 154 181
134 154 181
134 154 181
134 154 181
133 154 180
134 154 181
133 154 181
134 154 181
134 154 181
134 154 181
134 154 181
134 154 181
134 154 181
133 154 181
134 154 181
134 154 181
134 154 181
134 154 181
134 154 181
133 154 181
133 154 181
133 154 181
134 154 181
134 154 181
134 154 181
134 154 181
134 154 181
134 154 181
134 154 181
133 154 181
133 154 181
134 154 181
134 154 181
133 154 181
134 154 181
135 155 181
134 154 181
133 154 181
133 154 181
134 154 181
134 154 181
133 154 181
133 154 181
133 154 181
134 154 181
133 154 181
133 154 181
134 154 181
134 154 181
134 154 181
134 154 181
133 154 181
135 155 181
134 154 181
134 154 181
134 154 181
134 154 181
133 154 181
134 155 181
134 154 181
133 154 181
133 154 181
133 154 181
134 154 181
134 154 181
134 154 181
133 154 181
135 155 181
134 155 181
134 154 181
134 154 181
134 154 181
134 155 181
133 154 181
134 154 181
133 154 181
134 154 181
133 154 181
134 154 181
135 155 181
134 154 181
133 154 181
133 154 181
134 154 181
134 154 181
134 154 181
133 154 181
133 154 181
134 154 181
132 153 181
134 154 181
134 154 181
134 154 181
134 154 181
133 154 181
133 154 181
133 154 181
132 153 181
134 154 181
133 154 181
135 155 181
133 154 181
134 154 181
133 154 180
133 154 181
135 155 181
134 154 181
134 154 181
134 154 181
134 154 181
134 154 181
134 154 181
133 154 181
134 154 181
134 154 181
134 154 181
134 154 181
134 154 181
134 154 181
134 154 181
134 154 181
133 154 181
134 154 181
133 154 181
134 154 181
134 154 180
134 154 181
133 154 181
134 154 181
133 154 181
134 154 181
134 154 181
134 154 181
134 154 181
133 154 181
134 154 181
134 154 181
134 154 181
134 154 181
133 154 181
134 154 181
134 154 180
133 154 181
134 154 181
133 154 181
134 154 181
135 155 181
134 154 181
133 154 181
134 154 181
135 155 181
134 154 181
134 154 181
134 154 181
134 154 181
133 154 181
133 154 181
133 154 181
134 154 181
134 154 180
135 155 181
134 154 181
133 154 181
133 154 181
134 154 181
133 154 181
134 154 181
135 155 181
133 154 180
134 154 181
134 154 180
135 155 181
134 154 181
135 155 181
134 154 181
134 154 181
134 154 181
134 154 181
134 154 181
134 154 181
134 154 181
134 154 181
135 155 181
134 154 181
134 154 181
134 154 181
133 154 181
133 154 181
134 154 181
133 154 181
133 154 180
134 154 181
134 154 181
134 154 181
134 154 181
134 154 181
133 154 181
133 154 181
134 154 181
133 154 181
133 154 181
134 154 181
134 154 181
133 154 181
134 154 181
134 154 181
134 154 181
134 154 181
134 154 181
134 154 181
133 154 181
134 154 181
134 154 181
133 154 180
135 155 181
132 153 181
133 154 181
133 154 181
133 154 181
134 154 181
134 154 181
133 154 181
134 154 181
133 154 181
134 154 181
133 154 181
133 154 181
134 154 181
133 154 181
134 154 181
134 154 181
133 154 181
134 154 181
134 154 181
134 154 181
134 154 181
134 154 181
133 154 181
134 154 181
133 154 181
133 154 181
133 154 181
134 154 181
134 154 181
133 154 181
133 154 181
134 154 181
133 154 181
134 154 181
134 154 181
135 155 181
134 154 181
133 154 181
133 154 181
133 154 181
134 154 181
135 155 181
134 154 181
134 154 181
133 154 181
134 154 181
133 154 181
134 154 181
134 154 181
134 154 181
133 154 181
133 154 181
134 154 181
134 154 181
134 154 181
134 154 180
134 154 181
134 154 181
134 154 181
134 154 181
134 154 180
133 154 181
134 154 180
134 154 181
133 154 181
134 155 181
133 154 181
134 154 181
133 154 181
135 155 181
135 155 181
135 155 181
134 154 181
134 154 181
134 154 181
134 154 181
134 154 181
134 154 181
134 154 181
133 154 181
134 154 181
133 154 181
135 155 181
135 155 181
133 154 181
133 154 181
134 154 181
134 154 181
134 154 181
134 154 181
133 154 181
134 154 181
134 154 181
134 154 181
134 154 181
133 154 181
134 154 181
133 154 181
133 154 181
134 154 181
134 154 181
134 154 181
134 154 181
133 154 181
135 155 181
134 154 181
134 154 181
134 154 181
134 154 181
134 154 181
133 153 180
133 154 181
134 154 181
133 154 181
133 154 181
133 154 181
135 155 181
134 154 181
134 155 181
135 155 181
134 154 181
133 154 181
133 154 181
133 154 181
133 154 181
134 154 181
134 155 181
134 154 181
133 154 181
134 154 180
133 154 181
133 154 181
133 154 181
134 154 181
133 154 181
134 154 181
134 154 180
133 154 181
134 154 181
134 154 181
134 155 181
134 154 181
134 154 181
133 154 181
133 154 181
134 154 181
133 154 181
133 154 181
134 154 181
134 154 181
134 154 181
133 154 181
134 154 181
134 154 181
134 154 181
133 154 181
134 154 181
134 154 181
134 154 181
134 154 181
133 154 181
134 154 181
134 154 181
134 154 181
134 155 181
133 154 181
134 154 181
133 154 181
134 154 181
133 154 180
134 154 181
134 155 181
133 154 180
135 155 181
134 154 181
133 154 181
133 154 181
134 154 181
134 154 181
134 154 181
133 154 181
134 154 181
134 154 181
133 154 181
133 154 181
134 154 181
134 154 181
134 154 181
133 154 181
134 154 181
133 154 181
134 154 181
134 154 181
133 154 181
134 154 181
134 154 181
133 154 181
135 155 181
134 154 181
134 154 181
133 154 181
133 154 181
134 154 181
134 154 181
134 154 181
133 154 181
133 154 181
134 154 181
133 154 181
133 154 181
134 154 181
133 154 181
134 154 181
134 154 181
133 154 181
134 154 181
134 154 181
133 154 181
134 154 181
134 154 181
133 154 181
134 154 181
133 154 181
134 154 181
134 154 181
134 154 181
134 154 181
134 154 181
134 154 181
134 154 181
134 154 181
134 154 181
134 154 181
133 154 181
134 154 181
134 154 181
134 154 181
133 154 181
133 154 181
133 154 181
133 154 180
134 154 181
134 154 181
134 154 181
134 154 181
134 154 181
133 154 181
134 154 181
133 154 181
135 155 181
134 154 180
135 155 181
134 154 181
134 155 181
134 154 181
134 154 181
133 154 181
133 154 181
135 155 181
133 154 181
133 154 181
134 154 181
133 154 181
133 154 181
133 154 181
134 154 181
133 154 181
134 154 181
133 154 181
133 154 181
133 154 181
134 154 181
134 154 181
133 154 181
133 154 181
133 154 181
133 154 181
133 153 180
134 154 181
133 154 181
133 154 181
134 154 181
134 154 181
134 154 181
133 154 181
134 154 181
134 155 181
133 154 181
133 154 181
134 154 181
134 154 180
133 154 181
134 154 181
134 154 181
133 154 181
134 154 181
134 154 181
133 154 181
135 155 181
133 154 181
134 154 181
134 154 181
135 155 181
134 154 181
135 155 181
134 154 181
134 154 181
134 154 181
134 154 181
134 154 181
133 154 181
135 154 180
134 154 181
134 154 181
133 154 181
134 154 181
134 154 181
135 155 181
134 154 181
134 154 181
133 154 181
133 154 181
135 155 181
133 154 181
134 154 181
134 154 181
134 154 181
134 154 181
134 154 180
135 155 181
133 154 181
134 154 181
134 154 181
134 154 181
133 154 181
134 154 181
135 155 181
135 155 181
134 154 181
134 154 181
134 154 181
134 154 181
134 154 181
135 155 181
133 154 181
134 154 181
133 154 181
134 154 181
134 154 181
134 154 181
133 154 181
135 155 181
135 155 181
133 154 181
133 154 180
135 155 181
133 154 181
134 154 181
134 154 181
132 153 180
134 154 181
134 154 181
134 154 181
133 154 181
133 154 181
134 154 181
134 154 181
134 154 181
135 155 181
134 154 181
134 154 181
134 154 181
134 154 181
134 154 181
133 154 181
134 154 181
134 154 181
134 154 181
133 154 181
134 154 181
134 154 181
134 154 181
133 154 181
134 154 181
134 154 181
134 154 181
134 154 181
133 154 181
133 154 181
134 154 181
134 154 181
134 154 181
133 154 181
134 154 181
134 154 181
134 154 181
134 154 181
133 154 181
133 154 181
134 154 181
133 154 181
134 154 181
134 154 181
133 154 181
135 155 181
134 154 181
133 154 181
134 154 180
134 155 181
134 155 181
134 154 181
133 154 181
134 155 181
134 154 181
133 154 181
134 154 181
134 154 181
134 154 181
135 155 181
132 153 181
134 154 180
134 154 181
133 154 181
134 154 181
134 154 181
134 154 181
133 154 181
134 154 181
135 155 181
134 154 181
134 154 181
133 154 181
134 155 181
134 154 181
134 154 181
134 154 181
134 154 180
134 154 181
134 154 181
134 154 181
134 154 181
134 155 181
134 154 181
134 155 181
134 154 181
134 154 180
134 154 181
134 154 181
134 154 181
134 154 181
134 154 181
134 155 181
134 154 181
134 154 181
133 154 181
133 154 181
134 154 181
134 154 181
135 155 181
134 154 181
133 154 181
134 154 181
134 154 181
133 154 181
133 153 180
135 155 181
133 154 181
134 154 181
133 154 181
134 154 181
133 154 181
134 154 181
134 154 181
134 154 181
133 154 181
133 154 181
134 154 181
134 154 181
134 154 181
134 154 181
133 154 181
134 154 181
134 154 181
134 154 181
133 154 181
134 154 181
134 154 181
134 154 181
133 154 181
134 154 181
134 154 181
134 154 181
134 154 181
134 154 181
134 154 181
134 154 181
134 154 181
134 154 181
133 154 181
133 154 181
134 154 180
134 154 181
134 154 181
134 154 181
134 154 181
134 154 181
133 154 181
133 154 181
133 154 181
134 154 181
134 154 181
134 154 181
134 154 181
133 154 181
134 154 181
133 154 181
133 154 180
134 154 181
134 154 181
135 155 181
133 154 181
134 154 181
135 155 181
134 154 181
134 154 181
133 154 181
133 154 181
135 155 181
133 154 181
134 154 181
133 154 181
133 154 181
133 154 181
134 154 181
134 154 181
134 154 181
134 154 181
134 154 181
134 154 181
134 154 181
133 154 180
134 154 181
134 154 181
133 154 181
134 154 181
134 154 181
134 154 181
134 154 181
133 154 181
134 154 181
134 154 181
134 154 181
134 154 181
133 154 180
135 155 181
134 154 181
133 154 181
133 154 181
134 154 181
134 154 181
134 154 181
134 154 181
134 154 181
134 154 181
133 154 181
134 154 181
133 154 181
134 154 181
135 155 181
134 154 181
134 154 181
133 154 181
134 154 181
134 154 181
134 154 181
135 155 181
134 154 181
134 154 181
134 154 181
133 154 181
133 154 181
134 154 181
133 154 181
134 154 181
134 154 181
133 154 181
133 154 181
135 155 181
134 154 180
134 154 181
134 154 181
134 154 181
134 154 181
135 155 181
135 155 181
133 154 181
133 154 181
135 155 181
133 154 181
133 154 181
134 154 181
133 154 181
134 154 181
135 155 181
133 154 181
132 153 181
134 154 181
134 154 181
132 153 181
134 154 181
133 154 181
134 154 181
134 154 181
133 154 181
134 154 181
134 154 181
132 153 181
134 154 181
134 154 181
134 154 181
133 154 181
134 154 181
134 155 181
134 154 180
134 154 181
134 154 181
134 154 181
133 154 181
133 154 181
134 154 181
134 154 181
133 154 181
133 154 181
134 154 181
134 154 181
133 154 181
134 154 181
133 154 181
134 154 181
134 154 181
134 154 181
133 154 181
134 154 181
134 154 181
134 154 181
133 154 181
134 154 181
134 154 181
134 154 181
133 154 181
134 154 181
135 155 181
133 154 181
134 154 181
134 154 181
134 154 181
133 154 181
133 154 181
134 154 181
133 154 181
134 154 181
134 154 181
134 154 181
134 154 181
133 154 181
134 154 181
134 154 181
134 154 181
134 154 181
134 154 181
133 154 181
134 154 181
134 154 181
134 154 181
133 153 180
134 154 181
134 154 181
134 154 181
133 154 181
135 155 181
133 154 181
134 154 181
134 154 181
133 154 181
134 154 181
134 154 181
134 154 181
134 154 181
133 154 181
134 154 181
134 154 181
134 154 181
133 153 180
133 154 181
134 154 181
133 154 181
133 154 181
134 154 181
134 154 181
134 155 181
134 154 181
133 154 181
134 154 181
133 154 181
134 154 181
134 154 181
134 154 181
134 154 181
134 154 181
134 154 181
134 154 181
133 154 181
134 154 181
135 155 181
133 154 181
134 154 181
134 154 181
133 154 181
134 154 181
133 154 181
134 154 181
134 154 181
134 155 181
133 154 181
134 154 181
133 154 181
133 154 181
134 154 181
134 154 181
134 154 181
134 154 181
134 154 181
134 154 181
134 154 181
134 154 181
135 155 181
133 154 181
133 154 181
133 154 181
133 154 181
133 154 181
135 155 181
133 153 180
134 154 180
134 154 181
134 154 181
135 155 181
134 154 181
134 154 181
134 154 181
133 154 181
134 154 181
134 154 181
134 154 181
134 154 181
134 154 181
134 154 181
133 154 181
133 154 181
133 154 181
134 154 181
133 154 181
134 154 181
134 154 181
132 153 181
134 154 180
134 154 181
133 154 181
133 154 181
134 154 181
135 155 181
133 154 181
133 154 180
134 154 181
133 154 181
134 154 181
135 155 181
133 154 181
134 154 181
134 154 181
134 154 181
133 154 181
134 154 181
133 154 181
134 154 181
134 154 181
134 154 181
133 154 181
134 154 181
135 155 181
133 154 181
134 154 181
133 154 180
134 154 181
133 154 181
133 154 181
134 154 180
134 154 181
134 154 181
134 154 181
134 154 181
134 154 181
134 154 181
134 154 181
134 154 181
134 154 181
134 155 181
135 155 181
135 155 181
134 154 181
134 154 181
134 154 181
134 154 181
133 154 181
134 154 181
134 154 181
134 154 181
134 155 181
133 154 181
134 154 181
134 154 181
134 154 181
133 154 181
133 154 181
135 155 181
133 154 181
133 154 181
134 154 181
133 154 181
134 154 181
134 154 181
133 154 181
134 154 181
134 154 181
134 154 181
134 154 181
134 154 180
134 154 181
133 154 181
134 154 181
132 153 181
134 154 181
134 154 181
133 154 181
134 154 181
133 154 181
134 154 181
134 154 181
133 154 181
134 154 181
134 154 181
134 154 181
133 154 181
134 154 180
134 154 181
133 154 181
134 154 181
134 154 181
134 154 181
133 154 181
134 154 181
134 154 181
134 154 181
135 155 181
134 154 180
134 154 181
133 154 181
134 154 180
135 155 181
133 154 181
133 154 181
134 154 181
133 154 181
134 154 181
134 154 181
134 154 181
134 154 181
133 154 181
134 154 181
133 154 180
134 154 181
133 154 181
134 154 181
133 154 181
133 154 181
133 154 181
134 154 181
134 154 181
134 154 181
134 154 181
133 154 181
134 154 181
134 155 181
134 154 181
134 154 181
133 154 181
135 155 181
133 154 181
133 154 181
134 154 181
134 154 181
134 154 181
133 154 181
134 154 181
133 154 181
133 154 181
133 154 181
133 154 181
134 154 181
134 154 181
134 154 181
134 154 181
135 155 181
134 154 181
135 155 181
134 154 181
133 154 181
134 154 181
134 154 181
134 154 181
133 154 181
133 154 181
133 154 181
134 154 181
134 154 181
133 154 181
134 154 181
134 154 181
134 154 181
134 154 181
134 154 181
133 154 181
134 154 181
134 154 181
133 154 181
134 154 181
134 154 181
134 154 181
134 154 181
134 154 181
133 154 181
133 154 181
135 155 181
134 154 181
133 154 181
134 155 181
133 154 181
133 154 181
133 154 181
134 155 181
133 154 181
133 154 181
133 154 181
134 154 181
133 154 180
134 154 181
134 154 181
134 155 181
133 154 181
135 155 181
133 154 181
134 154 181
134 154 181
133 154 181
134 154 181
133 154 181
134 154 181
135 155 181
133 154 180
134 154 181
135 155 181
134 154 181
134 154 181
133 154 181
134 154 181
134 154 181
134 154 181
134 154 181
134 155 181
135 155 181
134 155 181
134 154 181
133 154 181
135 155 181
133 154 181
134 154 181
134 154 181
133 154 181
133 154 181
134 154 181
135 155 181
135 155 181
134 154 181
134 154 181
134 154 181
134 154 181
134 154 181
134 154 181
135 155 181
134 154 181
134 154 181
133 154 181
134 154 181
133 154 181
133 154 181
134 154 181
133 154 181
133 154 181
134 154 181
135 155 181
133 154 181
134 154 181
134 154 181
134 154 181
134 154 181
134 154 181
133 154 181
135 155 181
133 154 181
134 154 181
134 154 181
133 154 181
135 155 181
134 154 181
134 154 181
133 154 181
133 154 181
134 154 181
133 154 181
133 154 181
133 154 181
134 154 181
134 154 181
134 154 181
134 154 181
134 154 181
134 154 181
134 154 181
134 154 181
134 154 181
133 154 181
134 154 181
133 154 181
135 155 181
133 154 181
133 154 181
135 155 181
135 155 181
133 154 181
133 154 181
134 154 181
133 154 181
133 154 181
134 154 181
133 154 181
134 154 181
133 154 181
134 154 181
133 154 180
134 154 181
133 154 181
133 154 181
135 155 181
134 154 181
134 154 181
134 154 181
133 154 181
134 154 181
134 154 181
134 154 181
134 154 181
133 154 181
134 154 181
134 154 181
134 154 181
134 154 181
134 154 181
134 154 181
134 154 181
135 155 181
133 154 181
134 154 181
134 154 181
133 154 181
133 154 181
134 154 181
133 154 181
134 154 181
134 154 181
133 154 181
133 154 181
134 154 181
134 154 181
134 154 181
134 154 181
133 154 181
133 154 181
134 154 181
134 154 181
134 154 181
133 154 181
134 154 181
134 154 181
134 155 181
133 154 181
133 154 181
134 154 181
135 155 181
133 154 181
134 154 181
134 154 180
133 154 181
135 155 181
134 154 180
134 154 181
135 155 181
133 154 181
134 154 181
135 155 181
134 154 181
134 154 181
134 154 181
134 154 181
133 154 180
134 154 181
135 155 181
134 154 181
133 154 181
133 154 181
134 154 181
134 154 181
133 154 181
134 155 181
134 154 181
134 154 181
134 154 181
134 154 181
134 154 181
133 154 181
134 154 181
134 154 181
134 154 181
134 154 181
134 154 181
132 153 181
133 154 181
134 154 181
134 154 181
135 155 181
133 154 181
133 154 181
133 154 181
133 154 181
134 154 181
134 154 181
133 154 181
134 154 181
134 154 181
133 154 181
134 154 181
133 154 181
133 154 180
134 154 181
134 154 181
134 154 181
134 154 181
133 154 180
134 155 181
133 154 181
133 154 181
134 154 181
133 154 181
133 154 181
133 154 181
134 154 181
133 154 181
133 154 181
133 154 181
133 154 180
133 154 181
134 154 181
134 154 181
133 154 181
133 154 181
133 154 180
133 154 181
134 154 181
134 154 181
133 154 181
134 154 181
135 155 181
134 154 181
134 154 181
134 154 181
134 154 181
134 154 181
133 154 181
135 155 181
133 154 181
134 154 181
134 154 181
133 154 181
134 154 181
134 154 181
134 154 181
134 154 181
132 154 181
134 154 181
133 154 181
134 154 181
134 154 181
135 155 181
134 154 181
134 154 181
134 154 181
134 154 181
134 154 181
133 154 181
133 154 181
134 154 181
134 154 181
134 155 181
134 154 181
134 154 181
134 154 181
134 154 181
134 154 181
134 154 181
133 154 181
133 154 181
134 154 181
134 155 181
135 155 181
134 154 181
134 154 181
135 155 181
134 154 181
133 154 181
134 154 181
134 154 181
134 154 181
134 154 181
134 154 181
134 154 181
133 154 181
134 154 181
134 154 181
134 154 181
135 155 181
134 154 181
134 154 181
134 154 181
133 154 181
134 154 181
134 154 181
134 154 181
134 154 181
133 154 181
134 154 181
134 154 181
133 154 181
134 154 181
134 154 181
134 154 181
134 154 181
133 154 181
133 154 180
134 154 181
133 154 181
134 154 181
134 154 181
134 154 181
134 154 181
135 155 181
134 154 181
133 154 181
135 155 181
134 154 181
133 154 181
133 154 181
134 154 181
134 154 181
133 154 181
135 155 181
134 154 181
134 154 181
134 154 181
133 154 180
134 154 181
133 154 181
133 154 181
134 155 181
133 154 181
134 154 181
134 154 181
133 154 181
133 154 181
134 154 181
133 154 181
133 154 181
134 154 181
134 154 181
133 154 181
134 154 181
134 154 181
133 154 181
133 154 181
134 154 181
134 154 181
133 154 181
134 154 181
133 154 181
134 154 181
134 154 181
133 154 181
134 154 180
134 154 181
133 154 181
133 154 181
133 154 181
134 154 181
134 154 181
134 154 181
134 154 181
133 154 181
135 155 181
134 154 181
133 154 181
134 154 181
133 154 181
134 154 181
134 154 181
135 155 181
134 154 181
133 154 181
134 154 181
134 154 181
134 154 181
133 154 181
134 154 181
134 154 181
133 154 181
133 154 181
134 154 181
133 154 181
134 154 181
134 154 181
134 154 181
133 154 181
133 154 180
134 154 181
133 154 181
134 155 181
133 154 181
134 154 181
135 155 181
134 154 181
133 154 181
134 154 181
135 155 181
134 154 181
133 154 181
134 154 181
134 154 181
134 154 181
134 154 181
133 154 181
133 154 181
133 154 181
134 154 181
133 154 181
135 155 181
134 154 181
134 154 181
134 154 180
134 154 181
134 154 181
134 154 181
133 154 181
134 154 181
134 154 181
135 155 181
134 154 181
134 154 181
134 154 181
133 154 181
135 155 181
134 154 181
135 155 181
134 154 181
133 154 181
134 154 181
134 154 181
133 154 181
133 154 180
134 154 181
134 154 181
134 154 181
134 154 181
133 154 181
134 154 181
133 154 181
134 155 181
135 155 181
133 154 181
134 154 181
134 154 181
134 154 181
134 154 181
133 154 181
134 154 181
134 154 181
134 154 181
133 154 181
134 154 181
134 154 181
134 154 181
133 154 180
135 155 181
134 154 181
133 154 181
134 154 181
134 154 181
134 154 180
133 154 181
133 154 181
135 155 181
134 155 181
134 154 181
134 154 181
133 154 181
133 154 181
134 154 181
134 154 181
134 154 181
134 154 181
134 154 181
134 154 181
134 154 181
134 154 181
134 154 181
133 154 181
133 154 181
135 155 181
134 154 181
134 154 181
134 154 181
134 154 181
134 154 181
133 154 181
134 154 181
134 154 181
134 154 181
135 155 181
134 154 180
134 154 181
133 154 181
135 155 181
133 154 181
133 154 181
134 154 181
134 154 181
133 154 181
133 154 181
134 154 181
135 155 181
134 154 181
133 154 181
135 155 181
134 154 181
134 154 181
134 154 181
134 154 181
133 154 181
134 155 181
133 154 181
134 154 181
133 154 181
134 154 181
133 154 181
135 155 181
134 154 181
134 154 181
134 154 181
134 154 181
134 154 181
134 154 181
133 154 181
134 154 181
134 154 181
134 154 181
134 154 181
133 154 181
134 154 181
134 154 181
134 154 181
134 154 181
134 154 180
134 154 181
134 154 181
133 154 181
134 154 181
133 154 181
133 154 181
133 154 181
134 154 180
133 154 180
134 154 181
134 154 181
134 154 181
133 154 181
133 154 181
133 154 181
132 153 181
133 154 181
135 155 181
134 154 180
134 154 181
133 154 181
133 154 181
134 154 181
134 154 181
132 153 181
135 155 181
134 154 181
134 154 181
134 154 181
133 154 181
134 154 181
134 154 181
134 154 181
135 155 181
133 154 181
134 154 181
134 154 181
134 154 181
134 154 181
133 154 181
133 154 181
134 154 181
134 154 181
134 154 181
133 154 181
133 154 181
134 154 181
134 154 181
133 154 181
133 154 181
134 154 181
133 154 181
134 154 181
134 154 181
135 155 181
134 154 181
133 154 181
134 154 181
134 154 181
134 154 181
133 154 181
134 154 181
134 154 181
133 154 181
134 154 181
134 154 181
133 154 181
133 154 180
134 154 181
133 154 181
134 154 181
134 154 181
133 154 181
134 154 181
134 154 181
134 154 181
134 154 181
134 154 181
135 155 181
133 154 181
134 154 180
133 154 181
134 154 181
134 154 181
134 154 181
133 154 181
134 154 181
135 155 181
134 154 181
133 154 181
133 154 181
133 154 181
134 154 181
134 154 181
133 154 181
133 154 181
134 154 181
134 154 181
133 154 181
133 154 181
134 154 181
134 154 181
134 154 181
134 154 181
133 154 181
134 154 181
133 154 181
133 154 181
134 154 181
134 154 181
134 154 181
134 154 181
134 154 181
133 154 181
134 154 181
133 154 181
134 154 181
134 154 181
134 154 181
133 154 181
134 154 181
134 154 181
134 154 181
134 154 181
134 154 181
134 154 181
134 154 181
134 154 181
133 154 181
133 154 181
134 154 181
135 155 181
133 154 181
133 154 181
134 154 181
134 154 181
133 154 181
133 154 181
133 154 181
133 154 181
134 154 181
134 154 181
134 154 181
134 154 180
135 155 181
133 154 181
133 154 181
134 154 181
134 154 181
134 154 181
133 154 181
134 154 181
134 154 181
134 154 181
134 154 181
134 155 181
135 155 181
135 155 181
133 154 181
134 154 181
134 154 181
135 155 181
135 155 181
133 154 181
133 154 181
133 154 180
133 154 181
134 154 181
133 154 181
133 154 181
134 154 181
134 154 181
134 154 181
134 154 181
134 154 181
134 154 181
135 155 181
134 154 181
134 154 181
135 155 181
134 154 181
134 154 181
134 154 181
133 154 181
134 154 181
134 154 181
134 154 181
134 154 181
133 154 180
134 154 181
133 154 181
133 154 181
133 154 181
134 154 181
135 155 181
134 154 181
133 154 181
133 154 181
134 154 181
133 154 181
134 154 181
133 154 181
134 154 181
134 154 181
133 154 181
134 154 181
135 155 181
133 154 181
133 154 181
134 154 181
135 155 181
134 154 181
134 154 181
134 154 181
134 154 181
134 154 181
135 155 181
133 154 181
134 154 181
133 154 180
134 154 181
134 154 181
134 154 181
134 154 181
135 155 181
133 154 181
133 154 181
134 154 181
135 155 181
134 155 181
134 154 181
133 154 181
133 154 181
134 154 181
133 154 181
134 154 181
134 154 181
135 155 181
134 154 181
133 154 181
135 155 181
133 154 181
133 154 181
134 154 181
134 154 181
134 154 181
134 154 181
133 154 181
134 154 181
134 154 181
134 154 181
135 155 181
134 154 181
133 154 181
134 154 181
133 154 181
134 154 181
134 154 181
133 154 180
134 154 181
134 154 181
134 154 181
133 154 180
134 154 181
133 154 181
134 154 181
134 154 181
134 154 181
134 154 181
133 153 180
134 154 181
134 154 181
133 154 181
134 154 181
133 154 181
133 154 181
134 154 181
134 154 181
135 155 181
135 155 181
134 154 181
134 154 181
134 154 181
134 154 181
133 154 181
134 154 181
135 155 181
134 154 181
135 155 181
133 154 181
133 154 180
134 154 181
134 154 181
133 154 181
134 154 181
134 154 181
133 154 181
134 154 181
134 154 181
134 154 181
134 155 181
134 154 181
134 154 181
134 154 181
134 154 181
134 154 181
133 154 181
134 154 181
133 154 180
133 154 181
134 154 181
134 154 181
133 154 181
133 154 181
133 154 181
134 155 181
134 154 181
133 154 181
135 155 181
134 154 181
133 154 181
134 155 181
134 154 181
133 154 181
133 154 181
133 154 181
134 154 181
133 154 181
134 154 181
134 154 181
134 154 181
133 154 181
135 155 181
133 154 181
134 154 181
133 154 181
133 154 181
133 154 181
134 154 181
134 154 181
134 154 181
134 154 181
134 154 181
134 154 181
134 154 181
134 154 181
134 154 181
133 154 181
134 154 181
134 154 181
133 154 180
134 154 181
134 154 181
133 154 181
134 154 181
133 154 181
135 155 181
134 154 181
134 154 181
133 154 181
134 154 181
133 154 181
134 154 181
133 154 181
133 154 181
133 154 181
133 154 181
133 154 181
133 153 180
134 154 181
134 154 181
134 154 181
134 154 181
134 154 181
133 154 181
134 154 181
134 154 181
133 154 181
133 154 181
133 154 181
134 155 181
135 154 180
134 154 181
133 154 181
134 155 181
134 154 181
134 154 181
133 154 181
134 154 181
134 154 181
134 154 181
133 154 181
134 154 181
133 154 181
134 154 181
134 154 181
134 154 181
134 154 181
134 154 181
134 154 181
135 155 181
133 154 181
134 154 181
134 154 181
134 154 181
133 154 181
133 154 181
133 154 181
133 154 181
134 154 181
134 154 181
134 154 181
134 154 181
133 153 180
135 155 181
133 154 181
133 154 181
133 154 181
133 154 181
133 154 181
133 154 181
134 154 181
134 154 181
133 154 181
134 154 181
134 154 181
134 154 181
134 154 181
133 154 181
134 154 181
134 154 181
134 154 181
134 154 181
134 154 181
133 154 181
133 154 181
133 154 181
134 154 181
134 154 181
134 154 181
134 154 181
134 154 181
134 154 181
134 154 181
133 154 181
133 154 181
134 154 181
134 154 181
133 154 181
134 154 181
133 154 181
134 154 181
134 154 181
135 155 181
134 154 181
133 154 181
134 154 181
133 154 181
134 154 181
133 154 181
134 154 181
133 154 181
133 154 181
133 154 181
134 154 181
134 154 181
133 154 181
134 154 181
134 154 181
134 154 181
134 154 181
134 154 181
134 154 181
134 154 181
133 154 181
133 154 181
134 154 181
134 154 181
133 154 181
134 154 181
133 154 180
134 154 181
134 154 181
134 154 181
134 154 181
134 154 181
133 154 181
134 154 181
133 154 181
133 154 181
134 155 181
134 154 181
133 154 181
134 154 181
133 154 181
134 154 181
134 154 181
134 154 181
133 154 181
133 154 181
134 154 181
133 154 181
134 154 181
134 154 181
134 154 181
133 154 180
133 154 181
133 154 181
134 154 181
133 154 180
134 154 181
135 155 181
133 154 181
134 154 181
134 154 181
134 154 181
133 154 181
135 155 181
134 154 181
133 154 181
134 154 181
134 154 181
134 154 181
133 154 181
134 154 181
134 155 181
133 154 181
134 154 181
134 154 181
135 155 181
133 154 181
134 154 181
133 154 181
133 154 181
134 154 181
134 154 181
134 154 181
133 154 180
133 154 181
134 154 181
134 154 181
134 154 181
134 154 181
134 154 181
134 154 181
134 154 181
133 154 181
133 154 181
134 154 181
133 154 181
134 154 181
134 154 181
134 154 181
134 154 181
134 154 181
133 154 181
134 154 181
134 154 181
134 154 181
134 154 180
134 154 181
135 155 181
134 154 181
133 154 181
134 154 180
133 154 181
133 154 181
134 154 181
133 154 181
133 154 181
134 155 181
133 154 180
134 154 181
133 154 181
134 154 181
133 154 181
134 154 181
134 155 181
134 154 181
134 154 181
134 155 181
134 154 181
135 155 181
133 154 181
133 154 180
134 154 181
133 154 181
134 154 181
133 154 181
134 154 181
134 154 181
134 154 181
134 154 181
134 154 181
133 154 181
134 154 181
134 154 181
134 154 181
134 154 181
134 154 181
135 155 181
135 155 181
134 154 181
133 154 181
134 154 181
133 154 181
133 154 181
134 154 181
133 154 181
134 154 181
135 155 181
134 154 181
134 154 181
134 154 181
134 154 181
134 154 181
133 154 181
133 154 181
134 155 181
133 154 181
133 154 181
133 154 181
134 154 181
133 154 181
133 154 181
134 154 181
134 154 181
133 154 181
134 154 180
134 154 181
134 154 181
135 155 181
133 154 181
134 154 181
133 154 181
135 155 181
134 154 181
134 154 181
134 154 181
135 155 181
134 154 181
134 154 181
135 155 181
133 154 181
134 154 181
135 155 181
134 154 181
134 154 181
134 154 181
133 154 181
133 154 181
133 154 181
132 153 181
134 154 181
133 154 181
134 154 181
135 155 181
134 154 181
133 154 181
134 154 181
134 154 181
134 154 181
133 154 181
134 154 181
134 154 181
134 154 180
133 154 181
134 154 181
134 154 181
133 154 181
134 154 181
133 154 181
133 154 181
133 154 180
134 154 181
134 154 181
135 155 181
133 154 180
134 154 181
134 154 181
134 154 181
134 154 181
135 155 181
134 154 181
133 154 181
133 154 181
133 154 181
134 154 181
134 154 181
134 154 181
133 154 181
134 154 181
134 154 180
133 154 181
134 154 181
133 154 181
133 154 181
134 154 181
134 154 181
134 154 181
133 154 180
134 154 181
134 154 181
133 154 181
134 154 181
134 154 181
133 154 181
133 154 181
134 154 181
134 154 181
134 154 181
134 154 181
134 154 181
134 154 181
134 154 181
135 155 181
135 155 181
134 154 181
134 154 181
134 155 181
134 154 181
134 154 181
134 154 181
135 155 181
134 154 181
133 154 181
133 154 181
134 154 181
134 154 181
133 154 181
133 154 181
134 154 181
134 154 181
133 154 181
134 154 181
133 154 181
134 154 181
133 154 181
134 154 181
134 154 181
133 154 181
134 154 180
133 154 181
134 154 181
133 154 181
133 154 181
134 154 181
134 154 181
134 154 181
133 154 180
135 155 181
133 154 181
133 154 181
133 154 181
133 154 181
134 154 181
134 155 181
133 154 181
133 154 181
134 154 181
134 154 181
134 154 181
134 154 181
134 154 181
134 154 181
133 154 181
134 154 181
134 155 181
133 154 181
134 154 180
134 154 181
134 154 181
134 154 181
134 155 181
134 154 181
135 155 181
133 154 181
133 154 181
133 154 181
134 154 181
134 154 181
134 154 181
134 154 181
135 155 181
134 154 181
134 154 181
134 154 181
134 154 181
133 154 181
133 154 181
134 154 181
134 154 181
133 154 181
133 154 181
134 154 181
134 154 181
134 154 181
134 154 181
133 154 181
134 154 181
135 155 181
134 154 181
134 154 181
135 155 181
135 155 181
134 154 180
134 154 181
134 154 181
133 154 181
134 154 181
134 154 181
134 154 181
134 154 181
134 154 181
133 154 181
134 154 181
133 154 181
134 154 181
135 155 181
133 154 181
134 154 181
135 155 181
134 154 181
134 154 181
134 154 180
135 155 181
134 154 181
134 154 181
134 154 181
134 154 181
134 155 181
134 154 181
134 154 181
134 154 181
133 154 181
134 155 181
134 154 181
133 154 181
134 154 181
134 154 181
134 154 181
134 154 181
134 154 181
135 155 181
134 154 181
133 154 181
134 155 181
134 154 181
133 154 181
134 154 181
134 154 181
134 154 181
133 154 180
135 155 181
134 154 181
134 154 181
133 154 181
135 155 181
134 154 181
134 154 181
134 154 180
134 154 181
134 154 181
133 154 181
134 155 181
134 154 181
134 154 181
134 154 181
133 154 181
134 154 181
134 154 181
133 154 181
134 154 181
133 154 181
134 154 181
134 154 181
133 154 181
134 154 180
134 154 181
134 154 181
134 154 181
133 154 181
132 153 181
134 154 181
134 154 181
135 155 181
133 154 181
133 154 181
133 154 181
134 154 181
134 154 181
134 154 181
133 154 181
133 154 181
134 154 181
133 154 181
134 154 181
133 154 181
134 154 181
134 154 181
134 154 181
134 154 181
134 154 181
134 155 181
133 154 181
134 154 181
134 155 181
135 155 181
134 154 181
135 155 181
134 154 181
134 154 181
134 154 180
134 154 181
133 154 181
133 154 181
134 154 181
134 154 181
134 154 181
133 154 181
134 154 181
133 154 181
134 154 181
134 154 181
134 154 181
134 154 180
134 154 181
134 154 181
135 155 181
134 154 181
134 154 181
134 155 181
134 154 181
133 154 181
134 154 181
133 154 181
133 154 181
134 154 181
134 154 181
133 154 181
134 154 181
133 154 181
134 154 181
134 154 181
133 154 181
132 153 181
134 154 181
133 154 181
133 154 181
134 154 181
134 154 181
133 154 181
134 154 181
134 155 181
134 154 181
133 154 181
134 154 181
133 154 181
134 154 181
133 154 181
134 154 181
133 154 181
134 154 181
134 154 181
133 154 181
135 155 181
133 154 181
135 155 181
134 154 181
134 154 181
133 154 180
134 154 181
134 154 181
134 154 181
133 154 181
133 154 181
133 154 181
133 154 181
134 154 181
134 154 181
134 154 181
133 154 181
134 154 181
134 154 181
134 154 181
134 154 181
134 154 181
134 155 181
134 154 181
133 154 181
134 154 181
133 154 181
134 154 181
134 154 181
134 154 181
134 154 181
133 154 180
134 154 181
134 154 181
134 154 181
133 154 181
134 154 181
133 154 181
133 154 181
133 153 180
133 154 180
134 154 181
134 154 181
133 154 181
133 154 181
134 154 181
133 154 181
134 154 181
133 154 181
134 155 181
133 154 181
134 154 181
133 154 181
133 154 181
134 154 181
132 154 181
134 154 181
134 155 181
134 154 181
134 154 181
134 154 181
133 154 181
133 154 181
133 154 181
134 154 181
134 154 181
134 154 181
134 154 181
133 154 181
134 154 181
134 154 181
134 154 181
134 154 181
134 154 181
134 154 181
134 154 181
133 154 181
134 154 181
133 154 181
134 154 181
133 154 181
134 154 181
134 155 181
133 154 180
135 155 181
134 154 181
134 154 181
133 154 181
134 154 181
134 154 181
134 154 181
135 155 181
134 154 181
134 154 181
135 155 181
134 154 181
133 154 180
133 154 181
134 154 181
133 154 181
134 154 181
134 154 181
134 154 181
134 154 181
133 154 181
133 154 181
134 154 181
133 154 181
133 154 181
133 154 181
134 154 181
135 155 181
134 154 181
135 155 181
133 154 181
133 154 181
133 154 181
134 154 181
134 154 181
134 154 181
133 154 181
134 154 181
133 154 181
133 154 181
134 154 181
133 154 181
134 154 181
133 154 181
134 154 181
133 154 181
133 154 181
133 154 181
134 154 181
134 154 181
134 154 181
133 154 181
133 154 180
134 154 181
134 154 181
133 154 181
133 154 181
133 154 181
134 154 181
134 154 181
134 154 181
135 155 181
134 154 181
134 154 181
134 154 181
133 154 181
134 154 181
133 154 181
133 154 181
133 154 181
134 154 181
134 154 181
134 154 181
134 154 181
134 154 181
134 154 181
134 154 180
133 154 181
134 154 181
134 154 181
133 154 180
133 154 181
133 154 181
133 154 181
134 154 181
133 154 181
134 154 181
134 155 181
135 155 181
134 154 181
134 154 181
135 155 181
133 154 181
133 154 181
134 154 181
133 154 181
134 154 181
134 154 181
133 154 181
134 154 181
133 154 181
134 154 181
134 154 181
134 154 181
135 155 181
133 154 181
133 154 181
134 154 181
135 155 181
134 154 181
133 154 181
134 154 181
134 154 181
134 154 181
134 154 181
134 154 181
134 154 181
134 154 181
134 154 181
134 154 181
134 154 181
134 154 181
135 155 181
134 154 181
133 154 181
133 154 181
134 154 181
133 154 181
134 155 181
133 154 181
134 154 181
134 154 181
133 154 181
134 154 181
134 154 181
133 154 181
134 154 181
134 154 181
133 154 181
133 154 181
134 154 181
135 155 181
134 154 181
134 154 181
133 154 181
133 154 181
134 154 181
134 154 181
134 154 181
133 154 181
134 154 181
135 155 181
134 154 181
134 154 181
133 154 181
133 154 181
134 154 181
133 154 181
134 154 181
133 154 181
134 154 181
133 154 181
134 154 181
134 154 181
133 154 180
135 155 181
134 154 180
134 154 181
134 154 181
134 154 181
134 154 181
134 155 181
134 154 181
134 154 181
134 154 181
133 154 181
134 154 181
133 154 181
133 154 181
133 154 181
134 154 181
133 154 181
134 154 181
134 154 181
134 154 181
135 155 181
133 154 181
134 154 181
134 154 181
134 154 181
134 154 181
134 155 181
134 154 181
134 154 181
134 154 181
133 154 181
134 154 181
134 154 181
133 154 181
135 155 181
134 155 181
134 154 181
134 154 180
134 154 181
134 154 181
134 154 181
133 154 181
134 154 181
134 154 181
134 154 181
134 154 181
134 155 181
134 154 181
134 154 181
134 154 181
134 154 180
134 154 181
134 154 181
133 154 181
133 154 181
133 154 181
134 154 181
134 155 181
133 154 181
134 154 181
134 155 181
133 154 181
134 154 181
134 154 181
134 154 181
134 154 181
134 154 181
134 154 181
134 154 181
134 154 181
133 154 181
134 154 181
134 154 181
134 154 181
134 154 181
133 154 180
134 154 181
135 155 181
134 154 181
133 154 181
134 154 181
133 154 181
133 154 181
132 153 181
133 154 181
133 154 181
134 154 181
134 154 180
133 154 181
134 154 181
133 154 181
134 154 181
134 154 181
134 154 181
133 154 181
133 154 181
133 154 181
133 154 181
133 154 181
134 154 181
133 154 181
133 154 181
134 154 181
133 153 180
134 154 181
133 154 181
134 154 181
134 154 181
134 154 181
133 154 181
134 154 181
134 154 181
134 154 181
134 154 181
133 154 181
134 154 181
133 154 181
134 154 181
134 154 181
133 154 181
134 155 181
133 154 181
134 154 181
133 154 181
132 153 181
134 154 181
134 154 181
134 154 181
133 154 181
134 154 181
134 154 181
134 154 181
134 154 181
133 154 181
134 154 181
134 154 181
134 154 181
134 154 181
133 154 181
133 154 181
133 154 181
134 154 181
133 154 181
134 154 181
134 154 181
134 154 180
134 154 181
134 154 181
133 154 181
132 153 181
134 154 181
134 155 181
133 154 181
134 154 181
133 154 181
134 154 181
134 154 181
133 154 181
134 154 181
133 154 181
134 154 181
134 154 181
134 154 181
134 154 181
134 154 181
134 154 181
133 154 181
133 154 181
133 154 181
133 154 181
133 154 181
134 154 181
134 154 181
134 154 181
133 154 180
134 154 181
135 155 181
134 154 181
135 155 181
134 154 181
134 155 181
133 154 181
134 154 181
133 154 181
134 154 181
134 154 180
134 155 181
134 154 181
134 154 181
134 154 181
135 155 181
133 154 181
133 154 181
134 154 181
134 154 181
135 155 181
134 154 180
134 154 181
133 154 181
134 154 181
134 154 181
134 154 181
133 154 181
133 154 181
134 154 181
133 154 181
134 154 181
133 154 181
134 154 181
134 154 181
133 154 181
133 154 181
134 154 181
133 154 181
134 154 181
133 154 181
134 154 181
134 154 180
134 154 181
133 154 181
134 154 181
134 154 181
134 154 181
133 154 181
133 154 181
134 154 181
133 154 181
134 154 181
133 154 181
134 154 181
134 154 181
134 154 181
133 154 181
134 154 181
134 154 181
134 154 181
134 154 181
134 154 181
135 155 181
134 154 181
134 154 181
134 154 181
133 154 181
134 154 181
134 154 181
133 154 181
134 154 181
133 154 180
134 154 181
133 154 181
133 154 181
134 154 181
134 154 181
134 154 181
133 154 181
133 154 181
134 154 181
133 154 181
133 154 181
133 154 181
134 154 181
134 154 181
134 154 181
133 154 181
134 154 181
134 154 181
134 154 181
133 154 181
133 154 181
134 154 181
133 154 181
133 154 181
133 153 180
134 154 181
134 154 181
134 154 181
133 154 181
134 154 181
133 154 181
133 154 181
134 154 181
134 154 181
134 154 181
134 154 181
133 154 181
134 154 181
132 153 180
134 154 181
134 154 181
135 155 181
133 154 181
134 154 181
134 154 181
133 154 181
133 154 181
134 154 181
134 154 181
134 154 181
134 154 181
134 154 181
134 154 181
134 154 181
133 154 181
134 154 181
134 154 181
134 154 181
133 154 181
133 154 181
135 155 181
133 154 181
133 154 181
134 154 181
134 154 181
133 154 181
133 154 181
133 154 181
134 154 181
134 154 181
133 154 181
134 154 181
133 154 181
133 154 181
134 154 181
134 154 181
134 154 181
133 154 181
133 154 181
134 154 181
134 154 181
134 154 181
133 154 181
134 154 181
133 154 181
134 155 181
134 154 181
134 154 181
134 154 181
133 154 181
134 154 181
133 154 181
134 154 181
134 154 181
134 154 181
135 155 181
133 154 181
133 154 181
134 154 180
134 154 181
134 155 181
133 154 181
134 154 181
134 154 181
134 154 181
135 155 181
135 155 181
134 154 181
134 154 181
133 154 181
134 154 181
134 154 181
133 154 181
133 154 181
134 154 181
133 154 181
133 154 181
134 154 181
134 154 181
134 154 181
134 154 181
133 154 181
134 154 181
134 154 181
134 154 181
134 154 181
134 154 181
134 154 181
133 154 181
134 154 181
134 154 181
134 154 181
134 154 181
134 154 181
134 154 181
133 154 181
133 154 181
133 154 181
134 154 181
134 154 181
135 155 181
133 154 181
134 154 181
135 155 181
134 154 181
133 154 181
133 154 181
134 154 181
134 154 181
134 154 181
133 154 180
134 154 181
134 154 181
134 154 181
135 155 181
133 154 181
134 154 181
134 154 181
134 154 181
133 154 181
134 154 181
135 155 181
135 155 181
134 154 181
135 155 181
134 154 181
133 154 181
133 154 181
133 154 181
133 154 181
133 154 181
134 154 181
134 154 181
134 154 181
134 154 181
134 154 181
134 154 181
134 154 181
134 154 181
134 154 181
134 154 181
134 154 181
135 155 181
133 154 181
134 154 181
133 154 181
133 154 181
133 154 181
133 154 181
134 154 181
133 154 181
133 154 181
134 154 181
134 154 181
133 154 181
134 154 181
133 154 181
134 154 181
134 154 181
134 154 181
133 154 181
134 154 181
133 154 181
133 154 180
134 154 181
134 155 181
134 154 181
134 154 181
133 154 181
134 154 181
134 154 181
133 154 181
134 154 181
134 154 181
134 154 181
133 154 181
134 154 181
133 154 181
133 154 181
134 154 181
134 154 181
134 154 181
135 155 181
134 154 181
134 154 181
134 154 181
134 154 181
134 154 181
133 154 181
133 154 180
134 154 181
134 155 181
134 154 181
134 154 181
134 154 181
135 155 181
134 154 181
135 155 181
133 154 181
134 154 181
135 155 181
134 154 181
134 154 181
134 154 181
135 155 181
134 154 181
134 154 181
134 154 181
133 154 181
132 153 181
134 154 181
133 154 181
134 154 181
133 154 181
133 154 181
132 154 181
133 154 181
135 155 181
134 154 181
134 154 181
134 154 181
133 154 181
134 154 181
134 154 181
134 154 181
134 154 181
134 155 181
134 154 181
133 154 181
133 154 181
134 154 181
134 154 181
133 154 181
133 154 181
133 154 181
133 154 181
134 154 181
133 154 181
135 155 181
134 154 181
133 154 181
134 154 181
134 154 181
134 154 181
134 154 181
133 154 181
133 154 181
133 154 181
134 154 181
134 154 181
134 154 181
133 154 181
135 155 181
133 154 181
134 154 181
134 154 181
134 154 181
133 154 181
134 154 181
134 154 181
134 154 181
134 154 181
134 154 181
133 154 181
134 154 181
133 154 181
134 154 181
133 154 181
133 154 181
134 155 181
134 154 181
134 154 181
133 154 181
134 154 181
133 154 181
134 154 181
134 154 181
133 154 181
134 154 181
133 154 180
134 154 181
134 154 181
133 154 181
133 154 181
134 154 181
133 154 181
133 154 181
134 154 181
134 154 181
133 154 181
134 154 180
134 154 181
134 155 181
134 154 181
134 154 181
134 154 181
134 154 181
134 154 181
133 154 181
134 154 181
135 155 181
134 154 181
135 155 181
133 154 181
134 154 181
133 153 180
134 154 181
133 154 181
134 154 181
133 154 181
134 154 181
133 154 181
133 154 181
134 154 181
133 154 181
134 154 181
134 154 181
133 154 181
134 154 181
134 154 180
134 154 181
133 154 181
133 154 181
134 154 181
134 154 181
135 155 181
133 154 181
134 155 181
134 154 181
134 154 181
134 154 180
134 154 181
134 154 181
133 154 181
134 154 181
134 154 181
134 154 181
134 154 181
134 154 181
134 154 181
134 154 181
133 154 181
134 154 181
135 155 181
133 154 181
134 154 181
134 154 181
134 154 181
134 154 181
133 154 181
134 154 181
133 154 181
134 154 181
135 155 181
135 155 181
134 155 181
134 154 181
134 155 181
134 154 181
134 154 181
135 155 181
134 154 181
135 155 181
134 154 181
134 154 181
134 154 181
134 154 181
133 154 180
135 155 181
135 155 181
134 154 181
133 154 181
133 154 181
133 154 181
133 154 181
134 154 181
134 154 181
134 154 181
135 155 181
134 154 181
134 154 181
133 154 181
133 154 181
133 154 181
134 154 181
134 154 181
133 154 181
134 154 181
134 154 181
134 154 181
133 154 181
134 154 181
134 154 181
134 154 181
135 155 181
134 154 181
134 154 181
134 154 181
135 155 181
134 154 181
134 154 181
134 154 181
133 154 181
134 154 181
133 154 181
134 154 181
133 154 181
133 154 181
134 154 181
134 154 181
135 155 181
133 154 181
134 154 181
133 154 181
133 154 181
133 154 181
134 154 181
134 154 181
133 153 180
134 154 181
135 155 181
134 154 181
134 154 181
134 154 181
134 154 181
133 154 181
135 155 181
134 154 180
135 155 181
134 154 181
134 154 181
134 154 181
134 154 181
134 154 181
133 154 181
134 154 181
134 154 181
133 154 181
134 154 181
133 154 180
133 154 181
134 154 181
134 154 181
133 154 180
134 154 181
134 154 180
134 154 181
134 154 181
134 154 181
134 154 181
134 154 181
134 154 181
133 154 181
134 154 181
134 154 181
133 154 181
135 155 181
135 155 181
133 154 181
134 154 181
133 154 181
134 154 181
134 154 181
133 154 181
135 155 181
134 154 181
133 154 181
133 154 181
134 154 181
134 154 181
134 154 181
134 154 181
134 154 181
134 154 181
134 154 181
134 154 181
134 154 181
134 154 181
135 155 181
133 154 181
133 154 181
134 154 181
134 154 181
134 154 181
134 154 181
134 154 181
133 154 181
134 154 181
134 154 181
134 154 181
133 154 181
135 155 181
133 154 181
134 155 181
134 154 181
134 154 181
134 154 181
133 154 181
133 154 181
133 154 181
134 154 180
133 154 181
134 154 181
133 154 181
134 154 181
134 154 181
133 154 181
133 154 181
134 154 181
134 154 181
134 154 181
132 153 181
134 154 181
133 154 181
134 154 181
134 154 181
133 154 181
133 154 181
133 154 181
133 154 181
133 154 181
133 154 181
134 154 181
134 154 181
135 155 181
134 155 181
134 154 181
134 154 181
134 154 181
133 154 181
134 154 181
133 154 181
134 154 181
134 154 181
133 154 181
134 154 181
134 154 181
134 154 181
133 154 181
135 155 181
134 154 181
135 155 181
135 155 181
135 155 181
133 154 181
133 154 181
133 154 181
133 154 181
134 154 181
133 154 181
133 154 181
134 154 181
134 154 181
134 154 181
134 154 181
134 154 181
133 154 181
134 154 181
134 154 181
134 154 181
134 154 181
135 155 181
133 154 181
134 154 181
133 154 181
134 154 181
133 154 181
134 154 181
134 154 181
134 154 181
134 154 181
134 154 181
134 154 181
135 155 181
134 154 181
133 154 181
134 154 181
134 154 181
133 154 181
134 154 181
133 154 181
133 154 181
134 154 181
134 155 181
133 154 181
133 154 181
134 154 181
134 154 181
133 154 181
134 154 181
133 154 181
133 154 181
134 154 181
134 154 181
133 154 181
134 154 181
134 154 180
134 155 181
135 155 181
133 154 181
134 154 181
133 154 181
134 154 181
133 154 180
134 154 181
134 154 181
134 154 181
134 154 181
134 154 181
133 154 181
135 155 181
133 154 181
133 154 181
134 154 181
134 154 181
133 154 181
134 154 181
135 155 181
134 154 181
134 154 181
134 154 181
133 154 181
134 154 181
133 154 181
134 154 181
133 154 181
135 155 181
133 154 181
133 154 181
134 154 181
134 154 181
134 154 181
133 154 181
134 154 181
133 154 181
134 154 181
133 154 181
134 154 181
134 154 181
134 154 181
133 154 181
134 154 181
134 154 181
134 154 181
134 154 181
133 154 181
134 154 181
134 154 181
133 154 181
135 155 181
133 154 181
134 155 181
134 154 181
134 154 181
134 154 181
133 154 181
134 154 181
134 154 181
134 154 181
134 154 181
134 154 181
134 154 181
135 155 181
133 154 181
134 154 181
133 154 181
133 154 181
134 154 181
134 154 181
133 154 181
133 154 181
134 154 181
133 154 181
134 154 181
134 154 181
133 154 181
134 154 181
133 154 181
134 154 181
133 154 181
133 154 181
134 154 181
133 154 181
134 154 181
134 154 181
134 154 181
134 154 181
133 154 181
134 154 181
133 154 181
133 154 181
133 154 181
134 154 181
134 154 181
134 154 181
134 154 181
135 155 181
134 155 181
133 154 180
134 154 181
133 154 181
133 154 181
133 154 181
134 154 181
134 154 181
134 154 181
134 155 181
135 155 181
133 154 181
134 154 181
134 154 181
134 154 181
134 154 181
134 154 181
134 154 181
133 154 181
134 155 181
134 154 181
134 154 181
134 154 181
134 154 181
135 155 181
134 154 181
133 154 181
133 154 181
134 154 181
133 154 181
134 154 181
135 155 181
133 154 181
133 154 181
135 155 181
134 155 181
133 154 181
134 154 181
133 154 181
133 154 181
133 154 181
134 155 181
134 154 181
134 154 181
133 154 181
134 154 181
133 154 181
133 154 181
133 154 181
134 154 181
135 155 181
134 154 181
135 155 181
134 154 181
134 154 181
134 154 181
134 154 181
133 154 181
134 154 181
133 154 181
134 154 181
133 154 181
134 154 181
134 154 181
134 155 181
134 154 181
133 154 181
133 154 181
134 154 181
134 154 181
134 154 180
134 154 181
134 154 181
134 154 181
133 154 181
134 154 181
134 154 181
134 154 181
134 154 181
134 154 181
134 154 181
134 154 180
133 154 180
134 154 181
133 154 181
133 154 181
134 154 181
134 154 181
134 155 181
134 154 181
133 154 181
133 154 181
134 154 181
133 154 181
134 154 181
133 154 181
133 154 181
134 154 181
133 154 181
134 154 181
134 154 181
134 154 181
134 154 181
133 154 181
134 154 181
134 154 181
133 154 180
134 154 181
133 154 181
134 154 181
134 154 181
133 154 181
134 154 181
134 154 181
134 154 181
134 154 181
134 154 181
135 155 181
134 154 181
134 155 181
133 154 181
133 154 181
134 154 181
134 154 181
133 154 181
134 154 181
133 154 181
134 155 181
134 154 181
133 154 181
134 154 181
133 154 181
133 154 181
134 154 180
133 154 181
135 155 181
133 154 181
134 154 181
134 154 181
135 155 181
134 154 181
134 154 181
134 154 181
135 155 181
133 154 181
134 154 181
133 154 181
134 154 181
134 154 181
134 154 181
134 154 181
133 154 181
135 155 181
134 154 181
133 154 181
134 154 181
133 154 181
134 154 180
135 155 181
134 154 181
133 154 181
134 154 181
134 154 181
133 154 181
133 154 181
134 154 181
133 154 181
134 154 181
134 154 181
133 154 181
134 154 181
134 154 181
133 154 181
134 154 180
134 154 181
133 153 180
134 154 181
133 154 181
134 154 181
133 154 181
133 154 181
134 154 181
133 154 181
134 154 181
133 154 181
134 154 181
134 154 181
133 154 181
134 155 181
133 154 181
134 154 181
133 154 181
133 154 181
135 155 181
133 154 181
133 154 181
134 155 181
134 154 181
133 154 181
133 154 181
134 154 181
134 154 181
133 154 181
134 154 181
134 154 181
134 154 181
133 154 181
134 154 181
134 154 181
134 154 181
134 154 181
133 154 181
134 154 181
134 154 181
134 154 181
134 154 181
134 154 181
134 154 181
133 154 181
134 154 181
134 154 181
134 154 181
133 154 181
134 154 181
134 154 181
134 154 181
134 154 181
134 154 181
133 154 181
134 154 181
134 154 181
133 154 181
135 155 181
134 154 181
133 154 181
133 154 181
134 154 181
133 154 181
134 154 181
134 154 181
133 154 181
134 154 181
134 154 181
134 154 181
133 154 181
134 154 181
134 154 181
133 154 181
134 154 181
133 154 181
134 154 181
134 154 181
134 154 181
134 154 181
134 154 181
133 154 181
133 154 181
134 154 181
133 154 181
134 154 181
134 154 181
134 154 181
134 154 181
133 154 180
134 154 181
134 155 181
134 154 180
134 154 181
134 154 181
134 154 181
134 154 181
134 154 181
133 154 181
133 154 181
134 154 181
134 154 181
134 154 181
134 154 181
134 154 181
133 154 181
133 154 181
133 154 181
134 154 181
135 155 181
134 154 181
134 154 181
133 154 181
133 154 181
134 154 181
134 154 181
133 154 180
134 154 181
134 154 181
134 154 181
134 154 181
134 154 181
133 154 181
134 154 181
133 154 181
134 154 181
134 154 181
134 154 181
134 154 181
134 155 181
134 154 181
134 154 181
134 154 181
133 154 181
134 154 181
134 154 181
135 155 181
134 154 181
134 154 181
134 154 181
133 154 181
134 154 181
133 154 181
132 153 181
134 154 181
134 154 181
134 154 181
134 154 181
134 154 181
134 154 181
134 154 181
135 155 181
134 154 181
134 154 181
134 154 181
134 154 181
133 154 181
134 154 181
133 154 181
134 154 181
134 154 181
133 154 181
133 153 180
134 154 181
134 154 181
133 154 181
133 154 181
134 154 181
134 154 181
133 154 181
134 154 181
134 154 181
134 154 181
135 155 181
134 154 180
133 154 181
134 154 181
133 154 181
134 154 181
133 154 181
134 154 181
134 154 181
133 154 181
134 154 181
134 154 181
134 154 181
133 154 181
134 154 181
134 154 180
134 154 181
134 154 181
134 154 181
134 155 181
132 153 181
134 154 181
133 154 181
135 155 181
134 154 181
134 154 181
133 154 181
133 154 181
133 154 181
134 154 181
134 154 181
134 154 180
134 154 181
134 155 181
133 154 181
133 154 181
134 154 181
133 154 181
134 154 181
133 154 181
134 154 181
134 154 181
134 154 181
134 154 181
133 154 181
133 154 181
134 154 181
134 154 181
133 154 181
133 154 181
133 154 181
134 154 181
134 155 181
134 154 181
134 154 181
134 154 181
133 154 181
133 154 181
134 154 181
133 154 181
134 154 181
134 154 181
134 154 180
133 154 181
134 154 181
134 154 180
134 154 181
134 154 180
133 154 181
133 154 181
135 155 181
134 154 181
133 154 181
134 154 181
133 154 181
134 154 181
134 154 181
133 154 181
134 154 181
135 155 181
133 154 181
134 154 181
134 154 181
134 154 181
134 154 181
134 154 180
134 154 181
134 154 181
134 154 181
134 154 181
134 154 181
133 154 181
134 154 181
134 154 181
134 154 181
134 154 181
134 154 181
133 154 181
134 154 181
133 154 181
134 154 181
133 154 181
134 154 181
135 155 181
133 154 181
134 154 181
134 154 181
134 154 181
134 154 181
134 154 181
133 154 181
133 154 181
133 154 181
134 154 181
133 154 181
134 154 181
134 154 181
134 154 181
133 154 181
134 154 181
134 154 181
134 154 181
134 154 181
134 155 181
134 155 181
133 154 181
133 154 181
134 154 181
133 154 181
133 154 181
133 154 181
134 154 181
134 154 181
133 154 180
133 154 180
133 154 181
134 154 181
134 154 181
134 154 181
133 154 181
134 154 181
133 154 181
133 154 181
133 153 180
134 154 181
134 154 181
133 154 181
134 154 181
134 154 181
134 154 181
134 154 181
134 154 181
133 154 181
134 154 181
134 154 181
134 154 181
134 154 181
133 154 181
133 154 181
134 154 181
134 154 181
134 154 181
134 154 181
134 154 181
134 154 181
134 154 181
133 154 181
134 154 181
133 154 181
134 154 181
134 154 181
134 154 181
134 154 181
134 154 181
134 154 181
134 155 181
135 155 181
134 154 181
133 154 181
134 154 181
134 154 181
134 154 181
134 154 181
134 154 181
135 155 181
133 154 181
133 154 181
134 154 181
135 155 181
134 154 181
133 154 181
134 154 181
132 153 181
133 154 181
134 154 181
134 154 181
134 154 181
133 154 181
134 154 181
133 154 181
133 154 181
133 154 181
133 154 181
134 154 181
133 154 181
134 154 181
133 154 181
133 154 181
134 154 181
134 154 181
133 154 181
135 155 181
134 154 181
134 154 181
133 154 181
133 154 181
133 154 181
133 154 181
134 154 181
132 153 181
133 154 181
133 154 181
134 155 181
133 154 181
133 154 180
134 154 181
133 154 181
134 154 181
134 154 181
134 154 181
133 154 181
134 154 180
134 154 181
134 154 181
134 154 181
134 154 181
133 154 181
134 154 181
134 154 181
134 155 181
133 154 181
135 155 181
134 154 181
133 154 181
134 154 181
134 154 181
133 154 181
134 154 181
134 154 181
134 154 181
133 154 181
134 154 181
133 154 181
134 154 181
134 154 181
134 154 181
134 155 181
134 154 181
133 154 181
134 154 181
133 154 181
134 154 181
134 154 181
134 154 181
134 154 181
134 154 181
134 154 181
133 154 181
134 154 181
135 155 181
134 154 181
134 154 181
133 154 181
134 154 181
133 154 181
134 154 181
134 154 181
133 154 181
134 154 181
133 154 181
134 154 181
133 154 181
134 154 180
133 154 180
134 154 181
134 154 181
134 154 181
134 154 181
133 154 181
133 154 181
134 154 181
133 154 181
133 154 181
134 154 181
134 154 181
135 155 181
133 154 181
134 154 181
134 154 181
133 154 181
135 155 181
134 154 181
133 154 181
134 154 181
134 154 181
134 155 181
133 154 181
135 155 181
133 154 181
133 154 181
134 154 181
134 154 181
133 154 181
134 154 181
134 154 181
133 154 181
134 154 181
135 155 181
134 154 181
134 154 181
134 154 181
134 154 181
134 154 181
133 154 181
134 154 181
134 154 180
133 154 181
133 154 181
134 154 181
134 154 181
134 154 181
133 154 181
134 154 181
134 154 181
134 154 181
133 154 181
134 154 181
134 154 181
134 154 181
133 154 181
134 154 181
134 154 181
134 154 181
134 154 181
134 154 181
134 154 181
134 154 181
134 154 181
134 154 181
133 154 181
134 154 181
134 154 181
133 154 181
133 154 181
134 154 181
134 154 181
134 154 181
134 154 181
134 154 181
133 154 181
134 154 181
133 154 181
133 154 180
134 154 181
133 154 181
133 154 181
134 154 181
133 154 180
134 155 181
134 154 181
134 154 181
134 154 181
134 154 181
134 155 181
134 154 181
133 154 181
134 154 181
134 154 181
133 154 181
133 154 181
134 154 181
134 154 181
134 154 181
134 154 181
134 154 181
134 154 181
133 154 181
135 155 181
134 154 181
134 154 181
134 154 181
133 154 181
133 154 181
133 154 181
133 154 181
134 154 181
134 154 181
134 154 181
134 154 181
134 154 181
133 154 181
135 155 181
134 154 181
133 154 181
134 154 181
133 154 181
133 154 181
133 154 181
134 154 181
134 154 181
133 154 181
134 154 181
134 154 181
133 154 181
134 154 181
134 154 181
134 155 181
135 155 181
134 154 181
134 154 181
134 154 181
134 154 180
133 154 181
134 154 181
134 155 181
134 154 181
133 154 181
135 155 181
134 154 181
133 154 181
134 155 181
134 154 181
134 154 181
133 154 181
135 155 181
134 154 181
134 155 181
134 154 181
134 154 181
134 154 181
134 154 180
135 155 181
134 154 181
133 154 181
134 154 181
135 155 181
134 154 181
134 154 181
134 154 181
134 154 181
134 154 181
133 154 181
133 154 181
133 154 181
133 154 181
134 154 181
133 154 181
134 154 181
133 154 181
134 154 181
133 154 181
134 154 181
134 154 181
134 154 181
134 154 181
133 154 181
135 155 181
134 154 181
134 154 181
134 154 181
133 154 181
135 155 181
134 154 181
134 154 181
134 154 181
134 154 181
134 155 181
133 154 181
133 154 180
134 154 181
134 154 181
134 154 181
134 154 181
134 154 181
134 154 181
134 154 181
134 154 181
133 154 181
134 154 181
134 154 181
134 154 181
134 154 181
133 154 181
134 154 181
134 154 181
134 154 181
134 154 181
135 155 181
134 154 181
134 155 181
135 155 181
134 154 181
133 154 181
134 154 181
134 154 181
134 154 181
134 154 181
134 154 181
133 154 181
134 154 181
134 154 181
135 155 181
133 153 180
134 154 181
133 154 181
133 154 181
133 154 181
134 154 181
134 154 181
133 154 181
133 154 181
132 153 181
134 154 181
133 154 181
133 154 181
133 154 181
134 154 180
134 154 181
133 154 181
134 154 181
134 154 181
134 154 181
134 154 181
134 154 181
133 154 181
134 154 181
134 154 181
133 154 181
134 154 181
134 154 181
133 154 181
134 154 181
133 154 181
133 154 181
134 154 181
134 154 181
133 154 181
133 154 181
134 154 181
134 154 181
133 154 181
133 154 181
134 154 181
134 155 181
135 155 181
135 155 181
133 154 181
134 154 181
133 154 180
135 155 181
134 154 181
134 154 181
133 154 181
133 154 181
134 154 181
134 154 181
134 154 181
134 154 181
134 154 181
134 154 181
134 154 181
134 154 181
133 154 181
135 155 181
134 154 181
134 154 181
134 154 181
133 154 181
133 154 181
133 154 181
134 154 181
132 153 180
135 155 181
134 154 181
134 154 181
134 155 181
134 154 181
134 154 181
133 154 181
134 154 181
135 155 181
134 154 181
134 154 181
134 154 181
134 154 181
134 154 181
134 154 181
135 155 181
134 154 181
134 154 181
134 154 181
133 154 181
133 154 181
133 154 181
134 154 181
133 154 181
134 154 181
134 154 181
134 154 181
134 154 181
134 154 181
133 154 181
134 155 181
134 154 181
133 153 180
134 154 181
134 154 181
134 154 181
134 154 181
134 154 181
134 154 181
134 154 181
134 154 181
134 154 181
134 155 181
134 154 180
133 154 181
134 154 181
133 154 181
134 154 181
133 154 181
134 154 181
134 154 181
133 154 181
133 154 181
133 154 181
134 154 181
133 154 181
135 155 181
134 154 181
134 154 181
134 154 181
133 154 180
134 154 181
134 154 181
134 154 181
134 154 181
133 154 181
134 154 181
133 154 181
133 154 181
133 154 181
135 155 181
133 154 181
134 154 181
134 154 181
135 155 181
134 154 181
134 154 181
133 154 181
134 154 181
133 154 181
134 154 181
134 154 181
133 154 181
134 154 181
134 154 181
134 154 181
134 154 181
133 154 181
134 154 180
133 154 181
134 154 181
134 154 181
133 154 181
133 154 181
133 154 181
134 154 181
133 154 181
135 155 181
134 154 181
134 154 181
134 154 181
133 154 181
134 154 181
134 154 181
134 154 181
134 154 181
134 154 181
134 154 181
134 154 181
134 154 181
133 154 181
133 154 181
134 154 181
135 155 181
134 154 181
134 154 181
133 154 181
134 154 181
134 154 181
133 154 181
134 154 181
134 154 181
134 154 181
133 154 181
133 154 180
134 154 181
134 154 181
133 154 181
133 154 181
134 154 181
134 154 181
132 153 180
134 154 181
133 154 181
134 154 181
133 154 181
134 154 181
134 154 181
134 154 181
134 154 181
133 154 181
132 153 181
134 154 181
134 154 181
134 154 181
134 154 181
134 154 181
134 154 181
133 154 181
134 154 181
135 155 181
133 154 181
135 155 181
134 154 181
134 155 181
134 154 181
134 154 181
133 154 181
133 154 180
133 154 181
134 154 181
134 154 181
133 154 181
134 154 181
134 154 181
133 154 181
134 154 181
134 154 181
134 154 181
134 154 181
134 154 181
134 154 181
133 154 181
134 154 181
134 154 181
133 154 181
133 154 181
134 154 181
133 154 181
134 154 181
133 154 181
133 154 181
134 154 181
133 154 181
134 154 181
134 154 181
134 154 181
134 154 181
134 154 181
133 154 181
133 154 181
133 154 181
134 154 181
134 154 181
134 154 181
134 154 181
134 154 181
133 154 181
133 154 181
134 154 181
134 154 181
134 154 181
133 154 180
134 154 181
133 154 181
134 154 181
135 155 181
134 154 181
134 154 181
134 154 181
135 155 181
134 154 181
134 154 181
134 154 181
133 154 181
133 154 181
134 154 181
134 154 180
134 154 181
134 154 181
134 154 181
134 154 181
134 154 181
134 154 181
133 154 181
133 154 180
133 154 181
134 154 181
133 154 181
134 154 181
134 154 181
133 154 181
134 154 181
134 154 180
134 154 181
134 154 181
133 154 181
134 154 181
133 154 181
134 154 181
132 153 180
133 154 180
134 154 181
133 154 181
133 154 181
133 154 181
134 154 180
134 154 181
134 154 181
133 154 181
133 154 181
134 154 181
134 154 181
133 154 181
134 154 181
134 154 181
134 154 181
134 154 181
134 154 181
134 154 181
134 154 181
134 154 181
134 154 180
134 154 181
133 154 181
133 154 181
134 154 181
134 154 181
134 154 181
135 155 181
134 155 181
134 154 181
135 155 181
134 154 181
134 154 181
134 154 181
134 154 181
134 154 181
134 154 181
134 154 180
134 154 181
134 154 181
133 154 181
134 154 181
133 154 181
133 154 181
133 154 181
134 154 181
133 154 181
134 154 181
134 154 181
133 154 181
134 154 181
134 154 181
134 154 181
135 155 181
133 154 181
134 154 181
134 154 181
134 154 181
133 154 181
133 154 181
133 154 181
134 154 181
133 154 181
134 154 181
134 154 181
134 154 181
134 154 181
134 154 181
133 154 181
132 153 181
134 155 181
135 155 181
133 154 181
135 155 181
134 154 181
133 154 181
135 155 181
134 154 181
133 154 181
133 154 181
133 154 181
134 154 180
134 154 181
133 154 181
133 154 181
134 154 181
133 154 181
133 154 181
134 154 181
134 154 181
134 154 181
133 154 181
134 154 181
133 154 180
134 154 181
134 154 181
134 154 181
134 154 181
134 154 181
134 154 181
134 154 181
134 154 181
134 154 181
133 154 181
134 154 181
133 154 181
134 154 181
134 154 181
134 154 181
134 154 180
134 154 181
133 154 181
134 154 181
134 154 181
134 154 181
134 154 181
134 154 181
133 154 181
134 154 181
134 155 181
133 154 181
134 154 181
134 154 181
134 154 181
133 154 181
133 154 181
134 154 181
133 154 181
134 154 181
134 155 181
134 154 181
133 154 181
134 154 181
134 154 180
134 154 181
134 154 181
134 154 181
134 154 181
134 154 181
134 154 181
134 154 181
134 154 181
134 154 181
134 154 181
134 154 181
134 154 181
133 154 181
134 154 181
133 154 181
134 154 181
134 154 180
133 154 181
134 154 181
133 154 181
134 154 181
133 154 181
134 154 181
134 154 181
133 154 181
134 154 181
134 154 181
134 154 181
133 154 181
133 154 181
133 154 181
134 154 181
134 154 181
134 154 181
134 154 181
134 154 181
133 154 181
134 154 181
134 154 181
134 155 181
133 154 181
133 154 180
134 154 181
134 154 181
134 154 181
134 154 181
133 154 181
134 155 181
134 154 181
134 154 181
134 154 181
134 154 181
134 154 181
134 154 181
134 154 181
132 153 181
133 154 181
134 154 181
133 154 181
133 154 181
134 154 181
135 155 181
134 154 181
133 154 181
134 154 181
133 154 181
134 154 181
134 154 181
135 155 181
133 153 180
133 154 181
134 154 181
133 154 181
133 154 181
133 154 181
133 154 181
133 154 181
134 154 181
134 154 181
134 154 181
134 154 181
135 155 181
133 154 181
134 154 181
134 154 181
134 154 181
133 154 181
135 155 181
133 154 181
134 154 181
133 153 180
134 154 181
133 154 181
133 154 181
135 155 181
134 154 181
133 154 181
133 154 181
134 154 181
133 154 181
134 154 181
134 154 181
133 154 181
133 154 181
134 154 181
133 154 181
134 154 181
134 154 180
134 154 181
134 154 181
134 154 181
134 154 181
134 154 181
134 155 181
133 154 181
133 154 180
134 154 181
134 154 180
134 154 181
134 155 181
133 154 180
133 154 181
134 154 181
134 154 180
134 154 181
133 154 181
134 154 181
134 154 181
133 154 181
134 154 181
133 154 181
133 154 181
134 154 181
133 154 181
134 154 181
134 154 181
134 154 181
134 154 181
133 154 181
134 154 181
133 154 181
134 154 181
134 154 181
133 154 181
134 154 181
133 154 181
134 154 181
133 154 181
134 154 181
134 154 181
134 154 181
134 154 181
134 154 181
133 154 181
133 154 181
133 154 181
134 154 181
133 154 181
134 154 181
134 154 181
134 154 181
134 154 181
133 154 181
134 154 181
134 154 181
134 154 181
133 154 181
133 154 181
134 154 181
134 154 181
135 155 181
134 154 181
134 154 181
133 154 181
135 155 181
134 154 181
133 154 181
135 155 181
134 154 181
134 154 181
134 154 181
132 153 180
134 154 181
134 154 181
134 154 180
134 154 181
134 154 181
134 154 181
134 154 180
134 154 181
133 154 181
133 153 180
133 154 181
134 154 181
133 154 181
134 154 181
134 154 181
134 154 181
134 154 181
134 154 181
134 154 181
134 154 181
135 155 181
134 154 181
133 154 181
133 154 181
134 154 181
133 154 181
134 154 181
134 154 181
133 154 181
133 154 181
133 154 181
133 154 181
134 154 181
133 154 181
134 154 181
134 154 181
134 154 181
133 154 181
134 154 181
134 154 181
134 154 181
134 154 181
133 154 181
135 155 181
133 154 181
134 154 181
134 154 181
135 155 181
133 154 181
133 154 181
134 154 181
134 154 181
133 154 181
134 154 181
134 154 181
133 154 181
134 154 181
134 154 181
134 154 181
134 154 181
133 154 181
134 154 181
134 154 181
134 154 181
133 154 181
134 154 181
133 154 181
133 154 181
134 154 181
133 154 180
133 154 181
133 154 181
133 154 181
133 154 181
133 154 181
134 154 181
133 154 181
133 154 181
133 154 181
134 154 181
135 155 181
133 154 181
134 154 181
133 154 181
135 155 181
134 154 181
133 154 181
134 154 181
135 155 181
134 154 181
134 154 181
133 154 181
134 154 181
134 154 181
133 154 181
134 154 181
134 154 181
134 154 181
134 155 181
134 154 181
134 154 181
134 154 181
134 154 181
135 155 181
134 154 181
133 154 181
134 155 181
134 154 181
134 154 181
134 154 181
134 154 181
133 154 181
134 154 181
134 154 181
134 154 181
134 154 181
134 154 181
134 154 181
134 154 181
134 154 181
134 154 181
134 154 181
134 154 181
134 154 181
133 154 181
133 154 181
133 154 181
133 154 181
134 154 181
133 154 180
134 154 181
132 153 180
133 154 181
134 154 181
134 154 181
134 154 181
134 154 181
134 154 181
134 154 181
134 154 181
134 154 181
134 154 181
134 154 181
134 154 181
134 154 181
134 154 181
134 154 181
133 154 181
134 154 181
134 154 181
134 154 181
134 155 181
134 154 181
134 154 181
134 154 181
134 154 181
134 154 181
134 154 181
134 154 181
134 155 181
133 154 181
134 154 181
133 154 181
134 154 181
133 154 181
134 154 181
133 154 180
133 154 181
133 154 181
134 154 181
134 154 181
133 154 181
134 154 181
134 154 181
133 154 181
133 154 181
134 154 181
134 155 181
134 154 181
134 154 181
134 154 181
134 154 181
134 154 181
133 154 181
134 154 181
135 155 181
134 154 181
134 154 181
133 154 181
134 154 181
133 154 180
134 154 181
133 154 181
134 155 181
133 154 181
134 154 181
134 154 181
133 154 181
133 154 181
134 154 181
135 155 181
134 154 181
133 154 181
134 154 181
134 155 181
134 154 181
133 154 181
133 154 181
133 154 181
134 154 181
134 154 181
133 154 181
134 154 181
134 154 181
134 154 181
133 154 181
134 154 181
134 154 181
133 154 181
133 154 181
133 154 181
134 154 181
135 155 181
134 154 181
135 155 181
134 154 181
134 154 181
134 154 181
133 154 181
133 154 181
133 154 181
134 154 181
134 154 181
133 154 181
133 154 181
133 154 181
134 154 181
134 154 181
134 154 181
134 154 181
133 154 180
134 154 181
134 154 181
135 155 181
133 154 181
134 154 181
134 154 181
133 154 181
133 154 181
133 154 181
133 154 181
133 154 181
134 155 181
134 154 181
134 154 181
134 154 181
134 154 181
134 154 181
133 154 181
133 154 181
135 155 181
133 154 181
134 154 181
134 154 181
134 154 181
134 154 181
134 154 181
133 154 181
134 154 181
133 154 181
133 154 181
134 154 181
134 154 181
133 154 181
134 154 180
134 154 181
133 154 181
134 154 181
134 154 181
135 155 181
133 154 181
134 154 181
133 154 181
133 154 181
133 154 181
135 155 181
134 154 181
134 154 181
133 154 181
134 154 181
134 154 181
134 154 181
134 154 181
133 154 181
134 154 180
133 154 181
134 154 181
133 154 181
134 154 180
134 154 181
134 154 181
134 154 181
134 154 180
134 155 181
134 154 181
134 154 181
133 154 181
134 154 181
134 154 181
134 154 181
134 154 181
134 154 181
133 154 181
134 154 181
134 154 181
133 154 181
133 154 181
134 154 181
134 155 181
134 154 181
133 154 181
135 155 181
134 154 181
134 154 181
133 154 181
135 155 181
133 154 181
134 154 181
134 154 181
134 154 181
134 155 181
134 154 181
133 154 181
134 154 181
133 154 181
133 154 181
133 154 181
133 153 180
134 154 181
134 154 181
134 154 181
133 154 181
134 154 181
134 154 181
134 154 181
134 154 181
133 154 181
134 154 181
135 155 181
134 154 181
134 154 181
134 154 181
134 154 181
133 154 181
134 154 181
134 154 181
133 154 181
133 154 181
133 154 181
133 154 181
134 154 181
134 154 181
133 154 181
134 155 181
134 154 181
134 154 181
134 154 181
133 154 181
133 154 181
134 154 181
133 154 181
133 154 181
134 154 181
134 154 181
134 154 181
134 154 181
133 154 181
133 154 181
133 154 181
134 154 181
134 154 181
133 154 181
134 155 181
133 154 181
133 154 181
133 154 181
134 154 181
133 154 181
134 155 181
134 154 180
134 155 181
134 154 181
134 154 181
134 154 181
134 154 181
135 155 181
134 154 181
133 154 181
133 154 181
133 154 181
134 155 181
133 154 181
134 154 181
135 155 181
133 154 181
134 154 181
134 154 181
134 154 181
134 154 181
134 154 181
134 154 181
134 154 181
134 155 181
133 154 181
133 154 181
134 155 181
134 154 181
134 154 181
133 154 181
134 154 181
134 154 181
133 154 181
134 154 181
133 154 181
134 154 181
134 154 181
135 155 181
133 154 181
134 154 181
133 154 181
135 155 181
134 154 181
134 154 181
134 154 181
134 154 181
133 154 181
134 154 181
134 155 181
134 154 181
134 154 181
134 154 181
135 155 181
135 155 181
133 154 181
134 154 181
134 154 181
134 154 181
133 154 181
134 154 181
134 154 181
134 154 181
134 154 181
134 154 181
134 154 181
134 154 181
134 154 181
133 154 181
134 154 181
133 154 181
134 154 181
133 154 181
133 154 181
133 154 181
133 154 181
133 154 181
134 154 181
134 154 181
133 154 181
133 154 181
134 154 181
133 154 181
133 154 181
134 154 181
133 154 181
133 154 181
133 154 181
133 154 181
135 155 181
134 154 181
134 154 181
134 154 181
134 154 181
133 154 181
134 154 181
133 154 181
133 154 181
133 154 181
134 154 181
134 154 181
135 155 181
134 154 181
133 154 181
134 154 181
133 154 181
133 154 181
133 154 181
133 154 181
133 154 181
134 154 181
133 154 181
133 154 181
133 154 181
134 154 181
134 154 181
133 154 181
134 154 181
134 154 181
134 154 181
133 154 181
134 154 181
133 154 181
134 154 181
133 154 181
134 154 181
133 154 181
135 155 181
135 155 181
133 154 181
134 154 181
133 154 181
134 154 181
135 155 181
133 154 181
134 154 181
135 155 181
133 154 181
134 155 181
133 154 181
134 154 181
135 155 181
133 154 181
133 154 181
135 155 181
134 154 181
134 154 181
134 154 181
133 154 180
133 154 181
134 154 181
134 154 181
134 154 181
134 154 181
134 154 181
133 154 181
133 154 181
135 155 181
134 154 181
133 154 181
134 154 181
134 154 181
133 154 180
134 154 181
134 154 181
133 154 181
133 154 181
133 154 181
134 154 181
133 154 181
134 154 181
134 154 181
134 154 181
133 154 181
133 154 181
133 154 181
133 154 181
134 154 181
134 154 181
134 154 181
134 154 181
135 155 181
134 154 181
134 154 181
134 154 181
134 154 181
134 155 181
134 154 181
134 154 181
135 155 181
133 154 181
134 154 181
134 154 181
133 154 181
134 154 181
134 154 181
134 154 180
133 154 181
134 154 181
133 154 181
134 154 181
134 154 181
133 153 180
134 154 181
134 154 181
135 155 181
133 154 181
134 154 181
134 154 181
134 154 181
134 154 181
134 154 181
133 154 181
133 154 181
134 154 181
133 154 181
134 154 181
134 154 181
133 154 181
134 154 181
134 154 181
134 154 181
134 154 181
134 154 181
134 154 181
134 154 181
134 154 181
134 154 181
133 154 181
133 154 181
133 154 181
134 154 181
134 154 181
134 154 181
134 154 181
134 154 181
134 154 181
133 154 181
133 154 181
133 154 181
134 154 181
133 154 181
134 154 181
134 154 181
134 154 181
133 154 181
133 154 181
133 154 181
134 154 181
134 154 181
133 154 181
134 154 181
135 155 181
134 154 181
134 154 181
133 154 181
133 154 181
134 154 181
133 154 181
133 154 181
134 154 181
135 155 181
133 154 181
134 154 181
134 154 181
133 154 181
133 154 181
135 155 181
134 154 181
133 154 181
134 154 181
133 154 181
134 154 181
134 154 181
134 154 181
133 154 181
133 154 181
135 154 180
134 154 181
133 153 180
133 154 181
133 154 181
133 154 181
134 154 181
134 155 181
133 154 181
133 154 181
134 154 181
134 154 181
133 154 181
133 154 181
133 154 181
133 154 181
133 154 181
134 154 181
135 155 181
133 154 181
133 154 181
134 154 181
133 154 181
134 154 181
133 154 181
133 154 181
134 154 181
134 154 181
133 154 181
134 154 181
134 154 181
134 154 181
134 154 181
134 154 181
134 154 181
133 154 181
133 154 181
133 154 181
134 154 181
133 154 181
134 154 181
133 154 181
134 154 181
133 154 181
135 155 181
134 154 181
133 154 181
133 154 181
133 154 181
134 154 181
133 154 181
134 154 181
134 154 181
135 155 181
134 154 181
134 154 181
134 154 181
134 154 181
133 154 181
134 154 181
134 154 181
134 154 181
134 154 181
134 154 180
134 154 181
134 155 181
134 154 181
134 154 181
134 154 181
133 154 181
134 154 181
133 154 181
134 154 181
134 154 181
133 154 181
133 154 181
135 155 181
134 154 181
133 154 180
134 154 181
133 154 181
134 154 181
133 154 181
134 154 181
133 154 181
133 154 180
134 155 181
133 154 181
134 154 181
133 154 181
135 155 181
134 154 181
135 155 181
134 154 181
134 154 181
134 154 181
134 155 181
135 155 181
134 154 181
135 155 181
134 154 181
134 154 181
134 154 181
134 154 181
133 154 181
134 154 181
133 154 181
134 154 181
133 154 180
133 154 181
133 154 181
135 155 181
133 154 181
133 154 181
134 154 181
134 154 181
134 154 181
135 155 181
135 155 181
135 155 181
135 155 181
133 154 181
133 154 181
134 154 181
134 154 181
134 154 181
134 154 181
133 154 181
134 154 181
133 154 181
134 154 181
134 155 181
134 154 181
134 154 181
134 154 181
134 154 181
133 154 180
134 154 181
133 154 181
134 154 181
134 154 181
134 154 181
134 154 181
134 154 181
134 154 181
134 154 181
134 154 181
134 154 181
134 154 181
133 154 181
134 154 181
134 154 181
133 154 181
134 154 181
134 154 181
135 155 181
134 154 181
133 154 181
134 154 181
133 154 181
133 153 180
135 155 181
133 154 180
134 154 181
134 154 181
135 155 181
133 154 181
134 154 181
133 154 181
135 155 181
133 154 181
133 154 181
133 154 181
134 154 181
133 154 181
134 154 181
135 155 181
133 154 181
134 154 181
134 154 181
134 154 181
133 154 181
134 154 181
134 154 181
133 154 181
133 154 181
134 154 181
134 154 181
133 154 181
134 154 181
133 154 181
133 154 181
133 154 181
134 154 181
134 154 181
135 155 181
134 154 181
133 154 181
134 154 181
134 154 181
134 154 181
132 153 181
134 154 181
134 154 181
134 154 181
134 154 181
134 154 181
133 154 181
134 154 181
134 154 181
134 154 181
135 155 181
134 154 181
134 154 181
134 154 181
134 154 181
134 154 181
134 154 181
134 154 181
133 153 180
134 154 181
134 154 181
134 154 181
134 154 181
133 154 181
133 154 181
133 154 181
134 154 181
133 154 181
134 154 181
133 154 180
134 154 181
133 154 181
133 154 181
134 154 181
133 154 181
134 154 181
134 154 181
133 154 181
134 154 181
134 154 181
133 154 181
135 155 181
133 154 181
134 154 181
134 154 181
133 154 181
134 154 181
134 154 181
134 154 181
134 154 181
135 155 181
134 154 181
135 155 181
133 154 181
134 154 181
134 154 181
134 154 181
133 154 181
134 154 181
135 155 181
133 154 181
134 154 181
134 154 181
134 154 181
133 154 180
134 154 181
134 154 181
134 154 181
134 154 181
133 154 181
134 154 181
134 154 181
134 155 181
135 155 181
134 154 181
133 154 181
134 154 181
134 154 181
134 154 181
134 154 181
133 154 181
134 154 181
134 154 181
134 154 181
134 154 181
133 154 181
134 154 181
134 155 181
133 154 181
134 154 181
134 154 181
134 154 181
133 154 181
134 154 181
134 154 181
134 154 181
133 154 181
134 154 181
133 154 181
134 154 180
134 154 181
133 154 181
135 155 181
134 154 181
133 154 181
134 154 181
134 154 181
133 154 181
133 154 181
133 154 180
134 154 181
133 154 181
134 154 181
135 155 181
134 154 181
134 154 181
134 154 181
135 155 181
133 154 181
134 154 181
133 154 181
133 154 181
134 154 181
134 154 181
134 154 181
134 154 181
135 155 181
133 154 181
134 154 181
134 154 181
133 154 181
134 154 181
133 154 181
134 154 181
134 154 181
134 154 181
134 154 181
134 154 181
134 154 181
133 154 181
133 154 181
132 153 180
134 155 181
134 154 181
134 154 181
134 154 181
133 154 181
133 154 181
134 154 181
134 154 181
134 154 181
134 154 181
134 154 181
133 154 181
133 154 181
135 155 181
134 154 181
133 154 181
133 154 181
134 154 181
133 154 181
133 154 181
134 154 181
134 154 181
134 154 181
133 154 181
134 154 181
134 154 181
133 154 181
134 154 181
134 154 181
134 154 181
134 154 180
134 154 181
134 154 181
133 154 181
134 155 181
133 154 181
134 154 181
134 154 181
133 154 181
134 154 181
134 154 181
134 154 181
134 154 181
134 154 181
133 154 181
133 154 181
133 154 181
134 154 181
134 154 181
134 154 181
134 154 181
134 155 181
134 154 181
134 154 180
134 154 181
133 154 181
134 154 181
134 154 181
134 154 181
134 154 181
134 154 181
134 154 181
134 154 181
133 154 181
133 154 181
134 155 181
134 154 181
133 154 181
135 155 181
134 154 181
134 154 181
134 154 181
134 154 181
134 154 181
133 154 181
134 154 181
134 154 181
134 154 181
135 155 181
134 154 181
133 154 181
134 154 181
134 154 181
134 154 181
134 154 180
134 154 181
134 154 181
134 154 181
135 155 181
133 154 181
134 154 181
134 154 181
133 154 181
133 154 181
133 154 181
134 154 181
134 154 181
134 154 181
134 154 181
133 154 181
133 154 181
134 154 181
133 154 181
134 154 181
134 154 181
134 154 181
133 154 181
133 154 181
134 154 181
133 154 181
134 154 181
134 154 181
134 154 180
134 154 181
134 154 181
134 154 181
134 154 181
133 154 181
134 154 181
134 154 181
133 154 181
133 154 181
134 154 181
133 154 181
135 155 181
134 154 181
134 154 181
133 154 181
133 154 181
133 154 181
134 154 181
134 154 181
133 154 181
134 154 181
133 154 181
133 154 181
134 154 181
134 154 181
133 154 181
133 154 181
134 154 181
134 154 181
134 154 181
133 154 181
133 154 181
134 154 181
132 153 181
134 154 181
134 154 181
134 154 181
134 154 181
134 154 181
133 154 181
134 154 181
133 154 181
135 155 181
134 154 181
134 154 181
134 154 181
134 154 181
133 154 181
133 154 181
134 154 181
134 154 181
133 154 181
134 154 181
133 154 181
134 154 181
133 154 181
134 154 181
134 154 181
134 154 181
133 154 181
134 154 181
134 154 181
134 154 181
134 154 181
133 154 181
133 154 181
134 154 181
134 154 181
134 154 181
134 154 181
133 154 181
133 154 181
134 154 181
134 154 181
133 154 181
133 154 181
134 154 181
133 154 181
134 154 181
133 154 181
134 154 181
134 154 181
133 154 181
133 154 181
134 154 181
133 154 181
134 154 181
133 154 181
134 154 181
134 154 181
134 154 181
133 154 181
133 154 181
134 154 181
133 154 181
133 154 181
134 154 181
134 154 181
133 154 181
133 154 181
134 154 181
135 155 181
134 154 181
133 154 181
133 154 181
133 154 181
134 154 181
134 154 181
134 154 181
134 154 181
134 154 181
134 154 181
134 154 181
133 153 180
135 155 181
135 155 181
134 154 181
134 154 181
133 154 181
134 154 181
133 154 181
134 154 181
134 154 181
133 154 181
133 154 181
134 154 181
135 155 181
134 154 181
133 154 181
134 154 181
134 154 181
134 154 181
133 154 181
133 154 181
133 154 181
133 154 181
134 154 181
134 154 181
134 154 181
133 154 181
134 154 181
134 154 181
134 154 181
134 154 181
134 154 181
134 155 181
133 154 181
134 154 181
134 154 181
134 154 181
134 154 181
134 154 181
134 154 181
134 154 181
133 154 181
134 154 181
133 154 181
134 154 181
133 154 180
134 154 181
133 154 181
135 155 181
134 154 181
134 154 181
134 154 181
134 154 181
134 154 181
133 154 181
134 154 181
134 154 181
133 154 181
134 154 181
133 154 181
134 154 181
133 154 181
134 154 181
133 154 181
133 154 181
134 154 181
134 154 181
133 154 181
134 154 181
134 154 181
135 155 181
132 153 181
134 154 181
134 154 181
134 154 181
134 154 181
134 154 181
134 154 181
133 154 181
133 154 181
133 154 181
135 155 181
132 153 181
134 154 181
134 154 181
134 154 181
134 154 181
134 154 181
133 154 181
133 154 181
134 154 181
134 154 181
133 154 181
133 154 181
133 154 181
134 154 181
133 154 181
135 155 181
134 154 181
135 155 181
133 154 181
134 154 181
133 154 181
133 154 181
134 154 181
133 154 181
133 154 181
133 154 181
134 154 181
134 154 181
134 154 181
135 155 181
134 154 181
134 154 181
135 155 181
134 154 181
134 154 181
133 154 181
134 154 181
133 154 181
134 154 181
134 154 181
133 154 181
133 154 181
134 154 181
133 154 181
133 154 181
134 154 181
134 154 180
133 154 181
133 154 181
134 154 181
134 155 181
134 154 181
134 154 181
134 154 181
134 154 181
134 154 181
133 154 181
134 154 181
134 154 181
133 154 181
134 154 181
134 154 181
134 154 181
134 154 181
134 154 181
134 154 181
134 154 181
134 154 181
134 154 181
132 153 181
134 154 181
134 154 181
133 154 181
133 154 181
134 154 181
134 154 181
134 154 181
133 154 181
133 154 181
133 154 181
134 154 181
134 154 180
134 154 181
135 155 181
134 154 181
134 155 181
134 154 181
134 154 181
135 155 181
133 154 181
134 154 181
134 155 181
133 154 181
134 154 181
134 154 181
133 154 181
134 154 181
134 154 181
133 154 181
135 155 181
134 154 181
134 154 181
133 154 181
133 154 181
134 154 181
134 154 181
133 154 181
133 154 181
134 154 180
133 154 181
133 154 180
133 154 181
133 154 181
133 154 181
134 154 181
134 154 181
133 154 181
134 154 181
134 154 181
134 154 181
133 154 181
133 154 181
133 154 181
133 154 181
133 154 181
135 155 181
134 154 181
134 154 181
133 154 181
134 154 181
134 154 181
134 154 181
134 154 181
134 154 181
134 154 180
134 154 181
134 155 181
134 155 181
134 154 181
134 154 181
134 154 181
134 155 181
134 154 181
133 154 181
133 153 180
134 154 181
134 154 181
134 154 181
134 154 181
133 154 181
135 155 181
134 154 181
134 154 181
134 154 181
135 155 181
133 154 181
134 155 181
134 154 181
134 154 181
133 154 181
133 154 181
134 154 181
134 154 181
134 154 181
133 154 181
134 154 181
134 154 181
134 154 181
134 154 181
134 154 181
133 154 181
134 154 181
133 154 181
133 154 181
134 154 181
134 154 181
134 154 181
133 154 181
133 154 181
134 154 181
135 155 181
134 154 181
134 154 180
133 154 181
133 154 181
134 154 181
134 154 181
134 154 181
134 154 181
134 154 181
134 154 181
133 154 181
134 154 181
133 154 181
133 154 181
133 154 181
134 154 181
135 155 181
134 154 181
134 154 181
134 154 181
134 154 181
134 154 181
133 154 180
133 154 181
134 154 181
134 154 181
134 154 181
134 154 181
133 154 181
133 154 181
134 154 181
134 154 181
133 154 181
134 154 181
135 155 181
134 154 181
134 154 181
133 154 181
133 154 181
134 154 181
134 154 181
134 154 181
133 154 181
135 155 181
134 154 181
134 154 181
133 154 181
134 154 181
133 154 181
134 154 181
134 154 181
133 154 181
134 154 181
134 154 181
134 154 181
133 154 181
134 154 181
133 154 181
133 154 181
134 154 181
134 154 181
134 154 181
134 154 181
133 154 181
134 154 181
133 154 181
134 155 181
133 154 181
134 154 181
134 154 181
134 154 181
134 154 181
133 154 181
134 154 181
133 154 181
133 154 181
133 154 181
133 154 181
134 154 181
134 154 180
133 154 181
134 154 181
133 154 181
134 155 181
134 154 181
133 154 181
133 154 181
134 154 181
132 153 181
133 154 181
134 154 181
134 154 181
133 154 181
133 154 181
134 154 181
134 155 181
134 154 181
135 155 181
134 154 181
133 154 181
133 154 181
133 154 181
134 154 181
133 154 181
133 154 181
134 154 181
135 155 181
134 154 181
134 154 181
134 155 181
133 154 181
133 154 181
133 154 181
133 154 181
133 154 181
134 154 181
134 154 181
134 154 181
134 154 181
134 154 181
134 154 181
135 155 181
135 155 181
134 155 181
133 154 181
134 154 181
134 154 181
134 154 181
133 154 181
133 154 181
133 154 181
133 154 181
133 154 181
134 154 181
134 154 181
134 154 181
133 154 181
133 154 181
134 154 181
133 154 181
133 154 181
134 154 181
135 155 181
134 154 181
134 154 181
134 154 181
135 155 181
134 154 181
133 154 181
133 154 181
134 154 181
135 155 181
134 154 181
134 154 181
134 154 181
134 154 181
135 155 181
134 154 181
133 154 181
133 154 181
133 154 181
134 154 181
134 154 181
133 154 181
134 154 181
135 155 181
134 155 181
134 154 181
134 154 181
133 154 181
134 154 181
134 154 181
134 154 181
133 154 181
134 154 181
133 154 181
134 154 181
133 154 181
133 154 181
134 154 181
133 154 181
134 154 181
134 154 181
134 154 181
134 154 181
134 154 181
133 154 181
135 155 181
134 154 181
133 154 181
135 155 181
134 154 181
134 154 181
133 154 181
133 154 181
134 154 181
134 154 181
134 154 181
133 154 180
134 154 181
134 154 181
134 154 181
134 154 181
135 155 181
134 154 181
134 154 181
134 154 181
133 154 181
134 154 181
133 154 181
134 154 181
133 154 181
134 154 181
133 154 181
133 154 181
135 155 181
134 154 181
134 154 181
133 154 181
134 154 181
133 154 181
135 155 181
134 154 181
133 154 181
134 154 181
133 154 180
133 154 181
134 154 181
134 154 181
134 154 181
133 154 181
134 154 181
133 154 181
133 154 181
135 155 181
134 154 181
133 154 181
133 154 181
135 155 181
134 154 181
133 154 181
133 154 181
134 154 181
133 154 181
134 154 181
133 154 181
134 154 181
134 154 181
134 154 181
133 154 181
134 154 181
134 154 181
134 154 181
134 154 181
134 154 181
133 154 181
134 154 181
134 154 181
134 154 181
134 154 181
134 154 181
133 154 181
133 154 180
135 155 181
134 154 181
134 154 181
134 154 181
134 154 181
134 154 181
133 154 181
133 154 181
134 154 181
134 154 180
134 154 181
135 155 181
133 154 181
134 155 181
134 154 181
134 155 181
134 154 181
134 154 181
134 154 181
133 154 181
135 155 181
134 154 181
134 154 181
134 154 181
134 154 181
134 154 181
134 154 181
134 154 181
133 154 181
134 154 181
134 154 181
134 154 181
134 154 181
134 154 181
134 154 181
134 154 181
133 154 181
134 154 181
134 154 181
133 154 180
133 154 181
133 154 181
134 154 181
133 154 181
135 155 181
134 154 181
133 154 181
134 154 180
133 154 181
133 154 180
133 154 181
134 155 181
134 154 181
134 154 181
133 154 181
134 154 181
133 154 181
134 154 181
133 154 181
133 154 181
133 154 181
133 154 181
134 154 181
134 154 181
133 154 181
134 154 181
134 154 181
134 154 181
133 154 181
134 155 181
134 154 181
133 154 181
133 154 181
133 154 181
133 154 181
134 154 181
134 154 181
134 154 181
133 154 181
134 154 181
133 154 181
133 153 180
134 154 181
133 154 181
134 154 181
134 155 181
134 154 181
133 154 181
133 154 181
133 154 181
134 154 181
133 154 181
134 154 181
134 154 181
133 154 181
133 154 181
134 154 181
134 154 181
134 154 181
135 155 181
134 154 181
134 154 181
133 153 180
133 154 181
134 154 181
133 154 181
134 154 181
134 154 181
134 154 181
134 154 181
134 154 181
133 154 181
133 154 181
133 154 181
134 154 181
134 154 181
134 154 181
134 154 181
134 154 181
133 154 181
134 154 181
134 154 181
134 154 181
134 154 181
134 154 181
134 154 181
134 154 181
134 154 181
135 155 181
134 154 181
134 154 181
135 155 181
134 154 181
133 154 181
134 154 181
134 154 181
134 154 181
134 154 181
134 154 181
135 155 181
134 154 181
133 154 181
133 154 181
134 154 181
134 154 181
134 154 181
135 155 181
133 154 181
134 154 181
134 154 181
133 154 181
133 154 181
134 154 181
134 154 181
133 154 181
134 154 181
133 154 181
134 154 181
134 154 181
135 155 181
134 154 181
134 154 181
134 154 181
133 154 181
134 154 181
133 154 181
134 154 181
133 154 181
134 154 181
134 154 181
134 154 181
133 154 180
135 155 181
133 154 180
132 153 180
133 154 181
134 154 181
133 154 181
134 154 181
133 154 181
133 153 180
134 154 181
134 154 181
134 154 181
134 154 181
133 154 181
133 154 181
134 154 181
133 154 181
134 154 181
132 154 181
134 154 181
134 154 181
133 154 181
133 154 181
134 154 181
133 154 181
134 155 181
133 154 181
133 154 181
134 154 181
134 154 181
134 154 181
134 154 181
133 154 181
134 154 181
134 154 181
133 154 181
134 154 180
134 154 181
133 154 181
134 154 181
134 154 181
134 154 181
134 154 181
134 154 181
133 154 181
134 154 181
134 154 181
134 154 181
133 154 181
133 154 181
134 154 181
133 154 181
134 154 181
134 154 181
134 154 181
134 154 181
134 154 181
134 154 181
133 154 181
134 154 181
133 154 181
133 154 181
134 154 181
135 155 181
134 154 181
134 154 181
133 154 181
134 154 180
134 154 181
133 154 181
134 154 180
133 154 181
134 154 181
133 154 180
134 154 181
135 155 181
134 154 181
133 154 181
133 154 181
133 154 181
134 154 181
133 154 181
133 154 181
134 154 181
133 154 181
133 154 181
133 154 181
133 154 180
134 154 180
134 154 181
133 154 181
133 154 181
134 154 180
135 155 181
134 154 181
134 154 181
134 154 181
133 154 181
133 154 181
134 154 181
134 154 181
134 154 181
135 155 181
133 154 181
134 154 180
133 154 181
134 154 180
133 153 180
134 154 181
133 154 181
134 154 181
135 155 181
133 154 181
134 154 181
134 154 181
134 154 181
134 154 181
134 154 181
134 154 181
133 154 181
134 154 181
134 154 181
134 154 180
133 154 181
134 154 181
134 154 181
134 154 181
134 154 181
134 154 181
133 154 181
135 155 181
134 154 181
135 155 181
133 154 180
134 154 181
133 154 181
133 154 180
133 154 181
133 154 181
134 154 181
134 154 181
133 154 181
134 154 181
133 154 181
134 154 181
134 154 181
134 154 181
134 154 181
135 155 181
134 154 181
133 154 181
134 154 180
134 154 181
133 154 181
133 154 181
133 154 181
134 154 181
135 155 181
135 155 181
134 154 181
134 154 181
133 154 181
134 154 181
134 154 181
134 154 181
133 154 181
134 154 181
133 154 181
134 154 181
133 154 181
134 154 181
134 154 180
133 153 180
134 154 181
134 154 181
134 154 181
133 154 180
133 154 181
133 154 181
134 154 181
134 154 181
133 154 181
133 154 181
133 154 181
133 154 181
133 154 181
134 154 181
133 154 181
134 154 181
134 154 181
134 154 181
134 154 181
133 154 181
133 154 180
134 154 181
133 154 181
133 154 181
133 154 181
134 154 181
134 155 181
133 154 181
134 154 181
134 154 181
133 154 181
134 154 181
133 154 181
134 154 181
134 154 181
134 154 181
134 154 181
134 154 181
133 154 181
134 154 181
134 154 181
134 154 181
133 154 181
135 155 181
133 154 181
133 154 181
134 154 181
134 154 181
135 155 181
133 154 181
133 154 181
133 154 181
133 154 181
134 154 181
133 154 181
133 153 180
135 155 181
133 154 181
134 154 181
133 154 181
134 154 181
134 154 181
134 154 181
134 154 181
133 154 181
134 154 181
134 155 181
134 154 181
134 154 181
134 154 181
134 154 181
134 154 181
134 154 181
133 154 181
133 154 181
133 154 181
135 155 181
133 154 181
134 154 181
134 154 181
135 155 181
133 154 181
134 154 181
134 154 181
134 154 181
135 155 181
133 154 181
134 154 181
134 154 181
134 154 181
133 154 181
133 154 181
134 154 181
133 154 181
133 154 180
134 154 181
134 154 181
133 154 181
134 154 181
133 154 180
133 154 181
133 154 181
134 155 181
133 154 181
134 154 181
133 154 181
134 154 181
134 154 181
134 154 181
133 154 181
135 155 181
134 154 181
135 155 181
133 154 180
133 153 180
133 154 181
133 154 180
134 154 181
133 154 181
134 154 181
133 154 181
134 154 181
134 154 181
135 155 181
134 154 181
133 154 181
134 154 181
133 154 181
133 154 181
133 154 181
134 154 181
134 154 181
134 154 181
133 154 181
133 154 180
134 154 181
134 154 181
134 154 181
134 154 181
134 154 181
135 155 181
134 154 180
134 154 181
135 155 181
133 154 181
133 154 181
134 154 181
133 154 181
133 154 181
134 154 181
133 154 181
134 154 181
133 154 181
134 154 181
135 155 181
134 154 181
134 154 181
134 154 181
133 154 181
134 154 181
133 154 181
133 154 181
133 154 181
133 154 181
133 154 181
134 154 181
133 154 181
133 154 181
134 154 181
134 154 181
133 154 181
135 155 181
134 154 181
134 155 181
133 154 181
133 154 181
134 154 181
134 154 181
134 154 181
135 155 181
135 155 181
133 154 181
135 155 181
134 154 181
133 154 181
134 154 181
134 154 181
134 154 181
133 154 181
134 154 181
134 154 181
134 154 181
134 154 181
134 154 181
134 154 181
133 154 181
134 154 181
133 154 181
134 154 181
134 154 181
133 154 181
133 154 181
134 154 181
135 155 181
133 154 181
134 154 181
134 154 181
134 154 181
134 154 181
134 154 181
134 154 181
134 155 181
134 154 181
134 154 181
134 154 181
135 155 181
134 154 181
133 153 180
134 155 181
134 154 181
134 154 181
134 154 181
134 154 181
134 154 181
134 154 181
134 154 181
134 154 181
133 154 181
133 154 181
134 154 181
134 154 181
133 154 180
134 154 181
133 154 181
133 154 181
133 154 181
134 154 181
133 154 181
134 154 181
133 154 181
133 154 181
133 154 181
134 154 181
134 154 181
134 154 181
134 154 181
133 154 181
134 154 180
134 154 181
134 154 181
133 154 181
135 155 181
133 154 181
134 154 181
134 154 181
134 154 180
133 154 181
134 154 181
133 154 180
135 155 181
133 154 180
133 154 181
134 154 181
134 154 181
134 154 181
134 154 181
134 154 181
134 154 181
133 154 181
134 154 181
134 154 181
133 154 181
134 154 181
133 154 181
133 154 181
134 154 181
134 154 181
133 154 181
134 154 181
134 154 181
132 153 180
134 154 181
135 155 181
134 154 181
134 154 181
134 154 181
133 154 181
133 154 181
134 154 181
134 154 181
134 154 181
133 154 181
134 154 181
134 154 181
134 154 181
134 154 181
133 154 181
134 155 181
133 154 181
133 154 181
134 154 181
134 154 181
134 154 180
133 154 181
133 154 181
134 154 181
134 154 181
134 154 181
133 154 181
134 154 181
135 155 181
133 154 181
134 154 181
134 154 181
133 154 181
133 154 181
134 154 181
135 155 181
133 154 181
134 154 181
134 154 181
134 155 181
133 154 181
134 154 181
134 154 181
134 154 181
134 154 181
134 154 181
133 154 181
134 154 181
134 154 181
133 154 181
134 154 181
134 154 181
133 154 181
133 154 181
134 154 181
134 154 181
134 154 181
134 154 181
134 154 181
134 154 181
134 154 181
134 154 181
134 154 181
133 154 181
134 155 181
134 154 181
133 154 181
134 154 181
134 154 181
134 154 181
135 155 181
135 155 181
133 154 181
133 154 181
134 154 181
134 154 181
135 155 181
134 154 181
134 154 181
134 154 181
134 154 181
134 154 181
134 154 181
134 154 181
133 154 181
134 154 181
135 155 181
133 154 180
133 154 181
133 154 181
134 154 181
134 154 181
134 154 181
134 154 181
135 155 181
133 154 181
134 154 181
134 154 181
134 154 181
133 154 181
133 154 181
133 154 181
134 154 181
133 154 181
133 154 181
133 154 181
135 155 181
133 154 181
134 154 181
135 155 181
133 153 180
134 154 181
134 154 181
134 154 181
134 155 181
134 154 181
134 154 181
133 154 181
134 154 181
135 155 181
134 154 181
133 154 181
134 154 181
135 155 181
134 154 181
134 154 181
134 154 181
134 154 181
134 154 181
134 154 181
134 154 181
133 154 181
134 154 181
134 154 181
134 154 181
134 154 181
133 154 181
133 154 181
134 154 181
133 154 181
134 154 181
133 154 181
134 154 181
134 154 181
133 154 181
133 154 181
134 154 181
134 154 181
134 154 181
134 154 181
133 154 181
134 154 181
134 154 180
134 154 181
134 154 181
133 154 181
134 154 181
132 153 180
134 154 181
134 154 181
134 154 181
135 155 181
134 154 181
134 155 181
134 154 180
135 155 181
134 154 181
133 154 181
133 154 181
135 155 181
134 155 181
134 154 181
135 155 181
133 154 181
134 154 181
134 154 181
134 154 181
134 154 181
133 154 181
134 154 181
134 154 181
134 154 181
133 154 181
133 154 181
133 154 181
134 154 181
135 155 181
135 155 181
135 155 181
134 155 181
134 154 181
134 154 181
134 154 181
135 155 181
134 154 181
133 154 180
134 154 181
133 154 181
134 154 181
134 154 181
134 154 181
134 154 181
135 155 181
134 154 181
134 154 181
134 154 181
135 155 181
134 154 181
133 154 181
134 154 181
134 154 181
134 154 181
133 154 181
134 154 181
134 154 181
134 154 181
134 154 181
134 154 181
134 154 181
134 154 181
134 154 181
135 155 181
134 154 181
133 154 181
133 154 181
133 154 181
132 154 181
133 154 181
134 154 181
134 154 181
134 154 181
134 154 181
134 154 181
134 154 181
134 154 181
134 154 181
134 154 181
134 154 180
134 154 181
134 154 181
134 154 181
133 154 181
134 154 181
134 154 181
133 154 181
133 154 181
134 154 181
133 154 181
134 154 181
134 154 181
133 154 181
133 154 181
134 154 181
133 154 181
134 154 181
133 154 181
134 154 181
134 154 181
134 154 181
133 154 181
133 154 181
133 154 181
133 154 181
134 154 181
134 154 181
133 154 181
134 154 181
134 154 181
133 154 181
134 154 181
133 154 181
133 154 181
133 154 181
133 154 180
134 154 181
134 154 180
133 154 181
134 154 181
133 154 181
133 154 181
134 154 181
133 153 180
133 154 181
134 154 181
134 154 181
134 154 181
134 154 181
134 154 181
134 154 180
134 154 181
133 154 181
134 154 181
133 154 181
134 154 181
133 154 181
134 154 180
134 154 181
134 154 181
134 154 181
134 154 181
134 154 181
134 154 181
134 154 181
135 155 181
135 155 181
134 154 181
134 154 181
133 154 181
133 154 181
134 154 181
133 154 181
133 154 181
134 154 181
133 154 181
133 154 181
134 154 181
134 154 181
134 154 181
134 154 181
133 154 180
134 154 181
132 153 180
133 153 180
134 154 181
134 154 181
134 154 181
133 154 181
135 155 181
133 154 181
134 154 181
133 154 181
134 154 181
134 154 181
134 154 181
135 155 181
133 154 181
134 154 181
134 154 181
134 154 181
133 154 181
134 154 181
134 154 181
134 154 181
134 154 181
134 154 181
133 154 181
134 154 181
134 154 181
133 154 181
134 154 181
135 155 181
134 154 181
134 154 181
135 155 181
133 154 181
133 154 181
133 154 181
133 154 181
133 154 180
134 154 181
134 154 181
134 154 181
134 154 181
134 154 181
133 153 180
133 154 181
133 154 181
134 154 181
134 154 181
134 154 181
134 154 181
134 154 181
134 154 181
134 154 181
134 154 181
134 154 180
134 155 181
134 154 181
134 154 181
133 154 181
134 154 181
134 154 181
134 154 181
134 154 181
134 154 181
134 154 181
134 154 181
134 154 181
133 154 181
134 154 181
133 154 181
134 154 181
135 155 181
134 154 181
133 154 180
134 154 181
133 154 181
134 154 181
134 154 181
134 154 181
134 155 181
133 154 181
133 154 181
133 154 181
134 154 181
134 154 181
134 154 181
133 154 180
133 154 181
133 154 181
133 154 181
133 154 181
134 154 181
135 155 181
135 155 181
133 154 181
134 154 181
133 154 181
134 154 181
134 154 181
134 154 181
133 154 180
134 154 181
134 154 181
134 154 181
133 154 180
134 154 181
135 155 181
134 154 181
134 154 181
133 153 180
134 154 181
134 154 181
134 154 181
134 154 181
133 154 181
134 154 181
135 155 181
133 154 181
134 154 181
132 153 180
134 154 181
134 154 181
133 154 181
135 155 181
133 154 181
134 154 181
133 154 181
134 154 181
135 155 181
134 154 181
134 154 181
134 154 181
133 153 180
133 153 180
134 154 181
134 154 181
133 154 181
133 154 180
133 154 181
133 154 181
134 154 181
133 154 181
134 154 180
134 154 181
133 154 181
134 154 181
133 154 181
134 154 181
134 154 181
133 154 181
134 154 181
133 154 181
134 154 181
133 154 181
134 154 181
134 154 181
133 154 181
132 153 181
134 154 181
133 154 181
133 154 181
134 154 181
134 154 181
134 154 181
134 154 181
134 154 181
133 154 181
133 154 181
134 154 181
133 154 181
134 154 181
134 154 181
133 154 181
134 154 181
134 154 181
134 154 181
133 154 181
134 154 181
134 154 181
133 154 181
134 154 181
134 154 181
134 154 181
133 154 181
133 154 181
134 154 181
134 154 181
133 154 181
133 154 181
133 154 180
134 154 181
133 154 181
135 155 181
133 154 181
134 154 181
134 154 181
134 154 181
133 154 181
134 154 181
133 154 180
134 155 181
134 154 181
134 154 181
134 154 181
135 155 181
134 154 181
133 154 181
134 154 181
134 155 181
134 154 181
134 154 181
134 154 181
134 154 181
134 154 181
134 154 181
134 154 181
134 154 181
133 154 181
134 154 181
134 154 181
133 154 181
134 154 181
134 154 181
134 154 181
133 154 181
134 154 181
135 155 181
134 154 181
134 154 181
134 154 181
135 155 181
133 154 181
134 154 181
134 154 181
134 154 181
133 154 181
132 153 180
133 154 181
134 154 181
133 153 180
133 154 181
134 154 181
134 154 181
135 155 181
134 154 181
134 154 181
134 154 181
134 154 181
133 154 181
133 154 181
134 154 181
134 154 181
134 154 181
133 154 181
134 154 181
134 154 181
134 154 181
133 154 181
133 154 181
133 154 181
135 155 181
133 154 181
134 154 180
134 154 181
134 154 181
134 154 181
134 154 181
133 154 181
134 154 181
133 154 181
133 154 181
133 154 181
134 154 181
133 154 180
134 154 181
134 154 181
133 154 181
134 154 181
133 154 181
133 154 181
134 154 181
134 154 181
134 154 181
134 154 181
134 154 181
134 154 181
133 154 181
134 154 181
133 154 181
134 154 181
133 154 181
133 154 181
134 154 181
134 154 181
133 154 181
133 154 181
134 154 181
134 154 181
133 154 181
133 154 181
134 154 181
134 154 181
134 154 181
134 154 181
133 154 181
134 154 181
134 155 181
134 154 181
134 154 181
134 154 181
133 154 181
134 154 181
134 154 181
133 154 181
133 154 181
134 154 181
133 154 181
134 154 181
134 154 181
134 154 181
134 154 181
133 154 181
134 154 181
134 154 181
133 154 181
134 154 181
134 154 181
134 154 181
133 154 181
133 154 181
134 155 181
133 154 181
134 154 181
133 154 181
134 154 181
133 154 181
134 154 181
134 154 181
134 154 181
133 154 181
134 154 181
133 154 181
134 154 181
135 155 181
134 154 181
133 154 181
133 154 181
134 154 181
134 154 181
133 154 181
133 154 181
134 154 181
134 154 181
134 154 181
134 154 181
133 154 181
134 154 180
133 154 181
134 154 181
134 154 181
134 154 181
133 154 181
134 154 181
133 154 181
134 154 181
134 154 181
135 155 181
134 154 181
134 154 181
134 154 181
133 154 181
134 154 181
134 154 181
134 154 181
134 154 181
133 154 181
134 154 181
134 154 181
133 154 181
134 154 181
135 155 181
133 154 181
133 153 180
134 154 181
135 155 181
134 154 181
134 154 181
134 154 181
134 154 181
134 154 181
134 154 181
133 154 181
134 154 181
134 154 181
133 154 181
133 154 181
134 154 181
134 154 181
134 154 181
134 154 181
134 155 181
134 154 181
134 154 181
133 154 181
134 154 181
134 154 181
135 155 181
134 154 181
135 155 181
134 154 181
133 154 181
134 154 181
134 154 181
134 154 181
134 154 181
134 154 181
133 154 180
133 154 181
133 154 180
134 154 181
133 154 181
133 154 181
133 154 181
134 154 181
134 154 181
134 154 181
134 154 181
133 154 181
134 154 181
134 154 181
133 154 181
134 154 180
133 154 180
134 154 181
134 154 181
134 154 181
133 154 181
134 154 180
133 154 181
134 154 181
134 154 181
134 154 181
134 155 181
133 154 181
133 154 181
135 155 181
134 154 181
134 154 181
134 154 181
133 154 181
134 154 181
134 154 181
134 154 181
134 154 181
133 154 181
133 154 181
134 154 181
134 154 181
134 154 180
134 154 181
133 154 181
134 154 181
134 154 181
134 154 181
134 154 181
134 154 181
134 154 181
134 154 181
134 154 181
134 154 181
134 154 181
134 154 181
133 154 181
134 154 181
134 154 181
134 154 181
134 154 181
133 154 181
134 154 181
134 154 181
133 154 181
134 154 181
133 153 180
134 154 181
133 154 181
134 154 181
133 154 181
133 154 181
133 154 181
133 154 181
133 154 180
133 154 181
133 154 180
134 154 181
134 154 181
134 154 181
133 154 181
133 154 181
134 154 181
132 153 180
133 154 181
134 154 181
134 154 181
134 154 181
133 154 181
134 154 181
133 154 181
134 154 181
134 154 181
134 154 181
134 154 181
134 154 181
133 154 181
134 154 181
134 154 181
134 154 181
134 155 181
134 154 181
134 154 181
134 154 181
134 154 181
135 155 181
134 154 181
134 154 181
134 154 181
133 154 181
133 154 181
133 154 181
133 154 181
133 154 181
134 154 181
133 154 181
134 154 181
134 154 181
134 154 181
134 154 181
134 154 180
134 154 181
133 154 181
133 154 181
134 154 181
134 154 181
134 154 181
133 154 181
134 154 181
134 154 181
134 154 181
134 154 181
134 154 181
134 154 181
134 154 181
135 155 181
133 154 181
134 154 181
133 154 181
134 154 181
133 154 181
133 154 181
133 154 180
134 154 181
133 154 181
134 154 181
134 154 181
133 154 180
135 155 181
134 154 181
133 154 181
133 154 181
133 154 181
133 154 181
133 154 181
134 154 181
134 154 181
133 154 181
133 154 181
134 154 181
134 154 181
134 154 181
134 154 181
134 154 181
132 154 181
134 154 181
134 154 181
133 154 181
134 154 181
133 154 181
134 154 181
133 154 181
134 154 181
134 154 181
134 154 181
135 155 181
134 154 181
134 154 181
133 154 181
133 154 181
135 155 181
134 155 181
134 154 181
134 154 181
133 154 181
134 154 181
134 154 181
134 154 181
134 154 181
134 154 181
133 154 181
134 154 181
134 154 181
134 154 181
134 154 181
134 154 181
133 154 181
134 154 181
134 154 181
133 154 181
133 154 181
134 154 181
134 154 181
134 154 181
134 154 181
134 154 181
134 154 181
133 154 181
134 154 181
133 154 181
134 154 181
134 154 181
134 154 181
135 155 181
133 154 181
134 154 181
134 154 181
134 154 181
134 154 181
133 154 181
134 154 181
134 154 181
133 154 181
134 154 181
133 154 181
134 154 181
133 154 181
134 154 181
134 154 181
133 153 180
133 154 181
134 155 181
134 154 181
134 154 181
134 154 181
133 154 180
134 154 181
134 154 181
134 154 181
133 154 181
133 154 181
134 154 181
133 154 181
133 154 181
133 154 181
134 154 181
134 154 181
134 154 181
134 155 181
133 154 181
133 154 181
133 154 181
133 154 181
134 154 181
133 154 181
134 154 181
133 154 181
134 154 181
133 154 181
133 154 180
134 154 181
134 154 181
134 154 181
134 154 181
134 154 181
134 154 181
133 154 181
133 154 181
134 154 181
134 154 181
134 154 181
134 154 181
134 155 181
134 154 181
134 154 181
134 154 181
134 154 181
134 154 181
133 154 181
134 154 181
134 154 181
134 155 181
133 154 181
133 154 180
134 154 181
134 154 181
134 154 181
134 154 181
134 154 181
133 154 181
134 154 181
134 154 181
134 154 181
134 154 181
134 154 181
134 154 181
135 155 181
133 154 181
134 154 181
133 154 181
133 154 181
135 155 181
135 155 181
133 154 181
134 154 181
134 154 181
134 154 181
133 154 181
134 154 181
134 154 181
134 154 181
134 154 181
134 154 181
134 154 181
133 153 180
134 154 181
134 154 181
134 154 181
134 154 180
134 155 181
133 154 181
134 154 181
134 154 181
134 154 181
134 154 181
133 154 181
134 154 181
133 154 181
134 154 181
133 154 181
133 154 181
133 154 181
134 154 181
134 154 181
134 154 181
134 154 181
134 154 181
134 154 181
133 154 181
134 154 181
134 154 181
134 154 181
134 154 181
134 154 181
134 154 180
134 155 181
133 154 181
134 154 181
133 154 181
134 154 181
135 155 181
134 154 181
133 154 181
134 154 181
134 154 181
134 154 181
135 155 181
134 154 181
133 154 181
133 154 180
133 153 180
134 154 181
134 154 181
134 154 181
134 154 181
134 154 181
134 155 181
134 154 181
134 154 181
134 154 181
133 153 180
134 154 181
134 154 181
133 154 181
133 154 181
134 154 181
134 154 181
133 154 181
135 155 181
134 154 181
134 154 181
134 154 181
134 154 181
134 154 181
134 154 181
134 154 181
133 154 180
134 154 181
133 154 181
133 154 181
134 154 181
134 154 181
134 154 181
133 154 181
133 154 181
134 154 181
133 154 181
134 154 181
133 154 181
134 154 181
134 155 181
134 154 181
133 154 181
134 154 181
134 154 181
133 154 181
133 154 181
133 154 181
134 154 181
134 154 181
135 155 181
134 154 181
134 154 181
134 154 181
134 154 181
134 154 181
134 154 181
133 154 181
134 154 181
134 154 181
134 154 181
133 154 181
134 154 181
134 154 181
134 154 181
135 155 181
133 154 181
134 154 181
134 155 181
135 155 181
134 154 181
134 154 180
133 154 181
133 153 180
134 154 181
134 154 181
134 154 181
135 155 181
135 155 181
134 154 181
134 154 181
134 154 181
133 154 181
133 154 181
134 154 181
134 154 181
134 154 181
134 154 181
134 154 181
133 154 181
134 154 180
133 154 181
133 154 181
133 154 181
133 154 181
133 154 181
133 153 180
135 155 181
133 154 181
133 154 181
134 154 181
134 154 181
134 155 181
134 154 181
134 154 181
133 154 181
134 154 181
133 154 181
134 154 181
133 154 181
134 154 181
135 155 181
133 153 180
134 154 181
133 154 181
134 154 181
132 153 180
134 154 181
134 154 181
134 154 181
134 154 181
134 154 181
133 154 181
133 154 181
133 154 181
133 154 181
133 154 180
133 154 181
133 154 181
134 154 181
132 153 181
134 154 181
133 154 181
133 154 181
134 154 181
134 154 181
133 154 181
134 154 181
133 154 181
134 154 181
134 154 181
134 154 181
134 154 181
134 154 181
134 154 181
134 154 181
133 154 181
134 154 181
134 154 181
134 154 181
133 154 181
134 154 181
133 154 181
134 154 181
134 154 181
133 154 181
135 155 181
134 154 181
135 155 181
134 154 181
134 154 181
133 154 181
133 154 181
134 154 181
134 154 181
134 154 181
133 154 181
134 154 181
134 154 181
134 154 181
134 154 181
134 154 181
133 154 181
133 154 181
133 154 181
133 154 181
134 154 181
134 154 181
133 154 181
133 154 181
134 154 181
134 154 181
133 154 181
133 154 181
134 154 181
134 154 181
133 154 181
134 154 181
133 154 181
134 154 181
133 154 181
133 154 180
134 155 181
134 154 181
134 154 181
133 154 181
133 154 181
134 154 181
133 154 181
134 154 181
134 154 181
134 154 181
134 154 180
134 154 181
133 154 181
134 154 181
134 154 181
133 154 181
134 154 181
134 154 180
135 155 181
134 154 180
133 154 181
134 154 181
133 154 181
134 154 181
134 154 181
134 154 181
134 154 181
133 154 181
134 155 181
134 154 181
134 154 181
134 154 181
134 154 181
133 154 181
133 154 181
134 154 181
134 154 181
133 154 181
134 154 181
134 154 181
134 154 181
133 154 181
133 154 181
134 154 181
134 154 181
134 154 181
134 154 181
134 154 181
133 154 181
133 154 181
133 154 181
134 154 181
134 154 181
134 154 181
134 154 181
133 154 181
134 154 181
133 154 181
134 154 181
133 154 180
133 154 181
134 154 181
134 154 181
133 154 181
133 154 180
134 154 181
134 154 181
135 155 181
134 154 181
134 154 181
134 154 181
134 154 181
134 154 181
134 154 181
134 154 181
134 154 181
133 154 181
133 154 181
134 155 181
135 155 181
134 154 180
133 154 181
133 154 181
134 154 181
134 154 181
133 154 181
134 154 181
134 154 181
134 154 181
134 154 181
133 154 181
134 154 181
133 154 181
134 154 181
135 155 181
134 154 181
133 154 181
134 154 181
134 154 181
134 154 181
133 154 181
133 154 181
135 155 181
133 154 181
134 154 181
134 154 181
134 154 181
134 154 181
134 154 181
133 154 180
134 154 181
134 154 181
133 154 181
134 154 181
133 154 181
134 154 181
134 154 181
133 154 181
133 154 181
133 154 181
133 154 181
134 154 181
134 154 181
133 154 181
134 154 181
133 154 181
135 155 181
134 154 181
134 155 181
133 154 181
133 154 181
134 154 181
133 154 181
133 154 181
134 154 181
133 154 180
134 154 181
133 154 181
134 154 181
134 154 181
134 154 181
134 154 181
134 154 181
134 154 181
133 154 181
135 155 181
133 154 180
133 154 181
134 154 181
134 154 181
134 154 181
134 154 181
134 154 181
134 154 181
134 154 181
135 155 181
133 154 181
134 154 181
134 154 181
134 154 181
133 154 181
135 155 181
133 154 181
134 154 180
133 154 181
134 154 181
133 154 181
134 155 181
134 154 181
133 154 181
133 154 181
134 154 181
134 154 181
134 154 180
134 154 181
133 154 181
134 154 181
133 154 181
134 154 181
133 154 181
134 154 181
135 155 181
134 154 181
134 154 181
134 155 181
134 154 181
134 154 181
133 154 181
134 154 181
135 155 181
133 154 181
134 154 181
134 154 181
134 154 181
133 154 181
134 154 181
134 154 181
134 154 181
133 154 181
133 154 181
133 154 181
134 154 181
134 155 181
133 154 181
134 154 181
134 154 181
134 154 181
134 154 181
135 155 181
134 154 181
134 154 181
135 155 181
134 154 181
134 154 181
134 154 181
134 154 181
133 154 181
133 154 181
133 154 181
134 154 181
134 154 181
134 154 181
133 154 181
134 154 181
134 154 181
133 154 181
134 154 181
134 154 181
134 154 181
133 154 181
134 154 181
135 155 181
134 154 181
134 154 181
133 154 181
134 154 181
134 154 181
133 153 180
134 154 181
133 154 181
133 154 181
134 154 181
133 153 180
134 154 181
134 154 181
134 154 181
134 154 181
134 154 181
134 154 181
134 154 181
134 154 181
134 154 181
133 154 181
134 154 181
134 154 181
134 154 181
134 154 181
133 154 181
134 154 181
134 154 181
133 154 181
134 154 181
134 154 181
134 154 181
134 154 181
134 154 181
133 154 181
133 154 181
134 154 181
132 153 181
134 154 181
133 154 181
134 154 181
133 154 181
134 154 181
134 154 181
133 154 181
134 154 181
134 154 181
134 154 181
133 154 181
134 154 181
133 154 181
134 154 181
134 154 181
135 155 181
133 154 181
133 154 181
134 154 181
133 154 181
134 154 181
133 154 181
134 154 181
133 154 181
134 154 181
134 154 181
134 154 181
134 154 181
134 154 181
134 155 181
134 154 181
134 154 181
133 154 181
134 154 181
133 154 181
133 154 181
135 155 181
134 154 181
134 154 181
134 154 181
134 154 181
133 154 181
133 154 181
134 154 181
135 155 181
133 154 181
133 154 180
134 154 181
134 154 181
134 154 181
134 154 181
134 154 181
134 154 181
134 154 181
134 154 181
134 154 181
133 153 180
133 154 181
134 154 181
134 154 181
134 154 181
134 154 181
134 154 181
135 155 181
134 154 181
134 154 181
135 155 181
134 154 181
134 154 181
134 154 181
134 154 181
133 154 181
133 154 181
135 155 181
133 154 181
135 155 181
135 155 181
133 154 181
133 154 181
134 154 181
133 154 181
134 154 181
134 154 181
134 154 181
134 154 181
134 154 181
134 154 181
133 154 181
134 154 181
133 154 181
134 154 181
134 154 181
133 154 181
134 154 181
134 154 181
134 154 181
134 154 181
134 154 181
134 154 181
134 154 181
133 154 181
134 154 181
134 154 181
133 154 181
134 154 181
133 154 181
134 154 181
134 154 181
133 154 181
133 154 181
134 154 181
134 154 181
133 154 181
134 154 181
134 154 181
134 154 181
133 154 181
134 154 181
134 154 181
134 154 181
134 154 181
134 154 181
134 154 181
133 154 181
134 154 181
134 154 181
132 153 180
133 154 181
133 154 181
134 154 181
134 154 181
133 154 181
134 155 181
134 154 180
134 154 181
134 154 181
134 154 181
135 155 181
134 154 181
134 154 181
134 154 181
134 154 181
134 154 181
134 154 181
133 154 181
134 154 181
133 154 181
133 154 181
135 155 181
134 154 181
133 154 181
133 154 181
133 154 181
133 154 181
134 154 181
134 154 181
133 154 181
134 154 181
134 154 181
134 154 181
134 154 181
133 154 181
134 154 181
134 154 181
134 154 181
134 154 181
134 154 181
133 154 181
133 154 181
133 154 181
134 154 181
134 154 181
135 155 181
134 154 181
133 154 181
134 154 181
134 154 181
134 154 181
134 154 181
134 154 181
134 154 181
133 154 181
134 154 181
134 154 181
134 154 181
133 154 181
133 154 180
134 154 181
135 155 181
134 154 181
134 154 181
134 154 181
134 154 181
134 154 181
134 155 181
134 154 181
134 154 181
134 154 181
134 155 181
135 155 181
134 154 181
134 154 181
134 154 181
134 154 181
133 154 181
134 154 181
133 154 181
134 154 181
135 155 181
133 154 181
133 154 181
133 154 181
133 154 181
134 154 181
134 154 181
133 154 181
134 154 181
134 154 181
134 154 181
134 154 181
134 154 181
134 154 181
134 154 181
134 154 181
134 154 181
135 155 181
133 154 181
134 154 181
134 154 181
134 154 181
134 154 181
133 154 181
134 154 181
134 154 181
133 154 181
134 154 181
134 154 181
133 154 181
134 154 181
134 154 180
134 154 181
134 154 181
134 154 180
134 154 181
134 154 181
134 154 181
134 154 181
134 154 181
134 154 181
133 154 181
135 155 181
134 154 181
133 154 181
134 154 181
134 154 181
134 154 181
134 154 181
134 154 181
133 154 181
133 154 181
134 154 181
134 154 181
133 154 181
133 154 180
135 155 181
135 155 181
134 154 181
133 154 181
134 154 181
134 154 181
134 154 181
134 154 181
134 154 181
133 154 181
133 154 181
134 154 181
133 154 181
133 154 181
134 154 181
134 154 181
135 155 181
134 154 181
134 154 181
133 154 181
133 154 181
134 154 181
135 155 181
134 154 181
133 154 180
134 154 181
134 154 181
133 154 180
133 154 181
134 154 181
134 154 181
134 154 181
134 154 180
134 154 181
133 154 181
133 154 181
133 154 181
133 154 181
134 154 181
134 154 181
134 154 181
134 154 181
134 154 181
134 154 181
134 155 181
133 154 181
134 154 181
134 154 181
134 154 181
134 154 181
134 154 181
134 154 181
133 154 181
134 154 181
133 154 181
134 154 181
134 155 181
133 154 181
133 154 181
134 154 181
134 154 181
134 154 181
133 154 181
134 154 180
134 154 181
133 154 181
134 154 181
134 154 181
133 154 181
134 154 181
134 154 181
133 154 181
133 154 181
133 154 181
134 154 181
133 154 181
134 154 181
134 154 181
134 154 181
133 154 181
133 153 180
135 155 181
133 154 180
134 154 181
134 154 181
133 154 181
134 154 181
134 154 181
134 154 181
134 154 181
133 154 181
134 154 181
133 154 181
135 155 181
133 154 181
133 154 181
133 154 181
134 154 181
134 154 181
133 154 181
134 154 181
134 155 181
134 154 181
134 154 181
134 154 181
134 154 181
133 154 181
135 155 181
134 154 181
134 154 181
134 154 181
135 155 181
135 155 181
133 154 181
134 154 181
134 154 181
134 154 181
133 154 181
134 154 181
133 154 181
134 154 181
134 154 181
134 154 181
134 154 181
135 155 181
133 154 181
134 154 181
133 154 181
134 154 181
133 154 181
133 154 181
134 154 181
134 154 181
134 154 181
134 154 181
133 154 181
133 154 181
133 154 181
134 154 181
134 154 181
134 154 181
132 153 181
134 154 181
134 154 181
134 154 181
133 154 181
134 154 181
134 154 181
133 154 181
133 154 181
134 154 181
133 154 181
134 154 181
133 154 181
134 154 181
133 154 181
133 154 181
134 154 181
133 154 181
134 154 181
134 154 181
133 153 180
134 154 181
134 154 181
134 154 181
133 154 181
133 154 181
133 154 181
134 155 181
133 154 181
134 154 181
134 154 181
134 154 181
135 155 181
134 154 181
134 154 181
134 155 181
134 154 181
134 154 181
134 154 181
134 154 181
134 154 181
134 154 181
134 154 181
134 154 181
134 154 181
135 155 181
134 154 181
133 154 181
135 155 181
133 154 181
133 154 181
134 154 181
134 154 181
134 154 181
133 154 181
133 154 181
134 154 181
133 154 181
135 155 181
134 154 181
134 154 181
133 154 181
134 154 181
133 154 181
134 154 180
133 154 180
133 154 181
134 154 181
133 154 181
134 154 181
134 154 181
135 155 181
133 154 181
134 154 181
134 154 181
132 153 181
133 154 181
133 154 181
132 153 181
134 154 181
133 154 181
134 154 181
134 154 181
133 154 181
134 154 181
134 154 181
134 154 181
135 155 181
134 154 181
134 154 180
133 154 181
133 154 181
133 154 181
134 154 181
134 154 181
134 154 181
135 155 181
134 154 181
133 154 181
134 154 181
135 155 181
134 154 181
133 154 181
134 154 181
134 154 181
133 154 181
133 154 181
133 154 181
134 154 181
135 155 181
133 154 181
133 154 181
133 154 181
133 154 181
134 154 181
133 154 181
135 155 181
134 154 181
134 154 181
133 154 181
133 154 181
133 154 181
134 154 181
134 154 181
134 154 181
133 154 181
134 154 181
134 155 181
134 154 181
133 154 181
134 154 181
134 154 181
132 153 181
133 154 181
134 154 181
135 155 181
134 154 181
134 154 181
134 154 181
134 154 181
134 154 181
133 154 181
134 154 181
133 154 181
134 154 181
133 154 181
133 154 181
133 154 181
133 154 180
133 154 181
134 154 181
133 154 181
133 154 181
133 154 181
133 154 181
135 155 181
134 154 181
134 154 181
134 154 181
134 155 181
134 154 181
134 154 181
133 154 181
133 154 181
133 154 180
133 154 181
133 154 181
134 154 181
133 154 181
135 155 181
134 154 181
134 154 181
133 154 181
134 154 181
135 155 181
134 154 181
133 154 181
134 155 181
133 154 181
135 155 181
134 154 181
133 154 181
133 154 181
133 154 181
135 155 181
133 154 181
134 154 181
134 154 181
134 154 181
134 154 181
134 154 181
134 154 181
133 154 181
134 154 181
134 154 181
134 154 181
134 155 181
134 154 181
134 154 181
135 155 181
133 154 181
133 154 181
134 154 181
133 154 180
135 155 181
134 154 181
133 154 181
133 154 181
133 154 181
134 154 181
133 154 181
134 154 181
134 154 181
133 154 181
134 154 181
134 154 181
134 154 181
134 154 181
134 154 180
134 154 181
134 154 181
133 154 180
133 154 181
133 154 181
135 155 181
134 154 181
134 154 181
133 154 181
135 155 181
134 154 181
133 154 181
134 154 181
135 155 181
133 154 181
133 154 181
134 154 181
134 155 181
133 154 181
133 154 181
134 154 181
135 155 181
134 155 181
134 154 181
133 154 181
134 154 180
133 154 181
133 154 181
134 154 181
134 154 181
133 154 181
134 154 181
133 154 181
134 154 181
134 154 181
134 154 181
134 154 181
134 154 181
134 154 181
134 154 181
133 154 181
133 154 181
134 154 180
134 154 181
135 155 181
133 154 181
134 154 181
134 154 181
134 154 181
134 155 181
134 154 181
135 155 181
133 154 181
134 154 181
134 154 181
134 154 181
133 154 181
134 154 181
134 154 181
133 154 181
133 154 181
134 154 181
133 154 181
134 154 181
134 154 181
134 154 181
133 154 181
133 154 181
133 154 181
134 154 181
134 154 181
135 155 181
133 154 181
134 154 181
134 154 181
133 154 181
134 154 181
134 154 181
133 154 181
134 155 181
135 155 181
134 154 181
134 154 181
134 154 181
134 154 181
134 154 181
134 154 181
134 154 181
134 154 181
134 154 181
134 154 181
133 154 181
134 154 181
134 154 181
135 155 181
134 154 181
133 154 181
135 155 181
134 154 181
134 155 181
134 154 181
133 154 181
134 154 181
134 154 181
133 154 181
134 154 181
133 154 181
133 154 181
133 154 181
134 154 181
134 154 181
134 154 181
133 154 181
134 154 181
133 154 181
134 154 181
133 154 181
133 154 181
134 154 181
134 154 181
134 154 181
134 154 181
134 154 181
134 154 181
134 154 181
134 154 181
135 155 181
134 154 181
133 154 181
134 154 181
134 154 181
133 154 181
134 154 181
133 154 181
133 154 181
134 154 181
133 154 180
134 155 181
134 154 181
133 153 180
134 154 181
133 154 181
134 154 181
133 154 181
133 154 181
134 154 181
134 154 181
134 154 181
134 154 181
134 154 181
133 154 181
133 154 181
134 155 181
133 154 181
134 154 181
133 154 181
134 154 181
133 154 181
134 154 181
134 154 181
133 154 181
133 154 181
134 154 181
133 153 180
134 154 181
134 154 181
134 154 181
134 154 181
134 154 181
133 154 181
134 154 181
134 154 181
133 154 181
134 154 181
134 154 181
133 154 181
133 154 181
134 154 181
134 154 181
133 154 181
133 154 181
134 154 181
134 154 181
134 154 181
133 154 181
133 154 181
134 154 181
133 154 181
133 154 181
134 154 181
135 155 181
134 154 180
134 154 181
134 154 181
134 154 181
134 154 181
134 154 181
134 154 181
134 154 181
133 154 181
134 154 181
134 154 181
133 154 181
134 154 181
134 154 181
135 155 181
133 154 181
134 154 181
134 155 181
134 154 181
134 154 181
134 154 181
134 155 181
133 154 181
134 154 181
134 154 181
133 154 181
132 153 181
133 154 181
134 154 181
135 155 181
133 154 181
134 154 181
133 154 181
133 154 180
134 154 181
133 154 181
133 154 181
133 154 181
133 154 181
134 154 180
133 154 181
133 154 181
134 154 181
134 154 181
134 154 181
134 154 181
133 154 181
133 154 181
134 154 181
133 154 181
134 154 181
133 154 181
135 155 181
133 154 181
134 154 181
133 154 181
134 154 181
133 154 180
133 154 181
133 154 181
135 155 181
133 154 181
134 154 181
133 153 180
132 153 181
134 154 181
133 154 181
134 154 181
134 154 181
134 154 181
133 154 181
134 154 181
133 154 181
134 154 181
133 154 181
134 154 181
133 154 181
133 154 180
134 154 181
133 154 181
133 154 181
133 154 181
133 154 180
134 154 180
134 154 181
135 155 181
134 154 181
134 154 181
134 154 181
134 154 181
134 154 181
133 154 181
134 154 181
134 154 181
133 154 180
134 154 181
134 154 181
134 154 181
134 154 181
134 154 181
134 154 181
132 153 181
134 154 181
133 154 181
133 154 181
134 154 181
134 154 181
133 153 180
133 154 181
134 155 181
134 154 181
133 154 181
133 154 181
135 155 181
133 154 181
134 154 181
134 154 181
134 154 181
133 154 181
134 154 180
134 154 181
134 154 181
134 154 181
134 154 181
133 154 181
135 155 181
134 154 181
133 154 181
133 154 181
133 154 181
134 154 181
135 155 181
133 154 181
134 154 181
133 154 181
133 154 181
134 154 181
134 154 181
133 154 181
135 155 181
135 155 181
135 155 181
134 154 181
133 154 181
134 154 181
133 154 181
134 154 181
134 154 181
133 154 181
133 154 181
132 153 181
135 155 181
134 154 181
133 154 181
134 154 181
134 154 181
134 154 181
134 154 181
134 154 181
134 154 181
134 154 181
133 154 181
133 154 181
134 155 181
134 154 181
134 154 181
134 154 181
134 154 181
135 155 181
133 154 181
134 154 181
133 154 181
134 154 181
133 154 180
133 154 181
134 154 181
134 154 181
134 154 181
134 154 181
133 154 181
134 154 181
134 154 181
133 154 181
134 154 181
134 155 181
134 154 181
135 155 181
134 154 181
134 154 181
134 154 180
134 154 181
134 154 181
134 154 181
134 154 181
134 154 181
133 154 181
134 154 181
133 154 180
134 154 181
133 154 181
134 154 181
134 154 181
134 154 181
133 154 181
133 153 180
134 154 181
134 154 181
133 154 181
134 154 181
134 155 181
132 153 181
134 154 181
133 154 181
133 154 181
134 154 181
134 154 181
133 154 181
133 154 181
134 154 181
135 155 181
134 154 181
134 154 181
134 154 181
134 154 181
133 154 181
133 154 181
133 154 180
134 154 181
133 154 181
134 154 181
134 155 181
134 154 181
134 154 181
134 154 181
133 154 181
134 154 181
134 154 181
134 154 181
134 154 181
134 154 181
134 154 181
133 154 181
134 154 181
133 154 181
133 153 180
134 154 181
133 154 181
134 154 181
134 154 181
134 154 181
134 154 181
134 154 181
134 154 181
134 154 181
134 154 181
134 154 181
134 154 181
134 154 181
134 154 181
134 154 181
133 154 181
133 154 181
133 154 181
133 154 181
133 154 181
134 154 181
133 154 181
133 154 181
134 154 180
133 154 181
134 154 181
133 154 181
135 155 181
134 154 181
134 154 181
134 154 181
135 155 181
134 154 181
134 154 181
133 154 181
133 154 181
134 154 181
133 154 181
133 154 181
133 154 181
134 154 181
134 154 181
133 154 181
134 154 181
134 154 181
134 154 181
134 154 181
133 154 180
133 154 181
134 154 181
134 154 181
133 154 181
134 154 181
133 154 181
133 154 181
133 154 181
134 154 181
134 154 181
135 155 181
134 154 181
133 154 181
134 154 181
134 154 181
134 154 181
134 154 181
134 154 181
134 154 181
134 154 181
133 154 181
135 155 181
133 154 180
133 154 181
133 154 181
134 154 181
134 154 181
133 154 181
135 155 181
133 154 181
134 154 181
134 154 181
134 154 181
134 154 181
133 154 181
134 154 181
134 154 181
133 154 181
134 154 181
133 154 181
134 154 181
134 154 181
134 154 181
134 154 181
134 154 181
133 154 181
133 154 181
134 154 181
134 154 181
133 154 181
134 154 181
133 154 181
134 154 181
134 154 181
133 154 181
134 154 181
134 154 181
135 155 181
133 154 181
133 154 181
134 154 181
133 154 181
133 153 180
135 155 181
133 154 180
133 154 181
133 154 181
134 154 181
133 154 181
134 154 181
134 154 181
133 154 181
135 155 181
134 154 181
135 155 181
134 154 181
135 155 181
133 154 181
134 154 181
134 154 181
133 154 181
133 154 181
133 154 181
134 154 181
133 154 181
134 154 181
134 154 181
134 154 181
134 154 181
134 154 181
134 154 181
133 154 181
134 154 181
134 154 181
134 154 181
133 154 181
134 154 181
133 154 180
134 154 181
134 154 181
133 154 181
134 155 181
134 154 180
133 154 181
135 155 181
135 155 181
135 155 181
133 154 181
134 154 181
133 154 181
134 154 181
135 155 181
134 154 181
133 154 181
134 154 181
134 154 181
134 154 181
134 154 181
133 154 181
135 155 181
134 154 181
134 154 181
134 154 181
135 155 181
134 154 181
134 154 181
134 154 181
134 155 181
133 154 181
134 154 181
133 154 181
134 154 181
134 154 181
133 154 181
134 154 181
135 155 181
134 154 181
133 154 181
134 154 181
133 154 181
135 155 181
133 154 181
135 155 181
135 155 181
134 154 181
133 154 181
134 154 181
134 154 181
134 154 181
133 154 181
134 154 181
134 154 181
134 154 181
134 154 181
135 155 181
134 154 181
133 154 181
134 154 181
133 154 181
133 154 181
133 154 180
134 154 181
135 155 181
134 154 181
134 154 181
134 154 181
134 154 181
135 155 181
134 154 181
133 153 180
134 154 181
134 154 181
133 154 181
134 154 181
133 154 181
134 154 181
134 154 181
134 154 181
134 154 181
134 154 181
133 154 181
134 154 181
133 154 181
134 154 181
133 154 180
133 154 181
134 154 181
134 154 181
134 154 181
133 154 181
133 154 181
135 155 181
134 155 181
134 154 181
133 154 181
134 154 181
134 154 181
135 155 181
134 154 181
134 154 181
133 154 181
134 154 181
134 154 181
134 154 181
134 154 181
133 154 181
134 154 181
134 154 181
134 154 181
133 153 180
133 154 181
133 154 181
134 154 181
133 154 181
133 153 180
133 154 181
133 154 181
134 154 181
135 155 181
133 154 181
134 154 180
133 154 181
133 154 181
134 154 181
133 154 181
134 154 181
134 154 181
134 154 181
134 154 181
135 155 181
134 154 181
134 154 181
133 154 181
134 154 181
134 154 181
134 154 181
134 154 181
134 154 181
134 154 181
133 154 181
135 155 181
135 155 181
134 154 181
134 154 181
134 154 181
133 154 181
135 155 181
134 154 181
133 154 181
134 154 181
134 154 181
134 154 181
134 154 181
133 154 181
133 154 181
134 154 181
134 154 181
134 154 181
134 154 181
135 155 181
132 153 181
133 154 181
134 155 181
133 154 181
134 154 181
133 154 181
134 154 181
134 154 181
134 154 181
133 154 181
133 154 181
134 154 181
134 154 181
133 154 181
134 154 181
134 154 181
133 154 181
134 154 181
134 154 181
134 154 181
134 154 181
134 154 181
134 154 181
133 154 181
135 155 181
133 154 181
134 154 181
133 154 181
134 154 181
135 155 181
133 154 181
133 154 181
134 155 181
134 154 181
133 154 181
133 154 181
134 154 181
135 155 181
134 154 181
134 154 181
134 154 181
133 154 181
133 154 181
134 154 181
133 154 181
134 154 181
133 154 181
134 154 181
134 154 181
134 154 181
134 154 181
134 154 181
134 154 181
134 154 181
133 154 181
133 154 181
133 154 181
135 155 181
133 154 181
134 154 180
133 154 181
134 154 181
134 154 181
133 154 181
133 154 180
134 155 181
135 155 181
134 154 181
133 154 181
133 154 181
134 154 181
134 154 181
135 155 181
134 154 181
134 154 181
133 154 181
134 154 181
134 154 181
133 154 181
133 154 181
133 154 181
133 154 181
133 154 181
134 154 181
134 154 181
134 154 181
133 154 181
134 154 181
133 154 181
134 154 181
134 154 181
134 154 181
133 154 181
133 154 181
134 154 181
134 154 181
133 154 181
133 154 181
133 154 181
134 154 181
133 154 181
133 154 181
134 154 181
134 154 181
133 154 181
134 154 181
134 154 181
134 154 180
134 154 181
134 154 181
134 154 181
134 154 181
134 154 181
134 155 181
133 154 181
134 154 181
134 154 181
134 154 181
133 154 181
134 154 181
133 154 181
132 153 180
134 154 181
134 155 181
134 154 180
134 154 181
134 154 181
133 154 181
133 154 181
134 154 181
134 154 181
133 154 181
135 155 181
134 154 181
134 154 181
134 154 181
135 155 181
133 154 181
134 154 181
132 154 181
134 154 181
133 154 181
135 155 181
134 154 181
134 154 181
134 154 181
133 154 181
134 154 181
134 154 181
134 154 181
134 154 181
133 154 181
133 154 181
134 154 181
134 154 181
134 154 181
133 154 181
134 154 181
134 154 181
133 153 180
134 154 181
134 154 181
132 154 181
133 154 181
133 154 181
133 154 181
134 154 181
134 154 181
134 154 180
134 154 181
133 154 181
134 154 181
133 154 181
134 155 181
134 154 181
134 154 181
133 154 181
133 154 181
134 154 181
134 154 181
135 155 181
133 154 180
134 154 181
134 154 181
134 154 181
135 155 181
133 154 181
133 154 181
134 154 181
134 154 181
134 154 181
134 154 181
134 154 181
133 154 181
134 154 181
134 154 181
133 154 181
133 154 181
134 154 181
133 154 181
134 154 181
133 154 181
134 154 181
133 154 181
133 154 181
134 154 181
133 154 181
134 154 181
133 154 181
133 154 181
133 154 181
133 154 181
133 154 181
133 154 181
133 154 181
133 154 181
134 154 181
133 154 181
134 154 181
133 154 181
134 154 181
135 155 181
133 154 181
133 154 181
133 154 181
133 154 181
133 154 181
134 154 181
133 154 181
134 154 181
133 154 181
134 154 181
134 154 181
133 154 181
134 154 181
134 154 181
134 154 181
134 154 181
134 154 181
134 154 180
134 154 181
134 154 180
134 154 181
134 154 181
134 154 181
134 154 181
134 154 181
133 153 180
134 154 181
134 155 181
133 154 181
133 154 181
134 154 181
134 154 181
134 154 181
133 154 180
134 154 181
134 154 181
134 154 181
133 154 181
134 154 181
135 155 181
134 154 181
133 154 181
133 154 181
134 154 181
133 154 181
133 154 181
134 154 181
134 154 181
133 154 181
134 154 181
134 154 181
134 154 181
133 154 181
133 154 181
133 154 181
134 154 181
133 154 181
132 153 181
134 154 181
133 154 181
133 154 181
134 154 181
133 154 181
134 154 181
133 154 181
133 154 181
134 154 181
134 154 181
134 154 181
134 154 181
134 154 181
133 153 180
134 154 181
133 154 181
134 154 181
133 154 181
134 154 181
134 154 181
135 155 181
134 154 181
134 154 181
133 154 181
133 154 181
134 154 181
134 154 181
134 154 181
134 154 181
134 154 181
134 154 181
134 154 181
134 154 181
134 154 181
134 154 181
134 154 181
133 154 181
134 154 181
133 154 181
135 155 181
134 154 181
133 154 181
134 154 181
134 154 181
134 154 181
133 154 181
134 154 181
134 154 181
134 154 181
135 155 181
134 154 181
133 154 181
134 154 181
133 154 181
134 154 181
133 154 181
133 154 181
133 154 180
134 154 181
134 154 181
134 154 181
135 155 181
134 154 181
134 154 181
134 154 181
133 154 181
133 154 181
133 154 181
133 154 181
133 154 180
135 155 181
134 154 181
134 154 181
134 154 181
135 155 181
134 154 181
133 154 181
134 154 181
133 154 181
134 154 181
134 154 181
134 154 181
134 154 181
133 154 181
134 154 181
133 154 181
133 154 181
133 154 181
133 154 181
133 154 181
134 154 181
133 154 181
133 154 181
134 154 181
133 154 181
134 154 181
134 154 181
134 154 181
135 154 180
134 155 181
134 154 181
134 154 181
134 154 181
134 154 181
134 154 181
135 155 180
134 154 181
133 154 181
134 154 181
135 155 181
134 154 181
133 154 180
134 154 181
134 154 181
133 154 181
133 154 181
133 154 181
133 154 181
135 155 181
134 154 181
134 154 181
134 154 181
135 155 181
134 154 181
134 154 180
133 154 180
133 154 181
134 154 181
134 154 181
134 154 181
134 154 181
134 154 181
134 154 181
135 155 181
135 155 181
134 154 181
133 154 181
135 155 181
134 155 181
133 154 181
134 154 181
134 154 181
133 154 181
133 154 181
134 154 181
133 154 181
134 154 181
134 154 181
134 154 181
133 154 181
133 153 180
133 154 181
134 154 181
135 155 181
134 154 181
133 154 181
133 154 181
134 154 181
134 154 181
133 154 181
133 154 181
134 154 181
134 154 181
133 154 181
133 154 180
133 154 181
134 154 181
134 154 181
134 154 181
134 154 181
134 154 181
134 154 181
133 154 181
134 154 181
134 154 181
134 154 181
133 154 181
134 154 181
134 154 181
133 154 181
135 155 181
133 154 181
134 154 181
134 154 181
134 154 181
134 154 181
134 154 181
133 154 181
133 154 181
134 154 181
134 154 181
134 154 181
135 155 181
134 154 181
133 154 180
133 154 181
134 154 181
134 154 181
134 154 181
134 154 180
133 154 181
134 155 181
134 154 181
133 154 181
134 154 181
134 154 181
133 154 180
133 154 181
134 154 181
133 154 181
133 154 181
133 154 181
133 154 181
133 154 181
134 154 181
133 154 181
134 154 181
134 154 181
133 154 181
133 154 181
134 154 181
133 154 181
134 154 181
134 154 181
133 154 181
134 154 181
134 154 181
134 155 181
134 154 181
133 154 181
134 154 180
134 154 181
133 154 183
134 154 181
133 153 184
133 153 182
134 154 181
135 155 181
134 154 181
134 154 181
134 154 181
134 154 181
134 154 181
134 154 181
134 154 181
134 154 181
134 154 181
134 154 181
133 153 180
134 154 181
133 153 180
134 155 181
134 154 181
134 154 181
134 154 181
134 154 181
133 154 181
133 154 181
134 154 181
134 154 181
133 154 181
134 154 181
134 154 181
133 154 181
134 155 181
134 154 180
134 154 181
133 154 181
134 154 181
133 153 180
134 155 181
135 155 181
134 154 181
134 154 181
133 154 181
134 154 181
134 154 181
134 154 181
134 154 181
134 154 181
133 154 181
134 154 181
134 154 181
133 154 181
134 154 181
134 154 181
134 154 181
134 154 181
134 154 181
133 154 181
133 154 181
134 154 181
134 154 181
133 154 181
135 155 181
133 154 181
134 154 181
134 154 181
134 154 181
134 154 181
134 154 180
133 154 181
133 154 181
133 154 181
134 154 181
133 154 181
132 153 180
133 154 181
133 154 181
134 154 181
134 154 181
134 154 181
134 154 181
133 154 181
134 154 181
134 154 181
134 154 181
133 154 181
133 154 181
133 154 181
134 154 181
134 154 181
133 154 181
133 154 181
133 154 180
134 154 181
134 154 181
135 155 181
134 154 181
134 154 181
134 154 181
134 154 181
134 154 181
134 154 181
133 154 181
134 154 181
133 154 181
134 155 181
135 155 181
134 154 181
133 154 181
133 154 180
133 154 181
134 154 181
132 153 180
134 154 180
134 154 181
134 154 181
134 154 181
134 154 181
134 154 181
133 154 181
135 155 181
134 154 181
134 154 181
134 154 181
133 154 181
134 154 181
134 154 181
134 154 181
134 154 181
134 154 181
135 155 181
134 154 181
134 155 181
134 154 181
134 154 181
133 154 181
133 154 181
133 154 181
134 154 181
134 154 181
134 154 181
134 154 181
133 154 181
134 154 181
133 154 181
135 155 181
133 154 181
134 154 181
132 153 181
133 154 181
134 154 181
134 154 181
133 154 181
133 154 181
134 154 181
133 154 181
134 154 181
134 154 181
135 155 181
134 154 181
132 153 180
134 154 181
133 154 181
134 154 181
133 154 181
134 154 181
133 154 181
134 154 181
134 154 181
134 154 181
134 154 181
133 154 181
134 154 181
134 154 181
134 154 181
134 154 181
134 154 181
134 154 181
134 154 181
133 154 181
134 154 181
135 155 181
134 154 181
134 154 181
133 154 181
133 154 181
134 154 181
133 154 181
134 154 181
134 154 181
134 154 181
134 154 181
133 154 181
134 154 181
134 154 181
134 154 181
133 154 181
134 154 181
133 154 181
133 154 181
134 155 181
134 154 181
133 154 181
134 154 181
135 155 180
134 154 181
134 154 181
133 154 181
134 154 181
134 155 181
133 154 181
134 154 181
133 154 181
133 154 181
133 154 181
134 154 181
134 154 181
135 155 181
133 154 181
133 154 181
134 154 181
133 154 181
134 154 181
134 154 181
133 154 181
134 154 181
133 154 180
133 154 181
135 155 181
135 155 181
133 154 181
134 154 181
134 154 181
134 155 181
134 154 181
134 154 181
134 154 181
134 154 181
134 154 181
134 154 181
134 154 181
135 155 181
134 154 181
134 154 181
134 154 180
134 154 181
134 154 181
134 154 181
134 154 181
134 154 181
133 154 181
134 154 181
133 154 181
133 154 181
133 154 181
133 154 181
134 154 181
134 154 181
133 154 181
134 154 181
134 154 181
134 154 181
134 154 181
134 154 181
133 154 181
134 154 181
133 154 181
134 154 181
134 154 181
133 154 181
134 154 181
134 154 181
134 154 181
134 154 181
133 154 181
134 154 181
133 154 181
134 154 181
134 154 180
134 155 181
134 154 181
134 154 181
133 154 181
134 154 181
134 154 181
134 154 181
134 154 181
133 154 181
134 154 181
134 154 181
134 154 181
134 154 181
134 154 181
134 154 181
134 154 181
133 154 181
134 154 181
133 153 180
133 154 181
134 154 181
133 154 181
133 154 181
133 154 181
133 154 181
133 154 181
134 154 181
133 154 181
134 154 181
133 154 181
134 154 181
133 154 181
134 154 181
134 154 181
134 154 181
133 154 181
133 154 181
133 154 181
135 155 181
134 154 181
134 154 181
133 154 181
134 154 181
133 154 181
134 154 181
134 154 181
133 154 181
133 154 181
134 154 181
134 154 180
134 154 181
134 154 181
134 154 181
134 154 181
134 154 181
134 154 181
134 154 180
133 154 180
134 154 181
134 155 181
134 154 181
134 155 181
134 154 181
133 154 181
133 154 181
134 154 181
134 154 181
133 154 181
133 154 181
134 154 181
133 154 181
133 154 181
134 154 181
134 154 180
134 154 181
133 154 181
134 154 181
133 154 181
134 155 181
134 154 181
133 154 181
134 154 181
134 154 181
133 154 181
133 154 181
134 154 181
133 154 181
134 154 181
134 155 181
133 154 181
134 154 181
133 154 181
134 154 181
133 154 180
133 154 181
134 154 181
134 154 181
134 154 181
134 154 181
135 155 181
134 154 181
134 154 181
133 154 181
134 154 181
133 154 181
134 154 181
134 154 181
133 154 181
133 154 181
133 154 181
134 154 181
134 154 181
133 154 181
134 154 181
134 154 181
134 154 181
133 154 181
133 154 182
133 153 183
132 153 184
131 151 190
131 150 194
131 150 195
130 150 195
131 151 191
132 152 187
133 153 181
134 154 181
134 154 180
133 154 181
133 154 181
134 154 180
134 154 180
134 154 181
133 154 181
133 154 181
134 154 181
134 154 181
135 155 181
134 154 181
134 154 181
133 154 181
134 154 181
135 155 181
134 154 181
134 154 181
134 155 181
134 154 181
133 154 180
134 154 181
134 154 180
134 154 181
133 154 180
132 153 180
134 154 181
134 154 181
134 154 181
134 154 180
133 154 181
134 154 181
135 155 181
134 154 181
133 154 181
134 154 181
134 154 181
133 154 181
134 154 181
134 154 181
134 154 181
134 154 181
134 154 181
133 154 181
134 154 181
134 154 181
134 154 181
134 154 181
133 154 181
134 154 181
134 154 181
134 154 181
134 154 181
134 154 181
133 154 181
134 154 181
134 154 181
134 154 181
133 154 181
133 153 180
133 154 181
134 154 181
134 154 181
133 154 181
134 154 181
133 154 181
133 154 181
134 154 181
134 154 181
133 154 181
134 154 181
134 154 181
133 154 181
134 154 180
134 154 181
134 154 181
134 154 181
134 155 181
133 154 181
133 154 181
133 154 181
134 154 181
133 154 181
134 154 181
134 154 180
134 154 181
134 154 181
133 154 181
133 154 181
134 154 180
134 154 181
134 154 181
134 154 181
134 154 181
133 154 181
133 154 181
134 154 181
134 154 181
133 154 181
135 155 181
134 154 181
133 154 181
135 155 181
135 155 181
133 153 180
134 154 181
134 154 181
133 154 181
134 154 181
135 155 181
133 154 181
134 154 181
133 154 181
134 154 181
134 154 181
133 154 181
134 154 181
134 154 181
133 154 181
133 154 181
134 154 181
134 154 181
134 154 181
135 155 181
134 154 181
134 154 181
134 154 181
134 154 181
133 154 181
134 154 181
134 154 181
134 154 181
134 154 181
134 154 181
134 154 181
133 154 181
134 154 181
135 155 181
133 154 180
134 154 181
134 154 181
134 154 181
135 155 181
134 154 181
134 154 181
133 154 181
134 154 180
134 154 181
133 154 180
134 154 181
133 154 181
133 154 181
135 155 181
134 154 181
134 154 181
134 154 181
133 154 181
133 154 181
134 154 181
133 154 181
134 154 181
134 154 181
134 154 181
134 154 181
133 154 181
133 154 181
133 154 181
133 154 181
133 154 181
133 154 181
134 154 181
134 154 181
134 154 181
134 154 181
134 154 181
134 154 181
133 154 181
134 154 181
134 154 181
133 154 181
134 154 181
134 154 181
134 154 180
134 154 181
134 154 181
134 154 181
135 155 181
133 154 181
134 155 181
133 154 181
134 154 181
133 154 181
135 155 181
134 154 181
134 154 181
135 155 181
134 154 181
134 154 181
134 154 181
134 154 181
134 155 181
134 154 181
134 154 181
133 154 181
133 154 181
134 154 181
134 154 181
134 154 181
133 154 181
133 154 181
133 154 181
133 154 180
134 154 181
133 154 181
133 154 181
134 154 181
134 154 181
134 154 181
133 154 181
134 154 181
134 154 181
134 154 181
134 154 181
133 154 181
134 154 181
134 154 181
135 155 181
134 154 180
133 154 181
133 154 181
134 154 181
134 155 181
133 154 180
133 154 181
134 154 181
134 154 181
134 154 181
134 154 181
133 154 181
134 154 181
133 154 181
134 154 181
134 154 181
133 154 181
133 154 181
133 154 181
134 154 181
133 154 181
134 154 181
134 154 181
134 154 181
133 154 180
133 154 181
134 154 181
133 154 181
133 154 181
133 154 181
134 154 181
134 154 181
134 154 181
134 154 181
134 154 181
133 154 181
134 154 181
133 154 181
133 154 181
134 154 181
134 154 181
133 154 181
133 154 181
133 154 180
133 154 181
134 154 181
134 154 181
134 154 181
134 155 181
133 154 181
134 154 181
134 154 181
134 154 181
134 154 181
133 154 180
133 154 181
134 154 181
134 154 180
134 154 181
134 154 181
134 154 181
133 154 181
134 154 181
134 155 181
134 154 181
133 154 181
134 154 181
133 154 180
133 154 181
135 155 181
134 154 181
133 154 181
134 154 181
134 154 181
135 155 181
133 153 180
134 154 181
133 154 181
133 154 181
134 154 181
134 154 181
134 154 181
134 154 181
134 154 181
134 154 181
135 155 181
133 154 181
133 154 181
134 154 181
133 154 180
133 154 181
134 154 181
134 154 181
134 154 181
134 155 181
134 154 181
134 154 181
134 154 181
133 154 181
133 154 181
133 154 181
133 154 181
133 154 181
134 154 181
134 154 181
134 154 181
133 154 181
134 154 180
134 154 181
133 154 181
134 154 181
134 154 181
134 154 181
134 154 181
134 154 181
134 154 181
133 154 181
134 154 181
134 154 181
133 154 181
134 154 181
134 154 181
134 154 181
134 154 181
134 154 181
134 154 181
134 154 181
134 154 181
133 154 181
134 154 181
134 154 181
134 154 181
133 154 181
134 154 181
135 155 181
133 154 181
133 154 181
134 154 181
133 154 181
134 154 181
134 154 181
133 154 181
133 154 181
134 154 181
133 154 181
133 154 181
133 154 181
134 154 181
134 155 181
133 154 181
133 153 180
134 154 181
134 154 181
133 154 181
134 154 181
134 154 181
134 154 181
134 154 181
134 154 183
133 154 182
132 153 185
130 150 193
130 150 196
128 148 200
129 149 198
128 147 203
126 145 211
126 145 211
126 146 207
126 145 210
128 148 201
131 151 192
132 151 192
132 152 185
134 154 181
133 153 180
133 154 181
134 154 181
134 154 181
134 154 181
134 154 181
134 154 181
134 154 181
134 154 181
134 154 181
133 154 181
134 154 181
133 153 180
133 154 181
134 154 181
133 154 181
134 154 181
134 154 181
133 154 180
134 155 181
134 154 180
133 154 181
134 154 181
134 154 181
134 154 181
134 154 181
134 154 181
134 154 181
133 153 180
133 154 181
134 155 181
135 155 181
133 154 181
134 154 181
133 154 181
135 155 181
133 154 180
134 154 181
134 154 181
133 154 181
134 154 181
134 154 181
134 154 181
134 154 181
134 154 181
133 154 181
134 154 181
135 155 181
135 155 181
133 154 181
133 154 181
133 154 181
134 154 180
134 154 181
134 154 181
133 153 180
134 154 181
134 154 181
133 154 181
134 154 181
134 154 181
134 154 181
133 154 181
133 154 180
133 154 181
133 154 181
134 154 181
133 154 181
135 155 181
134 154 181
134 154 181
134 154 181
134 154 181
134 154 181
133 154 181
134 154 181
134 154 181
134 154 181
134 154 181
134 154 181
134 154 181
133 154 181
134 154 181
134 155 181
134 154 181
134 154 181
133 154 181
135 154 180
133 154 181
133 154 181
134 154 181
135 155 181
134 154 180
134 154 181
134 154 181
133 154 181
133 154 181
133 154 180
134 154 181
133 154 181
134 154 181
133 154 181
134 154 181
134 154 181
133 154 181
134 154 181
134 154 181
134 154 181
134 154 181
133 154 181
133 154 181
134 154 181
134 154 181
133 154 181
133 153 179
134 154 181
134 154 181
134 154 181
134 154 181
133 154 180
134 154 181
134 154 181
134 154 181
133 154 181
133 154 181
134 154 181
134 154 181
134 154 181
135 155 181
133 154 181
133 154 181
134 154 181
134 154 181
133 154 181
134 154 181
134 154 181
134 154 181
133 154 181
134 154 181
133 154 181
134 154 181
133 154 180
134 154 181
134 154 181
133 154 181
134 154 181
134 154 181
133 154 181
134 154 181
134 154 181
134 154 181
134 154 181
134 154 181
135 155 181
134 154 181
133 154 181
134 154 181
133 154 180
135 155 181
134 154 181
133 154 181
134 154 181
133 154 181
134 154 181
134 155 181
133 154 181
134 154 181
134 154 181
133 154 181
134 154 181
134 154 181
134 154 181
133 154 181
133 154 181
134 154 181
133 154 181
134 155 181
134 154 181
133 154 181
135 155 181
133 154 181
134 154 180
134 154 181
134 154 181
134 154 181
134 154 180
134 154 181
134 154 181
135 155 181
134 154 181
134 154 181
133 154 181
135 155 181
134 154 181
134 154 181
134 154 181
133 154 181
134 154 181
134 154 181
133 154 181
134 154 181
134 154 181
134 154 181
134 154 181
134 154 181
133 153 180
134 154 181
134 154 181
135 155 181
134 154 181
134 154 181
134 154 181
134 154 181
134 154 181
133 154 181
133 154 181
134 154 181
133 154 181
134 154 181
134 155 181
133 154 181
133 154 181
135 155 181
133 154 181
134 154 181
133 154 181
134 154 181
134 154 181
134 154 181
134 154 181
133 154 181
133 154 181
134 155 181
134 154 181
135 155 181
134 154 181
134 154 181
133 154 181
133 154 181
134 154 181
135 155 181
135 155 181
134 154 181
133 154 181
134 154 181
134 154 181
134 154 181
134 154 181
134 154 181
134 154 181
134 154 181
134 154 181
135 155 181
135 155 181
135 155 181
134 154 181
133 154 181
135 155 181
134 154 181
133 154 181
133 154 181
133 154 181
134 154 181
134 154 181
134 154 181
134 154 181
134 154 181
133 154 181
134 154 181
134 154 181
134 154 181
133 154 181
133 154 181
133 154 181
134 154 181
134 154 181
134 154 181
134 154 181
134 154 181
134 154 181
133 154 181
134 154 181
134 154 181
134 154 181
134 154 181
134 154 181
134 154 181
133 154 181
134 154 181
134 154 181
133 154 181
134 155 181
134 154 181
134 154 181
134 154 181
134 154 181
135 155 181
134 154 181
134 154 181
134 154 181
134 154 181
135 155 181
133 154 181
133 154 181
134 154 181
134 155 181
134 154 181
134 154 180
134 154 181
134 154 181
133 153 180
133 154 181
134 155 181
134 155 181
134 154 181
134 154 181
134 154 181
133 154 181
134 154 181
134 154 181
134 154 181
133 154 181
134 154 181
134 154 181
133 154 180
133 154 181
135 155 181
133 154 181
134 154 181
135 155 181
134 154 181
134 154 181
133 154 181
133 154 181
134 154 180
133 154 181
133 154 181
134 154 181
133 154 181
134 154 181
134 154 181
133 154 181
134 154 181
134 154 181
134 155 181
133 154 181
134 154 181
134 154 181
134 155 181
134 154 181
135 155 181
134 155 181
135 155 181
134 154 181
135 155 181
134 154 181
134 154 181
134 154 180
134 154 180
134 154 181
133 154 181
134 154 181
134 154 181
133 154 181
136 155 181
134 154 181
133 154 181
133 154 181
134 154 181
133 154 181
134 154 181
134 155 181
134 154 181
134 154 181
134 154 181
133 154 181
134 154 181
135 155 181
133 154 182
133 153 184
132 153 185
131 151 189
131 151 191
129 149 197
128 148 202
127 146 208
125 144 208
126 145 207
125 144 212
125 143 215
122 141 219
122 141 220
122 140 223
121 140 223
123 142 219
125 144 213
125 145 209
129 149 199
130 149 197
130 150 193
133 154 183
134 154 182
133 154 181
135 154 180
133 154 181
134 154 181
133 154 180
134 154 181
134 154 180
133 154 181
134 154 181
134 154 181
134 154 181
133 154 181
133 154 181
134 155 181
134 154 181
134 154 181
133 154 181
133 154 181
134 154 181
133 154 181
134 154 181
133 154 181
134 154 181
134 154 181
133 154 181
135 155 181
134 154 181
134 154 181
133 154 181
134 154 181
134 154 181
134 154 181
134 154 181
133 154 181
134 154 181
133 154 181
133 154 181
134 154 181
133 154 181
134 154 181
133 154 181
134 154 181
135 155 181
133 154 181
134 154 181
134 154 181
133 154 181
133 154 181
134 154 181
134 155 181
134 154 181
133 154 181
134 154 181
134 154 181
134 154 181
134 154 180
133 154 181
134 154 181
135 155 181
133 154 181
134 154 181
133 154 181
133 154 181
133 154 181
134 154 181
133 154 181
133 154 181
134 154 181
134 154 181
134 154 181
133 154 181
134 154 181
133 154 181
133 154 181
134 155 181
133 153 180
134 154 181
134 154 181
133 154 181
134 154 181
133 154 181
134 154 181
133 154 180
133 154 181
134 154 181
133 154 181
134 154 181
134 154 181
134 154 181
134 154 181
133 154 181
135 155 181
134 154 181
133 154 181
134 154 181
134 154 181
134 154 180
135 155 181
134 154 181
134 154 180
134 154 181
134 154 181
133 154 181
134 154 181
133 154 181
134 154 181
134 154 181
133 154 181
134 154 181
134 154 181
133 154 181
135 155 181
133 154 181
134 154 181
134 154 181
134 154 181
134 154 181
134 154 181
134 154 181
133 154 181
134 154 181
134 154 181
134 154 181
133 154 181
134 154 181
134 154 181
134 154 181
135 155 181
133 154 181
133 154 180
133 154 181
134 154 181
133 154 181
134 154 181
134 154 181
134 154 180
134 154 181
134 154 181
134 154 180
133 154 181
134 154 181
134 154 181
134 154 181
133 154 181
135 155 181
134 154 181
134 154 181
133 154 181
134 154 181
134 154 181
134 154 181
134 154 181
134 154 181
135 155 181
134 154 181
133 154 181
134 154 181
134 154 181
134 154 181
135 155 181
133 154 181
134 154 181
133 154 181
134 154 181
133 153 180
133 154 181
133 154 181
135 155 181
133 154 181
134 154 181
134 154 181
134 154 181
134 154 181
134 154 181
133 154 181
134 154 181
135 155 181
134 154 181
133 154 181
134 154 181
133 154 181
133 154 181
134 154 181
134 154 181
134 154 181
133 154 181
134 154 181
133 154 181
133 154 180
135 155 181
134 154 181
134 155 181
134 154 181
133 154 181
133 154 181
134 155 181
134 154 181
133 154 181
134 154 181
134 154 181
133 154 181
133 154 181
134 154 181
135 155 181
133 154 180
133 154 181
134 154 181
133 154 181
134 154 181
134 154 181
135 155 181
133 154 181
134 154 181
134 154 181
133 154 181
134 154 181
133 154 181
134 154 180
134 154 181
134 154 181
134 154 181
134 154 181
133 154 181
134 154 181
135 155 181
134 154 181
133 154 181
134 154 181
134 154 181
134 154 181
134 154 181
134 154 181
133 154 181
133 154 181
133 154 181
134 154 181
133 154 180
134 154 181
134 154 181
133 154 181
134 154 181
133 154 181
134 154 181
133 154 181
134 154 181
134 154 181
134 154 181
134 154 181
134 154 181
134 154 181
134 154 181
134 154 181
134 154 181
135 155 181
134 154 181
134 154 181
133 154 181
133 154 181
134 154 181
133 154 181
134 155 181
134 154 181
133 154 181
134 154 181
134 154 181
134 154 181
133 154 181
133 154 181
134 154 180
134 154 181
135 155 181
134 154 181
133 154 181
134 154 181
134 154 181
132 153 181
133 154 181
133 154 181
133 154 181
134 154 181
134 154 181
134 154 181
133 154 181
134 154 181
135 155 181
134 154 181
133 154 181
134 154 181
135 155 181
133 154 181
134 154 181
134 154 181
133 154 181
133 154 181
134 154 181
133 154 181
134 154 181
133 154 181
133 154 181
134 154 181
134 154 181
134 154 181
134 154 181
134 154 181
134 154 180
133 154 180
134 154 181
133 153 179
133 154 181
133 154 181
135 155 181
134 154 181
133 154 180
134 155 181
134 154 181
134 154 181
134 154 181
134 154 181
133 154 181
133 154 181
133 154 181
134 154 181
134 154 181
133 154 181
134 154 181
134 154 180
134 154 181
134 154 181
134 154 181
134 155 181
134 154 180
133 154 180
133 154 180
134 154 181
135 155 181
134 154 181
135 155 181
134 154 181
135 155 181
134 154 181
134 154 181
134 154 181
134 154 180
134 154 181
133 154 181
134 154 181
133 154 181
133 154 181
132 153 181
134 154 181
133 154 181
133 154 181
134 154 181
134 154 181
133 154 181
133 154 181
133 154 181
134 154 181
134 154 181
133 154 181
134 154 181
133 154 181
134 154 181
134 154 181
133 154 181
134 154 180
134 155 181
134 154 181
133 154 181
133 154 181
134 154 181
134 154 181
134 154 181
133 153 183
132 151 191
131 151 190
132 152 186
128 148 200
130 149 199
128 148 200
126 145 208
125 145 209
123 142 217
123 142 217
122 141 221
122 140 224
121 139 226
120 139 226
120 138 228
120 138 228
120 138 228
121 138 228
120 138 228
120 138 227
122 140 223
124 143 215
126 145 209
128 147 203
129 149 197
131 151 191
132 152 188
134 154 182
134 155 181
133 154 181
134 154 180
134 154 180
134 155 181
133 154 181
133 154 181
135 155 181
134 154 181
134 154 181
134 154 181
134 154 181
134 154 181
134 154 181
135 155 181
134 154 181
133 154 180
134 154 181
133 154 181
133 154 181
133 154 181
134 154 180
133 154 181
133 154 181
133 154 181
133 153 180
134 154 181
134 154 181
134 154 181
134 154 181
135 155 181
133 154 181
134 154 181
133 154 180
134 154 181
134 154 181
133 154 181
134 154 181
134 154 180
134 154 181
134 154 181
133 154 181
134 154 181
133 154 181
133 154 181
134 154 181
133 154 181
135 155 181
133 154 181
134 154 181
133 154 181
135 155 181
133 154 180
134 154 181
133 154 181
134 154 181
133 154 181
133 154 181
133 154 181
134 154 181
133 154 180
134 154 181
135 155 181
134 154 181
133 154 181
134 154 181
133 154 180
134 154 181
133 154 181
134 154 181
134 154 181
133 154 181
134 154 181
133 154 181
133 154 181
134 154 181
133 154 181
134 154 181
135 155 181
134 154 181
134 154 181
134 154 181
134 154 181
134 154 181
134 154 181
134 154 181
135 155 181
134 154 181
133 154 181
134 154 181
134 154 181
133 154 180
134 154 181
135 155 181
133 154 181
134 154 181
133 154 181
134 154 181
133 154 181
134 154 181
134 154 180
134 154 181
134 154 181
134 154 181
133 154 181
134 154 181
133 154 181
134 154 181
135 155 181
134 154 181
134 154 181
133 154 181
134 155 181
134 154 181
133 154 181
134 154 181
134 154 181
134 154 181
134 154 181
134 154 181
135 155 181
134 154 181
134 154 181
134 154 181
134 154 181
134 154 181
133 154 181
133 154 181
133 154 181
134 154 181
134 154 180
134 154 181
134 154 181
134 154 181
134 154 181
134 154 181
133 154 181
134 154 181
133 154 181
134 154 181
133 154 181
134 154 181
134 154 181
134 154 181
133 154 181
134 154 181
134 154 181
133 154 181
134 154 181
134 154 181
134 154 181
135 155 181
134 154 181
133 154 181
133 154 181
134 154 181
135 155 181
133 154 181
135 155 181
134 154 181
134 154 181
134 154 181
134 154 181
134 154 181
133 154 181
134 154 181
135 155 181
134 154 181
135 155 181
134 154 181
133 154 181
134 154 181
134 154 181
135 155 181
134 154 181
134 154 181
134 154 181
134 154 181
133 154 181
134 154 181
134 154 181
134 154 181
134 155 181
134 154 181
135 155 181
134 155 181
135 155 181
134 154 181
134 154 181
134 154 181
134 154 181
134 154 181
133 154 181
134 154 181
133 154 181
135 155 181
133 154 181
133 154 181
134 154 181
135 155 181
133 154 181
134 154 181
134 154 181
133 154 181
134 154 181
134 154 181
134 154 181
134 154 181
134 154 181
133 154 181
134 154 181
133 154 181
134 154 181
134 154 181
134 154 181
134 154 181
135 155 181
134 154 181
134 154 181
134 154 181
135 155 181
134 154 181
134 154 181
133 154 181
134 154 181
134 154 180
134 154 181
134 154 181
134 154 181
133 154 181
135 155 181
133 154 180
133 154 181
133 154 181
134 154 181
134 154 181
135 155 181
134 154 181
134 154 181
134 154 181
133 154 180
133 154 181
134 154 181
133 154 181
133 154 181
134 155 181
134 154 181
134 154 181
133 154 181
133 154 181
133 154 181
133 154 181
134 154 181
134 154 181
134 154 181
134 154 181
134 155 181
134 154 181
133 154 181
134 154 181
133 154 181
134 154 181
133 154 181
134 154 181
133 154 181
134 155 181
134 154 181
136 155 181
134 154 181
134 154 181
134 154 181
134 154 181
133 154 181
134 154 181
134 154 181
134 154 181
134 155 181
133 154 181
133 154 181
134 154 181
133 154 181
134 154 181
133 154 181
134 154 181
134 154 181
133 154 181
134 154 181
133 154 181
134 154 181
134 154 181
134 154 181
134 154 181
134 154 180
134 154 181
133 154 181
134 154 181
133 154 181
134 154 181
134 154 181
133 154 180
135 155 181
134 155 181
134 154 181
133 154 181
133 154 181
134 154 181
134 154 181
133 154 181
134 154 181
134 154 181
133 154 181
134 154 181
134 154 181
134 154 181
134 154 181
133 154 181
133 154 180
133 154 181
134 155 181
134 154 181
133 154 181
134 154 181
133 154 180
133 154 181
133 154 181
134 154 180
133 154 181
133 154 181
134 154 181
133 154 181
133 154 181
134 154 181
133 153 180
134 154 181
133 154 181
134 154 181
133 153 180
134 154 181
134 154 181
133 154 181
134 154 181
134 154 181
133 154 181
133 154 181
134 154 181
133 154 181
133 154 181
134 154 181
134 154 181
133 154 181
134 154 181
134 154 181
134 154 181
134 154 181
134 154 181
133 154 181
134 154 181
134 154 181
134 154 181
134 154 181
135 155 181
134 154 181
134 154 180
133 154 181
134 154 181
133 153 182
134 154 182
132 152 186
133 153 184
131 152 188
130 150 194
130 149 198
128 148 202
126 146 204
125 144 211
124 143 214
124 143 217
122 141 220
122 141 221
122 140 222
121 139 226
120 138 228
120 138 228
120 138 228
120 138 228
120 138 228
119 138 228
120 138 228
120 138 228
119 138 228
120 138 228
119 137 228
120 138 228
121 139 227
123 141 221
124 142 217
125 144 213
127 147 205
129 149 198
132 151 191
131 151 189
133 153 185
133 154 181
134 154 181
134 154 181
133 154 181
134 154 181
133 154 180
134 154 181
134 154 180
133 154 181
133 154 181
134 154 181
134 154 181
134 154 181
134 154 181
134 154 180
133 154 181
134 154 181
135 155 181
133 154 181
134 154 181
134 154 181
133 154 181
134 154 181
133 154 180
133 154 181
133 154 181
135 155 181
134 154 181
134 154 181
134 154 181
133 154 181
135 155 181
134 154 181
134 154 181
134 154 181
134 154 181
134 154 181
133 154 181
134 154 181
134 154 181
133 154 181
133 154 181
133 154 181
134 154 181
134 154 181
134 154 181
133 153 180
134 154 181
132 153 180
133 154 181
134 154 181
133 154 181
134 154 181
133 154 181
134 154 181
133 154 181
134 154 181
134 154 181
134 154 180
134 154 181
133 153 180
134 154 181
134 155 181
134 154 181
133 153 180
133 154 181
133 154 181
133 154 181
134 154 180
134 154 181
135 155 180
134 154 181
134 154 181
134 154 181
134 154 181
133 154 181
134 154 181
134 154 181
134 154 181
134 154 181
133 154 181
133 154 181
134 154 181
134 154 181
133 154 181
134 154 181
133 154 181
134 154 181
133 154 181
133 154 181
133 154 181
135 155 181
134 154 181
133 154 181
134 154 181
134 154 181
134 154 181
134 154 181
134 154 181
134 154 181
135 155 181
134 154 181
134 154 181
133 154 181
134 154 181
133 154 181
134 154 181
135 155 181
134 154 181
134 154 181
134 154 181
133 154 181
134 154 181
133 154 181
134 154 181
134 154 181
133 154 181
134 154 181
134 154 181
133 154 181
133 154 181
134 154 181
134 154 181
134 154 181
134 154 181
133 154 181
134 154 181
133 154 181
134 154 180
134 154 181
134 154 181
133 154 181
134 154 181
134 154 181
133 154 181
134 154 181
133 154 181
133 154 181
133 154 181
134 154 181
132 153 180
134 154 181
133 154 181
134 154 181
133 154 181
134 154 181
134 154 181
133 154 181
134 154 181
134 154 181
134 154 181
134 154 181
134 154 181
134 154 181
134 154 181
133 154 181
134 154 181
134 154 181
134 155 181
134 154 181
134 154 181
134 154 181
135 155 181
134 154 181
133 154 181
134 154 181
134 155 181
133 154 181
133 154 181
134 154 181
133 154 181
135 155 181
134 155 181
133 154 181
133 154 181
134 154 181
133 154 181
134 154 181
134 154 180
133 154 181
134 154 181
133 154 181
134 154 181
133 154 181
134 154 181
134 155 181
134 154 181
134 154 181
134 154 181
134 154 181
134 154 181
133 154 181
134 154 181
133 154 181
135 155 181
133 154 181
134 154 181
133 154 180
134 154 181
134 154 181
134 154 181
134 154 181
134 154 181
133 154 181
133 154 181
134 154 181
134 154 181
134 154 181
134 154 181
134 154 181
134 154 181
134 154 181
134 154 181
133 154 181
134 154 181
133 154 181
134 154 181
134 154 181
133 154 181
133 154 181
134 154 181
134 154 181
134 154 181
134 154 181
134 154 181
133 154 181
134 154 181
134 154 181
133 154 181
133 154 181
134 154 181
134 154 181
133 154 181
133 154 181
133 154 181
134 154 181
135 155 181
135 155 181
134 154 181
133 154 181
134 154 181
134 154 181
134 154 181
134 154 181
134 154 181
134 154 181
134 154 181
134 154 181
133 154 181
134 154 181
133 154 181
134 154 181
134 155 181
134 155 181
134 154 181
133 154 181
134 154 181
134 154 181
134 154 181
134 154 181
134 154 181
134 154 181
135 155 181
134 154 181
134 154 181
134 154 181
133 154 181
134 154 181
134 154 181
134 154 181
134 155 181
134 154 181
133 154 181
133 154 181
134 154 181
134 154 181
133 154 181
133 154 181
134 154 181
134 154 181
134 154 181
134 154 181
134 154 181
134 154 181
134 154 181
133 154 181
135 155 181
133 154 181
134 154 181
134 154 181
134 154 181
133 154 181
134 154 181
134 154 181
133 154 181
134 154 181
133 154 181
133 154 181
135 155 181
135 155 181
134 154 181
134 154 181
134 154 181
134 154 181
134 154 181
133 154 180
134 154 181
134 154 181
134 154 181
133 154 181
133 154 181
134 154 181
134 154 181
135 155 181
134 154 181
134 154 181
135 155 181
133 154 181
134 154 181
133 154 181
134 154 181
133 154 181
134 155 181
133 154 181
133 153 180
134 154 181
134 154 181
134 154 180
133 154 181
133 154 181
134 154 181
135 155 181
133 154 180
134 154 181
133 154 181
133 154 181
134 154 181
134 154 181
134 154 181
134 154 181
133 154 181
133 154 180
134 154 181
133 154 181
133 154 181
134 154 181
134 154 181
134 154 181
133 154 181
134 154 181
134 154 181
134 154 181
133 154 181
133 154 181
134 154 181
133 154 181
134 154 181
134 154 181
133 154 181
134 154 183
132 153 184
133 153 184
131 152 188
131 151 191
129 149 196
128 147 202
126 146 206
127 147 205
125 144 211
123 141 220
124 143 216
122 141 220
122 141 221
121 139 227
120 139 227
119 138 228
119 138 228
120 138 228
120 138 228
120 138 228
119 138 228
120 138 228
120 138 228
119 138 228
120 138 228
120 138 228
119 138 228
120 138 228
120 138 228
119 138 228
120 138 228
119 138 228
120 138 228
119 138 228
120 138 227
122 140 221
126 145 211
126 145 211
128 147 203
130 149 197
132 151 191
131 151 188
133 154 183
134 154 181
134 154 181
134 154 181
135 155 181
133 154 181
134 154 181
133 154 181
134 154 181
134 154 181
133 153 180
133 154 181
133 154 181
133 153 180
134 154 181
133 154 180
134 155 181
133 154 181
134 154 181
133 154 181
134 154 181
133 154 181
133 154 180
134 154 181
134 154 181
134 154 181
133 153 180
133 154 180
133 154 181
134 154 181
133 154 181
134 154 181
133 154 181
134 154 181
134 154 181
133 154 181
134 154 181
134 154 181
133 154 181
133 154 181
134 154 181
133 154 181
133 154 181
134 154 181
133 154 181
135 155 181
134 154 181
133 154 181
132 153 180
133 154 181
135 155 181
135 154 180
133 154 181
135 153 179
137 151 177
137 150 175
138 147 172
136 149 174
142 148 172
143 147 171
138 147 171
142 146 170
137 148 172
137 149 174
136 151 176
135 152 178
136 153 179
134 153 180
134 154 181
134 154 181
134 154 180
133 154 181
134 154 181
135 155 181
134 154 181
133 154 181
133 154 181
133 154 181
133 154 181
133 154 181
133 154 181
134 154 181
133 154 181
134 154 181
134 154 181
133 154 181
133 154 180
134 154 181
134 154 181
134 154 181
134 154 181
133 154 181
134 154 181
134 154 181
133 154 181
133 154 181
134 154 181
133 154 181
134 154 181
134 154 181
134 154 181
132 153 180
134 154 181
134 154 181
134 154 181
134 154 181
134 154 181
134 154 181
134 154 181
134 154 181
134 154 181
134 154 181
133 154 181
134 154 181
133 154 181
134 154 181
133 154 181
134 154 181
133 153 180
133 154 181
134 154 180
133 154 181
133 154 181
133 154 181
134 154 181
133 154 181
133 154 181
133 154 181
135 155 181
134 154 181
134 154 181
134 154 181
134 154 181
133 154 181
134 154 181
134 154 181
134 154 181
133 154 181
134 154 181
134 154 181
133 154 181
134 154 181
134 154 181
134 154 181
135 155 181
134 154 181
134 154 181
134 155 181
134 154 181
133 154 181
133 154 181
134 154 181
134 154 181
134 154 181
133 153 180
134 154 181
134 154 181
133 154 181
134 154 181
134 154 181
134 154 181
133 154 181
134 154 180
133 154 181
133 154 181
134 154 181
134 154 181
133 154 181
133 154 180
133 154 181
133 154 181
134 154 181
134 154 181
134 154 181
134 154 181
134 154 181
135 155 181
134 154 181
133 154 181
134 154 181
134 154 181
135 155 181
133 154 181
133 154 181
133 154 181
134 154 181
135 155 181
134 154 181
135 155 181
134 154 181
133 154 181
133 154 181
133 154 180
133 154 181
134 154 181
133 154 181
134 154 181
134 154 181
134 154 181
134 154 181
134 154 181
134 154 181
134 154 181
133 154 181
135 155 181
134 154 181
134 154 181
133 154 181
133 154 181
135 155 181
134 154 181
134 154 181
134 154 181
134 154 181
134 154 181
134 154 181
134 154 181
134 154 180
134 154 181
133 154 181
135 155 181
135 155 181
134 154 181
134 154 181
134 154 181
134 154 181
134 154 181
134 154 181
134 154 181
134 154 181
134 154 180
134 155 181
134 154 181
134 154 181
134 154 181
133 154 181
133 154 181
134 154 181
134 154 181
133 154 181
133 154 181
134 154 181
134 154 181
134 154 181
134 154 181
134 154 181
133 154 181
134 154 181
134 154 181
134 154 181
133 154 181
133 154 181
132 153 181
133 154 181
134 154 181
134 154 181
134 154 181
134 154 181
134 154 181
133 154 181
134 154 181
134 154 181
134 154 181
133 154 181
134 155 181
134 154 181
134 154 181
133 154 181
134 154 181
135 155 181
134 154 181
134 154 181
134 154 181
134 154 181
134 154 181
133 154 181
133 154 181
134 154 181
133 154 181
133 154 181
134 154 181
133 154 181
134 154 181
134 154 181
134 154 181
133 154 181
134 154 181
134 154 181
134 154 181
134 154 181
134 154 181
133 154 181
135 155 181
134 154 181
133 154 181
134 154 181
133 154 181
134 154 181
134 154 181
133 154 181
135 155 181
133 154 181
134 154 181
134 154 181
134 154 181
134 154 181
133 154 181
134 154 181
134 154 181
134 154 181
134 154 181
133 154 181
133 154 181
134 154 181
134 154 181
134 154 181
133 154 181
134 154 181
134 154 181
133 154 181
134 154 181
134 154 181
134 154 181
136 155 181
134 154 181
134 154 181
135 155 181
134 154 181
134 154 181
133 154 181
134 154 181
133 153 180
134 154 181
134 154 181
133 154 181
134 154 181
134 154 181
134 154 181
134 154 181
134 154 181
133 154 181
133 154 180
134 154 181
134 154 181
133 154 181
133 153 180
134 154 181
133 154 181
134 154 181
135 155 181
133 154 180
133 154 181
133 154 182
133 153 181
133 153 185
134 153 185
131 151 191
131 151 193
129 149 197
128 148 199
129 148 202
126 145 209
125 144 211
123 142 218
123 142 219
122 141 219
121 140 224
120 138 228
120 138 227
120 138 228
119 138 228
119 138 228
120 138 228
119 138 228
119 138 228
118 137 228
119 137 228
120 138 228
120 138 228
119 138 228
120 138 228
119 138 228
119 138 228
119 138 228
120 138 228
120 138 228
120 138 228
119 138 228
120 138 228
120 138 228
120 138 228
120 138 228
119 137 228
120 138 228
120 138 228
123 141 220
123 141 220
123 142 216
129 149 200
129 149 199
130 150 195
132 152 190
134 154 182
134 154 181
133 154 181
134 154 181
134 154 181
133 154 181
134 154 180
133 154 181
132 153 180
133 153 180
133 154 181
133 154 181
134 154 181
134 154 181
134 154 181
133 154 181
134 154 181
132 153 181
133 154 181
133 154 181
134 154 181
134 154 181
134 154 181
134 154 181
134 154 181
133 154 180
134 154 181
134 154 181
134 154 181
133 154 181
134 154 181
133 153 180
134 154 181
134 154 181
133 154 181
134 154 181
133 154 181
135 155 181
133 154 181
134 154 181
135 155 181
133 154 181
134 154 181
133 154 181
133 154 181
133 154 181
133 154 181
134 154 181
133 153 179
137 150 175
137 148 174
140 142 166
142 137 160
146 137 159
149 134 155
146 133 154
147 133 154
150 133 154
155 137 158
148 135 157
148 136 157
143 137 159
141 131 153
148 140 162
140 142 166
139 147 172
136 149 174
137 152 177
134 154 181
134 154 181
134 154 181
134 154 181
134 154 181
133 154 181
133 154 181
134 154 181
134 154 181
134 154 181
133 154 181
133 154 181
134 154 181
134 154 181
134 154 181
134 154 181
135 155 181
133 154 181
134 154 181
134 154 181
133 154 181
133 154 181
133 154 181
133 153 180
133 154 181
133 154 181
134 154 181
134 154 181
134 154 181
133 154 181
134 154 181
134 154 181
134 154 181
134 154 181
134 154 181
134 154 181
135 155 181
134 154 181
134 154 181
133 154 180
134 154 181
133 154 181
135 155 181
133 154 181
134 154 180
133 154 181
133 154 181
134 154 181
133 154 181
133 154 181
135 155 181
134 154 181
134 154 181
134 154 181
134 154 181
133 154 181
134 154 181
133 154 181
133 154 181
134 154 181
134 154 181
134 154 181
133 154 181
133 154 181
133 154 181
134 155 181
134 154 181
134 154 181
134 154 181
134 154 181
134 154 181
133 154 181
134 154 181
134 154 180
134 154 181
133 154 180
134 154 181
134 155 181
134 154 181
133 154 181
134 154 181
134 154 181
134 154 181
133 154 181
134 154 181
134 154 181
134 154 181
134 154 181
133 154 181
134 154 181
133 154 181
135 155 181
134 154 181
133 154 180
134 154 181
134 154 181
134 154 181
133 154 181
134 154 181
133 154 180
134 154 181
133 154 181
134 154 181
133 154 180
134 154 181
134 154 181
134 154 181
133 154 181
133 154 181
135 155 181
133 154 181
133 154 181
134 154 181
133 154 181
134 154 180
134 154 181
134 154 181
134 154 181
133 154 181
134 154 181
134 154 181
134 154 180
134 154 180
134 154 181
134 154 181
134 154 181
134 154 181
134 154 180
134 154 181
134 154 180
135 155 181
134 154 181
135 155 181
133 154 181
134 154 181
134 154 181
133 154 181
135 155 181
134 155 181
134 154 181
133 154 180
134 154 181
133 154 181
134 154 181
133 154 180
132 153 181
134 155 181
134 154 181
134 154 181
134 154 181
134 154 181
134 155 181
134 154 181
134 154 181
134 154 181
134 154 181
133 154 181
134 154 181
134 154 181
133 154 181
134 154 181
134 154 181
134 154 181
134 154 181
134 154 181
134 154 181
133 154 181
134 154 181
134 154 181
134 154 181
134 154 181
133 154 181
133 154 181
134 154 181
133 154 181
134 154 181
134 154 181
135 155 181
134 154 181
133 154 181
134 154 181
135 155 181
133 154 181
134 154 181
133 154 181
134 154 181
134 155 181
134 154 181
133 154 181
133 154 181
134 154 181
134 154 181
134 154 181
134 154 181
134 154 181
134 154 181
134 154 181
134 154 181
134 154 181
133 154 181
133 154 181
134 154 181
134 154 181
134 154 181
135 155 181
134 154 181
134 154 181
134 154 181
134 154 181
134 154 181
135 155 181
133 154 181
133 154 181
133 154 181
133 153 180
134 154 181
133 154 181
133 154 181
133 154 181
133 154 181
133 154 181
133 154 181
134 154 181
134 154 181
134 154 181
134 154 181
134 154 181
134 154 181
134 154 181
134 154 181
133 154 181
134 154 181
134 154 181
133 154 181
134 154 181
134 154 181
134 154 180
133 154 181
134 154 181
132 153 180
134 154 181
133 154 181
133 154 181
134 154 181
134 154 181
133 154 181
134 154 181
133 154 180
133 154 181
134 154 181
134 154 181
133 154 181
134 154 181
133 154 181
133 154 181
133 154 180
133 154 181
134 154 181
134 154 181
134 154 181
133 154 181
134 154 181
134 154 181
134 154 181
135 155 181
134 154 181
135 155 181
134 154 181
134 154 181
133 153 180
133 154 181
133 154 180
134 154 181
134 154 181
133 154 181
133 154 181
134 154 181
135 155 181
133 154 182
133 153 184
133 153 186
130 151 191
131 151 190
131 150 193
128 147 201
127 146 203
127 146 206
126 146 207
125 144 214
124 143 215
124 142 218
120 139 224
120 139 225
120 138 227
120 138 228
120 138 228
120 138 228
120 138 228
119 138 228
120 138 228
119 137 228
119 138 228
120 138 228
120 138 228
118 137 228
119 137 228
120 138 228
120 138 228
120 138 228
119 138 228
119 138 228
120 138 228
119 138 228
120 138 228
119 138 228
119 138 228
120 138 228
119 138 228
120 138 228
121 138 228
120 138 228
119 138 228
120 138 228
120 138 228
119 138 228
119 138 228
120 138 228
121 139 225
122 141 221
125 144 213
126 146 207
128 148 198
129 149 198
131 151 190
133 153 185
134 154 181
134 154 181
134 154 181
134 154 181
134 154 181
135 155 181
133 153 180
133 154 181
134 154 181
133 154 181
133 154 181
132 153 180
134 155 181
134 154 181
134 154 180
133 154 181
133 154 181
133 154 181
134 154 181
133 153 180
134 154 181
133 154 181
134 154 180
133 154 181
133 154 181
134 154 181
134 154 181
134 154 180
134 154 181
133 154 181
134 154 181
134 154 181
134 154 181
134 154 181
134 154 181
133 154 181
133 154 181
134 154 181
133 154 181
134 154 181
135 155 181
134 154 181
134 154 181
134 154 180
135 146 172
141 142 166
139 135 159
149 134 156
154 129 149
149 126 146
150 121 141
154 117 135
153 118 135
157 115 132
158 114 130
161 118 135
151 116 134
160 115 130
155 120 137
153 120 138
155 124 142
152 129 149
150 131 152
143 140 163
139 143 167
139 148 173
135 153 178
133 154 180
133 154 181
134 154 181
133 154 181
134 154 181
133 154 181
134 154 181
133 154 180
133 154 181
133 154 181
134 154 181
133 154 181
134 154 181
133 154 180
135 155 181
133 154 181
134 154 181
134 154 180
134 154 181
133 154 181
134 154 181
133 154 181
134 154 181
133 154 181
134 154 180
135 155 181
134 154 180
134 154 181
133 154 181
134 154 181
133 154 181
134 154 181
134 154 181
134 154 181
134 154 181
134 154 181
134 154 181
133 154 181
134 154 181
134 154 181
134 154 181
133 154 181
133 154 181
135 155 181
134 154 181
134 154 181
133 154 181
134 154 181
134 154 181
134 155 181
134 154 181
133 154 180
133 154 181
134 154 181
133 154 181
133 154 181
133 154 181
134 154 181
135 155 181
132 153 180
134 154 181
134 154 181
133 154 181
133 154 181
133 154 181
133 154 181
133 154 181
134 154 181
133 154 181
134 154 181
134 155 181
133 154 181
134 154 181
135 155 181
134 154 181
134 154 181
134 154 181
135 155 181
133 154 181
134 154 181
133 154 181
134 154 181
134 154 181
134 154 181
134 154 181
134 154 181
135 155 181
134 154 181
134 154 181
134 154 181
133 154 181
134 154 181
135 155 181
134 154 181
133 154 181
133 154 180
133 154 181
132 153 181
133 154 181
134 154 181
134 154 181
133 154 181
133 154 181
134 154 181
134 154 181
133 154 181
134 154 181
134 154 180
134 154 181
134 154 181
134 154 181
134 154 181
134 154 181
134 154 181
134 154 181
134 154 181
134 154 181
134 154 181
134 154 181
133 154 181
133 154 181
133 154 180
134 154 181
134 154 181
133 154 181
134 154 181
134 154 181
135 155 181
134 154 181
134 155 181
134 154 181
134 154 181
134 154 181
133 154 181
134 154 181
133 154 181
134 154 180
134 154 181
134 154 181
134 154 181
134 154 181
134 154 181
134 154 181
134 154 181
134 154 181
133 154 181
134 155 181
133 154 181
135 155 181
133 154 181
134 154 181
133 154 181
134 154 181
134 154 181
134 154 181
133 153 180
134 154 181
134 154 181
133 154 181
135 155 181
134 154 181
133 154 181
134 154 181
134 154 181
134 154 181
133 154 181
133 154 181
134 154 181
134 154 181
133 154 181
134 154 181
133 154 181
134 154 181
133 154 180
134 154 181
134 154 181
135 155 181
134 154 181
133 154 181
133 154 181
132 153 181
134 154 181
134 154 181
133 154 180
135 155 181
134 154 181
133 154 181
134 154 181
134 154 181
133 154 181
134 154 181
134 154 181
134 154 181
134 154 181
134 154 181
133 154 181
134 154 181
134 154 181
134 154 181
134 154 181
135 155 181
134 154 181
133 154 181
134 154 181
133 154 181
133 154 181
134 154 181
134 154 181
133 154 181
134 154 181
134 154 181
134 154 181
133 154 181
134 154 181
134 154 181
133 154 181
134 154 181
134 154 181
133 154 181
133 154 181
134 154 181
133 154 181
134 154 181
133 154 181
135 155 181
133 154 181
134 154 181
134 154 181
134 154 181
134 154 181
134 154 181
134 154 181
133 154 181
133 154 181
133 154 181
134 154 181
133 153 180
134 154 181
133 154 181
135 155 181
134 154 181
133 154 181
133 154 181
133 154 180
135 155 181
134 154 181
134 154 181
133 154 181
133 154 181
133 154 180
134 154 181
135 155 181
133 154 181
133 154 181
133 154 181
135 155 181
134 154 181
133 154 181
133 154 181
133 154 181
133 154 181
133 154 180
134 154 181
133 154 181
134 154 181
134 154 181
134 154 181
133 154 181
133 154 180
134 154 181
133 154 181
132 153 183
134 154 181
133 153 184
131 152 188
132 152 189
131 150 191
130 151 191
130 150 195
126 145 209
127 145 209
125 144 211
125 144 213
124 142 217
121 140 222
121 139 225
121 139 225
120 138 227
120 138 228
119 138 228
120 138 228
120 138 228
120 138 228
120 138 228
120 138 228
120 138 228
120 138 228
119 138 228
119 138 228
119 138 228
119 138 228
119 138 228
119 138 228
119 138 228
119 138 228
120 138 228
120 138 228
119 138 228
120 138 228
119 138 228
120 138 228
120 138 228
120 138 228
120 138 228
120 138 228
120 138 228
120 138 228
119 138 228
120 138 228
119 138 228
119 138 228
120 138 228
119 138 228
120 138 228
119 138 228
119 138 228
120 138 228
121 139 225
121 140 222
124 143 216
124 143 214
129 148 200
129 148 199
132 152 190
132 152 186
132 153 183
133 154 181
134 154 181
134 154 181
134 154 181
134 154 181
134 154 180
134 154 181
133 154 181
134 154 181
135 155 181
133 154 181
134 154 181
134 154 181
133 154 181
134 154 181
134 154 181
133 154 181
133 154 181
134 154 181
134 154 181
134 154 181
133 154 181
134 154 181
134 154 181
134 154 181
134 154 180
133 154 180
134 154 181
133 154 181
134 154 181
134 154 181
134 154 181
133 154 181
133 154 181
134 155 181
134 154 181
134 154 181
133 153 180
135 155 181
134 154 180
138 150 175
143 139 163
145 129 153
158 126 147
155 117 135
151 110 130
158 112 128
156 108 124
164 110 125
159 108 123
160 108 123
155 106 121
158 108 123
160 109 123
157 106 120
162 110 124
156 107 121
166 113 127
160 115 130
165 116 131
152 117 133
144 124 143
150 135 156
140 148 173
135 153 179
134 154 181
134 154 181
133 154 181
134 154 181
134 154 181
135 155 181
134 154 181
133 154 181
134 154 181
135 155 181
134 154 181
134 154 181
134 154 181
134 154 181
133 154 181
133 154 180
133 153 180
133 154 181
133 154 181
134 154 181
133 154 181
135 155 181
135 155 181
134 154 181
134 154 181
134 154 181
134 154 181
134 154 181
134 154 181
133 154 181
133 154 181
134 154 181
134 154 181
134 154 181
134 154 181
134 154 181
134 154 181
134 154 180
134 154 181
134 154 181
134 154 181
133 154 181
134 154 181
134 154 181
133 154 181
134 154 181
135 155 181
134 154 181
134 154 181
134 154 181
134 154 181
134 154 181
133 154 181
133 154 181
134 154 181
134 154 181
133 154 181
134 154 180
134 154 181
132 153 181
134 154 181
134 155 181
134 154 181
134 154 181
133 154 181
134 154 181
133 154 181
134 154 181
134 154 181
135 155 181
134 154 181
134 154 181
134 154 181
133 154 180
133 154 181
133 154 181
133 154 181
133 154 181
134 154 181
133 154 181
134 154 181
133 154 180
133 154 181
134 154 181
133 154 181
134 154 181
134 154 181
134 154 181
134 154 181
133 154 181
133 154 181
133 154 181
133 154 181
135 154 180
134 154 181
133 154 181
133 154 181
133 154 181
134 154 181
135 155 181
134 154 181
134 154 181
133 154 181
134 154 181
134 154 181
133 154 181
134 154 181
134 154 181
134 154 181
134 154 181
134 154 181
135 155 181
134 154 181
134 154 181
134 154 181
134 154 181
134 154 181
134 154 181
134 154 181
133 154 181
133 154 181
134 154 181
134 154 181
133 154 181
133 154 181
133 154 181
133 153 180
134 154 181
134 154 181
134 154 181
134 154 181
133 154 181
134 154 181
133 154 181
134 154 181
135 155 181
134 154 181
134 154 181
134 154 180
134 154 181
134 154 181
133 154 181
134 154 181
134 154 181
134 154 181
135 155 181
133 154 181
134 154 181
133 154 181
133 154 181
134 154 181
134 154 181
134 154 181
134 154 181
133 154 181
134 155 181
133 154 181
133 154 181
133 154 181
132 153 181
133 154 181
134 154 181
134 154 181
134 154 181
133 154 181
133 154 181
134 154 181
134 154 181
133 153 180
134 154 181
133 154 181
134 154 181
134 154 181
134 154 181
134 154 181
134 154 181
134 154 181
135 155 181
133 154 181
134 154 181
134 154 181
133 154 181
133 154 181
134 154 181
134 154 181
134 154 181
134 154 181
133 154 181
134 154 180
134 154 181
134 154 181
134 154 181
133 154 181
134 154 181
134 154 181
134 154 181
134 154 181
133 154 181
134 154 181
134 154 181
134 154 181
133 154 181
134 154 181
133 154 181
134 154 181
134 154 181
133 154 181
133 154 181
134 155 181
133 153 180
133 154 180
134 154 181
133 154 181
134 154 181
134 154 181
133 154 181
134 154 181
133 154 181
134 154 181
133 153 180
134 154 181
134 154 181
134 154 181
134 154 181
133 154 181
133 153 180
133 154 181
134 154 181
133 154 181
134 154 181
134 155 181
134 154 181
133 154 181
135 155 181
134 154 181
132 153 180
133 154 181
134 154 181
133 154 181
133 154 180
134 154 181
133 153 180
133 154 181
134 154 181
134 154 180
133 154 181
133 153 180
133 154 181
133 154 181
134 154 181
134 154 181
133 154 181
134 155 181
133 154 181
133 154 181
133 154 181
134 154 181
133 154 181
134 155 181
134 154 181
134 154 181
133 154 181
133 154 181
134 154 181
133 154 181
134 154 180
133 153 181
133 153 182
132 152 186
131 152 187
131 151 192
130 150 196
129 149 199
127 147 204
126 145 210
127 146 207
124 143 214
124 143 213
121 140 223
123 141 223
121 139 225
121 139 226
120 138 227
120 138 228
119 138 228
120 138 228
119 138 228
120 138 228
120 138 228
120 138 228
120 138 228
120 138 228
120 138 228
119 137 228
120 138 228
120 138 228
120 138 228
119 138 228
119 138 228
120 138 228
120 138 228
119 138 228
120 138 228
119 138 228
120 138 228
119 138 228
119 137 228
120 138 228
120 138 228
119 137 228
120 138 228
120 138 228
120 138 228
119 138 228
120 138 228
119 138 228
120 138 228
120 138 228
120 138 228
120 138 228
119 137 228
119 138 228
120 138 228
118 137 228
119 138 228
119 138 228
119 138 228
120 138 228
120 138 227
122 141 220
123 142 219
125 144 211
127 146 206
128 148 202
129 149 195
131 151 191
132 153 183
133 154 181
135 155 181
134 154 181
133 154 181
134 154 181
134 154 181
133 154 181
134 154 180
133 154 181
134 154 181
134 154 181
134 154 181
133 154 181
134 154 180
133 153 180
133 153 180
134 154 181
134 154 180
134 154 181
133 154 181
134 154 181
133 154 181
133 153 180
133 154 181
133 154 181
133 154 180
133 154 180
134 154 181
134 154 181
134 154 181
133 153 180
133 154 181
134 154 181
133 154 181
134 154 181
134 154 181
134 154 181
134 154 181
141 150 175
141 133 157
152 118 140
158 107 126
156 106 124
158 107 125
164 110 125
164 110 125
167 113 127
162 109 123
162 110 125
161 109 123
163 110 125
164 110 125
158 107 122
164 111 125
163 111 125
157 106 120
165 111 125
163 111 125
161 110 125
162 113 128
147 121 140
147 138 160
141 147 171
133 154 181
133 154 181
134 154 181
133 154 181
134 154 181
134 154 181
134 154 181
135 155 181
135 155 181
134 154 181
134 155 181
134 154 181
134 154 181
134 154 181
133 154 181
134 154 181
134 154 181
133 154 181
134 154 181
134 154 180
133 154 181
134 154 181
134 154 181
134 154 181
134 154 181
134 154 181
134 154 181
133 154 181
133 154 181
134 154 180
134 154 181
133 154 181
133 154 181
134 154 181
135 155 181
134 154 181
133 154 181
134 154 181
132 153 181
134 154 181
134 154 181
134 154 181
134 154 181
133 154 181
134 154 181
134 154 181
134 154 181
134 154 181
134 154 180
134 154 181
134 154 181
133 154 181
134 154 181
134 154 181
134 154 181
134 154 181
133 154 181
134 154 181
133 154 181
134 154 181
133 154 181
134 154 181
134 154 181
134 154 180
134 154 181
134 154 181
134 154 181
133 154 181
133 154 181
133 154 181
134 154 181
134 154 181
134 154 181
134 154 181
134 154 181
134 154 181
134 154 181
134 154 181
134 154 181
134 154 181
134 154 181
134 154 181
134 154 181
133 154 181
134 154 181
134 154 181
133 154 181
133 154 181
134 154 181
134 154 181
134 154 181
133 154 181
134 154 181
133 154 181
134 154 181
135 155 181
134 154 181
134 154 181
133 154 181
133 154 180
134 155 181
134 154 181
133 154 181
134 154 181
133 154 181
134 154 181
133 154 181
134 154 181
134 155 181
135 155 181
134 154 181
134 154 181
133 154 181
134 154 181
134 155 181
134 154 181
134 154 181
134 154 181
133 154 181
133 154 181
133 154 181
134 154 181
134 155 181
134 154 181
133 154 181
134 154 181
134 154 181
133 154 181
133 154 181
134 154 181
134 154 181
134 154 181
134 154 181
134 154 181
134 154 181
134 154 181
134 154 181
134 154 181
134 154 181
134 154 181
134 154 181
134 154 181
133 154 181
133 154 181
134 154 181
134 154 181
134 154 181
134 154 181
133 154 181
134 154 181
133 154 181
134 154 181
133 154 181
133 154 181
134 154 181
133 154 181
133 154 181
134 154 181
134 154 181
133 153 180
134 154 181
133 154 181
133 154 181
134 155 181
133 154 181
134 154 181
134 154 181
134 154 181
133 154 181
133 154 181
133 154 181
134 154 181
133 154 181
134 154 181
134 154 181
134 154 181
133 154 181
133 154 181
134 154 181
134 154 181
134 154 181
134 154 181
133 154 180
134 154 181
134 154 181
134 154 181
134 154 181
134 155 181
134 155 181
134 154 181
134 154 181
133 154 181
135 155 181
134 154 180
133 154 181
134 154 181
134 154 181
134 154 181
134 154 181
134 154 181
134 154 181
133 154 181
134 154 181
134 155 181
133 154 181
133 154 181
134 154 181
134 154 181
133 154 181
134 154 181
133 154 181
133 154 181
135 155 181
133 154 181
134 154 181
133 154 181
134 154 181
133 154 181
134 154 181
134 154 181
134 154 181
134 154 181
134 154 181
133 154 181
134 154 181
135 155 181
134 154 181
133 154 181
135 155 181
134 154 181
134 154 180
133 154 181
133 154 181
134 154 181
134 154 181
134 154 181
134 154 181
134 154 181
133 154 181
133 154 181
134 154 181
135 155 181
135 155 181
134 154 180
134 154 181
133 154 181
133 154 181
134 155 181
135 155 181
134 154 181
134 154 181
134 154 181
134 154 181
134 154 181
135 155 181
134 154 181
134 154 181
134 154 181
133 154 181
134 154 181
133 153 180
134 154 181
134 154 181
132 153 183
132 152 187
131 151 187
130 149 197
130 149 198
129 148 203
126 145 208
126 145 211
126 145 212
124 143 215
123 142 217
122 140 222
121 140 222
121 139 225
121 139 227
120 138 228
120 138 228
120 138 228
120 138 228
120 138 228
120 138 228
119 138 228
120 138 228
120 138 228
120 138 228
121 138 228
120 138 228
119 138 228
120 138 228
119 138 228
119 137 228
119 138 228
120 138 228
119 138 228
120 138 228
120 138 228
119 138 228
120 138 228
119 138 228
120 138 228
119 138 228
119 138 228
119 138 228
120 138 228
120 138 228
119 138 228
120 138 228
119 138 228
120 138 228
120 138 228
120 138 228
119 138 228
119 138 228
120 138 228
119 137 228
119 137 228
120 138 228
119 137 228
120 138 228
120 138 228
120 138 228
119 138 228
120 138 228
119 138 228
121 139 228
120 138 228
120 138 228
119 138 228
120 139 225
122 141 221
124 143 216
126 145 210
128 148 202
129 149 197
132 152 189
133 153 184
133 153 181
134 154 181
134 154 181
134 154 181
132 153 180
133 153 180
134 154 181
134 154 181
134 154 181
134 154 181
134 154 181
134 154 181
133 154 180
133 154 181
134 154 181
133 154 181
134 154 181
133 154 181
133 154 181
133 153 180
133 154 181
134 154 181
133 154 181
133 154 181
135 155 181
132 153 181
134 154 181
134 154 181
134 154 181
135 155 181
133 154 181
135 155 181
133 153 180
134 154 181
134 154 181
133 154 180
135 145 171
147 132 154
155 109 129
152 103 122
155 105 123
159 107 122
161 109 125
157 106 122
160 108 122
160 108 123
157 107 122
159 108 123
159 108 122
162 110 124
163 110 124
163 110 124
164 111 125
160 109 123
164 111 125
158 107 121
164 110 124
163 111 126
159 117 133
149 129 149
143 144 168
135 153 179
134 154 181
134 154 181
133 154 181
134 154 181
133 154 181
134 154 181
134 154 181
134 154 181
134 154 181
133 153 180
134 154 181
134 154 181
134 154 181
134 154 181
134 154 181
134 154 181
134 154 181
133 154 181
134 154 181
134 155 181
134 154 181
135 155 181
134 154 181
134 154 181
134 155 181
134 155 181
134 154 181
134 154 181
134 154 181
133 154 181
134 154 181
134 154 181
134 155 181
135 155 181
134 154 181
133 154 181
134 154 181
133 154 181
134 154 181
134 154 181
135 155 181
133 154 181
133 154 181
134 154 181
135 155 181
134 154 181
133 154 181
134 154 181
134 154 181
134 154 181
133 154 181
134 154 181
134 154 181
133 154 181
133 154 181
133 154 181
134 154 181
135 155 181
133 154 181
133 154 181
133 154 180
134 154 181
133 154 181
133 154 181
134 154 181
134 154 181
134 154 181
133 154 181
134 154 181
134 154 181
134 154 181
134 154 181
134 154 181
135 155 181
133 154 181
134 154 181
133 154 181
133 154 180
134 154 181
133 154 181
133 154 181
134 154 181
134 154 181
133 154 181
134 154 180
134 154 181
134 155 181
134 154 181
133 154 181
133 154 181
133 154 181
133 154 181
134 154 181
134 154 181
134 154 181
133 154 181
134 154 181
134 154 181
133 154 181
134 154 181
134 154 181
133 154 181
134 154 181
134 154 181
134 155 181
134 154 181
133 154 181
134 154 181
133 154 181
134 154 181
135 155 181
133 154 181
134 154 181
134 154 181
133 154 181
134 154 181
133 154 181
134 154 181
133 154 181
134 154 181
133 154 181
133 154 181
133 154 181
133 154 181
134 154 181
135 155 181
133 154 180
133 154 181
133 154 181
134 154 181
134 154 181
134 154 181
133 154 181
134 154 181
134 154 181
133 154 181
134 154 181
133 154 181
135 155 181
134 154 181
134 154 181
133 154 180
134 154 181
134 154 181
134 154 181
134 154 181
134 154 181
134 154 181
134 154 181
134 154 181
134 154 181
133 154 181
134 154 181
133 154 181
134 154 181
134 154 181
133 154 181
133 154 181
134 154 181
133 154 181
133 154 181
135 155 181
134 154 181
133 154 181
133 154 181
133 154 181
134 154 181
133 154 181
133 154 181
133 154 180
133 154 181
133 154 181
134 154 181
134 154 181
134 154 181
134 154 181
133 154 181
134 154 181
133 153 180
133 154 181
134 154 181
133 154 180
134 154 181
133 154 181
134 154 181
134 154 181
134 154 180
133 154 180
133 154 181
134 154 181
133 154 181
134 154 181
133 154 181
134 154 181
133 154 181
134 154 181
134 155 181
134 154 181
134 154 181
134 154 181
134 154 181
133 154 181
134 154 181
133 154 181
133 154 181
133 154 181
133 154 181
133 154 181
134 154 181
134 154 181
134 154 181
134 154 181
134 154 181
134 154 181
133 154 181
134 154 181
134 154 181
134 154 181
134 154 181
134 154 181
133 154 181
134 154 181
134 154 181
134 154 181
134 155 181
133 154 181
134 154 181
134 154 181
133 154 180
134 154 181
134 154 181
134 155 181
133 154 181
134 154 181
133 154 181
133 154 181
134 154 181
133 154 180
134 154 181
135 155 181
134 154 181
134 154 181
133 154 181
132 153 180
134 154 181
133 154 181
134 154 181
134 154 181
134 154 181
134 154 181
133 154 180
133 154 181
133 154 181
133 153 180
133 154 181
133 154 181
134 154 181
134 154 180
134 154 182
132 152 186
130 151 191
130 150 195
130 150 196
127 146 204
125 144 209
127 145 210
125 144 211
124 143 213
124 142 220
121 140 221
122 140 225
120 139 226
120 139 227
120 138 228
120 138 228
120 138 228
120 138 228
120 138 228
120 138 228
119 138 228
120 138 228
120 138 228
120 138 228
119 138 228
120 138 228
119 138 228
120 138 228
120 138 228
119 138 228
119 137 228
120 138 228
120 138 228
119 138 228
120 138 228
119 137 228
119 138 228
119 138 228
119 138 228
120 138 228
120 138 228
119 138 228
120 138 228
120 138 228
118 137 228
120 138 228
120 138 228
120 138 228
118 137 228
119 138 228
120 138 228
120 138 228
119 138 228
120 138 228
120 138 228
120 138 228
120 138 228
119 137 228
120 138 228
120 138 228
120 138 228
119 138 228
119 138 228
119 137 228
120 138 228
119 137 228
119 137 228
119 137 228
119 138 228
119 137 228
120 138 228
120 138 228
119 137 228
121 139 226
122 140 223
123 142 219
125 144 211
126 146 206
130 149 198
130 150 193
132 152 186
132 153 183
134 154 181
134 154 181
133 153 180
134 154 181
134 154 181
134 154 181
133 154 181
133 154 181
134 154 181
134 154 181
134 154 181
133 154 181
134 154 181
134 154 181
133 154 180
134 154 181
134 154 181
134 154 181
134 154 181
134 154 181
134 154 181
133 154 181
133 154 180
134 154 180
133 154 181
134 154 180
134 154 180
133 153 180
134 154 181
134 154 181
134 154 181
133 154 180
134 153 180
138 146 172
150 129 151
162 117 135
157 106 125
152 103 121
152 104 121
160 108 124
159 107 122
161 109 124
153 104 119
157 107 122
161 109 123
161 109 123
157 107 121
163 110 124
167 112 126
158 107 121
159 108 123
155 105 119
159 108 122
166 112 125
158 107 121
161 118 134
145 131 151
137 145 170
135 155 181
133 153 180
133 154 181
134 154 181
133 154 181
134 154 181
134 154 181
133 154 181
135 155 181
134 154 181
133 154 181
134 154 181
133 154 180
134 154 181
135 155 181
133 154 181
134 154 181
134 154 181
134 154 181
134 154 181
133 154 181
134 154 180
134 154 181
134 154 181
134 154 181
133 154 181
134 154 181
134 154 181
134 154 181
133 154 181
134 154 181
134 154 181
133 154 181
134 154 181
134 154 181
135 155 181
134 154 181
133 154 181
134 154 181
134 154 181
134 154 181
134 154 181
133 154 181
133 154 181
134 154 181
134 154 181
134 154 181
133 154 180
133 154 181
134 154 181
133 154 181
133 154 181
134 154 181
133 154 181
133 154 181
134 154 181
134 154 181
134 154 181
134 154 181
133 154 181
134 154 181
133 154 181
133 154 181
134 154 181
133 154 181
134 154 181
134 154 181
134 154 181
134 154 181
133 154 181
134 155 181
134 154 181
134 154 181
133 154 181
133 154 181
134 154 181
132 153 181
133 154 181
133 153 180
133 154 181
134 154 181
134 154 181
134 154 181
134 154 181
134 154 181
134 154 181
133 154 181
134 154 181
134 154 181
133 154 181
134 154 181
133 154 181
135 155 181
133 154 181
134 154 181
134 154 181
134 155 181
134 154 181
134 154 181
133 154 181
134 154 181
134 154 181
133 154 181
134 154 181
134 154 181
134 154 181
134 154 181
134 154 181
134 154 181
134 154 181
134 154 181
134 154 181
134 154 181
134 154 181
134 154 181
133 154 181
134 154 181
133 154 181
134 154 181
133 154 181
134 154 181
134 154 181
134 154 181
134 154 181
134 154 181
134 154 181
134 154 181
134 154 181
133 154 181
134 154 181
133 154 181
134 154 181
133 154 181
133 154 181
133 154 181
134 154 181
134 154 181
133 154 181
134 154 181
133 154 181
134 154 181
135 155 181
132 153 181
133 154 181
133 154 181
133 154 181
133 154 180
133 154 180
133 154 181
133 154 181
134 154 181
132 153 181
134 154 181
134 154 181
134 154 181
135 155 181
134 154 181
134 154 181
133 154 181
134 154 181
133 154 181
133 154 181
134 154 181
134 154 181
135 155 181
134 154 181
133 154 181
135 155 181
134 154 181
133 153 180
133 154 181
134 154 181
133 154 181
134 154 181
133 154 181
134 154 181
134 154 181
134 154 181
134 154 181
133 154 181
133 154 181
134 154 181
134 154 180
133 153 180
133 154 181
134 154 181
133 154 181
133 154 181
134 154 181
133 154 181
133 154 181
134 154 181
134 155 181
134 154 181
133 154 181
134 154 181
134 154 181
133 154 181
133 154 181
133 154 181
135 155 181
134 154 181
134 154 181
135 155 181
134 154 181
133 154 181
133 154 181
134 154 181
133 153 180
133 154 181
133 154 181
133 154 181
134 154 181
135 155 181
134 154 181
134 154 181
134 154 181
134 154 181
134 154 181
132 153 180
133 154 181
134 154 181
134 154 181
134 154 181
133 154 181
135 155 181
134 154 181
134 154 181
133 154 181
133 154 181
133 154 181
134 154 181
134 154 181
135 155 181
133 154 181
134 154 181
134 154 181
133 154 181
134 154 181
134 154 181
134 154 181
133 154 181
134 155 181
133 154 181
133 154 181
134 154 181
133 154 181
133 154 181
133 153 180
134 154 181
134 154 181
133 154 181
133 153 180
133 154 181
133 153 182
133 153 186
132 151 189
130 149 198
130 150 195
127 146 205
128 147 203
127 147 204
126 145 208
124 143 215
123 142 217
122 141 221
121 140 223
121 139 227
120 139 227
119 138 228
119 137 228
121 138 228
120 138 228
119 138 228
119 138 228
119 137 228
120 138 228
120 138 228
120 138 228
119 137 228
120 138 228
119 138 228
120 138 228
120 138 228
119 138 228
119 138 228
120 138 228
120 138 228
120 138 228
120 138 228
120 138 228
119 138 228
119 137 228
119 138 228
120 138 228
120 138 228
119 138 228
120 138 228
120 138 228
119 138 228
120 138 228
120 138 228
119 138 228
120 138 228
120 138 228
119 138 228
120 138 228
119 138 228
119 138 228
119 137 228
120 138 228
120 138 228
120 138 228
119 138 228
119 138 228
119 138 228
119 138 228
120 138 228
119 138 228
119 138 228
119 138 228
120 138 228
120 138 228
120 138 228
120 138 228
119 137 228
119 138 228
120 138 228
120 138 228
119 138 228
119 138 228
119 138 228
119 138 228
119 138 228
120 138 228
120 138 228
122 140 222
121 140 221
124 143 214
129 148 203
129 148 201
132 152 188
132 152 187
132 152 185
132 153 181
134 154 181
135 155 181
133 154 181
134 154 181
134 154 180
133 154 181
133 154 181
134 154 181
134 154 181
134 154 180
133 154 181
133 154 180
133 154 180
134 154 181
134 154 181
135 155 181
134 154 181
134 154 181
133 154 181
134 154 181
134 154 181
134 154 181
134 154 180
134 154 181
134 154 181
134 154 181
133 154 181
134 154 181
134 154 181
133 154 181
140 144 169
145 125 148
149 106 125
160 108 124
158 107 124
158 106 122
160 109 125
157 107 121
161 108 122
158 107 122
160 108 122
160 109 123
164 110 125
163 110 125
159 108 123
158 107 121
162 110 124
160 108 122
162 109 123
160 109 123
158 107 121
155 105 119
159 117 133
150 132 153
144 144 168
135 154 180
133 154 181
134 154 181
133 154 181
134 154 181
134 154 181
134 154 181
134 154 181
134 154 181
134 154 180
134 154 181
135 155 181
134 154 181
135 155 181
133 154 181
134 154 181
134 154 181
134 155 181
133 154 181
134 154 181
135 155 181
135 155 181
133 154 180
133 154 181
133 154 181
134 154 181
133 154 181
133 154 181
133 154 181
134 154 181
133 154 181
134 154 181
133 154 181
134 154 181
134 154 181
134 154 181
134 154 181
133 154 180
134 154 181
134 154 180
134 154 181
134 154 181
133 154 181
134 154 181
134 154 181
133 153 180
134 154 181
134 154 181
133 154 181
134 154 181
134 154 181
134 154 181
133 154 181
133 154 181
133 154 181
133 154 181
134 154 181
133 154 181
134 154 181
134 154 181
134 154 181
133 153 180
134 154 181
133 154 181
135 155 181
134 154 181
134 154 180
134 154 181
134 154 181
133 154 181
133 154 181
133 154 181
134 154 181
134 154 181
133 154 181
134 154 180
133 154 181
134 154 180
134 154 181
134 154 181
134 154 181
133 154 181
134 154 181
133 154 181
134 154 181
133 153 179
134 154 181
134 154 181
135 155 181
134 154 180
133 154 181
133 154 181
134 154 181
133 154 181
134 154 181
134 154 181
134 154 181
133 154 181
133 154 181
134 154 181
134 154 181
133 154 181
133 154 181
134 154 181
134 154 181
133 154 181
133 154 181
134 154 181
133 154 181
134 154 181
133 154 181
134 154 181
134 154 181
134 154 181
134 154 181
134 154 181
133 153 180
134 154 181
133 154 181
133 154 181
134 154 181
133 154 181
134 154 181
134 154 181
135 155 181
133 154 181
133 154 181
133 154 181
134 154 181
134 154 181
134 154 181
133 154 181
134 154 181
134 154 181
133 154 181
134 154 181
134 154 181
133 154 181
134 154 181
135 155 181
133 154 181
134 154 181
134 155 181
134 154 181
134 154 181
134 154 181
133 154 181
134 154 181
134 154 181
134 154 181
135 155 181
133 153 180
133 154 180
135 155 181
134 154 181
134 154 181
134 154 181
134 154 180
133 154 181
134 154 181
132 154 181
133 154 181
134 154 181
134 154 181
134 155 181
134 154 181
133 154 181
134 154 181
135 155 181
133 154 181
134 154 181
134 154 181
133 154 180
134 154 181
133 154 181
134 154 181
133 154 181
133 154 181
134 154 181
133 154 181
133 154 181
132 153 181
133 154 181
134 154 181
134 154 181
133 154 181
134 154 181
134 155 181
134 154 181
134 154 181
134 154 181
134 154 181
134 154 181
133 154 180
134 154 181
133 154 181
134 154 181
134 154 181
134 154 181
134 154 181
133 154 181
134 154 181
134 154 181
134 154 181
134 154 181
134 154 181
133 154 181
134 154 180
134 154 181
134 154 181
133 154 181
133 154 181
134 154 181
134 154 181
134 154 181
134 154 181
134 154 181
134 154 181
134 154 181
134 154 181
133 153 180
133 154 181
134 154 181
134 154 181
134 154 181
133 154 181
134 154 180
133 154 181
133 154 181
134 154 181
134 154 181
133 153 180
134 154 181
134 154 181
133 154 181
133 154 181
134 155 181
133 153 180
133 154 181
133 154 181
134 154 181
134 154 181
134 154 181
134 154 181
133 154 181
133 154 180
134 154 181
134 154 181
134 154 181
134 154 181
133 154 182
132 152 186
132 152 189
130 150 194
129 148 201
128 147 204
126 146 206
125 144 212
126 145 212
124 143 213
124 143 216
122 141 222
121 140 224
121 139 227
120 138 228
119 138 228
120 138 228
119 137 228
120 138 228
119 138 228
119 138 228
120 138 228
120 138 228
119 138 228
119 138 228
120 138 228
120 138 228
120 138 228
120 138 228
119 138 228
120 138 228
119 138 228
120 138 228
119 138 228
120 138 228
119 138 228
120 138 228
120 138 228
120 138 228
120 138 228
119 138 228
120 138 228
119 138 228
120 138 228
119 138 228
119 138 228
120 138 228
119 138 228
119 138 228
120 138 228
119 137 228
119 138 228
119 137 228
119 138 228
120 138 228
120 138 228
119 138 228
120 138 228
119 138 228
120 138 228
120 138 228
120 138 228
120 138 228
119 137 228
120 138 228
120 138 228
119 138 228
119 138 228
120 138 228
120 138 228
119 138 228
119 138 228
120 138 228
120 138 228
120 138 228
119 138 228
120 138 228
120 138 228
119 138 228
119 138 228
119 138 228
119 138 228
119 138 228
120 138 228
121 138 228
119 138 228
120 138 228
119 138 228
120 139 225
123 141 219
125 143 214
125 145 210
128 147 203
129 148 202
131 151 190
132 152 186
132 153 183
134 154 181
133 154 181
133 153 180
133 154 181
133 154 181
133 154 181
134 154 181
133 154 180
134 154 180
133 154 181
134 154 181
134 154 181
133 153 180
133 154 181
134 154 180
134 155 181
134 154 181
133 154 180
134 154 181
134 154 181
134 154 181
133 154 180
133 154 181
134 154 181
134 154 181
134 154 181
134 154 181
133 153 180
143 144 169
153 127 147
153 105 124
158 107 123
159 107 124
160 108 125
159 107 125
161 109 124
166 112 126
161 109 123
158 108 122
161 109 123
160 108 123
156 106 121
165 111 125
160 108 122
161 110 124
160 109 124
159 108 122
164 111 125
162 109 123
157 106 121
160 115 131
150 132 153
140 148 173
134 154 180
134 154 181
135 155 181
132 153 180
134 154 181
134 154 181
134 154 181
134 154 181
132 154 181
134 154 181
133 154 181
134 154 181
133 153 180
134 154 181
134 154 181
134 154 181
133 154 181
133 154 181
133 154 180
133 154 181
134 154 181
133 154 181
134 154 181
135 155 181
133 154 181
133 154 181
134 154 181
134 154 181
134 154 181
134 154 181
133 154 181
134 154 181
133 154 181
134 155 181
133 154 181
134 154 181
133 154 181
134 154 181
133 154 181
134 154 181
134 154 181
133 154 180
134 154 181
134 154 181
133 154 181
134 154 181
133 153 180
133 154 180
135 155 181
133 154 181
133 154 181
134 154 180
134 154 181
134 154 181
134 154 181
134 154 181
134 154 181
135 155 181
133 154 181
134 155 181
133 154 181
134 154 181
135 154 179
134 154 181
134 154 181
133 154 181
133 154 181
134 154 181
134 154 181
134 154 181
135 155 181
135 155 181
133 154 181
134 154 181
134 154 181
134 154 181
133 154 181
133 154 181
133 153 180
133 154 181
133 154 181
134 154 180
134 154 181
134 154 181
133 154 181
134 154 181
133 154 181
134 155 181
134 154 181
134 154 181
133 154 181
134 154 181
134 154 181
134 154 181
133 153 180
134 154 181
134 154 181
133 154 181
135 155 181
134 154 181
133 154 181
134 154 181
134 154 181
134 154 181
133 154 181
134 154 181
134 154 181
135 155 181
134 154 181
134 154 181
133 154 180
134 154 181
133 154 181
135 155 181
133 154 181
133 154 181
133 154 181
133 154 181
133 154 181
133 154 181
134 154 181
134 154 181
134 154 181
135 155 181
134 154 181
134 154 181
134 154 181
133 154 181
134 155 181
133 154 181
133 154 181
133 154 181
134 154 181
134 155 181
133 154 181
134 154 181
134 154 181
134 154 181
134 154 181
134 154 181
133 154 181
134 154 181
134 154 181
134 154 181
134 154 180
133 154 181
133 154 181
135 155 181
134 154 181
135 155 181
133 154 181
134 154 181
133 154 181
133 154 181
133 154 181
133 154 181
133 154 181
134 154 181
134 154 181
134 154 181
134 154 181
134 154 181
135 155 181
133 154 180
134 154 181
134 154 181
133 154 181
134 154 181
133 154 181
134 154 181
134 154 181
133 154 181
134 154 181
134 154 181
134 155 181
134 154 181
134 154 181
134 154 181
133 154 181
134 154 181
133 154 181
134 154 181
134 154 181
133 154 181
134 154 181
133 154 181
134 154 181
134 154 181
134 154 181
134 154 181
133 154 181
133 154 181
133 154 180
133 154 181
135 155 181
133 154 181
134 154 181
134 154 181
134 154 181
134 154 181
133 154 181
133 154 181
134 154 181
135 155 181
135 155 181
134 154 181
134 154 181
134 154 181
133 154 181
134 154 181
133 154 181
135 155 181
134 154 181
134 154 181
134 155 181
134 154 181
135 155 181
134 154 181
134 154 181
134 154 181
134 154 181
134 154 181
134 154 181
134 154 181
134 154 181
134 154 181
134 154 181
135 155 181
134 154 181
133 154 181
134 154 181
134 154 181
134 154 181
133 154 181
134 154 181
133 154 181
134 154 180
134 154 181
135 155 181
133 154 181
133 154 181
134 154 181
133 154 181
134 154 180
133 154 181
134 154 181
134 154 181
134 154 181
133 154 182
131 150 190
131 151 191
127 146 205
125 145 208
125 144 212
124 143 216
123 142 218
123 141 221
122 140 223
120 138 227
120 138 228
119 138 228
120 138 228
119 137 228
120 138 228
120 138 228
120 138 228
120 138 228
120 138 228
119 138 228
120 138 228
120 138 228
121 138 228
119 138 228
119 137 228
120 138 228
119 138 228
119 138 228
120 138 228
119 138 228
119 138 228
119 138 228
120 138 228
120 138 228
120 138 228
119 138 228
119 138 228
119 138 228
120 138 228
120 138 228
120 138 228
119 138 228
119 137 228
119 138 228
119 138 228
121 139 228
120 138 228
119 138 228
119 138 228
119 137 228
119 138 228
120 138 228
120 138 228
120 138 228
119 138 228
119 138 228
119 138 228
120 138 228
119 137 228
119 138 228
120 138 228
120 138 228
120 138 228
120 138 228
119 138 228
119 137 228
120 138 228
120 138 228
120 138 228
120 138 228
120 138 228
119 138 228
119 138 228
120 138 228
119 138 228
119 138 228
119 138 228
119 137 228
120 138 228
120 138 228
120 138 228
119 138 228
120 138 228
119 138 228
120 138 228
119 138 228
120 138 228
119 138 228
119 138 228
119 138 228
120 138 228
120 138 228
120 139 225
124 142 218
124 143 213
125 145 209
128 148 199
129 149 194
131 152 185
133 153 181
134 154 181
133 154 181
133 154 180
133 154 181
132 153 180
134 154 181
133 154 181
134 154 181
134 154 181
133 153 180
134 154 181
133 154 181
133 154 181
133 154 181
133 154 181
134 154 181
133 154 181
133 154 181
133 153 180
132 153 181
134 154 181
133 154 181
134 154 181
134 154 181
134 154 180
133 153 179
137 147 172
147 122 144
151 109 128
157 106 123
165 112 127
162 110 125
157 107 121
154 105 119
157 106 120
161 109 123
164 110 124
160 109 123
158 107 121
164 111 125
160 108 122
159 108 121
158 107 121
159 108 122
158 108 122
163 110 124
163 110 125
158 107 121
156 115 131
147 130 150
141 146 171
133 153 180
134 154 181
134 154 181
135 155 181
134 154 181
134 154 181
134 154 181
135 155 181
133 154 181
133 154 181
134 154 181
134 154 181
134 154 181
134 154 181
134 154 181
134 154 181
134 154 181
133 153 180
135 155 181
134 154 181
133 154 181
134 154 181
134 154 180
133 153 180
134 155 181
134 154 181
134 154 181
134 155 181
134 154 181
133 154 181
135 155 181
134 154 181
133 154 181
134 154 181
134 154 181
133 154 181
134 154 181
134 154 181
134 154 181
134 154 181
134 154 181
134 154 181
134 154 181
134 154 181
133 154 181
134 154 181
134 154 181
133 154 181
134 154 181
133 154 181
134 155 181
134 155 181
133 154 181
134 154 181
134 154 181
134 154 181
134 154 181
134 154 181
134 154 181
134 154 181
134 154 181
134 154 181
133 154 181
134 154 181
133 154 180
134 154 180
134 154 181
134 154 181
134 154 181
133 154 181
134 154 181
133 154 181
134 154 181
134 154 181
134 155 181
134 154 181
134 154 180
133 154 181
133 154 181
135 155 181
134 154 181
134 154 181
134 154 181
133 154 181
133 154 181
133 154 181
134 154 181
134 154 181
134 154 181
134 154 181
133 154 181
133 154 181
135 155 181
135 155 181
134 154 181
134 154 181
134 154 181
134 154 181
134 154 181
134 154 181
134 154 181
134 154 181
134 154 181
133 154 181
134 154 181
134 154 181
134 155 181
134 154 181
133 154 181
134 154 181
134 154 181
134 154 181
134 154 181
134 154 181
135 155 181
135 155 181
133 154 181
134 154 181
134 154 181
134 154 181
133 154 181
133 154 181
134 154 181
133 154 181
133 154 181
133 154 181
133 153 180
135 155 181
135 155 181
133 154 181
134 154 181
133 154 181
134 154 181
134 154 181
133 154 181
134 154 181
134 154 181
133 154 181
133 154 181
134 154 181
134 154 181
134 154 181
134 154 181
134 154 181
134 154 181
133 154 181
134 154 181
135 155 181
134 154 181
134 154 181
134 154 181
134 154 181
134 154 181
134 154 181
134 154 181
134 154 181
134 154 181
134 154 181
133 154 181
133 154 181
133 154 180
133 154 181
134 155 181
134 154 181
134 154 181
134 154 181
134 154 181
133 154 181
133 154 181
134 154 181
134 154 181
134 154 181
134 154 181
134 154 181
134 154 181
134 154 180
134 154 181
134 154 181
135 155 181
134 154 181
135 155 181
134 154 181
134 154 181
133 154 181
133 154 181
133 154 181
134 154 181
134 154 181
132 153 181
134 154 181
134 154 181
133 154 180
134 154 181
133 154 181
133 154 181
133 154 181
134 154 181
134 154 181
133 154 181
134 154 181
134 154 181
133 154 181
134 154 181
134 154 181
133 154 181
133 154 181
134 154 181
133 154 181
135 155 181
133 154 181
134 154 181
133 153 180
135 155 181
134 154 181
133 154 181
134 154 181
134 154 181
134 154 181
133 154 181
134 154 181
134 154 181
133 154 181
134 154 181
135 155 181
133 154 181
134 154 181
133 154 181
134 154 180
134 154 181
134 154 181
133 154 181
134 154 181
134 154 181
134 154 181
134 154 181
133 154 181
134 154 181
134 154 181
135 155 181
135 155 181
134 154 181
134 154 181
135 155 181
133 154 181
134 154 181
133 154 180
135 155 181
133 154 181
130 150 182
129 147 189
123 140 201
122 139 214
121 140 218
121 139 222
120 139 226
120 138 227
120 138 228
120 138 228
120 138 228
119 138 228
120 138 228
119 138 228
119 138 228
120 138 228
119 137 228
119 138 228
119 138 228
120 138 228
120 138 228
119 138 228
120 138 228
120 138 228
120 138 228
120 138 228
118 137 228
119 138 228
119 138 228
119 138 228
120 138 228
120 138 228
121 138 228
119 137 228
119 138 228
120 138 228
120 138 228
119 138 228
119 137 228
120 138 228
120 138 228
120 138 228
120 138 228
120 138 228
119 138 228
120 138 228
119 137 228
120 138 228
120 138 228
120 138 228
120 138 228
120 138 228
120 138 228
120 138 228
119 138 228
119 138 228
120 138 228
119 138 228
120 138 228
119 138 228
120 138 228
120 138 228
119 138 228
119 138 228
120 138 228
119 138 228
120 138 228
120 138 228
120 138 228
120 138 228
119 138 228
120 138 228
119 138 228
119 138 228
119 138 228
120 138 228
119 138 228
119 138 228
119 138 228
119 138 228
119 138 228
119 138 228
120 138 228
120 138 228
120 138 228
119 138 228
121 138 228
119 138 228
119 138 228
120 138 228
120 138 228
119 138 228
119 138 228
119 138 228
119 138 228
122 140 224
122 141 220
124 143 211
125 144 211
129 148 198
129 149 192
131 150 186
134 154 181
135 155 181
134 154 180
135 155 181
134 154 181
134 154 180
133 153 180
133 154 181
134 154 181
134 154 181
134 154 181
134 154 180
134 154 181
133 154 181
134 154 181
133 153 180
134 154 181
135 155 181
133 154 181
134 154 181
135 155 181
133 154 181
134 154 181
133 154 181
134 152 179
142 141 166
148 126 148
159 110 127
163 110 126
159 107 122
154 105 121
153 104 120
164 110 125
162 110 124
166 112 126
165 111 125
159 108 123
165 111 126
164 110 125
158 107 121
161 109 123
162 109 123
161 109 123
153 105 119
162 109 123
161 109 123
164 111 125
159 120 136
145 129 150
142 148 173
133 154 181
133 154 181
133 154 181
134 154 181
134 154 181
132 153 181
134 154 181
134 154 181
133 154 180
135 155 181
134 154 181
133 154 181
133 154 181
133 154 181
134 154 181
133 154 181
134 154 181
134 154 180
133 154 181
134 154 181
134 154 181
134 154 181
134 154 181
134 154 180
133 154 181
133 154 181
132 153 181
133 154 181
134 154 181
133 154 181
134 154 181
134 154 181
134 154 181
133 154 181
133 154 181
134 154 181
134 154 181
133 154 180
135 155 181
133 154 181
134 154 181
134 154 181
133 154 181
133 154 181
134 154 181
134 154 181
134 154 181
134 154 181
133 154 181
135 155 181
134 154 181
134 154 181
134 154 181
135 155 181
134 154 181
133 154 181
134 154 181
134 154 181
133 154 181
133 154 181
135 155 181
133 154 181
134 154 181
135 155 181
134 154 181
133 153 180
133 154 181
134 154 181
134 154 181
134 154 181
133 154 181
134 154 181
134 154 181
133 154 181
133 154 181
133 153 180
134 154 181
133 154 181
133 154 181
133 154 181
134 154 181
133 154 181
134 154 181
133 154 181
134 154 181
133 154 181
133 154 181
134 154 181
133 154 181
134 154 181
134 154 181
134 154 181
133 154 181
133 154 181
134 154 180
134 154 181
134 154 181
134 154 181
134 154 181
133 154 180
134 154 181
133 154 181
134 154 181
133 154 181
134 154 181
133 154 181
134 154 181
134 154 181
134 154 181
134 154 181
134 154 181
134 154 181
134 154 181
133 154 181
134 154 181
133 154 181
133 154 181
134 154 181
134 154 181
133 154 181
134 154 181
134 154 181
134 154 181
134 154 181
133 154 181
134 154 181
134 154 181
134 154 181
134 155 181
133 154 181
134 154 181
133 154 181
134 154 181
135 155 181
134 154 181
134 154 181
134 154 181
134 154 181
134 154 181
134 154 181
134 154 181
134 154 181
134 154 181
133 154 181
133 154 181
133 154 181
133 154 181
133 154 181
134 154 181
133 154 181
135 155 181
134 154 181
133 154 181
133 154 181
133 154 181
134 154 181
135 155 181
134 154 181
134 154 181
134 155 181
134 154 181
134 154 181
133 154 181
135 155 181
134 154 181
134 154 181
133 154 181
133 154 181
135 155 181
134 154 181
134 154 181
134 154 181
134 154 181
134 154 181
134 154 181
134 154 181
135 155 181
134 154 181
134 154 181
134 154 181
134 154 181
134 154 181
134 154 181
133 154 181
134 154 181
134 154 181
135 155 181
134 154 181
133 154 181
133 154 181
134 154 181
134 154 181
133 154 181
134 154 181
134 154 181
134 154 181
135 155 181
134 154 181
133 154 181
133 154 181
134 154 181
133 154 181
134 154 181
134 154 181
135 155 181
134 154 181
134 154 181
133 154 181
133 154 181
133 154 181
134 154 181
133 154 181
134 154 181
133 154 181
134 154 181
133 154 181
134 154 181
134 154 181
134 154 181
134 154 180
133 154 181
134 155 181
133 154 181
134 154 181
134 154 181
134 154 181
134 154 181
134 154 181
134 154 181
134 154 181
132 153 180
134 154 180
134 154 181
134 154 181
134 154 181
133 154 180
133 154 181
134 154 181
134 154 181
134 154 181
134 154 181
134 154 181
135 155 181
134 154 180
134 154 181
133 154 181
134 154 181
135 155 181
131 151 184
126 143 195
120 135 205
115 130 211
115 132 216
118 135 222
117 134 221
120 138 228
119 137 228
119 137 228
119 138 228
119 138 228
119 138 228
120 138 228
120 138 228
120 138 228
120 138 228
119 138 228
120 138 228
119 137 228
120 138 228
120 138 228
119 138 228
119 138 228
119 138 228
119 138 228
119 138 228
120 138 228
119 138 228
119 137 228
119 138 228
119 138 228
120 138 228
120 138 228
120 138 228
119 137 228
119 138 228
120 138 228
120 138 228
120 138 228
120 138 228
120 138 228
119 138 228
120 138 228
120 138 228
120 138 228
119 138 228
120 138 228
119 138 228
119 137 228
119 138 228
120 138 228
119 138 228
120 138 228
120 138 228
119 137 228
120 138 228
120 138 228
119 138 228
119 138 228
119 138 228
119 138 228
119 138 228
120 138 228
119 138 228
119 138 228
119 138 228
119 137 228
120 138 228
120 138 228
120 138 228
119 138 228
120 138 228
119 138 228
119 138 228
119 137 228
120 138 228
119 138 228
120 138 228
118 137 228
119 137 228
120 138 228
120 138 228
120 138 228
119 137 228
120 138 228
120 138 228
119 137 228
120 138 228
120 138 228
120 138 228
120 138 228
120 138 228
119 138 228
120 138 228
119 137 227
120 137 224
118 135 216
119 133 209
119 132 198
124 140 196
130 148 187
132 153 180
134 154 180
134 154 181
134 154 180
134 154 181
134 154 181
133 153 179
133 154 181
134 154 181
134 154 181
134 154 181
133 154 181
132 153 180
134 154 181
134 154 180
134 154 181
134 154 181
134 154 180
135 155 181
133 154 181
134 154 181
134 154 180
135 155 181
134 153 180
136 154 180
144 141 165
147 127 150
157 111 129
156 106 124
158 106 123
160 108 124
160 109 125
163 110 125
160 109 123
158 107 121
165 112 126
166 113 127
159 108 122
160 108 123
162 110 124
160 108 123
165 111 125
162 110 124
158 107 121
160 109 123
158 107 121
166 112 126
153 115 132
149 130 151
137 143 168
135 154 180
133 154 181
134 154 181
133 154 180
134 154 181
135 155 181
133 154 181
134 154 181
134 154 181
133 154 181
134 154 181
134 154 181
134 155 181
133 154 181
134 154 181
133 154 181
133 154 181
134 154 181
134 154 181
133 153 180
134 154 181
134 154 180
133 154 181
134 154 181
134 154 181
133 154 181
133 153 180
133 153 179
134 154 181
133 154 181
133 153 180
133 154 180
134 154 181
134 154 181
133 154 181
134 154 181
133 154 181
134 154 181
133 154 181
133 154 181
134 154 181
134 154 181
134 154 181
134 154 181
134 154 181
133 154 181
134 154 181
133 154 180
133 154 181
134 154 181
134 154 181
133 154 181
134 154 181
134 154 181
134 154 181
133 154 181
133 154 181
133 154 181
134 154 181
133 154 181
134 154 181
134 154 181
134 154 181
134 154 181
133 154 181
134 154 181
134 154 181
133 154 181
134 154 181
133 154 181
133 154 181
133 153 180
133 154 181
134 154 181
133 154 181
134 154 181
133 154 181
134 154 181
133 154 181
134 154 181
133 154 181
133 154 181
135 155 181
134 154 181
134 154 181
133 154 181
133 154 181
134 154 181
134 154 181
134 154 181
134 154 181
134 154 181
133 154 181
134 154 181
133 154 181
134 154 181
133 154 181
134 154 181
133 154 181
134 154 181
134 154 181
134 154 181
133 154 181
134 154 181
133 154 181
134 154 181
133 154 181
134 154 181
133 154 181
133 154 181
134 154 181
133 154 181
134 154 181
133 154 181
134 154 181
134 154 181
134 154 181
134 154 181
133 154 181
133 154 180
133 154 181
134 154 181
134 154 181
134 154 181
134 154 181
133 154 181
134 154 181
134 154 181
134 154 181
133 154 181
134 154 181
133 154 181
134 154 181
134 154 181
133 154 181
133 154 181
133 154 181
134 154 181
134 154 181
134 154 181
134 154 181
133 154 181
134 154 181
133 154 181
134 154 181
134 154 181
134 154 181
133 154 181
133 154 180
134 154 181
133 154 181
133 154 181
134 154 181
134 154 181
134 154 181
134 154 181
133 154 181
134 154 181
134 154 181
134 154 181
134 154 181
134 154 181
134 155 181
133 154 181
134 154 181
134 154 181
134 154 181
135 155 181
133 154 181
134 154 181
134 154 181
134 154 181
134 154 181
133 154 181
134 154 181
133 154 181
133 154 181
135 155 181
134 154 181
134 154 181
134 154 181
133 154 181
134 154 181
134 154 181
133 154 181
133 154 181
134 154 181
134 154 181
134 154 181
134 154 181
133 154 181
134 154 181
135 155 181
133 154 181
134 154 181
134 154 181
134 154 181
134 154 181
134 154 181
134 154 181
134 154 181
133 154 181
133 154 181
134 154 181
134 154 181
134 154 181
134 154 181
133 154 181
134 154 181
134 154 181
134 154 181
134 154 181
134 154 181
133 154 181
133 154 181
133 154 181
134 154 181
134 154 181
133 154 180
134 154 181
134 154 181
134 154 181
134 154 181
133 154 181
133 153 180
133 154 181
134 154 180
133 154 181
133 153 180
134 154 181
134 154 180
134 154 181
136 155 181
133 154 181
134 154 181
133 153 180
134 154 181
134 154 181
134 154 180
134 154 180
134 154 181
134 154 181
134 154 181
133 154 181
134 154 181
134 154 181
134 154 181
133 153 180
129 149 184
125 142 191
114 128 192
117 130 209
116 130 211
115 130 213
120 136 222
119 135 223
118 136 226
119 137 227
119 138 228
120 138 228
120 138 228
119 138 228
119 138 228
119 137 228
119 138 228
120 138 228
119 138 228
120 138 228
119 138 228
119 138 228
120 138 228
119 138 228
120 138 228
119 138 228
119 138 228
120 138 228
120 138 228
120 138 228
120 138 228
120 138 228
119 138 228
119 138 228
120 138 228
121 138 228
120 138 228
120 138 228
120 138 228
119 138 228
119 138 228
120 138 228
120 138 228
119 138 228
120 138 228
120 138 228
119 138 228
120 138 228
119 138 228
120 138 228
119 138 228
119 138 228
118 137 228
120 138 228
119 137 228
120 138 228
119 138 228
119 138 228
120 138 228
120 138 228
119 137 228
120 138 228
119 138 228
121 139 228
119 138 228
120 138 228
119 138 228
119 138 228
120 138 228
118 137 228
119 138 228
119 138 228
120 138 228
120 138 228
119 138 228
119 138 228
119 138 228
119 138 228
119 138 228
119 138 228
120 138 228
120 138 228
120 138 228
119 138 228
119 138 228
120 138 228
119 138 228
121 138 228
119 138 228
120 138 228
119 138 228
119 137 227
119 137 227
117 135 223
118 134 220
117 132 216
115 130 215
113 128 210
111 123 201
110 122 195
117 128 191
125 142 186
132 152 179
134 154 181
133 154 181
134 154 181
134 154 180
133 154 181
133 154 180
133 154 181
133 153 180
134 154 181
133 153 180
133 154 181
134 154 181
133 154 181
134 154 181
134 154 181
133 154 181
134 154 181
133 154 181
133 153 180
133 153 180
133 154 181
134 154 181
134 154 180
135 154 180
140 143 169
150 125 146
161 117 135
155 104 121
162 109 124
160 108 123
157 107 123
172 115 129
164 111 125
166 112 126
160 108 123
158 107 121
163 110 125
161 109 123
158 107 121
161 109 124
159 108 122
162 109 124
160 108 122
162 109 123
155 106 121
157 107 121
159 118 134
149 135 157
137 149 175
135 154 180
133 154 181
133 154 181
133 154 181
133 154 181
134 154 181
133 154 181
133 154 181
133 154 180
133 154 181
134 154 181
134 154 181
133 154 180
134 154 181
134 155 181
134 154 181
134 154 181
134 154 181
134 154 180
134 154 181
134 154 181
134 154 181
134 154 181
134 155 181
133 154 180
134 155 181
133 154 181
134 154 181
134 154 181
133 154 181
134 154 181
134 154 181
134 154 181
135 155 181
134 154 181
134 154 181
134 154 181
134 154 181
133 154 180
133 154 181
134 154 181
134 154 181
134 154 181
134 154 181
134 154 181
134 154 181
134 154 181
135 155 181
133 154 181
133 154 181
134 154 181
134 154 181
134 154 181
134 154 181
133 154 181
133 154 181
134 154 181
134 154 180
133 154 181
133 154 181
134 154 181
133 154 181
134 154 181
133 154 181
133 154 181
135 155 181
134 154 181
134 154 180
133 154 181
133 154 181
134 154 181
134 154 181
135 155 181
134 154 181
135 155 181
134 154 181
134 154 180
133 154 181
134 154 181
134 154 181
134 154 181
134 154 181
134 154 181
133 154 181
135 155 181
134 154 181
134 154 181
134 154 181
134 154 181
134 154 181
134 155 181
134 154 181
133 154 181
134 154 181
133 154 181
133 154 181
134 154 181
133 154 180
135 155 181
134 154 181
133 154 181
134 154 181
134 154 181
134 154 181
133 154 181
133 154 181
134 154 181
133 154 181
133 154 181
134 154 181
133 154 181
133 154 181
135 155 181
133 154 181
134 155 181
133 154 180
134 154 181
133 154 181
135 155 181
134 154 181
133 154 181
134 154 181
133 154 181
134 154 181
134 154 181
133 154 181
134 154 181
134 154 181
134 154 181
133 154 181
133 154 181
133 154 181
134 154 181
134 154 181
135 155 181
134 154 181
134 154 181
134 154 181
133 154 181
133 154 181
135 155 181
134 154 181
134 154 181
134 154 181
134 154 181
134 154 181
134 154 181
134 154 181
133 154 181
133 154 181
134 154 181
134 154 181
135 155 181
134 154 181
133 154 181
134 154 181
134 154 181
133 154 181
134 154 181
135 155 181
133 154 181
133 154 181
134 154 181
134 154 181
135 155 181
133 154 181
134 154 181
134 154 181
133 154 181
135 155 181
134 154 181
134 154 181
134 154 181
134 154 181
133 154 181
134 154 181
133 154 181
134 154 181
134 154 181
134 154 181
134 154 181
133 154 181
134 154 180
134 154 181
134 154 181
134 154 181
134 154 181
134 154 181
134 154 181
134 154 181
134 154 181
133 154 181
133 154 181
133 154 181
134 154 181
135 155 180
134 154 181
134 154 181
134 154 181
134 154 181
133 154 181
133 154 181
134 154 181
134 154 181
134 154 181
134 154 181
134 154 181
134 154 181
133 154 181
133 154 181
133 154 181
134 155 181
134 154 181
134 154 181
134 154 181
134 154 181
132 154 181
134 154 181
133 154 181
134 154 181
134 154 181
132 154 181
134 154 181
134 154 181
133 154 181
134 154 180
134 154 180
134 154 181
133 154 181
134 154 181
133 154 181
134 154 181
133 154 180
134 154 181
132 153 180
133 154 181
134 154 181
135 155 181
135 155 181
134 154 180
135 155 181
133 154 181
133 154 180
134 154 181
133 154 181
135 155 181
134 154 181
133 154 181
131 150 184
124 141 192
115 130 194
115 128 203
113 125 202
116 129 207
117 130 211
115 130 211
118 134 219
120 137 224
120 138 227
120 138 228
120 138 228
120 138 228
120 138 228
119 138 228
119 138 228
119 138 228
120 138 228
119 138 228
119 138 228
120 138 228
119 138 228
119 137 228
119 138 228
120 138 228
119 137 228
119 137 228
119 138 228
119 138 228
120 138 228
120 138 228
119 138 228
120 138 228
120 138 228
120 138 228
119 138 228
120 138 228
119 138 228
119 138 228
119 138 228
119 138 228
120 138 228
120 138 228
120 138 228
119 138 228
119 138 228
120 138 228
120 138 228
119 138 228
119 137 228
120 138 228
120 138 228
120 138 228
120 138 228
119 138 228
120 138 228
120 138 228
120 138 228
119 138 228
120 138 228
120 138 228
119 137 228
120 138 228
119 137 228
119 137 228
120 138 228
120 138 228
119 138 228
119 138 228
119 137 228
120 138 228
121 138 228
120 138 228
119 138 228
120 138 228
120 138 228
119 138 228
120 138 228
120 138 228
120 138 228
119 138 228
120 138 228
119 137 228
120 138 228
120 138 228
120 138 228
120 138 228
119 137 227
118 135 223
117 134 222
114 130 215
117 132 217
112 125 204
112 125 205
114 125 203
114 124 201
112 120 195
113 123 198
110 116 185
117 129 192
124 140 185
132 152 181
134 154 180
134 154 181
132 153 180
134 154 180
133 153 180
134 154 181
134 154 181
133 154 180
133 153 180
133 154 181
133 153 180
134 154 180
134 154 180
134 154 180
133 154 181
133 154 181
133 153 180
134 154 181
133 154 180
132 152 179
134 154 180
133 154 181
133 154 181
135 153 179
137 143 169
148 127 148
150 108 128
160 108 124
158 107 123
158 107 121
163 109 123
161 109 124
163 110 124
156 106 120
159 108 123
163 110 125
154 105 119
159 108 123
163 110 125
158 107 122
164 111 125
163 110 125
165 111 125
155 106 120
159 109 123
161 109 123
156 115 131
144 135 156
141 146 170
135 155 181
133 154 181
134 154 181
133 154 181
133 154 181
133 154 181
134 154 181
134 154 180
133 153 180
134 154 180
134 154 181
133 153 180
133 154 181
134 154 181
135 155 181
134 154 181
134 154 181
134 154 181
134 154 181
134 154 180
133 154 181
133 154 180
134 154 181
134 154 181
135 155 181
133 153 180
134 154 181
133 154 181
134 154 181
134 154 180
133 154 181
133 154 181
133 154 180
134 154 181
134 154 181
133 154 181
134 154 181
134 154 181
133 154 180
133 154 181
133 154 181
134 154 181
134 154 181
133 154 180
134 154 181
134 154 181
134 154 181
135 155 181
134 154 181
134 155 181
133 153 180
133 154 180
135 155 181
133 154 181
133 154 181
134 154 181
134 154 181
134 154 181
135 155 181
134 154 181
134 154 181
134 154 181
134 154 181
133 153 180
133 153 180
133 154 181
134 154 181
133 154 181
134 154 181
134 154 181
134 154 181
134 154 181
134 154 181
134 154 181
133 154 181
134 154 181
134 154 181
133 154 181
134 154 181
134 154 181
134 154 181
134 155 181
133 154 181
134 154 181
134 154 181
133 154 181
134 155 181
135 155 181
134 154 181
134 154 181
135 155 181
134 154 181
134 154 181
134 154 181
133 153 180
134 154 181
133 154 181
134 154 181
134 154 180
134 154 181
133 154 181
134 154 181
134 154 181
134 154 180
134 154 181
133 154 181
133 154 180
133 154 181
134 154 181
134 154 181
133 154 181
134 154 181
134 154 181
134 154 181
134 154 181
133 154 181
133 154 181
134 154 181
134 154 181
134 154 181
133 154 181
134 154 181
134 155 181
134 154 180
134 154 181
134 155 181
133 154 181
134 154 181
133 154 181
134 154 181
134 154 180
134 154 181
134 154 181
133 154 181
133 154 181
134 154 181
133 154 181
134 154 181
133 154 181
134 154 181
134 154 181
134 154 181
133 154 181
134 155 181
134 154 181
134 154 181
134 154 181
135 155 181
134 154 181
135 155 181
134 154 181
134 154 181
134 154 181
133 154 181
134 154 181
133 154 181
134 154 181
134 154 181
134 154 181
134 154 181
133 154 181
134 154 181
133 154 181
134 154 181
134 155 181
134 154 181
134 154 181
134 154 181
133 154 181
135 155 181
133 154 180
133 154 181
133 154 181
134 154 181
134 154 181
133 154 181
134 154 181
134 154 181
134 154 181
133 154 181
134 154 181
134 154 181
134 155 181
134 154 181
133 154 181
134 154 181
133 154 180
133 154 181
133 154 181
133 154 181
134 154 181
133 154 181
134 154 181
132 153 180
133 154 181
133 154 181
134 154 181
134 154 181
134 154 181
134 154 181
134 154 181
135 155 181
133 154 181
133 154 181
133 154 181
133 154 181
134 154 181
134 154 181
134 154 181
133 154 181
134 154 181
135 155 181
133 154 180
134 154 181
133 154 181
134 154 181
133 153 180
133 154 180
134 154 181
134 154 181
134 154 181
134 154 181
133 154 181
133 154 181
133 154 181
133 154 181
134 155 181
134 154 181
134 154 181
135 155 181
134 154 180
133 153 180
134 154 181
133 154 180
133 154 180
133 154 181
134 154 180
133 154 181
134 154 181
133 154 181
134 154 181
133 153 180
133 154 181
133 154 181
134 154 181
134 154 181
134 154 181
134 154 181
131 151 182
123 141 187
114 129 190
116 129 206
115 128 204
112 124 199
113 126 202
112 125 203
114 128 208
115 130 212
117 134 220
118 135 223
120 138 227
120 138 228
121 139 228
119 137 228
120 138 228
119 138 228
120 138 228
120 138 228
120 138 228
120 138 228
119 138 228
119 138 228
119 138 228
120 138 228
119 137 228
119 137 228
119 138 228
120 138 228
120 138 228
120 138 228
120 138 228
120 138 228
119 138 228
119 138 228
120 138 228
120 138 228
120 138 228
120 138 228
120 138 228
119 138 228
120 138 228
120 138 228
120 138 228
120 138 228
120 138 228
120 138 228
120 138 228
119 138 228
120 138 228
120 138 228
119 138 228
119 138 228
120 138 228
120 138 228
119 138 228
120 138 228
120 138 228
119 138 228
120 138 228
120 138 228
120 138 228
119 138 228
120 138 228
120 138 228
121 139 228
119 137 228
120 138 228
120 138 228
119 138 228
120 138 228
120 138 228
120 138 228
119 138 228
119 137 227
119 138 228
121 138 228
120 138 228
120 138 228
119 138 228
120 138 228
118 137 227
120 138 228
118 136 225
118 136 225
118 134 220
117 133 218
117 132 216
111 125 205
114 128 210
113 126 205
112 124 202
113 123 198
109 117 188
106 115 188
110 117 188
112 120 194
110 119 191
108 114 182
118 130 191
124 139 183
132 153 182
134 154 180
134 154 181
133 154 181
133 153 180
134 154 181
133 154 181
134 154 180
133 154 181
134 154 181
134 154 180
134 154 181
132 153 180
134 154 181
133 153 180
133 154 181
133 153 180
133 153 180
134 154 181
134 154 181
134 154 181
134 154 181
134 154 181
133 153 180
134 153 179
138 146 172
147 128 150
156 110 128
151 103 120
153 104 120
153 104 120
162 110 124
160 109 123
156 106 120
159 108 123
167 113 127
158 107 120
159 108 122
160 108 122
161 109 123
159 108 121
163 110 124
164 111 125
156 106 121
158 107 121
158 107 121
158 107 121
159 117 133
147 135 156
135 150 176
135 155 181
134 154 180
134 154 181
134 154 181
134 154 181
134 154 181
133 154 181
133 154 180
135 155 181
134 155 181
133 154 181
133 154 181
134 154 181
133 154 181
134 154 181
133 154 181
134 154 181
134 154 181
134 154 181
134 154 181
133 154 181
134 154 180
133 154 181
134 154 181
134 154 181
133 154 181
133 154 181
133 154 181
133 154 181
134 155 181
135 155 181
133 154 181
134 154 181
133 154 181
133 154 181
133 154 181
133 154 181
134 154 181
134 154 181
134 154 181
134 154 181
134 154 181
134 154 181
134 154 181
134 154 181
133 154 181
133 154 181
134 154 181
134 154 181
133 154 181
134 154 181
134 154 181
133 154 181
134 154 181
133 154 181
133 154 181
134 154 181
134 154 181
133 154 181
134 154 181
134 154 181
134 154 181
134 154 181
134 154 181
134 154 181
133 154 181
134 154 181
133 154 181
134 154 181
134 154 181
132 153 181
134 154 181
134 154 181
133 154 181
133 154 181
134 154 181
134 154 181
134 154 181
134 154 181
134 154 181
134 154 181
134 154 181
134 154 181
134 154 181
134 154 181
133 153 180
133 154 181
133 154 181
134 154 181
133 154 181
133 154 181
134 154 181
133 154 181
133 154 181
134 154 180
134 154 181
133 154 181
134 154 181
134 154 181
133 154 181
133 154 181
134 154 181
134 154 181
134 154 181
134 154 181
134 154 181
133 154 181
133 154 181
134 154 181
134 154 181
134 154 181
134 154 181
134 155 181
134 154 181
134 155 181
134 154 181
133 154 181
134 154 181
133 154 181
134 154 181
133 154 181
134 154 181
135 155 181
134 154 181
134 154 180
134 154 181
134 154 181
134 155 181
134 154 181
134 154 181
134 154 180
133 154 181
133 154 181
134 154 181
134 154 181
134 154 181
135 155 181
134 154 181
133 154 181
133 154 181
134 154 181
134 154 181
135 155 181
133 154 181
134 154 181
134 154 181
133 154 181
133 154 181
134 154 181
135 155 181
134 154 181
133 154 180
133 154 181
134 154 181
134 154 181
134 154 181
134 154 181
133 154 181
134 154 181
134 154 181
134 154 181
133 154 181
134 154 181
133 154 181
133 154 181
134 154 181
134 154 181
134 154 181
134 154 180
135 155 181
134 154 181
133 154 181
134 155 181
135 155 181
134 154 181
134 154 181
135 155 181
134 154 181
134 154 181
133 154 181
134 154 181
134 154 181
133 154 181
133 154 181
134 154 181
134 154 181
132 153 180
133 154 181
134 154 181
133 154 181
134 154 181
133 154 181
134 155 181
134 154 181
134 154 181
133 154 181
133 153 180
134 154 181
134 154 181
133 154 181
134 154 181
133 154 181
134 154 181
134 154 181
133 154 181
133 154 181
133 154 181
133 154 181
134 154 181
134 154 181
134 154 181
134 154 181
134 154 181
134 154 181
134 154 181
134 154 180
134 154 181
135 155 181
134 154 181
134 154 180
133 154 180
134 154 181
134 154 181
134 154 181
133 154 181
133 154 181
133 154 181
134 154 181
134 154 181
133 154 180
134 154 181
133 154 180
134 154 181
134 154 181
134 154 181
134 154 180
133 154 180
134 154 181
133 154 181
133 153 180
134 154 181
134 155 181
135 155 181
134 154 181
134 154 181
134 154 181
134 154 180
134 154 181
132 151 182
128 145 189
119 134 197
117 130 205
112 124 199
111 123 198
116 128 205
112 124 199
113 126 202
119 132 212
112 127 208
114 130 212
116 133 219
118 135 223
119 137 226
120 138 228
120 138 228
120 138 228
119 138 228
120 138 228
121 138 228
120 138 228
120 138 228
120 138 228
119 138 228
119 138 228
119 138 228
120 138 228
119 138 228
120 138 228
119 138 228
119 137 228
120 138 228
120 138 228
119 137 228
119 138 228
119 138 228
120 138 228
120 138 228
120 138 228
120 138 228
120 138 228
120 138 228
119 138 228
120 138 228
120 138 228
119 138 228
119 137 228
119 138 228
119 138 228
119 138 228
120 138 228
119 137 228
119 138 228
119 138 228
119 138 228
119 138 228
120 138 228
119 137 228
119 138 228
119 138 228
120 138 228
119 138 228
120 138 228
120 138 228
120 138 228
120 138 228
119 138 228
119 138 228
120 138 228
120 138 228
119 138 228
121 138 228
120 138 228
119 138 228
119 138 228
119 138 228
120 138 228
119 137 228
120 138 228
119 137 227
119 136 224
119 135 221
116 131 216
119 134 219
115 131 214
113 127 208
113 127 206
111 122 198
113 125 201
111 121 196
107 118 191
109 119 192
108 116 188
112 122 197
111 120 193
113 122 195
107 116 187
108 115 186
114 121 194
113 124 183
123 138 183
131 150 180
134 154 181
133 153 180
133 153 180
132 153 181
133 153 180
132 152 180
134 154 181
133 153 180
133 154 180
134 154 181
133 153 180
134 154 180
133 153 179
134 154 181
134 154 180
132 153 180
134 154 181
133 154 180
134 154 181
135 155 181
134 154 181
132 152 179
133 153 180
134 152 178
139 140 165
151 123 144
149 110 128
157 106 123
157 106 122
153 104 118
158 106 121
163 110 124
158 107 122
166 112 126
163 110 124
158 107 122
164 111 126
164 111 125
156 106 120
162 110 125
161 109 123
161 109 123
160 108 123
157 106 120
162 109 123
157 108 122
155 119 136
148 133 154
141 150 175
134 154 181
134 154 181
133 154 180
133 154 181
134 154 181
133 153 180
134 154 181
133 153 179
133 154 181
133 154 181
134 154 181
133 154 181
135 154 180
133 154 181
133 154 180
133 154 180
133 154 181
134 154 180
134 154 181
134 154 181
133 154 181
134 154 181
133 154 181
133 154 181
134 154 181
133 154 181
133 154 181
134 154 181
134 154 181
133 154 181
133 153 180
134 154 181
134 154 181
133 153 180
134 154 181
132 153 180
133 154 180
134 154 181
134 154 181
134 154 181
134 154 181
133 154 180
133 154 181
134 155 181
133 154 181
133 154 181
135 155 181
133 154 181
133 154 181
134 154 181
134 154 181
134 154 180
133 153 180
134 154 181
133 153 180
132 153 180
133 154 181
134 154 181
134 154 181
134 154 181
134 154 181
133 154 181
133 154 181
133 154 181
133 154 181
133 154 181
135 155 181
133 154 181
133 154 181
134 154 181
133 154 181
134 154 180
133 154 181
133 153 180
133 154 180
134 154 180
134 154 181
133 154 181
134 154 181
134 154 181
134 154 181
134 154 181
134 154 181
133 154 181
134 154 180
134 154 181
134 154 181
134 154 181
132 154 181
134 154 181
133 154 180
134 154 180
134 154 181
133 154 181
134 154 181
133 154 181
133 154 181
134 154 181
133 154 181
135 155 181
133 154 181
134 154 181
133 154 181
133 154 181
134 154 181
134 154 181
134 154 181
133 154 181
134 154 181
134 154 181
134 154 181
135 155 181
135 155 181
134 154 181
134 154 181
134 154 181
133 154 180
134 154 181
135 155 181
135 155 181
134 154 181
133 154 181
134 154 181
133 154 181
133 154 181
134 154 181
134 154 181
133 154 181
134 154 180
134 154 181
133 154 181
134 155 181
134 154 181
134 154 181
134 154 181
134 154 181
133 154 181
133 154 181
133 154 181
133 154 181
134 154 181
133 154 181
133 154 181
133 154 181
134 154 181
134 154 181
134 154 181
133 154 181
134 154 181
133 154 181
134 154 181
134 154 181
134 154 181
135 155 181
133 154 181
134 154 181
135 155 181
133 154 181
134 154 181
134 154 181
134 155 181
133 154 181
134 154 181
134 154 181
133 154 181
133 153 180
134 154 181
134 154 181
134 154 181
133 154 181
134 154 181
133 154 181
134 154 181
133 154 181
134 154 181
134 154 181
133 154 181
134 154 181
134 154 181
134 154 181
134 154 181
134 154 181
133 154 181
134 154 181
133 154 181
134 154 181
134 154 181
134 154 181
134 154 181
134 154 180
133 154 181
133 154 181
133 154 181
134 154 181
134 154 181
134 154 181
134 154 181
134 154 181
134 154 181
134 154 181
134 154 181
134 154 181
135 155 181
134 154 181
133 154 181
134 154 181
134 154 181
134 154 181
133 154 180
134 154 181
134 154 181
134 154 181
134 154 181
134 154 181
134 154 181
134 154 180
133 154 181
134 154 181
134 154 181
134 154 181
133 154 181
133 154 181
133 154 181
134 154 181
134 154 181
134 154 181
134 154 181
134 154 181
134 154 181
134 155 181
133 154 181
134 154 181
134 154 181
133 153 180
134 154 181
134 154 181
134 154 181
134 154 181
133 153 180
134 154 181
133 153 180
133 154 181
133 154 181
133 154 181
133 154 181
133 154 181
134 155 181
134 154 181
131 151 182
125 143 188
119 135 195
114 127 200
110 122 196
115 128 204
111 124 199
112 124 199
112 124 198
113 126 203
112 125 201
114 128 206
114 129 209
116 132 217
118 133 218
118 136 225
119 137 228
120 138 228
119 137 228
120 138 228
119 138 228
119 138 228
120 138 228
119 137 228
119 138 228
119 138 228
120 138 228
119 138 228
119 137 228
120 138 228
120 138 228
119 138 228
120 138 228
120 138 228
119 138 228
121 138 228
119 138 228
120 138 228
119 138 228
120 138 228
119 138 228
120 138 228
120 138 228
120 138 228
119 138 228
120 138 228
119 138 228
119 138 228
119 138 228
119 138 228
120 138 228
120 138 228
119 138 228
119 138 228
119 138 228
119 138 228
120 138 228
120 138 228
120 138 228
120 138 228
120 138 228
120 138 228
120 138 228
119 138 228
120 138 228
120 138 228
119 137 228
119 138 228
119 138 228
120 138 228
120 138 228
119 138 228
120 138 228
119 138 228
119 138 228
121 138 228
118 137 226
120 136 223
120 137 225
119 135 223
116 131 215
119 133 217
114 126 205
114 128 209
112 125 202
109 120 194
113 124 200
113 125 201
111 121 195
114 123 198
112 123 198
110 119 192
113 123 196
110 119 192
114 120 193
111 122 196
110 118 189
109 117 189
113 121 194
106 111 179
112 121 179
124 140 186
132 152 180
133 154 181
133 154 181
133 153 180
132 152 179
134 154 180
131 152 179
134 154 181
133 153 179
134 154 181
133 153 180
134 154 181
134 155 181
134 154 180
132 153 180
134 154 180
133 153 180
133 154 181
133 153 179
133 154 181
132 152 179
134 154 180
133 153 180
134 154 181
135 154 180
140 145 171
143 122 144
156 111 129
156 105 122
159 107 122
161 109 125
164 111 125
164 110 125
166 112 126
160 108 122
168 114 128
160 108 123
166 112 126
162 110 124
163 110 124
163 110 124
165 112 126
158 107 121
156 106 121
160 108 122
158 107 122
164 111 125
156 120 138
151 135 156
137 149 174
133 154 181
134 154 181
134 154 180
134 154 181
133 154 181
133 154 181
134 154 181
133 154 181
134 154 181
134 154 181
134 154 181
134 154 181
133 154 181
134 154 181
133 154 181
134 154 181
133 154 181
133 154 181
132 153 180
134 154 181
134 154 181
133 153 180
134 154 181
134 154 181
134 154 181
133 154 180
134 154 181
134 154 181
134 154 181
133 154 181
133 153 180
134 154 181
134 154 181
133 154 181
133 153 180
134 154 181
134 154 181
134 154 181
134 154 181
133 153 180
133 154 181
135 155 181
134 154 181
133 154 181
133 154 181
134 154 181
134 154 181
134 155 181
133 154 181
134 154 180
134 154 180
134 154 181
134 154 181
134 154 181
134 154 180
135 155 181
133 154 181
134 154 181
135 155 181
134 154 181
134 154 181
134 154 181
135 155 181
133 154 181
134 154 181
134 154 181
134 154 181
133 154 181
134 154 181
134 155 181
134 154 181
134 154 181
134 154 181
135 155 181
133 154 181
133 154 181
135 155 181
134 154 181
133 154 181
134 154 181
134 154 181
133 154 180
134 154 181
134 154 181
133 154 181
134 154 181
135 155 181
134 154 181
134 154 181
134 154 181
134 154 181
134 154 181
133 154 181
134 154 181
134 154 181
133 154 181
133 154 181
133 154 181
132 153 180
133 154 181
133 154 180
134 154 181
134 154 181
134 154 181
134 154 181
133 154 181
135 155 181
134 154 181
135 155 181
134 154 181
134 154 181
133 154 180
133 154 181
133 154 181
134 154 181
134 154 181
133 154 181
134 154 181
133 154 181
133 154 181
134 154 181
135 155 181
133 154 181
134 154 181
134 155 181
133 153 180
134 154 181
134 154 181
134 154 181
134 154 181
134 154 181
134 154 181
134 154 181
134 154 181
132 153 181
135 155 181
134 154 181
134 154 181
134 154 181
133 154 181
133 154 181
133 154 181
134 154 181
133 154 181
133 154 181
134 154 181
133 154 181
135 155 181
134 154 181
134 154 181
134 154 181
134 154 181
134 154 181
133 154 181
134 154 181
133 154 181
133 154 181
134 154 181
134 154 181
134 154 181
134 155 181
134 154 181
134 154 180
133 154 181
134 155 181
134 154 181
134 154 181
134 154 181
134 154 181
134 154 181
134 154 181
134 154 181
134 154 181
134 154 181
133 154 181
133 154 181
134 154 181
134 154 181
134 154 181
134 154 181
134 154 180
134 154 180
133 154 181
134 154 181
134 154 181
135 155 181
134 154 181
133 154 181
133 154 181
134 154 181
133 154 181
133 154 181
134 154 181
134 154 181
134 154 181
134 154 181
134 154 181
133 154 181
133 154 181
134 154 181
134 154 181
134 154 181
133 154 181
134 154 181
134 154 181
133 154 181
133 154 181
134 154 181
134 155 181
135 155 181
133 154 181
134 154 181
133 154 181
132 153 180
133 153 180
134 155 181
134 154 181
134 154 181
133 154 181
134 154 181
134 154 181
134 154 181
133 154 180
134 154 181
134 154 181
134 154 181
133 154 181
134 154 181
133 154 181
133 153 180
134 154 181
133 154 181
134 154 180
133 154 181
133 154 181
133 154 181
133 153 180
134 154 181
134 154 181
133 153 180
132 152 179
134 154 181
134 154 181
134 154 181
133 154 180
133 154 181
134 154 181
133 153 180
134 154 183
128 145 190
118 133 194
114 126 200
112 124 199
117 130 207
113 126 201
113 126 202
112 124 199
112 124 199
116 128 205
114 126 202
114 127 205
119 133 214
116 131 212
118 134 217
117 133 218
120 137 225
118 136 224
120 138 228
120 138 228
119 138 228
120 138 228
120 138 228
119 138 228
119 138 228
119 138 228
119 138 228
119 138 228
120 138 228
120 138 228
120 138 228
119 137 228
119 138 228
120 138 228
121 139 228
120 138 228
119 138 228
120 138 228
119 137 228
119 138 228
119 138 228
120 138 228
120 138 228
119 138 228
120 138 228
120 138 228
119 138 228
119 138 228
120 138 228
120 138 228
120 138 228
120 138 228
120 138 228
119 138 228
119 138 228
121 138 228
119 138 228
119 138 228
119 137 228
119 138 228
119 138 228
119 138 228
120 138 228
120 138 228
120 138 228
119 138 228
120 138 228
120 138 228
119 138 228
119 138 228
119 137 228
120 137 227
119 136 224
120 136 223
119 135 222
117 133 218
116 131 214
114 128 210
118 132 213
110 123 199
114 127 206
113 125 202
118 130 207
114 125 200
113 124 199
114 124 199
114 122 195
110 119 192
110 120 192
106 115 185
111 120 192
107 116 187
114 123 197
113 122 196
113 121 194
107 115 186
114 123 196
111 118 189
104 112 182
121 133 193
121 137 181
130 149 181
133 154 181
133 154 181
132 153 180
134 154 181
133 154 181
133 153 180
134 154 181
134 154 181
133 153 180
134 154 181
133 154 181
133 154 181
134 154 181
134 154 181
134 154 181
133 153 180
134 154 180
132 153 180
134 154 181
134 154 180
133 154 181
134 154 181
134 154 181
133 150 176
139 139 164
148 126 148
151 107 125
158 107 122
158 107 122
160 108 122
161 109 124
159 108 122
165 111 126
160 108 123
161 109 124
157 107 121
165 111 126
165 111 126
161 109 122
159 107 121
160 108 123
156 106 121
162 110 124
157 107 121
159 107 121
153 104 119
157 120 137
153 137 157
138 149 174
133 153 180
134 154 181
133 153 180
134 154 181
134 154 181
133 153 180
133 153 179
134 154 181
134 154 181
133 154 181
133 153 179
133 154 181
133 154 181
134 154 181
133 154 181
133 153 180
132 153 181
134 154 180
133 154 181
133 154 181
132 153 180
133 154 180
133 154 181
133 154 181
134 154 181
134 154 181
134 154 181
133 154 181
133 154 181
134 154 181
133 154 181
133 153 180
133 153 180
134 154 181
133 154 181
134 154 181
134 154 181
133 154 181
133 154 180
134 154 181
134 154 181
135 155 181
134 154 181
134 154 181
133 154 180
134 154 181
134 154 181
133 154 181
133 154 181
134 154 181
134 154 181
133 154 181
134 154 181
134 154 181
133 154 181
134 154 181
134 154 181
133 154 181
134 154 181
134 154 181
134 154 180
133 154 181
134 154 181
134 154 181
134 154 181
134 154 181
134 154 181
133 154 181
133 154 181
133 154 181
134 154 181
134 154 181
134 154 181
134 154 181
133 154 180
134 154 181
133 154 181
134 154 181
135 155 181
134 154 181
134 154 181
134 154 181
134 154 181
133 154 181
134 154 181
133 154 181
134 154 181
133 154 181
134 154 181
133 154 181
135 155 181
133 154 181
134 154 181
133 154 181
133 154 181
133 154 181
134 154 181
133 154 180
134 154 181
134 154 181
134 154 181
134 154 181
134 154 181
134 154 181
133 154 181
134 154 181
134 154 181
135 155 181
134 154 181
134 154 181
134 154 181
133 154 181
134 154 181
134 154 181
133 154 181
134 154 180
134 154 181
134 154 181
134 154 181
133 154 181
133 154 181
134 154 181
134 154 181
133 154 181
133 154 181
134 154 181
134 154 181
134 154 181
134 154 181
133 154 180
134 154 181
134 154 181
134 154 181
134 154 181
134 154 181
134 154 181
133 154 181
134 154 181
133 154 181
133 154 181
134 154 181
133 154 181
134 154 181
134 154 181
134 154 181
134 154 181
134 154 181
134 154 181
134 154 181
134 154 181
133 154 181
134 154 181
133 154 181
134 154 181
133 154 181
134 154 181
133 154 181
134 154 181
133 154 181
134 154 181
133 154 181
134 154 181
133 154 181
134 154 181
134 154 181
134 154 181
133 154 181
134 154 181
134 154 181
134 154 181
133 154 181
134 154 181
134 154 181
134 154 181
135 155 181
133 154 181
134 154 181
134 154 181
134 154 181
134 154 181
134 154 181
134 155 181
133 154 181
134 154 181
133 154 181
133 154 181
134 154 181
134 154 181
134 154 181
133 154 181
134 154 181
134 154 181
134 154 181
134 154 181
134 154 181
134 154 181
134 154 181
134 154 181
134 154 181
133 154 181
134 154 181
133 153 180
134 154 181
133 154 181
134 154 181
134 155 181
133 154 181
134 154 181
133 154 181
134 154 181
134 154 181
133 154 181
134 154 181
134 154 181
134 154 181
134 154 181
134 154 181
133 154 181
133 154 180
135 155 181
134 154 181
133 154 181
134 154 181
133 154 181
133 153 180
134 154 181
133 154 180
135 155 181
133 154 180
134 154 181
134 154 180
134 154 181
134 154 181
133 154 181
133 154 181
134 154 181
133 154 180
134 154 181
134 154 181
134 154 180
133 153 180
133 153 180
134 154 181
133 154 180
134 154 180
132 153 180
134 154 181
134 154 181
133 153 182
126 144 188
121 137 195
111 125 193
114 127 203
113 125 201
117 129 206
110 122 197
112 124 198
115 127 204
113 125 201
115 126 202
111 124 198
113 126 202
114 127 204
115 129 208
114 128 207
113 129 212
117 133 219
119 137 226
120 138 227
120 138 228
119 138 228
120 138 228
120 138 228
120 138 228
119 138 228
120 138 228
119 137 228
120 138 228
120 138 228
120 138 228
120 138 228
119 138 228
120 138 228
120 138 228
120 138 228
119 138 228
120 138 228
119 138 228
119 138 228
119 138 228
120 138 228
119 138 228
120 138 228
120 138 228
120 138 228
120 138 228
120 138 228
120 138 228
120 138 228
119 138 228
120 138 228
119 137 228
119 138 228
119 138 228
121 138 228
119 138 228
120 138 228
120 138 228
120 138 228
120 138 228
120 138 228
119 138 228
120 138 228
120 138 228
119 138 228
120 138 228
119 137 226
119 137 227
116 134 221
118 134 220
118 134 219
116 131 214
116 130 212
114 129 211
111 125 203
115 128 206
115 127 204
120 131 210
114 127 204
113 126 203
112 123 197
110 122 196
112 122 197
111 120 192
106 117 189
114 124 199
110 120 194
107 117 190
111 121 194
114 123 197
112 120 192
113 120 193
109 119 191
110 119 192
114 124 198
107 114 184
108 116 188
111 120 192
116 126 187
124 138 184
133 152 182
132 152 179
133 153 180
132 152 179
133 153 180
133 153 180
133 153 180
133 153 179
132 153 180
134 154 181
133 153 180
134 154 180
134 154 181
134 154 181
133 154 181
134 154 181
133 154 180
134 154 181
134 154 181
134 154 181
134 154 180
134 154 180
133 154 181
132 152 179
135 151 177
139 138 163
151 126 147
150 107 126
153 104 122
161 109 124
155 105 120
160 108 123
159 107 122
160 108 123
166 112 127
156 106 121
156 106 121
157 106 120
154 105 119
154 105 120
157 107 121
159 107 121
165 112 126
161 109 123
158 107 122
162 109 123
163 112 127
157 117 133
146 133 154
136 149 175
133 153 180
134 154 181
133 154 181
133 154 181
133 153 179
134 154 181
134 154 181
134 154 181
133 154 181
133 154 181
134 154 181
133 154 181
134 154 180
133 153 179
134 154 181
134 154 181
134 154 180
133 154 181
134 154 180
133 154 181
134 154 181
134 154 181
133 154 181
134 154 181
134 154 181
133 154 181
133 154 181
133 154 180
134 154 181
133 154 181
134 155 181
133 154 181
133 154 181
133 153 180
133 154 180
134 154 180
133 154 181
133 154 181
134 154 181
133 154 181
134 154 181
134 154 180
134 154 181
134 154 181
133 154 181
133 154 181
133 154 181
134 154 181
134 154 181
134 154 181
134 154 181
133 154 181
133 154 181
134 154 181
133 154 180
134 154 181
134 154 181
134 154 181
133 153 180
134 154 181
133 154 181
134 154 180
134 155 181
135 155 181
133 154 181
135 155 181
134 154 181
134 154 181
133 154 181
133 154 181
133 154 181
134 154 181
135 155 181
134 154 181
134 154 181
134 154 181
134 154 181
134 154 181
134 154 181
133 154 181
134 154 181
133 154 181
134 154 181
134 154 181
133 154 181
134 154 181
134 154 181
134 154 181
134 154 181
134 154 181
134 154 181
134 154 181
134 154 181
134 154 181
134 154 181
134 154 181
134 154 181
134 154 181
133 154 181
134 154 181
135 155 181
134 154 181
133 153 180
133 154 181
134 154 181
133 154 181
133 154 181
134 154 181
134 154 181
134 154 181
134 154 181
134 154 181
134 154 181
133 154 181
133 154 181
134 154 181
133 154 181
134 154 181
133 154 181
134 155 181
134 154 181
134 154 181
134 154 180
134 154 181
134 154 181
134 154 181
134 154 181
135 155 181
134 154 181
133 154 181
135 155 181
133 154 181
133 154 181
134 154 181
133 154 181
134 154 181
134 154 181
134 154 181
134 154 181
135 155 181
134 154 181
134 154 181
133 154 181
134 154 181
134 154 181
134 154 181
134 154 181
134 154 181
133 154 181
134 154 181
133 154 181
133 154 181
134 154 181
133 154 181
134 154 181
135 155 181
133 154 181
134 154 181
133 154 181
133 154 181
134 154 181
133 154 181
134 154 181
134 155 181
134 155 181
133 153 180
135 155 181
134 154 181
134 155 181
133 154 181
133 154 181
134 154 181
134 154 181
134 154 181
134 154 181
134 154 181
134 154 181
133 154 181
133 154 181
134 154 181
134 154 181
133 154 181
134 154 181
134 154 181
134 154 181
134 155 181
133 154 180
134 154 181
134 154 181
134 154 181
134 154 180
134 154 181
134 154 181
133 154 181
134 154 181
134 154 181
133 153 180
133 154 181
134 154 181
133 154 181
134 154 181
133 154 181
134 154 180
133 153 180
134 154 181
135 155 181
134 154 181
133 154 181
134 154 181
134 155 181
133 154 181
134 154 181
133 154 181
133 154 181
134 154 180
134 154 181
134 154 181
134 154 181
134 154 181
134 154 181
133 154 181
133 154 181
133 154 181
134 154 181
133 154 181
134 154 180
133 154 181
133 154 181
133 154 181
134 154 181
134 154 181
133 154 180
134 154 181
133 153 180
133 153 180
133 153 180
133 153 180
134 154 181
134 154 181
132 153 179
133 154 181
133 154 181
133 154 181
133 154 181
133 154 181
133 154 180
133 154 181
132 152 179
133 154 182
130 148 189
124 139 203
114 127 199
116 128 205
113 126 202
112 125 200
114 126 201
116 128 206
112 124 199
117 129 207
114 126 202
114 127 203
109 121 195
113 126 201
114 127 203
115 128 207
116 130 211
116 131 212
119 134 219
119 136 223
120 138 227
120 138 228
119 138 228
120 138 228
120 138 228
119 138 228
120 138 228
120 138 228
119 138 228
120 138 228
120 138 228
120 138 228
119 138 228
120 138 228
119 138 228
120 138 228
120 138 228
119 138 228
120 138 228
119 138 228
120 138 228
118 137 228
119 138 228
119 138 228
121 138 228
120 138 228
120 138 228
120 138 228
120 138 228
119 138 228
120 138 228
120 138 228
119 138 228
120 138 228
120 138 228
119 138 228
119 138 228
120 138 228
119 138 228
119 138 228
119 138 228
119 137 227
120 137 227
120 138 227
118 136 224
117 134 221
118 134 220
116 132 217
119 134 219
115 130 212
113 127 207
115 129 210
112 125 201
112 124 200
119 130 208
109 121 195
112 123 198
111 122 195
113 125 200
108 119 192
112 124 199
119 131 210
115 125 201
113 123 197
111 121 195
109 118 191
113 123 198
109 118 191
110 121 194
112 124 199
113 122 197
112 122 197
111 121 194
107 116 187
112 120 193
108 118 191
109 114 185
110 115 184
106 110 178
114 124 184
120 133 180
128 147 178
132 152 179
132 153 180
134 154 181
132 153 180
133 153 180
132 153 179
132 153 180
132 152 180
132 152 179
133 153 179
133 152 179
134 154 181
133 153 180
133 153 180
134 154 180
132 152 179
132 152 179
133 153 180
133 154 181
133 153 180
133 154 180
133 153 180
133 153 180
132 151 178
138 138 162
152 124 145
152 108 128
158 107 125
153 104 120
156 105 120
159 107 122
153 104 118
162 109 123
157 106 121
162 110 124
159 108 122
162 110 124
154 105 119
160 108 123
166 112 126
161 109 123
160 109 123
153 104 118
159 108 122
154 105 120
161 109 123
155 121 139
148 138 160
135 152 178
134 154 181
133 154 181
134 154 181
134 154 181
135 155 181
134 154 181
133 154 181
133 153 180
133 154 181
134 154 180
134 154 181
133 154 181
133 153 180
134 154 181
133 154 181
134 154 181
134 154 181
134 154 181
133 154 181
134 154 180
134 154 181
133 154 181
134 154 181
135 155 181
133 154 181
134 154 181
134 154 181
133 154 180
133 154 180
133 154 181
134 154 181
134 154 181
135 155 181
133 154 181
135 155 181
134 154 181
134 154 181
135 155 181
133 154 181
135 155 181
133 154 181
134 154 180
134 154 181
133 154 181
134 154 181
134 154 181
134 154 180
134 154 181
133 154 181
134 154 181
134 154 181
134 154 181
134 154 181
134 154 181
133 154 181
133 154 181
133 154 181
133 154 181
133 154 181
132 154 181
134 154 181
133 154 181
135 155 181
134 154 181
134 155 181
134 154 181
134 154 181
134 154 181
134 154 181
134 154 181
134 154 180
134 154 181
133 154 181
133 154 181
133 154 181
134 154 181
133 154 181
134 154 181
134 154 181
134 154 181
134 154 181
133 154 181
134 154 181
134 154 181
133 154 181
133 154 181
135 155 181
134 154 181
134 154 181
134 154 181
134 154 181
133 154 181
133 154 181
133 154 181
134 154 181
134 154 181
134 154 181
133 154 181
134 154 181
134 154 181
133 154 181
135 155 181
133 154 180
133 154 181
134 154 181
134 154 181
134 154 181
134 154 181
133 154 181
133 154 181
134 154 181
134 154 181
134 154 181
133 154 181
133 154 181
133 154 181
133 154 180
134 154 181
134 154 181
134 154 181
134 155 181
133 154 181
134 154 181
134 154 181
134 154 181
135 155 181
133 154 181
134 154 181
134 154 181
134 154 181
134 154 181
134 154 181
133 154 181
134 154 181
134 154 181
134 155 181
133 154 181
134 154 181
133 154 181
134 154 181
134 154 180
134 154 181
134 154 181
134 154 181
134 154 181
133 154 181
135 155 181
134 154 181
134 154 181
132 153 180
134 154 181
134 154 181
134 154 181
134 154 181
133 154 181
134 154 181
133 154 181
134 154 181
133 154 181
133 154 181
134 154 181
135 155 181
134 154 181
134 154 181
133 154 180
133 154 181
134 154 181
134 154 181
134 154 181
135 155 181
133 154 181
134 154 181
133 154 181
133 154 181
134 154 181
134 154 181
135 155 181
134 154 181
133 154 181
134 154 181
133 154 181
133 154 181
133 154 181
133 154 181
134 154 181
134 154 181
134 154 181
133 154 181
134 154 181
135 154 180
134 154 181
135 155 181
134 154 181
134 154 181
134 154 181
134 154 181
134 154 181
133 154 181
134 154 181
133 154 181
133 154 181
134 154 181
134 154 181
135 155 181
134 154 181
134 154 180
134 154 181
134 154 181
134 154 181
134 154 181
133 154 181
134 154 181
133 153 180
134 154 180
134 155 181
133 153 180
134 154 181
134 154 180
133 154 181
134 154 181
134 154 181
134 154 180
134 155 181
134 154 181
134 154 181
134 154 181
134 154 181
134 154 180
134 154 180
134 154 181
134 154 181
134 154 181
134 154 181
134 154 181
134 154 181
133 154 181
133 154 181
133 154 181
132 152 180
133 153 180
133 153 180
133 154 181
133 154 181
134 154 181
134 154 181
134 154 181
134 154 181
133 153 180
134 154 180
127 145 185
115 130 187
112 125 193
116 127 203
110 122 196
110 122 196
114 127 203
117 129 206
115 127 203
111 123 198
112 123 198
115 128 204
113 126 202
114 126 202
113 125 201
113 125 200
111 123 198
116 129 207
116 129 209
115 129 210
118 134 220
118 134 220
120 138 227
120 138 228
120 138 228
120 138 228
120 138 228
119 138 228
120 138 228
120 138 228
119 138 228
119 138 228
119 138 228
120 138 228
120 138 228
120 138 228
119 138 228
120 138 228
119 138 228
120 138 228
119 138 228
120 138 228
119 138 228
120 138 228
119 137 228
120 138 228
120 138 228
120 138 228
119 137 228
120 138 228
119 138 228
120 138 228
120 138 228
119 138 228
119 138 228
120 138 228
120 138 228
119 137 228
121 139 228
120 138 228
120 138 227
118 135 222
116 132 219
119 136 223
115 131 215
114 128 211
115 129 211
115 128 207
114 127 206
112 125 202
112 124 199
110 123 199
118 128 204
110 122 196
112 124 198
109 120 195
115 125 200
117 129 205
113 124 198
114 126 202
114 126 201
111 123 197
109 121 194
109 119 192
111 122 196
112 122 196
109 118 191
111 121 194
111 122 196
109 120 194
110 121 194
113 124 198
110 120 193
109 118 191
109 118 190
108 115 185
108 115 186
105 111 180
104 110 177
115 125 184
121 137 190
130 150 181
134 154 180
132 153 180
133 153 180
133 153 180
134 154 181
134 154 181
133 153 180
133 152 179
133 153 180
133 154 181
132 152 179
133 154 180
133 153 180
133 153 180
132 152 178
133 154 181
133 154 181
134 153 179
132 152 179
132 152 178
134 154 180
134 154 181
134 154 181
135 153 179
139 141 165
144 121 142
148 103 123
159 107 124
153 104 121
160 108 123
154 104 118
158 106 120
149 102 117
158 107 121
160 108 123
163 110 124
160 108 123
163 110 125
155 105 119
161 109 123
162 109 123
161 109 124
160 108 123
158 107 121
165 111 125
156 107 122
148 118 136
142 135 157
136 153 179
133 154 181
133 153 180
134 154 181
134 154 180
134 154 180
133 154 181
133 154 181
133 154 181
133 154 181
133 153 180
133 153 180
134 154 181
133 153 180
133 153 180
134 154 181
133 154 181
133 154 181
133 154 181
134 154 181
133 153 180
133 153 180
134 154 180
133 154 180
134 154 181
134 154 181
133 154 181
135 155 181
133 154 181
134 154 181
134 154 181
134 154 181
133 154 181
134 155 181
134 154 181
134 154 181
133 154 181
134 154 181
133 154 181
133 154 181
134 154 181
133 153 180
134 154 181
134 154 181
135 155 181
134 154 181
134 154 181
135 155 181
134 155 181
135 155 181
134 154 181
134 154 181
134 154 180
133 154 181
134 154 180
134 154 181
134 154 181
134 154 181
134 154 181
134 154 181
134 154 181
133 154 181
133 154 181
134 154 181
134 154 181
135 155 181
133 153 180
134 154 181
133 154 181
134 155 181
134 154 181
134 154 181
134 155 181
134 154 181
134 154 181
134 154 181
133 154 181
134 154 181
134 154 181
134 154 181
134 154 181
134 155 181
135 155 181
134 154 181
134 154 181
133 154 181
134 154 180
134 154 181
134 154 181
134 154 181
134 154 181
133 153 180
134 154 181
134 154 181
133 153 180
133 154 181
134 154 181
134 154 181
134 154 181
135 155 181
134 154 181
134 154 181
134 154 181
133 154 181
133 154 181
134 154 181
134 154 181
133 154 181
133 154 180
133 154 181
133 154 181
133 154 181
134 154 181
133 154 181
133 154 181
135 155 181
135 155 181
134 154 181
133 154 181
134 154 181
133 154 181
134 154 181
134 154 181
134 154 181
134 154 181
134 155 181
133 154 181
133 154 181
133 153 180
133 154 181
133 154 181
134 154 181
134 154 181
134 154 181
133 154 181
134 154 181
134 154 180
134 154 181
134 154 181
133 154 181
133 154 181
134 154 181
133 154 181
133 154 181
134 154 181
134 155 181
134 154 181
134 154 181
134 154 181
134 154 181
134 154 181
134 154 181
134 154 181
133 154 181
134 154 181
134 154 181
133 154 181
133 154 181
134 154 181
134 154 181
134 154 181
135 155 181
133 154 181
134 154 181
133 154 181
134 154 181
134 154 181
133 154 181
133 154 181
134 154 181
133 154 181
134 154 181
133 154 181
134 154 181
134 154 181
134 154 181
134 154 181
134 154 181
133 154 181
133 154 181
133 154 180
134 154 181
133 154 180
134 154 181
133 154 181
134 154 181
134 154 181
135 155 181
134 154 181
135 155 181
134 154 181
134 154 180
135 155 181
134 154 180
133 153 180
133 154 181
134 154 181
134 154 181
134 154 181
134 154 181
134 154 181
133 154 181
134 155 181
134 154 181
133 153 180
134 154 181
133 154 181
134 154 181
134 154 181
135 155 181
135 155 181
133 154 181
133 154 180
134 154 181
134 154 181
133 154 181
133 154 180
133 153 180
133 153 180
134 154 181
134 154 181
133 154 181
134 154 181
134 154 181
134 154 181
134 154 181
133 154 181
133 153 180
134 154 181
134 154 181
133 153 180
133 153 180
133 154 181
133 154 181
134 154 181
133 154 181
133 154 180
134 155 181
133 154 180
134 154 181
134 154 181
133 154 181
133 153 180
133 154 181
133 154 180
133 154 181
133 154 180
134 154 181
134 154 180
134 154 180
131 149 190
120 137 192
111 124 195
110 122 196
117 129 206
112 125 201
111 123 198
113 125 201
113 125 201
113 126 202
112 124 199
108 121 195
114 126 203
109 122 197
116 128 205
112 124 198
106 119 192
110 122 197
112 124 200
113 126 204
116 130 211
116 131 214
115 132 218
117 134 221
119 136 224
120 138 228
120 138 228
119 138 228
120 138 228
120 138 228
120 138 228
120 138 228
119 138 228
119 138 228
120 138 228
119 138 228
120 138 228
120 138 228
119 138 228
120 138 228
120 138 228
119 138 228
120 138 228
119 138 228
119 138 228
120 138 228
119 137 228
119 138 228
119 138 228
120 138 228
120 138 228
119 137 228
119 138 228
119 138 228
119 137 228
119 137 227
119 136 225
119 136 224
120 136 223
116 132 216
115 131 215
116 130 211
114 128 207
116 130 211
114 127 205
110 122 197
109 122 197
116 128 205
112 124 198
113 124 200
113 124 199
115 126 202
108 120 194
113 125 201
114 126 201
111 123 197
113 124 199
109 119 191
111 122 195
111 122 196
113 125 200
112 125 201
114 123 197
111 121 193
110 122 195
109 119 193
112 123 198
111 122 196
108 118 190
114 124 199
112 122 196
112 122 196
109 119 192
110 119 191
107 114 183
110 117 189
111 119 191
104 113 184
106 115 186
111 121 178
125 140 183
131 150 180
132 152 179
132 152 179
131 151 179
133 153 179
134 154 180
133 154 181
132 153 180
132 152 179
131 152 179
133 153 180
133 153 180
133 153 180
132 152 179
133 153 180
133 154 180
132 152 180
134 154 181
133 153 180
133 153 180
133 154 180
134 154 180
133 153 180
132 152 178
134 152 177
137 141 165
144 119 140
143 100 118
156 105 123
155 105 120
159 108 123
161 109 124
159 108 123
164 110 124
160 108 122
161 109 124
156 106 121
157 107 121
162 110 124
158 106 120
155 105 119
160 108 123
155 105 119
160 108 122
162 109 123
162 109 123
159 110 125
154 118 135
146 137 159
138 149 174
133 154 180
134 154 181
133 153 179
134 154 181
134 154 180
133 154 181
133 154 181
133 154 180
134 154 181
132 153 180
133 153 179
133 153 179
133 153 180
133 154 181
133 154 181
133 153 180
134 154 181
134 154 181
133 153 179
134 154 181
134 154 181
133 153 180
134 154 181
135 155 181
134 154 181
133 154 180
134 154 181
134 154 181
134 154 180
134 154 180
134 154 181
133 154 181
134 154 181
133 153 180
134 154 181
134 154 180
134 154 181
134 154 180
134 154 181
133 154 181
134 154 181
134 154 181
134 155 181
134 154 181
134 154 181
134 154 181
134 154 181
133 154 181
133 154 181
134 154 181
134 154 181
134 154 181
134 154 181
133 153 180
134 155 181
134 155 181
134 154 181
134 154 181
133 154 181
134 154 181
134 154 181
135 155 181
133 154 181
134 154 181
134 154 181
135 155 181
133 154 181
133 154 181
133 154 181
134 154 181
135 155 181
133 154 181
134 155 181
134 154 181
134 154 181
134 154 181
134 154 181
134 154 181
134 154 181
135 155 181
133 154 180
135 155 181
134 154 181
134 154 181
134 154 180
134 154 181
134 154 181
134 154 181
135 155 181
133 154 181
133 154 181
134 154 181
133 154 181
134 154 181
134 154 181
135 155 181
133 154 181
134 154 181
135 155 181
135 154 180
134 154 181
134 154 181
134 154 181
134 154 181
132 153 181
135 155 181
134 154 181
133 154 181
133 154 181
134 154 181
133 154 181
134 154 181
134 154 181
133 154 181
135 155 181
133 154 181
134 154 181
134 154 181
134 154 181
133 154 180
135 155 181
133 154 181
135 155 181
134 154 181
134 154 181
134 154 181
133 154 181
134 154 181
133 154 181
134 154 181
134 154 180
134 154 181
135 155 181
134 154 181
133 154 181
134 155 181
133 154 181
133 154 181
134 154 181
134 154 180
134 154 181
132 153 180
133 154 181
135 155 181
134 154 181
133 154 181
134 154 181
133 154 180
134 154 181
133 154 181
134 154 181
133 154 181
133 154 181
133 154 181
133 154 181
134 154 181
134 154 181
134 154 181
133 154 181
134 154 181
134 154 181
134 154 181
133 154 181
134 155 181
133 154 181
133 154 180
133 153 180
133 154 181
133 154 181
133 154 181
133 154 181
133 154 180
134 154 181
134 154 181
134 154 181
134 154 181
135 155 181
134 154 181
134 154 181
134 154 180
133 154 181
134 154 181
134 154 181
133 154 181
134 154 181
133 154 181
133 154 181
133 154 181
134 154 181
133 154 181
134 154 181
134 154 181
134 154 180
133 153 180
134 154 181
133 154 181
134 155 181
134 154 181
135 155 181
134 154 181
134 154 181
133 154 181
134 154 181
134 154 181
134 154 181
134 154 181
133 154 181
134 154 181
133 154 181
134 154 181
133 154 181
133 154 181
134 154 181
134 154 181
133 154 181
134 154 181
133 154 181
134 154 181
134 154 181
135 155 181
134 154 180
134 154 181
134 154 181
134 154 181
133 154 181
133 154 180
134 154 181
133 153 180
132 152 180
133 154 181
133 153 180
134 154 181
134 154 181
134 154 181
134 154 181
134 154 181
133 154 180
133 153 180
133 153 180
134 154 181
134 154 181
132 153 180
134 154 181
133 154 180
133 154 180
134 154 181
133 153 180
134 154 180
133 154 180
129 147 185
120 136 187
115 129 196
112 124 197
113 125 201
115 127 203
113 125 202
117 129 206
112 125 200
112 125 199
113 125 200
109 122 197
112 125 200
111 123 198
111 123 197
114 126 202
109 122 196
118 130 206
117 129 207
112 123 197
115 127 204
115 129 207
113 127 207
115 130 213
116 132 217
115 132 218
119 137 226
119 137 228
119 138 228
120 138 228
119 138 228
120 138 228
120 138 228
120 138 228
120 138 228
119 137 228
120 138 228
120 138 228
120 138 228
120 138 228
119 138 228
120 138 228
120 138 228
119 138 228
120 138 228
120 138 228
119 137 228
120 138 228
120 138 228
119 138 228
119 138 228
119 137 227
119 137 226
118 135 223
119 136 224
116 132 216
116 131 215
118 132 216
116 130 212
117 130 211
112 126 206
108 120 194
115 127 204
113 125 200
114 127 203
110 122 197
115 127 203
113 125 201
117 128 205
116 127 203
112 123 199
114 126 202
109 121 196
111 123 198
116 128 204
112 124 200
113 125 200
115 126 201
110 121 195
111 122 196
114 125 199
112 122 196
112 122 196
108 120 192
109 120 192
111 122 195
114 125 201
108 118 190
111 119 191
106 115 187
109 118 190
111 121 196
111 120 193
112 120 193
111 120 193
105 112 181
113 121 195
112 120 192
103 110 177
112 121 183
123 139 180
131 150 182
131 152 179
132 152 179
132 152 179
130 150 178
132 152 178
133 153 180
131 151 178
132 152 178
132 152 179
134 154 181
131 150 177
133 153 179
132 153 179
132 152 179
133 153 180
133 154 181
133 153 180
132 152 180
133 153 180
132 153 180
133 154 180
131 151 178
133 154 181
136 153 178
140 137 161
146 120 142
146 105 124
154 104 120
160 108 123
160 108 123
163 110 125
162 110 124
162 110 124
161 109 123
164 110 125
162 110 124
160 108 123
162 110 125
160 108 123
157 107 121
156 106 120
158 107 121
151 103 118
157 106 120
165 111 126
164 111 126
147 123 142
142 141 165
135 152 177
133 154 181
134 154 180
134 154 181
134 154 181
133 153 179
133 153 180
133 154 181
133 154 181
134 154 181
133 153 180
134 154 181
134 154 180
133 154 181
134 154 179
134 155 181
134 154 180
134 154 180
133 153 180
133 154 181
135 155 181
134 154 181
134 154 181
134 154 181
134 154 181
133 153 180
134 154 181
133 154 181
133 154 181
134 154 180
132 153 180
135 155 181
134 154 181
133 153 179
133 154 181
132 152 179
133 153 180
134 154 181
134 154 181
133 154 180
134 154 181
133 154 180
133 154 181
132 153 180
133 154 181
134 154 181
134 154 181
134 154 181
134 154 181
133 154 181
134 155 181
134 154 181
133 154 181
133 154 181
134 155 181
133 154 181
133 154 181
134 154 181
134 154 181
133 154 181
134 154 181
133 154 181
134 154 181
134 154 181
134 155 181
133 154 181
134 154 181
135 155 181
134 155 181
134 154 181
134 154 181
134 154 181
135 155 181
133 154 181
133 154 181
134 154 181
134 154 181
134 154 181
134 154 181
133 154 180
135 155 181
134 154 181
133 154 181
133 154 181
133 154 181
133 154 181
134 154 181
133 154 181
134 154 181
134 154 181
133 153 180
134 154 181
134 154 180
134 154 181
134 154 181
133 154 181
133 154 181
133 154 181
134 154 181
134 154 181
133 154 181
134 155 181
133 154 181
135 155 181
134 154 181
133 154 180
134 154 181
134 154 181
135 155 181
134 154 181
133 154 181
134 154 181
133 154 181
133 154 181
133 154 181
134 154 181
134 154 181
134 154 181
133 154 181
134 154 181
134 154 181
134 154 181
134 154 181
133 154 181
133 154 181
135 155 181
134 155 181
133 154 181
133 154 181
133 154 181
133 154 181
134 154 181
134 154 181
133 154 181
134 154 181
133 154 181
135 155 181
133 154 181
134 154 181
134 154 181
134 154 181
135 155 181
134 154 181
134 154 181
133 154 181
134 154 181
134 154 181
134 154 181
135 155 181
134 154 181
134 154 181
133 154 180
135 155 181
134 154 181
134 154 181
133 154 181
134 154 181
134 154 181
134 154 181
134 154 181
134 154 181
135 155 181
133 154 181
134 154 181
135 155 181
134 154 181
134 154 181
133 154 180
134 154 180
134 154 181
134 155 181
134 154 181
134 154 181
134 154 181
134 155 181
134 154 181
134 154 181
133 154 181
134 154 181
134 154 181
135 155 181
134 154 181
134 154 181
134 154 181
133 154 181
134 154 181
134 154 181
133 154 181
134 154 180
132 153 180
134 154 181
134 154 181
133 154 181
134 154 181
135 155 181
133 154 181
134 154 181
133 154 181
134 154 181
134 154 181
134 154 181
134 154 181
133 154 181
133 154 181
134 154 181
133 154 181
133 154 181
132 153 180
134 154 181
133 154 181
134 154 181
134 154 180
134 154 181
134 154 181
134 154 181
133 154 181
133 154 181
133 154 181
134 154 181
132 153 181
133 154 180
134 154 181
133 154 181
134 154 181
132 153 180
133 154 181
133 153 180
134 154 181
134 154 181
134 154 181
134 154 181
134 154 181
133 154 180
134 154 181
133 153 179
133 154 181
133 153 180
133 153 180
133 154 181
132 153 180
133 154 180
133 154 180
134 154 181
133 153 180
135 155 181
133 153 180
133 153 180
132 153 180
132 152 179
134 154 181
130 149 184
118 134 184
113 127 195
112 124 200
114 126 201
115 127 204
111 123 198
116 128 205
110 123 197
115 127 204
115 127 203
112 123 198
117 130 207
110 122 197
113 125 201
117 129 206
115 127 204
112 124 199
114 126 202
115 127 203
118 130 208
113 125 200
113 125 201
111 123 198
112 127 207
117 132 216
119 136 223
120 137 226
119 137 226
119 137 227
119 138 228
119 138 228
120 138 228
119 137 228
119 138 228
119 138 228
120 138 228
119 137 228
120 138 228
118 137 228
120 138 228
120 138 228
120 138 228
119 138 228
119 138 228
119 138 228
118 137 228
119 137 227
117 135 224
119 136 223
121 137 224
118 135 220
115 130 214
118 133 216
116 131 213
117 132 213
116 129 209
114 126 203
115 128 206
113 126 201
112 124 199
111 123 197
110 122 197
117 128 204
108 119 192
109 122 196
114 125 200
112 125 200
113 125 201
116 128 205
111 122 196
112 124 198
111 122 196
112 123 198
111 123 199
108 120 194
111 122 195
113 124 199
114 125 200
106 117 189
109 121 195
108 118 189
111 122 195
112 124 198
107 119 192
110 120 194
111 121 194
109 119 192
113 123 196
115 124 199
105 115 186
111 120 194
110 119 192
110 119 191
113 120 193
107 114 184
106 115 187
106 113 182
107 113 183
116 128 191
122 136 177
131 150 179
132 152 178
131 152 180
133 153 180
133 153 180
131 152 179
132 152 180
133 153 180
133 153 180
132 152 179
133 153 179
132 153 180
132 152 178
133 153 180
133 153 180
133 153 180
133 153 180
134 154 180
132 152 178
133 153 179
133 153 180
133 153 179
133 153 180
133 154 181
134 151 177
136 135 159
145 128 149
150 105 123
155 104 121
159 108 123
155 105 120
153 104 119
158 107 122
166 113 127
158 107 121
159 107 122
159 107 122
159 108 122
155 106 121
165 112 126
156 106 121
158 107 121
161 109 123
162 110 124
158 107 122
160 108 123
159 109 123
154 122 140
146 137 159
134 151 176
134 154 180
133 153 180
134 154 181
133 153 179
133 154 181
134 154 180
134 154 181
133 154 181
132 152 179
133 154 180
132 153 179
134 154 180
134 154 181
134 154 181
133 153 180
134 154 181
133 154 181
132 153 180
133 153 179
133 154 181
134 154 181
133 153 179
133 153 179
134 154 181
133 153 180
134 154 181
134 154 181
134 154 181
132 154 181
133 154 181
133 154 181
133 154 181
134 154 181
134 154 181
133 154 181
134 154 181
134 154 181
134 154 181
134 154 181
133 154 181
134 154 181
133 154 181
134 154 181
134 154 181
134 154 181
133 154 181
133 153 180
134 154 181
134 154 181
133 154 181
134 154 181
133 154 181
134 154 181
135 155 181
133 154 181
133 154 181
133 154 181
134 154 181
133 154 181
134 154 181
133 153 180
134 154 181
134 155 181
135 155 181
134 154 181
133 153 180
133 154 181
134 154 181
133 154 181
133 154 181
134 154 181
133 154 181
133 154 181
133 154 181
134 154 180
134 154 181
134 154 181
134 155 181
134 154 180
133 154 181
134 154 181
133 154 181
134 154 181
134 154 181
134 154 181
134 155 181
134 154 181
134 154 181
134 154 181
134 154 181
134 154 181
134 154 181
133 154 180
133 154 181
134 154 181
134 154 181
134 154 181
134 154 181
134 154 181
133 154 181
133 154 181
134 154 181
134 154 181
133 154 181
134 154 181
134 154 181
133 154 181
134 155 181
134 154 181
134 154 181
133 154 181
134 154 181
134 154 181
133 154 181
134 154 181
133 154 181
133 154 181
134 154 181
133 154 181
134 154 181
134 154 181
134 154 181
133 154 181
133 154 181
134 154 181
134 154 181
134 154 181
134 154 181
134 154 181
134 154 181
134 154 181
133 154 181
133 154 181
134 154 181
134 154 181
133 154 180
134 154 181
134 154 181
133 154 181
133 154 181
133 154 181
134 154 181
134 154 181
134 154 181
134 154 181
133 154 181
133 154 181
133 154 181
133 154 181
134 154 180
134 154 181
134 154 181
133 154 181
134 154 181
134 154 181
134 154 181
134 154 181
134 154 181
134 154 181
133 154 181
133 154 181
134 154 181
134 154 181
134 154 181
134 154 181
133 153 180
133 153 180
133 154 180
134 154 181
134 154 181
134 154 181
134 154 181
135 155 181
134 154 181
134 154 181
134 154 181
134 154 181
133 154 181
133 154 181
134 155 181
134 154 181
134 154 181
133 154 181
134 154 181
134 154 181
134 154 181
134 154 181
135 155 181
134 154 181
134 154 181
133 154 181
134 154 181
133 154 181
134 154 181
134 154 181
134 154 181
133 154 181
134 154 181
133 154 181
134 154 181
134 154 181
133 154 181
134 154 181
134 154 180
133 154 180
134 154 181
132 153 179
133 154 181
134 154 181
134 154 180
133 153 180
134 154 181
133 154 181
132 153 180
133 154 181
133 154 181
135 155 181
133 153 180
132 152 180
133 154 181
133 153 180
133 154 180
133 153 180
134 155 181
133 153 180
133 154 180
133 154 181
134 154 181
133 153 180
133 153 180
134 154 180
134 154 181
133 154 180
133 154 180
133 154 181
133 153 180
133 154 180
133 153 180
133 153 180
134 154 180
133 153 179
132 153 181
134 154 180
134 154 180
133 153 180
133 153 180
132 152 179
132 152 179
133 153 180
129 148 183
121 137 189
118 133 197
110 122 196
113 125 201
112 124 198
111 124 199
114 126 202
109 121 195
115 128 204
112 125 201
115 127 204
114 126 201
108 121 195
117 129 206
112 124 199
114 126 201
111 123 198
109 121 196
117 129 206
115 127 203
115 127 202
113 125 201
114 126 203
111 124 200
117 129 208
118 132 213
116 130 212
116 132 217
120 137 226
118 136 226
120 138 228
120 138 228
120 138 228
120 138 228
120 138 228
119 138 228
119 138 228
120 138 228
120 138 228
119 138 228
119 138 228
120 138 228
120 138 228
118 135 225
117 134 221
115 132 218
119 136 222
117 133 218
114 129 209
118 133 215
112 126 204
113 127 206
114 126 203
115 127 203
112 125 200
115 127 204
106 119 191
110 122 196
116 128 204
106 118 191
108 120 193
116 128 205
110 121 195
110 122 195
112 125 202
111 123 197
111 123 199
112 122 196
114 125 199
113 125 201
116 128 204
116 127 203
115 127 203
110 122 197
111 123 197
112 124 199
112 123 197
110 121 195
106 118 191
110 122 196
111 121 194
112 124 199
111 123 197
114 122 196
113 123 198
111 122 196
112 123 197
115 125 200
104 113 184
109 119 191
108 117 187
110 119 192
112 122 195
111 117 187
111 119 192
109 117 189
112 119 190
105 113 181
115 126 189
119 133 180
129 148 181
129 148 176
131 151 178
133 153 180
130 150 177
132 152 179
132 152 179
131 150 178
133 153 180
131 151 178
133 153 180
132 152 178
133 153 180
132 152 179
133 153 179
132 153 180
131 152 178
132 151 178
133 153 180
132 153 179
132 153 180
133 153 179
132 152 179
132 152 179
134 153 179
138 141 166
142 120 143
145 102 121
155 105 121
162 109 124
163 110 125
163 110 126
161 109 124
161 108 123
166 112 127
157 106 121
160 108 122
159 108 123
161 109 123
161 109 123
157 107 121
157 107 121
159 108 123
164 111 125
159 108 122
159 108 122
157 107 121
158 122 140
143 140 162
135 150 175
134 154 181
133 154 181
133 153 180
134 154 180
132 153 180
133 154 181
134 154 180
132 152 178
134 154 180
134 154 180
134 154 181
134 154 181
133 154 181
133 153 180
134 154 181
133 154 181
133 153 179
134 154 181
133 153 179
134 154 181
132 153 180
133 154 181
134 154 181
134 154 181
134 154 180
134 154 181
134 154 181
134 154 181
134 154 181
134 154 181
134 154 180
134 154 181
132 152 179
134 154 181
134 154 181
134 154 181
133 153 180
133 154 181
134 154 181
134 154 181
134 154 181
134 154 181
133 154 181
133 153 180
134 155 181
134 154 181
134 154 181
134 154 180
133 154 181
133 154 181
133 154 181
133 154 180
133 154 181
133 153 180
134 154 181
134 154 181
133 153 180
134 154 181
134 154 181
133 154 181
134 154 181
134 154 181
133 154 181
134 154 181
133 154 181
134 154 181
134 154 181
133 154 181
134 154 181
135 155 181
134 154 181
134 154 181
134 154 180
134 154 180
134 154 181
134 154 181
133 154 181
134 154 181
133 154 181
133 154 181
133 154 181
134 154 181
133 154 181
134 154 181
134 154 181
134 154 181
134 154 181
133 154 181
134 154 181
134 154 181
134 154 181
133 154 181
133 154 181
134 154 181
134 154 181
133 154 181
134 154 181
134 154 181
134 154 181
133 154 181
133 153 180
133 154 181
133 154 181
133 154 181
133 154 181
134 154 181
133 154 181
133 154 181
133 154 181
134 154 181
134 154 181
133 154 181
134 154 181
134 154 180
134 154 181
133 154 181
133 154 181
134 154 181
134 154 181
134 154 181
133 154 181
134 154 181
133 154 181
134 154 181
133 154 181
135 155 181
134 154 181
134 154 181
134 154 181
134 154 181
134 154 181
133 154 181
134 154 181
133 154 181
134 154 181
134 155 181
134 154 181
134 154 181
134 154 180
134 154 181
134 154 181
133 154 181
134 154 181
133 154 181
134 154 181
133 154 181
134 154 181
134 154 181
134 154 181
134 154 181
133 154 181
134 154 181
134 154 181
134 154 181
133 154 181
134 154 181
135 155 181
134 154 181
133 154 181
133 154 181
133 154 181
135 155 181
134 154 181
134 154 180
134 154 181
134 154 181
134 154 181
134 154 181
133 154 181
133 154 181
134 154 181
134 154 181
133 154 181
134 154 181
133 154 180
134 154 181
134 154 180
133 154 181
134 154 181
133 154 181
135 155 181
133 154 181
135 155 181
134 154 181
134 154 181
135 155 181
135 155 181
134 154 181
133 154 181
134 154 180
133 154 181
134 154 181
134 154 181
134 154 181
134 154 181
133 154 181
134 154 181
134 154 181
133 154 181
133 154 181
133 154 181
133 154 181
134 154 181
133 154 181
134 154 181
134 154 181
134 154 181
134 154 181
134 154 181
134 154 181
134 154 181
133 154 181
134 154 181
135 155 181
133 153 180
133 154 181
133 153 180
134 154 180
133 154 180
133 154 180
133 154 180
133 154 180
134 154 180
134 154 181
133 154 181
134 154 181
132 153 180
133 154 180
133 153 180
134 154 181
133 153 180
134 154 181
133 153 180
132 153 180
133 154 180
133 154 180
134 154 180
133 153 180
133 153 180
132 153 180
132 153 180
132 152 179
133 153 180
133 154 181
131 151 179
133 153 180
132 153 180
132 152 180
133 153 180
131 151 184
126 143 191
120 134 201
113 126 201
111 123 198
113 126 202
112 125 200
110 122 196
114 126 201
114 126 202
107 120 194
113 125 201
114 127 204
114 125 200
118 129 206
114 127 204
112 124 199
112 124 199
114 126 201
111 124 200
113 125 201
116 128 204
110 123 199
109 121 195
111 124 199
112 124 200
109 121 196
111 125 203
115 129 211
116 131 214
119 135 220
119 136 225
120 138 228
120 138 228
120 138 228
120 138 228
119 138 228
119 138 228
120 138 228
120 138 228
117 135 224
118 135 222
119 136 222
115 132 217
116 132 217
117 132 216
116 131 212
115 129 209
119 133 214
117 130 209
114 127 204
114 127 203
112 125 202
116 128 204
111 123 199
112 124 200
114 126 202
115 126 202
113 125 199
113 124 200
112 124 200
114 125 200
113 125 200
113 126 201
113 125 200
111 124 200
112 123 198
113 125 202
110 122 196
110 122 196
111 123 197
110 122 196
104 116 187
110 122 197
112 124 200
110 122 196
110 121 194
111 122 196
113 123 198
109 121 196
107 119 192
112 123 198
114 125 200
108 117 188
113 123 198
111 122 196
111 121 194
109 121 195
112 121 194
113 122 195
111 119 191
111 122 197
107 114 184
113 121 195
110 119 192
106 113 183
111 117 188
107 115 186
107 115 183
114 125 183
118 130 181
127 144 175
129 149 176
131 151 179
129 148 176
130 150 178
131 151 179
132 151 178
132 151 178
132 152 179
133 153 180
132 152 179
133 153 180
132 153 179
132 152 179
131 151 179
132 153 179
130 149 176
130 150 177
133 153 180
132 152 179
132 151 178
133 154 181
132 152 179
132 151 178
133 150 177
136 137 162
147 120 141
156 108 125
159 107 123
154 104 121
155 105 120
156 106 121
163 111 126
159 108 122
158 107 122
161 109 123
160 108 123
160 108 122
163 110 124
160 107 121
161 109 123
154 105 119
157 107 121
155 106 120
159 108 122
154 105 120
162 111 126
150 124 143
145 140 162
136 150 175
135 154 179
134 154 180
133 154 180
133 153 180
133 153 180
134 154 180
133 154 181
133 153 180
134 154 181
134 154 180
133 152 179
133 153 179
133 153 180
134 154 181
133 154 180
134 154 180
134 153 179
133 154 181
134 153 179
134 154 180
134 154 180
134 154 181
134 154 181
134 154 181
133 154 181
134 154 181
133 153 180
134 154 181
134 154 179
133 154 181
133 154 181
134 154 181
134 154 180
133 154 181
133 154 181
133 154 181
133 154 181
133 153 180
134 154 180
133 154 180
134 154 181
133 154 181
133 154 181
133 154 181
133 154 181
134 154 181
134 154 181
133 154 181
134 154 181
134 154 181
134 154 181
134 154 181
133 154 181
134 154 181
134 154 180
133 154 181
134 154 181
134 155 181
133 154 181
134 155 181
134 154 181
133 154 181
134 154 181
134 154 180
134 154 181
133 154 181
134 154 181
134 154 181
133 154 181
133 154 181
134 154 181
133 154 181
133 154 181
133 154 181
134 154 181
135 155 181
133 154 181
134 154 181
133 154 181
134 155 181
134 154 181
134 154 181
134 154 181
134 154 181
133 154 181
134 154 181
133 154 181
133 154 181
133 154 181
134 154 181
134 154 181
133 154 181
134 154 181
133 154 181
133 154 181
133 154 181
134 154 181
134 154 181
134 154 181
134 154 181
133 154 181
133 154 181
133 154 181
133 154 180
134 154 181
133 154 181
134 154 180
134 154 181
134 154 181
134 154 181
134 154 181
134 154 180
134 154 181
134 154 181
133 154 181
133 154 181
133 154 181
135 155 181
134 154 181
135 155 181
134 154 181
134 154 181
134 154 181
134 154 181
134 154 181
134 154 181
133 154 181
133 154 181
133 154 181
133 154 181
133 154 181
133 154 181
133 154 181
133 154 180
134 154 181
134 154 181
133 154 181
134 154 181
133 154 181
134 154 181
134 154 181
135 155 181
134 154 181
134 154 181
134 154 181
133 154 181
135 155 181
134 154 181
134 154 181
133 154 181
134 154 181
133 154 181
134 154 181
133 154 181
134 154 180
134 154 181
134 154 181
134 154 181
134 154 181
134 154 181
134 154 181
133 154 181
133 154 181
133 154 181
133 154 181
133 154 181
134 154 181
135 155 181
134 154 181
133 154 181
134 154 181
134 154 181
134 154 181
134 154 181
134 154 181
133 154 181
134 154 181
133 154 181
134 154 181
135 155 181
133 154 180
133 154 181
133 154 181
134 154 181
134 154 181
134 154 181
134 154 181
133 154 181
133 154 181
134 154 181
133 154 181
133 154 181
133 154 181
134 154 181
134 154 180
134 154 181
133 154 181
133 154 181
134 154 181
133 153 180
133 153 180
133 154 181
134 154 180
134 154 181
134 154 181
133 154 181
134 154 181
134 154 181
134 155 181
134 155 181
134 154 181
134 154 181
134 154 181
134 154 180
134 154 181
134 154 181
133 154 180
134 154 181
133 154 180
133 154 180
134 154 181
133 154 181
134 154 180
132 153 180
133 153 180
134 154 181
133 153 180
133 154 180
133 154 181
134 154 181
134 154 181
132 153 180
132 153 180
134 154 181
134 154 180
133 154 180
134 154 180
133 153 180
133 154 181
133 153 180
133 153 180
132 152 179
133 154 181
133 153 180
133 153 180
133 153 180
134 154 180
132 153 180
130 150 178
129 149 180
120 137 185
118 132 196
114 126 201
111 123 198
111 123 198
112 124 200
113 125 202
117 129 206
108 120 193
109 121 195
114 126 202
116 128 205
113 125 200
114 127 202
112 124 199
111 123 198
115 127 204
114 126 201
115 127 202
113 125 200
115 127 203
113 125 201
114 127 204
114 126 202
113 125 200
113 126 201
111 123 198
114 126 202
112 126 204
116 131 214
116 132 216
117 133 219
117 134 222
119 137 227
119 137 227
119 137 226
119 137 226
118 135 223
119 135 221
116 132 217
115 130 213
113 128 210
114 128 208
115 128 207
112 125 202
112 125 201
109 121 194
115 128 205
115 127 203
112 124 200
115 127 203
114 127 203
111 123 197
111 124 200
112 125 200
113 125 200
114 126 202
116 128 205
115 127 204
115 127 202
114 126 201
115 127 204
113 124 199
111 122 196
109 120 194
111 123 199
112 123 198
109 121 195
112 124 201
114 126 201
110 121 194
111 124 200
117 129 205
115 126 202
110 121 195
114 126 202
109 120 195
111 122 197
115 126 202
110 121 195
107 118 190
112 124 200
111 122 196
103 113 184
111 120 193
110 120 195
111 119 192
111 121 194
107 115 186
109 120 194
110 119 192
111 121 193
109 117 189
112 122 197
108 114 184
114 123 197
110 117 188
106 112 180
114 122 184
121 136 180
124 143 176
130 150 178
129 149 178
130 150 178
132 152 179
132 151 178
131 151 179
131 152 179
130 150 177
132 152 179
131 151 178
132 151 178
131 151 178
133 153 180
133 153 180
133 152 179
132 153 179
132 152 179
132 152 178
131 150 177
132 152 179
131 151 178
133 153 179
133 153 180
130 145 172
137 135 160
144 113 134
152 104 122
154 104 122
156 105 120
151 102 117
157 107 123
161 109 124
155 104 119
165 111 125
167 112 127
157 107 121
158 108 122
158 107 121
164 110 125
156 106 121
160 108 122
155 106 120
162 109 123
161 109 123
162 109 123
154 106 122
152 125 143
142 139 162
135 149 174
134 153 179
133 153 180
133 153 180
133 153 179
134 154 180
133 153 180
134 154 181
135 155 181
134 154 181
133 153 180
133 152 178
134 154 181
134 154 181
133 153 179
133 153 180
134 154 181
133 154 181
133 153 180
134 154 180
132 152 179
133 154 181
135 154 180
133 154 181
134 154 181
133 154 181
134 154 181
135 155 181
134 154 181
133 154 180
133 154 181
134 154 181
134 154 181
133 154 180
134 154 181
134 154 180
133 154 180
133 154 180
133 154 181
133 154 181
134 154 180
134 154 180
135 155 181
134 154 181
133 153 180
133 154 180
134 154 181
133 154 181
134 154 181
133 153 180
134 154 180
133 154 181
134 154 181
133 154 181
133 154 181
133 154 181
134 154 180
134 154 181
133 154 181
134 154 181
133 154 181
133 154 181
134 154 180
133 154 181
135 154 180
133 153 180
134 154 181
133 153 179
133 154 181
134 154 180
134 154 180
133 154 181
134 154 181
134 154 180
133 154 181
134 154 181
134 154 181
134 154 181
134 154 181
134 154 181
134 154 181
133 154 181
134 154 181
133 154 181
133 154 181
133 154 181
133 154 180
133 154 181
134 154 181
134 154 181
134 154 181
134 154 181
133 154 181
134 154 181
133 154 181
133 153 180
133 154 181
133 154 181
135 155 181
134 154 181
133 154 181
134 154 181
134 154 181
134 154 181
133 154 181
134 154 181
134 154 181
134 154 181
135 155 181
133 154 181
134 154 181
134 154 181
134 154 181
134 154 181
134 154 181
134 154 181
133 154 181
134 154 181
133 153 180
133 154 181
134 154 181
134 154 181
133 154 181
135 155 181
134 154 181
133 154 181
133 154 181
134 154 181
134 154 181
135 154 180
134 154 181
133 154 181
134 154 181
134 154 181
133 154 181
134 154 181
134 154 181
135 155 181
134 154 181
134 154 181
134 154 181
134 154 181
134 154 181
134 154 181
135 155 181
133 154 181
133 154 181
134 154 181
133 154 181
134 154 181
133 154 181
133 154 181
132 154 181
133 154 181
134 154 180
133 154 181
134 154 181
134 154 181
133 154 181
134 154 181
134 154 181
133 154 181
135 155 181
134 154 181
133 154 181
134 154 181
133 154 181
134 154 181
133 154 181
133 154 181
134 154 181
133 154 181
134 154 181
135 155 181
134 154 181
134 154 181
134 154 180
134 154 181
134 154 181
134 154 181
134 154 180
134 154 181
133 154 181
134 154 181
134 154 181
133 154 181
134 154 181
134 155 181
133 154 181
134 154 181
133 154 181
133 154 181
134 154 181
135 155 181
134 154 181
132 153 180
133 154 181
134 154 181
134 154 181
134 154 181
133 154 181
133 154 181
134 155 181
134 154 181
134 154 181
135 155 181
133 154 181
134 154 181
134 154 180
134 154 181
133 153 180
133 154 181
134 154 181
134 154 181
134 154 181
134 154 181
133 154 181
133 154 181
133 153 180
133 153 180
134 155 181
133 153 180
133 154 181
133 153 180
133 154 181
134 154 181
134 154 180
134 154 181
133 154 180
133 154 181
133 154 181
134 154 181
133 153 180
132 153 179
132 153 179
134 155 181
134 154 181
132 153 180
133 153 180
133 154 180
133 153 179
134 154 181
132 152 180
134 153 180
132 152 180
132 152 180
133 153 180
132 153 179
133 153 180
134 154 181
130 150 179
122 139 186
115 129 194
115 127 203
110 122 196
116 128 205
111 123 198
113 125 200
112 124 199
115 127 203
117 129 205
112 124 200
109 121 195
113 125 200
115 127 204
114 126 202
114 126 202
114 126 201
113 125 201
109 121 195
118 129 206
115 127 202
111 123 197
112 124 200
114 126 202
115 127 204
115 128 205
114 126 202
111 123 197
115 127 202
110 123 198
119 132 213
115 129 209
117 133 219
118 134 219
117 134 221
116 133 218
115 131 215
119 133 215
114 128 209
113 127 205
113 126 204
118 130 209
112 125 200
111 123 198
111 124 199
115 128 204
111 123 198
113 125 200
108 120 195
111 123 198
112 124 199
111 123 197
110 123 197
114 126 202
115 127 203
108 120 194
115 126 202
112 124 198
111 123 197
107 120 192
107 120 194
115 127 203
114 126 201
111 123 199
113 124 199
114 127 203
109 121 194
113 125 201
108 120 194
111 122 197
111 123 198
111 123 199
110 121 196
110 120 192
112 124 199
115 127 203
115 126 203
111 123 197
111 123 196
111 122 196
112 124 199
111 122 195
112 121 194
111 122 196
110 121 194
110 121 195
107 117 189
108 116 187
113 120 192
111 122 196
99 108 176
110 119 191
108 115 186
105 112 182
104 114 184
107 116 186
113 119 191
107 115 185
116 129 190
122 139 186
128 147 177
130 150 178
130 149 176
131 151 179
129 148 177
129 149 177
131 151 178
130 150 177
133 152 179
130 150 177
131 151 178
131 152 179
132 152 179
133 152 179
131 150 177
132 152 179
132 152 178
132 151 178
134 154 180
131 150 178
132 153 180
132 151 179
131 152 179
131 150 177
131 149 176
134 131 156
139 116 138
152 105 125
153 104 120
152 103 118
153 104 120
159 107 123
163 110 124
158 106 120
161 108 123
155 106 120
160 109 123
158 107 121
159 107 121
159 107 122
163 110 125
162 110 124
168 114 128
157 107 121
154 105 119
160 108 122
156 110 125
153 119 136
143 146 169
134 152 179
134 154 181
133 153 179
133 153 179
133 153 180
133 153 179
132 153 180
134 153 179
133 153 180
134 155 181
133 153 180
133 154 181
132 153 180
134 153 179
133 153 178
134 154 181
133 153 179
134 154 180
133 153 180
133 154 180
134 153 179
134 154 181
134 154 181
134 155 181
134 154 180
133 154 181
133 153 180
134 154 180
133 154 181
132 153 180
133 154 181
134 154 180
134 154 181
133 153 179
134 154 181
134 154 181
133 153 179
134 155 181
133 154 181
133 153 180
134 154 181
133 154 181
134 154 181
133 154 181
134 154 180
134 154 181
134 154 181
135 155 181
134 154 181
133 154 181
134 154 181
134 155 181
134 154 181
134 154 180
135 155 181
134 154 181
133 154 181
133 154 181
134 154 181
133 153 180
134 154 180
133 154 181
134 154 181
133 153 180
133 153 180
135 154 180
134 154 181
133 154 181
133 153 180
134 154 181
133 154 181
134 154 181
134 154 181
134 154 181
133 154 181
133 153 180
134 154 181
135 155 181
134 154 181
134 154 181
134 154 181
134 154 181
134 154 181
133 154 181
134 154 181
134 154 181
133 154 181
135 155 181
134 154 181
134 154 180
135 155 181
133 154 181
134 154 181
133 154 181
134 154 181
134 154 181
134 154 181
134 154 181
134 154 181
134 154 181
134 154 181
134 154 180
134 154 181
133 154 180
134 154 181
134 154 181
133 154 181
134 154 181
134 154 181
134 154 180
134 154 181
133 154 181
134 154 181
133 154 180
134 154 181
133 154 181
133 154 181
134 154 181
134 154 181
133 154 180
133 154 181
134 154 181
134 154 181
135 155 181
134 154 181
134 154 181
134 154 181
134 155 181
133 154 181
133 154 181
134 154 181
133 154 181
133 154 181
133 154 181
133 154 181
134 154 181
134 154 181
133 154 181
133 154 181
133 154 181
134 155 181
134 154 181
134 154 181
134 155 181
134 155 181
134 154 181
134 154 181
133 154 181
133 154 181
134 154 181
133 154 181
134 154 181
134 154 181
133 154 181
135 155 181
134 154 181
133 154 181
134 154 181
133 154 181
134 154 181
134 154 181
134 154 181
133 154 181
134 154 181
134 154 181
134 154 181
133 154 181
133 154 181
134 154 181
135 155 181
134 154 181
134 154 181
133 154 181
134 154 181
134 154 181
134 154 181
134 154 181
133 154 181
134 154 181
135 155 181
133 154 181
134 154 181
133 154 181
134 154 181
134 154 181
134 154 181
134 154 181
134 154 181
133 154 181
133 154 180
134 154 181
133 154 181
133 154 181
134 154 181
134 154 181
134 154 181
133 154 181
135 155 181
135 155 181
133 154 181
133 154 180
133 154 180
133 154 181
134 155 181
133 154 180
134 154 181
133 154 181
134 154 181
133 154 181
134 154 181
134 154 181
132 153 180
134 154 181
134 154 181
133 154 181
134 154 181
133 154 181
132 153 180
133 154 181
132 153 180
132 153 179
134 155 181
133 153 179
133 154 181
134 154 181
133 153 180
134 154 181
133 154 181
132 153 180
133 154 180
133 153 180
133 154 181
133 154 180
134 154 181
133 153 180
133 153 180
133 154 180
133 154 181
131 152 178
133 153 180
134 154 180
133 153 180
134 154 180
133 153 180
132 153 180
133 154 181
131 151 179
133 153 180
132 152 180
131 151 178
128 148 179
123 140 187
116 131 191
112 124 200
118 130 207
113 125 201
110 122 196
112 124 200
115 127 204
114 127 203
114 126 204
112 124 201
112 124 200
108 120 193
116 128 204
111 123 198
114 126 203
112 125 200
114 126 202
110 122 196
115 128 207
109 121 195
109 122 196
110 123 198
116 128 204
111 123 198
116 128 204
117 129 206
110 123 197
116 128 204
114 126 202
113 126 202
110 122 197
115 129 209
115 128 208
117 132 214
116 130 210
117 130 208
108 121 196
108 121 195
117 129 206
114 126 202
107 119 192
111 123 198
118 130 206
111 123 197
110 122 196
112 124 198
109 121 194
114 126 202
113 125 201
112 124 198
114 126 203
115 126 202
118 129 206
114 126 201
112 124 200
111 123 198
114 126 201
111 121 194
106 118 190
108 120 194
112 123 199
109 122 197
111 123 199
115 127 202
112 123 198
111 122 197
110 121 195
110 121 196
107 119 192
113 124 198
107 120 193
106 116 187
110 120 193
114 125 200
113 123 198
115 126 202
112 122 196
109 121 194
113 122 196
109 117 189
108 117 189
103 113 184
111 122 196
107 117 189
111 120 192
111 122 196
114 124 198
109 120 193
112 122 196
111 121 194
110 119 191
108 116 187
107 115 185
106 114 185
111 119 191
107 115 185
110 117 187
113 122 179
119 134 180
123 139 172
131 150 177
131 152 179
128 146 173
128 148 176
130 150 177
130 150 177
131 150 178
127 147 175
131 150 177
132 153 179
131 150 176
132 152 178
132 152 179
131 149 176
132 151 178
132 152 180
133 152 179
132 152 180
131 150 176
131 151 178
132 152 179
131 150 176
133 152 178
132 147 173
135 132 157
141 119 142
151 103 121
160 108 125
155 105 121
154 105 121
157 107 123
158 108 122
158 107 122
166 111 125
153 104 118
164 111 125
158 107 122
157 106 121
156 106 120
160 109 123
151 102 116
161 109 123
159 108 122
157 107 121
162 110 124
156 107 121
145 121 139
142 140 163
136 151 176
133 152 179
132 152 178
133 153 180
133 153 179
133 153 179
134 152 178
134 153 179
134 153 179
134 154 181
134 153 179
134 154 181
133 153 180
133 154 180
132 152 179
134 154 180
135 154 179
134 153 179
133 153 180
134 154 181
134 154 180
133 154 181
134 154 181
134 154 181
132 153 180
134 154 181
133 153 179
134 154 180
134 154 181
133 152 178
134 154 181
134 154 181
135 155 181
133 154 181
133 154 181
134 154 180
134 154 181
134 154 181
134 154 181
134 154 181
135 155 181
134 154 181
134 154 180
134 154 181
133 154 180
133 154 180
134 154 181
133 154 181
135 154 180
134 154 181
134 154 181
134 154 180
134 154 180
133 154 181
134 154 181
133 153 180
134 154 181
133 153 180
133 153 180
133 154 181
134 155 181
134 154 180
133 154 181
133 154 181
133 154 181
133 154 181
134 154 181
133 154 181
134 154 181
134 154 181
134 154 181
134 154 181
134 154 181
135 155 181
134 154 181
133 154 181
134 155 181
134 154 181
133 153 180
133 154 181
134 154 181
134 154 181
134 154 180
135 155 181
132 153 181
134 154 181
133 154 181
134 154 181
133 154 181
133 154 181
134 154 181
133 153 180
134 154 181
133 154 181
133 154 181
134 155 181
133 154 181
134 154 181
134 154 181
134 154 181
134 154 181
134 154 181
134 154 181
134 154 181
134 154 181
134 154 181
134 154 181
134 154 181
134 154 181
133 154 181
134 154 181
133 154 181
134 154 181
133 154 181
134 154 181
133 154 181
134 154 181
133 154 181
133 154 181
134 154 181
134 154 181
134 154 181
134 154 181
134 154 181
134 154 181
134 154 181
134 154 181
134 154 181
133 154 181
134 154 181
134 154 181
133 154 181
134 154 181
135 155 181
133 154 181
134 154 181
133 154 181
134 154 181
133 154 181
133 154 181
134 154 181
134 154 181
132 154 181
134 154 181
133 154 181
134 154 181
133 154 181
132 153 181
134 154 181
134 154 181
134 154 180
134 154 181
133 154 181
133 154 181
134 154 181
134 154 181
134 154 181
134 154 181
133 154 181
134 154 181
134 155 181
134 154 181
133 154 181
133 154 180
134 154 181
134 154 181
135 155 181
133 154 181
134 154 181
135 155 181
135 155 181
134 155 181
133 154 180
134 154 181
134 154 180
133 154 181
134 154 181
134 154 181
133 154 181
133 153 180
134 154 181
134 154 181
134 154 181
134 154 181
134 154 181
134 154 181
134 154 181
133 154 181
135 155 181
134 154 181
134 154 181
134 154 181
134 154 181
133 153 180
133 154 181
133 153 180
134 154 181
135 155 181
134 154 181
134 154 181
134 154 181
134 154 181
132 153 180
133 154 181
133 153 180
133 154 180
133 154 180
133 154 180
133 153 180
133 154 181
134 154 181
133 154 181
133 154 180
134 154 180
132 153 180
134 154 181
134 154 181
134 154 180
133 154 181
134 154 181
132 153 180
134 154 181
132 153 180
133 154 180
133 154 181
133 154 181
134 154 181
134 154 180
134 154 180
134 154 180
133 153 179
134 154 181
132 153 180
132 153 180
132 152 179
132 152 179
133 154 180
133 153 180
133 154 181
133 153 180
132 152 179
133 153 180
132 152 180
133 153 180
132 152 179
133 154 180
132 152 180
132 152 179
131 152 179
132 153 180
132 152 181
124 141 188
116 131 191
114 126 200
109 121 195
116 128 205
113 124 199
115 127 204
113 124 199
115 127 203
112 124 198
113 126 202
113 126 202
108 120 194
111 123 199
111 123 198
116 128 204
111 124 199
120 132 210
114 126 202
113 125 200
113 125 200
114 126 202
109 122 196
110 122 197
111 123 197
116 128 204
112 124 199
114 126 202
110 123 198
115 128 205
115 128 205
112 125 200
116 128 204
116 128 205
116 128 206
113 125 202
113 125 201
112 124 200
114 126 202
113 126 202
108 121 195
112 124 198
112 124 199
113 125 201
116 128 205
113 125 201
114 126 202
111 124 200
110 122 196
112 124 198
111 123 199
113 124 200
105 117 189
116 127 203
108 120 194
106 119 191
110 122 197
110 122 196
113 124 199
113 125 200
111 122 196
109 121 195
115 127 203
112 123 197
107 119 192
111 123 198
109 121 195
115 127 203
113 124 199
111 122 196
114 126 203
108 120 194
112 124 198
114 126 201
112 124 200
110 121 194
112 123 197
116 128 205
109 120 192
112 124 200
109 120 193
111 121 196
115 127 203
109 120 194
111 121 194
108 118 190
112 122 197
107 116 187
110 121 195
108 117 189
112 120 194
111 122 196
109 120 193
109 118 191
107 115 186
107 115 185
105 112 182
111 119 189
107 115 172
122 136 183
125 143 177
129 148 177
130 150 179
128 147 175
127 146 175
129 149 177
129 149 177
129 148 176
128 149 178
130 150 177
132 152 179
128 147 175
131 150 177
131 151 177
132 151 178
131 149 177
131 150 177
131 151 177
131 151 178
133 153 179
133 153 179
131 152 179
133 152 178
133 153 180
132 148 175
136 135 160
140 114 136
150 104 121
147 100 117
154 105 120
157 106 122
159 108 123
158 107 121
161 109 124
162 109 123
159 108 122
161 109 123
158 107 121
159 107 122
161 109 123
166 112 126
161 109 123
160 108 122
164 111 125
158 107 121
159 108 122
159 112 127
152 122 140
146 138 161
134 151 176
133 154 181
133 153 179
133 152 178
134 153 179
132 153 180
132 153 179
133 154 181
134 154 180
134 154 180
133 153 180
134 154 180
133 153 180
133 153 179
133 152 178
133 153 179
134 154 180
134 154 180
134 154 181
134 154 181
134 154 181
133 153 179
134 154 181
133 154 181
133 153 178
133 154 181
133 153 180
134 154 180
133 153 179
134 154 180
134 154 180
134 154 181
134 154 181
134 155 181
134 154 180
133 154 181
133 154 181
134 154 180
133 154 181
133 153 180
134 154 181
134 154 181
133 153 180
133 154 180
133 153 180
133 154 181
134 154 181
133 153 180
133 154 181
132 153 179
133 154 181
132 153 180
134 154 181
133 153 180
133 154 181
134 154 181
134 154 181
133 154 181
134 154 180
133 154 181
134 154 181
133 154 181
133 154 181
134 154 181
134 154 181
134 154 181
134 154 181
133 154 181
134 154 181
134 154 181
134 154 181
134 154 181
135 155 181
134 154 181
133 153 180
134 154 181
133 154 181
134 154 181
134 154 181
133 154 181
135 155 181
134 154 181
134 154 181
134 154 181
134 154 181
133 154 181
134 154 181
134 154 181
134 154 181
134 154 181
134 154 181
134 154 181
134 154 181
134 154 181
134 154 181
133 154 181
133 154 181
134 154 181
134 154 181
134 154 181
134 154 181
135 155 181
134 154 181
134 155 181
134 154 181
133 154 181
133 154 181
134 154 181
133 154 181
134 154 181
133 153 180
134 154 181
134 154 181
133 154 181
133 153 180
134 154 181
133 154 181
134 154 181
134 154 181
134 154 181
135 155 181
134 154 181
133 154 181
134 154 181
133 154 181
134 154 181
134 154 181
134 154 181
133 154 181
134 154 181
134 154 181
134 154 181
134 154 181
134 154 181
133 154 181
134 155 181
134 154 181
133 154 181
134 154 181
134 154 181
133 154 181
134 154 181
133 154 181
133 154 181
133 154 181
134 154 181
134 154 181
134 154 181
134 154 181
134 154 181
134 154 181
134 155 181
134 154 181
133 154 181
134 154 181
134 154 181
134 154 181
134 154 181
134 154 181
134 154 181
135 155 181
134 154 180
134 154 181
133 154 181
134 154 181
134 154 181
134 155 181
134 154 181
134 154 181
134 154 181
133 154 181
134 154 181
133 154 181
133 153 180
133 154 181
134 154 181
133 154 181
134 154 181
133 154 181
134 154 181
135 155 181
133 154 181
135 155 181
133 154 181
134 154 180
134 154 181
133 154 181
134 154 181
134 154 180
133 154 181
134 154 181
133 154 181
134 154 181
133 154 181
134 154 181
134 154 181
133 154 180
133 154 181
134 154 181
133 154 180
133 154 181
133 153 180
134 154 181
134 154 181
133 154 181
134 154 181
133 154 181
133 154 181
134 154 180
132 153 180
134 154 181
134 154 181
133 154 181
132 153 179
133 154 180
134 154 180
133 154 180
134 154 181
134 154 180
134 154 181
133 154 181
134 154 180
133 154 181
133 154 180
134 154 180
133 153 180
133 153 180
133 154 181
134 154 181
133 153 180
133 153 180
135 155 181
133 154 180
132 153 179
133 153 180
134 154 181
133 153 180
133 153 180
131 152 180
133 153 180
133 154 180
132 152 180
133 154 180
131 152 179
132 152 179
133 153 180
131 151 179
131 151 179
129 150 178
130 151 178
131 151 181
127 145 186
118 133 191
112 125 197
112 124 199
114 126 201
112 124 200
109 122 196
114 126 201
111 124 199
117 130 207
109 122 197
111 123 198
115 127 203
109 121 195
112 124 200
111 123 197
114 126 201
110 123 198
111 123 199
114 126 202
112 125 200
113 125 200
113 125 201
111 123 197
112 124 200
116 129 205
110 123 198
114 126 201
115 127 203
109 121 196
117 129 206
115 128 204
117 130 207
113 125 201
109 122 196
114 127 203
114 126 201
109 122 196
112 124 199
110 122 196
114 126 202
111 124 199
113 125 199
115 127 203
115 127 202
113 125 201
112 124 200
112 124 200
117 129 205
113 125 201
107 119 191
111 124 200
114 126 202
112 124 198
107 120 193
113 125 201
110 123 198
112 124 200
115 127 202
112 122 196
110 122 195
107 119 192
107 120 194
110 122 197
109 121 195
109 120 194
107 119 192
113 125 201
114 126 203
110 122 196
111 123 197
114 125 201
112 123 198
114 125 200
111 122 196
109 121 195
111 122 195
108 118 190
112 123 197
111 121 195
107 118 191
110 121 196
111 123 198
112 122 197
111 122 196
105 115 186
110 121 195
119 128 204
109 118 190
107 115 186
113 123 197
111 118 190
111 119 192
107 117 188
110 117 188
105 112 180
112 117 188
104 112 181
108 118 177
117 133 175
124 143 175
125 142 172
130 150 178
128 147 174
128 148 177
129 149 178
129 148 176
129 149 177
128 148 176
130 151 179
130 150 178
129 148 176
132 151 177
129 149 177
130 149 177
132 151 177
130 150 177
133 152 178
132 152 179
131 151 177
131 151 179
132 152 179
130 149 176
132 152 178
133 150 176
137 136 161
141 119 140
146 103 122
155 105 121
151 102 118
155 105 120
164 111 126
159 107 121
161 108 123
152 103 117
163 110 124
161 109 123
154 104 118
156 106 121
164 111 125
160 108 122
158 107 122
156 106 120
168 113 127
160 107 121
158 107 122
155 111 126
150 125 144
140 137 160
134 150 176
131 150 176
134 153 179
133 152 178
132 153 179
133 153 180
132 151 176
132 151 178
131 151 178
133 154 180
133 153 179
134 154 181
133 152 178
133 153 180
133 153 179
133 153 179
133 154 181
133 153 180
133 153 180
133 152 178
132 151 177
134 153 178
133 153 179
133 153 180
133 153 180
134 154 180
134 154 180
134 153 179
133 153 180
133 153 180
133 154 181
133 154 181
134 154 181
134 152 178
135 155 181
134 154 181
134 154 180
134 154 181
133 153 180
133 154 181
134 155 181
132 152 179
133 153 180
134 154 181
134 154 180
134 154 181
134 154 181
134 154 181
133 154 181
134 154 181
134 154 181
134 154 180
133 153 179
133 154 181
133 153 180
132 153 180
134 154 180
133 154 181
134 154 180
133 154 181
134 154 181
134 154 180
134 154 181
134 153 179
133 154 181
133 154 180
133 154 181
134 154 181
134 154 181
134 154 181
134 154 181
134 154 181
134 154 181
134 155 181
134 154 181
133 154 181
134 154 181
134 154 181
133 154 181
134 155 181
134 154 181
133 154 181
134 154 181
134 154 181
133 154 181
133 154 181
135 155 181
134 154 181
134 154 181
134 154 181
134 154 181
133 153 180
133 154 181
134 154 181
133 154 181
133 154 181
134 154 181
133 154 181
134 154 181
133 154 181
133 153 180
134 154 181
134 154 181
133 154 181
134 154 181
134 154 181
134 154 181
134 154 181
133 154 181
134 154 181
134 154 181
133 154 181
134 154 181
133 154 181
134 154 181
134 154 181
133 154 180
133 154 181
133 154 181
134 154 181
134 154 181
134 154 181
134 154 181
134 154 181
132 154 181
134 154 181
134 154 181
133 154 181
133 154 181
134 154 181
133 154 181
134 154 181
134 154 180
134 154 181
134 154 180
133 154 181
133 154 181
134 154 181
133 154 181
133 154 181
134 154 181
134 154 181
133 154 181
134 154 181
133 154 181
134 154 181
134 154 181
134 154 181
134 154 181
133 154 181
133 154 180
134 154 181
133 154 181
134 154 181
134 154 181
133 154 181
134 154 181
133 154 181
133 154 180
134 154 181
133 154 181
135 155 181
133 153 180
133 154 181
134 154 181
134 154 181
133 154 181
134 154 181
133 154 181
135 155 181
133 154 181
134 154 180
134 154 181
133 154 181
135 155 181
134 154 181
134 154 181
133 154 181
134 154 181
134 154 181
133 154 181
134 154 181
134 154 181
134 154 181
134 155 181
132 153 181
134 154 181
134 154 181
134 154 181
134 154 181
133 154 181
133 153 180
133 154 181
134 154 181
133 154 181
133 154 181
133 154 180
134 154 181
134 154 181
133 154 181
134 154 181
134 154 181
134 154 181
133 154 181
133 153 180
134 154 181
134 154 181
133 154 180
133 154 181
134 154 181
132 153 180
135 155 181
134 154 181
133 154 181
133 154 181
134 154 181
133 154 180
134 154 181
134 154 181
134 154 181
134 154 180
133 154 181
133 153 180
133 154 181
133 154 181
132 152 179
134 154 181
133 154 181
134 154 181
133 153 180
135 155 181
132 152 179
133 153 180
132 152 180
133 153 179
132 153 180
133 153 180
132 152 180
134 154 180
131 151 179
132 152 179
132 152 179
133 153 180
133 153 179
129 149 176
131 151 178
129 149 177
130 150 178
131 151 178
129 148 177
129 149 180
121 138 181
119 134 190
111 124 197
113 126 202
112 124 200
113 125 201
110 122 197
112 124 199
108 120 194
111 123 199
109 121 196
112 125 200
112 124 200
111 123 199
113 125 201
102 114 186
117 128 204
108 120 194
109 122 197
118 130 207
116 128 204
112 124 200
112 124 199
112 124 199
108 120 194
113 125 201
115 127 203
109 121 196
110 122 195
115 127 204
112 124 198
111 123 198
113 125 200
114 126 201
110 123 197
115 127 204
113 125 201
115 128 204
109 122 198
114 126 202
112 124 200
112 124 198
110 123 198
109 121 194
113 125 200
110 123 197
112 124 200
115 127 203
112 124 199
112 124 199
112 124 198
113 126 202
113 125 200
114 126 203
114 126 203
112 124 200
114 126 201
110 123 198
110 121 194
110 121 196
111 123 197
113 125 201
109 121 195
112 124 198
114 125 201
112 123 197
115 127 203
106 118 190
109 121 195
111 123 198
116 128 205
111 122 196
108 120 193
112 124 199
107 119 191
113 125 200
107 118 191
108 119 193
114 125 201
112 124 198
109 120 193
109 120 192
109 121 195
108 119 193
111 120 192
107 118 190
111 122 195
108 117 188
111 121 194
107 117 190
108 116 188
110 119 192
110 120 193
106 114 184
107 116 188
109 114 183
105 112 181
103 111 181
108 118 175
115 128 176
124 141 177
130 149 177
130 149 177
126 145 173
129 149 176
128 148 177
127 146 175
129 149 178
129 147 174
128 145 172
131 150 177
130 150 178
131 150 177
130 150 178
131 150 177
130 150 178
130 148 176
130 150 177
132 151 178
133 152 178
132 152 179
134 153 179
131 151 178
132 151 177
133 148 174
134 132 156
140 116 137
148 105 123
152 103 121
159 108 123
156 106 121
153 104 119
164 111 126
160 108 122
161 109 124
162 109 123
158 108 122
158 107 121
161 109 123
162 109 124
159 108 122
158 107 122
161 109 123
159 108 122
160 108 122
157 107 121
160 111 126
143 118 136
140 138 161
135 152 178
133 152 178
132 152 179
133 153 180
133 152 178
132 151 177
133 153 179
132 152 178
133 153 178
134 153 179
134 153 178
133 152 178
132 151 177
133 154 180
133 153 179
132 152 178
134 153 179
132 152 178
133 153 179
134 153 179
134 154 180
134 154 181
133 153 180
133 154 181
134 154 181
133 153 179
132 152 178
134 154 180
133 153 180
133 154 181
134 154 180
134 154 181
133 153 179
134 153 178
133 154 181
134 154 181
133 153 180
134 154 181
133 153 180
133 153 180
134 154 181
133 153 180
134 154 181
134 154 181
134 154 181
134 154 181
134 154 181
133 154 181
134 154 180
133 154 181
134 154 181
133 154 181
134 154 181
134 154 180
133 153 180
134 154 181
134 154 181
134 154 181
134 154 180
133 154 181
133 154 181
134 154 181
134 154 181
134 154 180
133 154 181
134 154 181
133 154 181
134 154 180
133 154 181
133 154 181
134 154 181
134 154 181
134 154 181
134 154 181
133 154 181
135 155 181
134 154 181
134 154 181
133 154 181
133 154 181
133 154 181
133 154 181
135 155 181
134 154 181
133 154 181
135 155 181
133 154 181
133 154 180
134 154 181
134 154 181
134 154 181
133 154 181
134 154 181
133 154 181
134 154 181
134 154 181
133 154 181
133 154 181
133 154 181
133 154 181
134 154 181
134 154 181
134 154 181
132 153 180
134 154 181
134 154 181
134 154 181
134 154 181
133 154 181
135 155 181
133 154 181
134 154 181
134 154 181
134 154 181
133 154 181
134 155 181
134 154 180
134 154 181
134 154 181
134 154 181
134 154 181
134 154 181
133 154 181
133 154 181
134 154 181
133 154 181
134 154 181
134 154 181
134 154 181
134 154 181
134 154 181
134 154 181
134 154 181
134 154 181
134 154 180
134 154 181
135 155 181
133 154 181
133 154 181
134 154 181
133 153 180
134 154 181
134 154 181
133 154 180
134 154 181
133 154 180
133 154 181
133 154 181
134 154 181
133 154 181
133 154 181
134 155 181
134 154 181
134 154 181
134 154 181
133 154 181
134 154 181
133 154 181
135 155 181
134 154 181
134 154 181
134 154 181
134 155 181
133 154 181
134 154 181
134 154 181
133 154 181
134 154 181
134 154 180
135 155 181
133 154 181
134 154 181
134 155 181
135 155 181
133 154 181
133 154 181
134 154 181
134 154 181
133 154 181
135 155 181
135 155 181
134 154 181
133 154 181
133 154 181
134 154 181
134 154 181
135 155 181
134 154 181
135 155 181
135 155 181
133 154 181
134 154 181
134 154 181
134 154 181
134 154 181
134 154 181
133 154 180
134 154 181
133 154 181
134 154 181
134 154 181
133 154 181
134 154 181
134 154 181
133 154 181
133 154 181
133 154 181
133 154 181
132 153 180
133 153 180
133 153 180
133 154 181
135 155 181
134 154 181
134 154 181
133 154 180
135 155 181
134 154 181
133 153 180
133 153 180
132 153 181
134 154 180
133 153 180
133 153 180
134 154 181
132 153 180
134 154 180
132 152 179
133 153 179
133 154 180
133 153 180
130 150 178
132 153 179
131 152 179
133 154 180
132 153 180
132 152 179
132 152 180
130 150 178
131 151 179
132 152 179
131 151 179
132 152 179
130 150 178
129 148 176
130 151 179
130 150 177
130 149 177
127 147 175
130 150 177
129 149 180
124 142 185
117 132 189
116 129 204
108 120 194
112 124 200
114 127 204
113 125 201
112 124 199
110 123 198
110 122 197
113 125 200
111 124 199
115 127 204
109 121 195
111 124 199
110 123 197
113 125 201
109 121 195
113 125 201
111 123 198
114 126 203
114 126 202
115 127 203
114 126 202
112 125 201
111 124 199
113 125 200
117 129 206
112 125 200
111 123 197
113 126 202
113 125 200
109 122 196
114 126 202
113 126 202
111 124 199
109 121 194
112 124 200
112 124 198
115 127 204
116 128 205
114 125 201
111 123 198
112 125 201
114 126 203
111 123 198
110 122 197
114 126 202
116 128 205
111 124 199
111 123 198
113 125 200
112 124 199
110 122 197
114 126 201
109 121 196
118 130 209
107 119 192
106 118 190
109 122 195
115 126 202
116 127 204
111 123 197
110 122 195
115 127 201
111 124 199
111 123 197
113 125 201
109 121 195
114 126 202
111 124 200
115 128 204
111 123 197
113 124 199
110 121 196
112 123 198
113 125 200
114 125 201
108 118 190
107 117 189
110 122 197
108 119 192
107 117 189
106 117 190
111 121 195
115 126 201
109 119 192
109 118 190
115 126 202
114 123 197
111 121 194
109 117 189
107 117 189
111 120 194
109 114 183
106 114 185
105 114 184
109 117 188
106 116 178
117 131 176
121 138 172
128 146 175
125 143 173
124 142 173
128 146 174
126 143 172
127 146 174
128 146 175
127 146 175
130 148 174
130 150 176
129 147 175
130 149 176
128 147 175
129 149 177
130 149 177
131 150 176
129 149 176
132 151 178
130 148 174
132 149 176
132 150 176
131 151 177
132 151 178
133 146 173
137 135 160
141 118 140
142 101 120
149 101 119
156 106 122
158 106 122
159 107 122
156 106 121
160 108 122
149 102 117
164 111 126
155 106 120
154 105 119
167 113 127
157 106 121
163 110 125
155 105 119
161 109 123
154 105 119
160 108 122
159 107 122
160 115 130
148 121 139
143 139 161
133 150 176
133 152 179
133 152 178
133 153 179
133 153 180
134 153 179
134 154 180
131 150 176
133 153 179
133 153 180
133 153 179
134 154 180
132 151 177
133 153 179
133 153 180
133 153 179
133 152 177
133 154 181
134 154 180
133 153 180
133 153 179
132 152 178
133 154 181
133 153 179
134 154 180
134 154 180
134 153 179
133 153 179
132 152 178
133 154 181
134 154 180
133 154 180
133 153 179
134 154 181
133 154 181
134 154 181
134 154 181
133 153 179
133 153 180
134 153 178
134 154 180
133 154 181
134 154 181
134 154 181
134 154 181
134 154 181
133 153 179
134 154 180
134 154 181
134 154 181
134 154 180
133 154 181
134 154 181
134 154 181
134 154 181
134 154 181
133 153 180
135 155 181
134 154 181
133 154 181
133 154 181
134 154 181
132 153 180
134 154 181
133 154 181
134 154 181
135 155 181
134 154 181
133 154 181
133 154 181
134 154 180
133 154 181
133 154 181
133 154 181
134 154 180
134 154 181
134 154 181
133 154 181
134 154 181
133 154 181
133 153 180
133 154 181
134 154 181
134 154 180
133 154 181
134 154 181
134 154 181
133 154 181
134 154 181
134 154 181
134 154 181
134 154 181
134 154 181
134 154 181
134 154 181
133 154 181
133 154 181
133 154 181
134 154 181
134 154 181
133 154 181
134 154 181
134 154 181
133 154 181
133 154 181
134 154 181
132 153 180
134 154 181
132 153 181
133 154 181
134 154 181
133 154 181
134 154 181
134 154 181
134 154 181
133 154 181
134 154 181
134 154 181
134 154 181
134 154 180
134 154 181
133 154 181
134 154 181
134 154 181
133 154 181
134 154 181
133 153 180
135 155 181
133 154 181
133 154 181
134 154 181
133 154 181
134 154 181
134 154 181
134 154 181
134 155 181
134 154 181
134 154 180
133 154 181
134 154 181
134 155 181
133 154 181
134 154 181
134 154 181
134 154 181
133 154 181
134 154 181
134 154 181
134 154 181
133 154 181
134 154 181
134 154 181
134 154 181
134 155 181
134 155 181
133 154 181
132 153 180
134 155 181
134 154 181
135 155 181
133 154 181
133 154 181
133 154 181
133 153 180
134 154 181
134 154 181
133 154 181
133 154 181
133 154 181
133 154 181
134 154 181
133 154 181
134 155 181
134 154 181
133 154 181
135 155 181
133 154 181
133 154 181
133 154 181
134 154 181
135 155 181
134 154 181
134 154 181
133 154 181
133 154 181
134 154 181
134 154 181
133 154 181
133 154 181
133 154 181
135 155 181
134 154 181
134 154 181
134 154 181
134 154 181
133 154 181
134 155 181
133 154 181
135 155 181
133 154 181
134 154 181
134 154 181
133 154 181
134 154 181
132 153 180
133 154 180
135 155 181
133 154 180
133 153 180
134 154 181
134 154 181
134 154 181
135 155 181
133 154 180
133 154 180
134 154 181
134 154 181
133 153 180
132 152 180
133 154 181
132 153 180
132 152 179
134 154 181
134 154 180
133 154 180
132 152 179
132 152 179
133 154 181
134 154 180
133 153 180
133 154 181
133 153 180
133 153 180
131 152 180
132 153 180
132 152 179
133 153 180
130 150 178
132 152 179
132 152 179
132 152 180
132 152 179
131 151 178
133 153 180
130 150 178
133 153 180
132 152 179
126 146 174
131 150 178
128 148 176
127 146 175
126 144 188
114 129 188
109 122 195
110 122 197
109 121 196
115 127 205
113 125 201
111 124 199
112 124 200
112 125 201
110 122 197
113 125 201
110 122 197
107 119 193
113 125 200
114 127 203
109 122 197
111 124 200
114 126 202
111 123 196
112 124 199
115 127 204
111 123 198
117 129 206
112 125 200
106 118 192
112 124 198
109 122 196
113 125 200
116 128 204
116 129 205
110 123 197
107 120 193
111 124 198
108 120 193
114 126 203
112 124 200
113 126 202
113 124 199
108 121 194
113 125 201
109 122 196
116 128 204
111 123 197
116 128 204
114 126 202
110 122 195
113 125 200
112 125 200
114 125 200
111 124 199
115 127 204
111 123 198
115 126 201
116 128 204
114 126 202
114 126 202
113 125 199
110 122 195
109 121 194
114 126 201
111 122 196
110 121 196
112 123 199
116 128 204
113 125 201
112 124 199
112 124 199
107 118 193
113 125 201
112 124 198
111 123 197
115 128 205
114 126 201
110 121 194
111 122 197
108 120 194
119 131 209
108 118 191
110 122 196
116 128 205
109 119 192
111 122 195
111 121 195
114 124 199
105 115 186
110 120 194
109 120 194
110 121 195
111 122 197
108 117 187
110 119 192
112 121 194
109 120 193
103 113 182
106 112 182
108 116 187
111 119 189
108 116 178
115 130 180
124 139 173
126 145 175
126 144 173
125 143 173
126 144 173
128 147 176
127 146 173
128 148 175
129 149 177
130 150 177
131 150 178
129 147 175
130 150 176
130 148 175
130 149 176
128 146 173
130 149 176
130 149 177
131 150 176
129 149 177
131 149 176
131 151 177
131 152 179
131 150 176
132 147 173
131 128 153
135 113 135
152 103 120
153 104 122
152 103 118
157 106 120
165 111 126
161 109 123
157 106 121
160 107 121
157 106 120
152 104 118
161 109 123
162 109 123
160 108 123
160 108 123
155 106 120
159 108 123
159 108 123
161 109 123
159 108 123
158 114 129
148 126 145
139 139 162
133 151 177
133 151 177
133 152 177
134 154 180
132 151 177
132 151 177
133 152 178
133 152 179
132 152 179
131 152 178
133 153 179
134 154 181
132 152 179
133 153 179
134 154 180
133 153 179
134 154 180
133 152 178
133 153 179
134 153 179
134 152 178
133 152 178
134 153 179
134 153 179
134 154 181
133 153 179
133 154 181
133 154 180
133 153 180
134 153 179
132 153 180
134 154 181
134 154 181
134 153 179
133 152 178
134 154 180
133 154 181
134 154 180
135 155 181
133 154 181
133 154 180
133 154 181
132 153 181
134 154 181
133 153 179
134 154 180
133 154 181
134 153 179
134 154 181
133 154 180
134 154 181
134 154 181
133 154 181
133 154 181
134 154 181
133 153 180
134 154 181
134 154 181
134 154 181
134 154 180
134 154 181
135 154 180
134 154 181
134 154 179
133 154 181
134 154 181
133 154 181
134 154 181
134 154 181
134 154 181
133 154 181
134 154 181
134 154 181
134 154 181
134 154 181
133 154 181
134 154 180
134 154 181
134 154 181
133 154 181
133 153 179
133 154 181
133 154 180
135 155 181
133 154 181
134 154 181
133 154 181
133 154 181
134 154 181
133 153 180
134 154 181
134 154 181
134 154 181
134 154 181
134 154 181
134 154 181
134 154 181
133 154 180
134 154 181
133 154 181
134 154 181
134 154 181
134 154 181
134 155 181
134 154 181
133 154 181
134 154 181
133 154 181
134 154 181
134 154 181
134 154 181
133 154 180
135 155 181
135 155 181
134 154 181
134 154 181
134 154 181
133 154 181
134 154 181
134 154 181
134 154 181
134 154 181
134 154 180
134 154 181
134 154 181
133 154 181
134 154 181
134 154 181
133 154 181
134 154 181
133 154 181
133 154 181
133 154 181
134 154 181
134 154 181
134 154 181
134 154 181
134 154 181
134 154 181
135 155 181
134 154 181
134 154 181
135 155 181
133 154 181
134 154 181
134 154 181
135 155 181
134 155 181
133 154 181
134 154 181
134 154 181
133 154 181
134 154 181
134 154 181
134 154 181
133 154 181
134 154 181
133 153 180
134 154 181
134 154 181
135 155 181
133 154 181
133 154 181
134 154 181
134 154 181
134 154 181
133 154 181
134 155 181
134 154 181
133 154 181
135 155 181
134 154 181
133 154 181
134 154 181
134 154 181
133 154 181
134 154 181
133 154 180
134 154 181
134 154 181
133 154 180
133 154 181
133 154 181
133 154 181
134 154 181
133 154 181
134 154 181
134 154 181
133 154 181
134 154 181
134 154 180
134 154 181
133 154 181
134 154 180
134 154 181
134 154 180
134 154 181
134 154 181
133 153 180
133 154 181
134 154 180
133 154 181
134 154 181
133 153 180
134 154 181
134 154 181
133 154 181
133 154 180
134 154 181
133 153 180
134 154 181
134 154 181
133 153 180
132 152 179
133 154 181
133 154 181
132 153 180
133 154 181
133 153 180
134 154 180
134 154 181
133 153 180
134 154 180
133 153 180
133 153 180
132 153 180
133 154 180
133 154 180
133 153 180
132 153 180
130 151 179
133 153 180
133 154 180
133 153 180
132 152 180
133 153 180
133 153 180
132 152 179
132 152 179
132 152 179
132 152 179
132 152 180
132 152 179
131 151 179
130 149 177
129 149 177
128 148 176
128 148 177
132 152 179
127 146 175
123 142 172
124 142 183
118 133 187
112 125 197
113 125 200
112 124 199
110 123 198
117 129 206
109 121 195
114 127 203
115 127 204
113 125 201
110 122 198
110 123 198
110 122 197
109 121 195
112 124 199
111 124 199
111 123 198
111 123 198
115 127 204
114 126 202
111 123 198
116 128 204
113 125 200
112 124 199
115 127 203
112 124 199
113 125 200
112 124 201
110 122 197
112 124 198
112 124 200
114 127 203
115 127 203
111 123 198
111 124 198
113 124 199
112 124 198
107 119 191
108 120 194
111 123 198
111 123 198
111 124 199
112 124 198
110 122 196
114 126 201
109 121 195
115 127 204
114 126 202
113 125 201
112 124 198
120 131 209
109 121 194
111 123 197
109 121 194
111 122 196
115 127 203
112 124 199
114 126 202
110 123 197
118 130 208
112 123 198
112 125 200
115 127 203
106 117 190
115 127 204
113 125 200
112 124 199
109 121 195
110 122 196
104 115 186
106 118 191
112 124 198
107 118 192
108 120 193
111 123 198
114 126 202
108 120 193
109 120 194
110 119 192
107 118 190
113 125 201
112 122 195
111 121 195
109 119 191
107 119 193
107 117 189
106 116 189
110 120 193
109 119 191
106 113 183
109 116 188
111 118 190
106 115 186
108 116 186
106 112 182
104 112 180
110 117 187
107 116 177
117 131 176
118 134 169
124 144 174
121 139 168
122 139 170
126 145 174
128 147 176
127 146 174
125 144 172
127 145 173
129 147 175
127 145 174
130 149 177
130 149 177
128 146 173
130 149 176
129 146 173
130 148 174
131 150 176
131 151 178
129 148 175
130 149 175
133 149 175
130 149 175
130 149 176
134 144 169
136 131 156
141 117 139
141 98 118
142 96 114
159 107 123
155 105 121
152 103 118
155 106 120
162 110 124
161 109 123
159 107 121
161 109 123
154 104 119
158 107 122
157 107 121
159 108 122
155 105 119
160 109 123
157 107 121
157 106 121
156 105 119
155 110 125
150 124 143
144 143 166
133 149 175
131 149 175
132 151 178
132 151 177
132 150 176
132 151 177
132 151 177
133 153 179
132 152 178
133 152 178
133 152 178
133 152 178
133 152 179
135 154 180
132 152 179
132 151 178
134 153 178
133 153 180
133 154 180
134 154 181
132 153 180
134 153 179
133 154 180
133 154 180
133 152 178
133 153 179
133 153 180
132 152 179
132 153 180
134 154 180
132 152 179
133 153 179
133 153 180
133 153 180
134 154 181
134 154 181
134 153 179
133 154 181
134 154 181
134 154 180
134 154 180
133 153 180
134 154 180
133 154 181
133 154 181
133 153 179
134 154 181
134 154 181
133 153 179
134 154 180
134 154 181
134 154 181
135 154 180
134 154 181
134 154 180
134 154 181
134 154 181
134 154 181
134 154 181
133 154 181
134 155 181
133 153 179
134 155 181
134 154 181
135 155 181
133 154 181
134 154 181
134 154 181
134 154 181
134 154 181
134 154 181
135 155 181
133 154 181
133 154 181
134 154 181
133 154 181
134 154 181
134 154 181
134 154 181
133 154 181
135 155 181
134 154 180
134 154 181
134 154 181
134 154 181
134 154 181
134 154 181
134 154 181
134 154 181
134 154 181
134 154 181
134 154 181
133 154 181
134 154 181
133 154 180
133 154 181
134 154 181
134 154 181
134 155 181
134 154 181
133 154 181
134 154 181
134 154 181
135 155 181
134 154 180
133 154 181
133 154 180
134 154 181
133 153 180
134 154 181
133 154 180
134 154 181
134 154 180
134 154 181
133 154 181
133 154 181
134 154 181
133 154 181
134 154 181
134 154 181
134 154 180
135 155 181
133 154 181
134 154 181
133 154 181
134 154 181
134 154 181
134 154 181
133 154 181
134 154 181
133 154 181
133 154 181
134 154 181
133 154 181
133 154 181
134 154 181
134 154 181
134 154 180
133 154 181
134 154 181
133 154 181
133 154 181
134 154 181
134 154 180
134 154 181
133 154 181
134 154 181
134 155 181
134 154 181
134 155 181
133 154 181
135 155 181
134 154 181
134 154 181
133 154 181
134 154 181
135 155 181
134 154 181
134 154 181
133 154 180
133 154 181
133 154 180
134 154 181
134 154 181
134 154 181
133 154 181
134 154 181
133 153 180
134 154 181
134 154 181
133 154 180
134 154 180
133 154 180
134 154 181
134 154 181
134 154 181
134 154 181
134 154 181
134 154 181
134 155 181
133 154 181
134 154 180
134 154 181
133 154 181
135 155 181
134 155 181
134 154 181
133 154 181
134 154 181
133 154 181
133 154 181
134 154 181
134 154 181
133 153 180
133 154 181
134 154 181
134 154 181
133 154 181
133 154 181
133 154 181
134 154 181
134 154 181
134 154 180
133 153 180
133 154 181
133 154 181
132 153 180
134 154 181
133 154 181
135 155 181
133 153 180
134 154 180
131 152 179
133 154 181
133 153 180
133 153 180
134 154 180
133 153 180
132 152 179
133 153 180
134 154 181
132 153 179
133 154 181
134 154 181
133 154 180
132 152 179
134 154 180
132 152 179
132 153 180
134 154 180
132 153 180
132 152 179
131 152 179
131 151 178
132 152 179
132 152 179
132 152 180
130 150 178
131 152 179
132 152 179
129 149 177
130 150 178
130 150 178
129 149 178
131 151 179
129 148 176
130 150 178
129 149 178
128 147 176
126 145 175
127 147 176
125 144 179
122 139 192
116 129 196
108 121 195
111 123 199
114 126 202
109 121 196
110 122 197
112 124 200
112 124 200
114 126 202
111 123 197
110 122 196
112 124 200
113 126 202
117 129 206
108 120 193
112 124 199
113 125 200
115 127 205
113 125 201
113 125 201
111 123 197
115 128 205
113 125 201
112 124 199
111 123 197
117 129 205
116 128 204
114 127 204
107 119 192
113 125 201
111 124 198
110 123 198
111 123 198
114 126 202
117 130 208
110 122 196
109 122 196
114 126 202
111 123 198
109 122 196
113 125 201
110 122 195
113 125 200
109 122 196
112 124 199
110 122 197
112 124 198
115 127 203
109 121 195
113 124 198
116 128 205
110 123 197
111 123 198
112 124 200
106 118 190
112 124 200
110 123 197
106 118 191
109 121 196
110 122 197
115 127 205
108 119 193
112 123 198
113 126 202
108 119 191
109 121 196
107 118 192
109 121 194
116 128 206
105 116 189
112 123 197
109 120 192
105 117 189
111 121 195
112 124 199
112 122 196
110 121 195
118 129 207
110 120 193
112 123 198
112 121 194
112 122 196
109 119 192
109 119 193
106 117 189
107 116 189
108 118 193
110 119 192
112 122 195
111 120 193
104 111 181
103 112 183
107 115 187
107 114 186
100 108 176
104 113 180
110 119 181
118 132 180
118 134 168
124 142 172
127 145 174
125 144 173
120 139 169
128 147 175
123 142 171
128 146 175
126 141 169
128 147 175
128 146 174
125 142 170
129 146 175
129 148 175
130 148 175
130 148 176
130 149 176
132 152 178
130 148 175
131 150 176
126 143 169
131 149 175
130 148 175
129 146 171
133 146 172
132 132 157
137 112 134
141 98 117
145 98 116
156 106 122
149 101 116
159 108 123
156 106 122
152 104 119
155 105 120
159 107 122
157 107 121
163 109 123
159 108 122
157 106 120
162 109 124
157 106 121
159 108 122
159 108 122
160 109 123
149 101 116
157 113 128
148 127 148
140 139 162
132 145 170
131 149 174
131 149 176
131 150 176
133 152 178
131 149 175
133 150 175
133 151 176
132 151 177
133 153 179
132 151 177
133 151 176
132 151 178
133 152 178
133 153 178
132 152 178
133 150 176
133 152 178
133 153 179
133 152 178
133 153 179
133 152 179
133 153 180
134 154 180
133 153 179
133 150 176
134 154 180
133 152 178
133 154 180
133 153 179
134 154 181
133 153 179
134 153 179
133 153 180
134 154 180
134 154 180
133 152 178
133 153 179
134 154 180
133 153 180
134 154 180
134 153 179
133 153 179
133 153 180
132 153 180
133 153 180
134 154 180
134 154 181
134 154 181
134 154 181
134 154 181
134 154 181
133 153 180
135 155 181
133 154 181
134 154 181
134 154 180
132 152 179
134 154 180
134 154 181
132 153 179
133 154 181
132 153 179
133 154 181
133 154 181
133 153 180
134 154 180
134 154 181
133 154 181
133 154 181
133 153 180
133 154 181
133 154 181
133 154 180
134 154 180
134 154 180
133 154 180
134 154 180
134 154 181
133 154 181
134 154 181
134 154 181
134 154 181
132 153 181
134 154 180
133 154 181
133 154 181
135 155 181
133 154 181
133 154 181
133 154 181
134 154 181
134 154 181
134 154 181
133 154 181
135 155 181
134 154 181
134 154 181
134 154 181
133 154 180
134 154 181
135 155 181
133 154 181
133 154 181
133 154 181
134 154 181
133 154 181
134 154 181
134 154 181
134 154 181
133 154 181
134 154 181
134 154 181
134 154 181
133 154 181
134 154 181
134 154 181
134 154 181
134 154 181
133 154 181
133 154 181
134 154 181
135 155 181
135 155 181
135 155 181
134 154 181
134 154 181
133 154 181
134 154 181
134 154 181
134 154 181
133 154 181
134 154 181
133 154 181
135 155 181
133 154 181
133 154 181
135 155 181
134 154 181
134 154 181
134 154 180
134 154 181
134 154 181
134 154 181
133 154 181
134 154 181
133 154 181
133 154 181
134 154 181
135 155 181
133 154 181
134 154 181
134 154 181
134 154 181
133 154 181
134 154 181
134 154 181
134 154 181
133 153 180
133 154 180
133 154 181
134 154 181
134 154 181
133 154 181
134 154 181
134 154 181
134 154 181
134 154 181
134 154 181
135 155 181
133 154 180
133 154 181
133 154 181
134 154 181
134 155 181
134 154 181
133 154 181
133 154 181
133 154 180
134 154 181
134 154 181
134 154 181
134 154 181
134 154 181
134 154 181
133 154 181
133 154 180
134 154 181
134 154 181
133 154 181
133 154 181
134 154 181
134 154 181
133 154 181
133 153 180
134 154 181
134 154 181
135 155 181
133 154 181
133 154 181
134 154 181
134 154 181
133 154 181
134 154 180
134 154 181
133 154 180
134 154 181
132 152 179
134 154 180
132 153 180
134 154 181
133 154 181
134 154 181
133 153 180
134 154 181
132 152 179
134 154 181
133 153 180
133 154 181
133 153 180
133 153 180
132 153 180
133 153 180
134 154 181
132 153 180
133 153 180
134 154 180
132 152 179
133 153 180
132 153 179
133 154 180
132 153 180
134 154 181
131 151 179
132 152 179
132 152 179
132 152 179
130 150 177
130 150 178
132 152 179
132 151 179
130 150 177
131 152 179
128 148 176
128 148 176
131 150 177
128 148 176
127 147 176
126 145 175
126 146 175
127 147 176
123 140 181
120 137 189
109 122 192
107 119 193
113 125 200
110 123 199
116 128 205
112 125 201
109 121 196
110 122 197
111 122 196
112 124 199
111 123 199
107 120 194
111 123 198
113 125 201
109 121 196
112 125 200
110 122 196
105 117 191
106 119 192
108 121 195
111 123 198
115 128 204
111 123 198
112 124 199
113 125 199
114 126 202
114 126 202
113 125 200
110 123 198
113 125 201
107 120 194
115 128 205
111 123 197
110 122 197
113 125 200
116 128 205
113 125 201
117 129 206
114 127 203
111 123 198
112 124 199
114 126 202
111 124 199
112 125 201
111 124 200
114 127 203
112 124 198
112 124 200
110 122 197
109 121 194
110 121 195
111 123 198
116 128 204
112 123 199
115 127 203
109 121 195
114 126 202
113 125 200
108 120 194
111 123 198
111 123 197
111 123 197
113 124 201
108 121 195
108 120 193
110 122 196
115 127 204
114 126 203
114 125 201
106 118 191
115 127 203
113 123 198
112 124 200
111 121 193
109 121 195
114 126 201
106 117 189
109 119 192
109 120 195
108 120 193
110 122 196
106 115 187
107 117 189
116 128 205
107 117 189
106 115 187
105 114 184
108 119 194
111 121 195
109 119 191
109 117 189
104 113 182
104 113 183
104 113 182
107 116 188
103 110 178
111 121 184
108 119 172
119 133 171
121 138 168
119 136 168
124 141 170
124 143 172
123 140 170
127 146 175
128 146 174
127 145 173
127 145 174
129 148 175
127 145 173
128 147 175
128 146 174
128 145 172
129 148 174
130 147 174
130 147 173
131 148 175
129 143 169
129 145 171
129 148 175
128 144 170
131 149 175
128 141 167
137 125 148
135 110 132
151 104 121
152 104 122
159 108 123
158 106 122
155 105 120
160 108 122
159 108 122
156 106 121
158 107 122
161 109 124
166 111 125
159 108 123
152 104 118
160 108 123
159 108 122
153 104 119
161 109 123
155 105 120
161 108 122
159 113 129
150 124 143
139 141 164
133 149 175
133 150 176
132 151 177
131 147 173
132 150 177
133 152 178
134 153 179
133 153 179
131 150 176
133 151 177
132 152 178
132 151 177
131 150 177
133 151 178
132 151 178
132 150 176
131 150 177
134 153 179
134 154 180
132 151 177
133 153 180
133 152 178
133 153 179
134 154 181
134 154 181
133 153 180
134 151 177
133 152 178
134 154 181
133 152 179
134 154 181
133 153 179
132 153 180
135 154 179
133 152 179
133 153 179
133 153 180
134 153 179
133 154 181
134 154 181
133 153 179
133 153 179
134 154 181
134 154 181
133 153 179
133 153 180
134 154 181
133 153 180
134 154 181
133 154 181
134 154 181
134 154 181
133 153 180
134 154 181
134 154 180
133 154 181
135 154 180
134 154 180
133 153 179
134 154 181
134 154 180
133 153 180
134 154 181
134 154 181
134 154 181
134 154 181
134 154 181
135 155 181
134 154 181
134 155 181
133 154 181
135 154 180
134 154 181
134 154 180
134 155 181
134 154 181
134 154 181
134 154 181
135 155 181
134 154 181
134 154 181
134 154 181
134 154 181
134 154 181
134 154 181
133 154 181
134 154 180
134 154 181
133 154 180
133 154 181
134 154 181
134 154 180
134 154 181
134 154 181
135 155 181
133 154 181
135 155 181
134 154 181
135 155 181
134 154 181
134 154 181
134 154 181
133 154 181
134 154 181
134 154 181
134 154 181
134 154 181
134 154 181
135 154 180
134 155 181
135 155 181
134 154 180
133 154 181
133 154 181
133 154 181
134 154 181
133 154 181
134 154 181
134 154 181
134 154 181
134 154 180
134 154 181
133 154 181
132 153 181
134 154 181
133 154 181
134 154 181
134 154 181
133 154 181
134 154 181
133 154 181
135 155 181
134 154 181
133 154 181
134 154 181
133 154 181
133 154 181
133 154 181
134 154 180
134 154 181
134 154 181
133 154 181
134 154 181
133 154 181
134 154 181
133 154 181
133 154 181
134 154 181
134 154 181
133 154 181
134 154 181
134 154 181
134 154 181
133 154 181
133 154 181
134 154 181
134 154 181
134 154 181
134 154 181
133 154 181
134 154 181
134 154 181
134 154 181
133 154 181
134 154 181
135 155 181
134 154 181
134 154 181
134 154 181
134 154 181
134 154 181
134 154 181
134 154 181
133 154 181
134 154 181
133 154 180
134 154 181
134 154 181
133 154 181
134 154 181
133 154 181
134 154 181
133 154 181
134 154 181
133 153 180
133 153 180
133 153 180
133 154 181
135 155 181
134 154 181
134 154 180
133 153 180
132 153 179
134 154 181
133 154 180
134 154 181
134 154 181
134 154 180
133 153 180
134 154 181
134 155 181
134 154 181
133 154 180
134 154 181
134 154 180
134 154 180
133 154 180
134 154 180
134 154 181
134 154 181
132 153 180
134 154 181
134 154 181
134 154 181
134 154 181
133 154 181
133 154 181
134 154 180
134 154 180
133 153 180
134 154 181
132 152 179
133 153 179
133 153 180
134 154 181
132 152 179
133 153 180
131 150 178
133 153 180
133 153 180
132 152 180
134 154 181
132 152 180
130 150 178
130 150 177
130 151 178
130 150 178
130 150 178
132 153 180
131 151 178
132 152 179
130 150 178
130 150 178
132 153 180
128 147 176
128 147 175
128 147 175
121 140 171
129 149 177
124 143 172
124 143 174
119 137 177
116 133 180
113 126 196
113 125 201
106 118 192
106 118 191
109 121 195
110 122 197
113 124 199
110 122 198
112 124 200
115 127 204
109 121 195
113 125 202
115 128 205
115 128 205
113 125 201
112 124 199
110 122 198
114 126 202
107 119 192
116 128 204
113 126 202
115 127 202
118 130 208
108 119 192
111 124 199
113 125 201
116 128 205
112 124 200
116 129 206
114 126 203
108 120 194
110 122 196
112 124 200
114 125 201
113 126 202
113 125 200
113 125 200
107 119 192
110 123 199
111 123 197
107 119 192
108 120 194
113 124 199
109 122 197
115 127 203
109 122 197
110 122 198
110 122 197
114 125 201
109 121 197
112 124 199
113 125 201
108 120 194
114 126 202
110 122 197
112 124 199
112 124 199
115 127 204
109 121 196
109 121 195
112 124 200
111 123 198
115 127 202
112 125 201
112 124 199
113 124 200
113 125 200
111 122 197
107 119 192
111 122 197
108 120 194
112 123 198
109 120 194
111 122 197
111 122 197
116 127 203
110 121 194
110 121 195
111 121 195
113 124 199
109 120 194
113 124 199
114 125 199
108 119 193
108 119 192
105 115 187
106 117 189
109 119 193
105 114 184
105 114 186
112 122 195
107 115 186
104 114 185
104 111 180
105 115 186
110 117 186
107 115 176
113 127 171
117 132 167
120 136 166
124 142 172
120 136 166
123 141 171
125 143 172
120 138 168
124 142 173
124 143 172
129 148 176
129 146 174
128 147 174
127 146 174
128 146 174
129 147 174
131 150 177
129 148 176
129 145 171
129 145 171
130 147 174
131 148 175
130 145 170
130 148 174
131 149 176
132 143 168
127 126 152
139 112 132
151 103 120
146 99 117
149 101 116
155 105 122
156 105 120
152 103 117
161 109 123
162 109 122
153 104 118
158 107 122
156 106 120
160 108 123
159 108 122
156 106 120
159 107 121
162 109 123
164 111 125
159 108 122
159 107 122
154 111 127
150 132 152
137 135 158
133 148 173
133 151 176
133 150 176
132 149 175
131 147 172
130 146 171
133 152 179
132 149 175
133 149 175
133 153 180
134 153 179
132 151 177
133 152 178
132 151 177
134 151 177
133 153 178
133 150 176
133 152 178
133 152 178
133 152 178
133 151 177
133 153 180
133 153 180
132 152 178
133 153 180
132 151 178
132 152 178
132 153 180
134 153 179
132 152 179
133 153 179
134 154 181
132 152 178
134 154 181
133 153 180
133 153 179
133 153 179
135 154 180
133 154 180
135 154 179
133 153 180
133 154 181
134 154 180
134 154 181
134 154 180
135 154 180
134 154 181
134 154 181
133 153 180
133 154 181
134 154 181
133 154 181
134 154 181
133 153 180
133 154 181
134 154 181
133 153 180
133 154 180
133 153 180
134 154 181
134 154 181
133 153 180
134 154 181
133 154 181
133 153 179
134 154 180
133 154 180
134 154 181
133 154 181
133 154 181
133 153 180
134 154 180
134 154 181
135 155 181
134 154 180
134 154 180
133 154 181
134 154 181
133 154 181
134 154 181
133 154 181
134 154 181
133 154 181
133 154 181
134 154 181
134 154 181
134 154 181
135 155 181
134 154 181
134 154 181
134 154 181
134 154 181
134 154 181
134 155 181
133 154 181
132 153 180
134 154 181
133 154 181
134 154 181
133 154 181
133 154 181
133 154 181
133 154 181
133 153 180
133 154 181
134 154 181
135 155 181
134 154 181
134 154 181
134 154 181
134 154 181
134 154 181
134 154 181
133 154 181
133 154 181
134 154 181
134 154 181
134 154 181
133 154 181
133 154 181
134 154 181
135 155 181
134 154 181
134 154 181
133 154 181
134 154 181
133 154 181
134 154 181
133 154 181
133 154 181
133 154 181
134 154 181
133 154 181
134 154 181
135 155 181
133 154 181
134 154 181
134 154 181
134 154 181
133 154 181
133 154 181
133 154 181
134 155 181
134 154 181
134 154 181
134 154 181
133 154 181
134 154 181
133 154 181
134 154 181
134 154 181
134 154 181
134 155 181
133 154 181
133 153 180
133 154 181
134 154 181
134 154 181
134 154 180
133 154 180
133 154 181
135 155 181
134 154 181
134 154 181
134 154 181
134 154 181
134 154 181
133 154 181
133 154 181
134 154 181
134 155 181
133 154 181
134 154 181
134 154 181
134 154 181
133 154 181
134 154 181
133 154 181
134 154 181
134 154 181
134 154 181
133 154 181
134 155 181
135 155 181
133 154 180
133 154 181
133 154 181
133 154 181
132 152 179
133 153 180
134 154 181
134 154 181
132 153 180
134 154 180
134 155 181
133 154 180
134 154 181
134 154 181
133 153 180
133 154 181
134 154 181
134 154 181
134 154 180
133 153 180
133 154 181
133 154 181
134 154 181
134 154 180
133 153 180
133 153 180
133 154 180
134 154 181
134 154 181
133 154 180
134 154 181
133 154 181
133 154 181
133 153 180
133 154 180
133 154 180
133 153 180
133 153 180
133 153 180
133 153 180
132 152 179
134 155 181
133 153 180
131 152 179
133 153 179
133 154 180
132 152 180
131 151 178
129 149 178
130 150 178
133 152 179
129 150 178
129 149 177
131 151 179
132 151 178
127 147 176
130 149 177
129 148 176
127 146 174
127 146 175
127 147 176
126 146 175
127 146 175
128 147 176
126 145 176
123 143 172
124 143 173
120 138 173
119 135 189
110 124 190
111 123 198
110 122 198
107 119 193
111 123 199
111 123 199
110 122 197
113 125 202
111 123 199
113 125 200
113 125 202
112 124 198
109 122 197
114 126 202
112 124 199
108 120 195
110 123 198
110 122 197
111 123 198
106 118 190
110 122 196
111 123 198
110 123 197
113 125 201
112 124 199
114 126 203
109 121 196
112 124 198
112 125 201
114 126 201
118 130 207
115 127 203
114 126 202
111 123 197
110 123 198
115 128 205
110 122 197
114 126 201
110 123 198
114 126 202
110 122 196
117 130 207
112 124 200
113 124 199
111 123 198
109 121 195
110 123 197
113 124 199
109 121 194
112 124 201
111 123 198
110 122 197
110 122 196
109 120 193
112 123 198
107 119 193
109 121 195
113 125 200
109 121 196
116 127 204
114 126 202
113 125 200
110 122 196
111 124 200
111 123 199
110 121 196
110 121 195
108 119 192
110 120 193
112 123 197
110 120 194
111 121 195
111 122 196
106 118 191
106 117 189
111 122 196
109 119 192
110 121 195
111 121 195
107 118 192
106 117 189
109 121 194
109 120 194
112 122 196
108 119 192
107 116 188
108 119 192
109 120 193
105 113 184
105 113 185
106 115 188
107 116 186
106 114 185
105 114 186
108 117 189
110 118 190
102 112 171
118 133 178
115 130 166
119 134 164
120 138 169
123 141 170
121 135 165
122 139 170
121 138 167
128 146 173
123 137 166
123 139 168
129 148 176
131 148 174
129 146 173
126 143 172
125 140 168
125 141 168
128 144 171
128 145 173
130 147 173
127 144 171
129 146 172
126 140 166
130 148 174
128 143 169
131 145 171
134 125 148
133 108 130
146 100 119
143 97 114
153 103 118
150 102 118
152 103 117
155 105 120
157 107 121
152 103 118
160 108 123
159 108 124
156 106 120
158 107 121
154 104 119
162 109 123
156 106 120
165 111 125
162 108 122
161 109 123
156 106 120
153 113 130
149 126 146
140 139 162
132 147 172
130 147 173
133 151 176
131 149 174
130 147 172
133 148 172
132 148 173
131 149 174
131 148 174
132 148 174
133 150 176
132 150 176
131 150 176
133 151 176
132 150 176
132 151 177
133 150 176
131 150 177
133 152 178
132 152 178
133 152 178
133 153 179
133 152 178
132 151 177
133 153 180
133 153 180
133 152 178
133 153 179
133 153 179
134 154 180
134 154 181
133 153 180
134 154 180
134 153 179
132 153 179
133 154 181
134 154 181
133 154 181
134 154 180
133 153 180
133 152 178
134 153 178
133 153 180
134 154 180
133 154 181
133 154 181
133 153 180
133 154 181
133 153 180
132 153 180
134 154 180
135 154 180
133 154 180
134 154 181
133 153 179
133 153 179
133 154 180
133 154 181
134 154 181
133 154 181
134 154 180
133 154 181
134 154 181
133 153 179
134 154 181
134 154 181
135 155 181
133 153 179
134 154 181
134 154 181
134 154 181
133 154 181
133 153 180
133 153 180
133 154 181
134 154 181
133 154 181
134 154 180
134 155 181
135 155 181
134 154 180
134 154 181
134 154 181
133 154 181
134 154 181
133 154 181
134 154 180
134 154 181
134 154 181
134 154 181
134 154 181
133 154 181
133 154 181
134 154 181
134 154 181
134 154 181
134 154 181
134 154 181
134 154 181
133 154 181
133 154 181
134 154 181
134 154 181
133 154 181
134 154 181
134 155 181
134 154 181
133 154 181
134 154 181
133 154 181
133 154 181
133 154 181
134 154 181
133 154 181
133 154 181
133 154 181
134 154 181
134 154 181
134 154 181
133 154 180
133 154 181
134 154 181
133 154 181
134 154 181
133 154 181
134 154 181
134 154 181
135 155 181
134 154 181
134 154 181
134 154 181
132 153 181
134 154 181
134 154 181
134 154 181
134 154 181
133 154 181
134 154 181
134 155 181
134 154 181
133 154 181
134 154 181
133 154 181
134 154 181
134 154 181
135 155 181
134 154 181
134 154 181
133 154 180
133 154 180
134 154 181
133 154 181
134 154 181
133 154 181
133 154 180
134 154 180
134 154 181
134 154 181
134 154 181
134 154 181
135 155 181
134 154 181
133 154 181
134 154 180
133 154 181
134 154 181
134 154 181
134 154 181
134 154 181
133 154 181
134 154 181
134 154 181
133 154 181
134 154 181
134 154 181
133 154 181
133 154 180
134 154 181
135 155 181
133 154 181
133 154 181
134 154 181
134 154 181
133 154 181
134 154 181
134 154 180
134 154 181
132 153 180
134 154 181
133 154 181
134 154 180
134 154 181
134 154 181
133 154 181
134 154 181
133 154 181
133 153 179
133 154 181
134 154 180
134 154 180
133 154 181
134 155 181
134 154 181
134 154 181
133 154 181
133 154 181
133 154 181
133 154 181
134 154 180
134 154 181
133 153 180
133 154 180
132 152 179
133 154 180
133 154 180
134 154 181
133 154 181
132 152 179
134 154 181
133 153 180
133 153 180
134 154 181
132 153 179
132 152 180
132 152 179
133 153 180
131 152 179
133 153 180
133 153 180
132 153 179
133 153 180
133 153 179
131 151 178
133 153 179
132 152 179
132 152 179
130 150 178
130 150 178
131 151 179
129 149 177
129 148 177
128 148 177
130 149 178
128 148 176
127 147 176
128 147 176
128 147 176
128 147 176
128 148 177
124 143 173
123 142 173
126 144 179
111 126 176
111 124 191
110 121 196
110 122 198
105 117 190
106 118 193
112 124 199
111 123 198
111 123 199
112 124 199
108 120 195
111 123 199
111 124 199
109 121 196
113 126 203
111 123 198
107 119 192
107 119 194
114 126 202
112 125 201
109 121 194
113 126 202
108 120 194
109 121 195
114 125 201
110 123 198
114 126 202
112 124 199
117 129 206
111 124 199
114 125 200
112 125 200
111 123 197
116 128 206
113 125 201
118 130 208
108 121 195
116 128 206
111 123 197
114 126 202
113 124 199
114 126 201
112 124 199
112 124 199
107 118 191
114 127 202
113 125 200
112 123 198
108 120 192
110 122 197
112 124 199
107 119 191
112 124 199
113 125 201
114 126 202
111 124 199
112 124 199
111 124 199
107 119 192
113 124 199
111 123 198
110 123 198
114 126 203
108 120 194
112 123 199
113 125 201
115 126 202
108 121 195
109 120 193
114 124 199
115 127 204
110 120 194
110 121 194
109 121 195
112 123 198
108 120 193
108 119 193
110 121 196
111 122 196
108 119 192
109 120 195
111 121 196
107 117 190
110 120 194
104 114 186
106 115 186
111 121 195
106 116 188
107 117 190
105 115 186
103 114 185
102 112 182
105 114 185
101 109 179
99 105 173
108 117 190
107 113 183
108 117 181
111 124 174
115 128 165
122 138 168
123 139 168
124 141 171
126 143 171
119 137 167
122 139 169
123 137 165
126 144 172
128 146 174
127 144 172
127 145 173
126 142 170
130 147 174
127 143 169
129 146 174
129 148 174
128 145 171
129 144 170
129 145 171
125 140 166
127 141 167
127 140 165
129 142 168
130 137 161
130 120 143
142 110 131
145 98 116
149 101 120
155 105 121
149 101 117
153 104 118
157 106 122
156 106 120
160 108 122
165 111 126
154 104 117
166 111 125
159 108 122
157 105 119
162 109 124
165 112 126
158 107 121
161 109 122
153 104 118
156 105 119
155 110 125
145 123 143
137 134 156
133 144 168
129 146 172
131 149 175
130 148 174
132 148 174
130 146 170
132 149 176
129 144 168
133 150 175
133 151 177
134 150 175
129 146 172
132 147 172
131 150 175
132 149 174
131 148 174
131 151 178
134 153 179
133 150 176
133 151 177
133 153 179
133 150 176
134 154 181
132 151 178
134 154 179
132 151 178
133 152 178
131 151 177
132 152 179
134 154 181
134 154 180
134 153 179
132 152 178
135 155 181
134 154 180
133 153 180
133 153 179
133 152 178
133 153 179
135 154 179
133 154 180
133 153 179
133 153 180
133 153 179
134 154 180
133 154 181
133 153 180
134 154 181
133 153 179
134 154 180
133 154 180
134 154 180
133 153 180
134 154 180
133 154 181
133 154 181
134 154 181
133 154 181
133 154 181
135 155 181
134 154 181
134 154 181
133 153 180
133 154 181
133 153 180
134 154 181
134 154 181
134 154 180
133 153 179
134 154 181
133 154 181
133 154 181
133 154 181
133 154 181
134 154 181
133 154 180
133 153 179
134 154 181
133 154 181
134 154 181
134 154 181
134 154 181
134 154 181
134 154 181
134 154 181
133 154 180
134 154 181
134 154 181
134 154 181
134 154 181
134 154 181
134 154 181
134 154 181
134 154 181
133 154 181
133 154 181
134 154 181
133 154 181
133 154 181
134 154 181
134 154 181
134 154 181
134 154 181
134 154 181
134 154 181
134 154 181
134 154 181
134 154 181
133 154 181
134 154 180
133 154 181
134 154 181
134 154 181
134 154 181
134 155 181
134 154 181
134 154 181
134 154 181
134 154 180
133 154 181
134 154 181
134 154 181
133 154 181
134 154 181
133 154 181
133 154 181
134 154 181
134 154 181
134 154 181
133 154 181
133 154 181
133 154 181
134 154 181
135 155 181
134 154 180
133 154 181
134 154 181
135 155 181
134 154 181
134 154 181
135 155 181
133 154 181
134 154 181
134 154 181
133 154 181
133 154 181
133 154 181
134 154 181
133 154 181
133 154 181
133 154 181
134 154 181
134 154 181
133 154 180
133 154 181
134 154 181
133 154 180
134 154 181
134 154 181
134 154 181
133 154 181
134 154 181
134 154 181
134 154 181
134 154 181
133 154 181
134 154 181
133 154 181
134 154 181
133 154 180
133 154 181
133 154 181
132 153 180
133 154 180
134 154 181
134 155 181
134 154 181
133 154 181
134 154 181
134 154 181
133 154 181
134 154 181
133 154 181
134 154 181
134 154 181
132 153 180
133 154 181
134 154 181
134 154 181
134 154 181
134 154 181
134 154 181
133 153 180
135 155 181
133 154 181
134 154 181
134 154 180
133 153 180
135 155 181
134 154 180
134 154 181
132 153 180
132 153 180
134 154 180
133 154 181
135 155 181
134 154 181
134 154 181
133 153 180
133 154 181
134 154 180
133 153 180
134 154 181
132 152 179
134 154 180
133 153 179
133 153 180
132 152 180
133 153 180
131 151 179
133 153 180
132 152 179
133 153 180
131 151 178
132 153 179
132 152 179
132 152 179
132 152 179
132 152 180
133 153 180
132 153 179
132 152 179
132 153 180
131 151 178
129 149 178
129 149 178
132 151 178
130 150 179
131 150 178
128 148 176
129 149 177
131 151 178
128 148 176
128 147 177
128 148 178
128 147 176
128 147 176
126 145 173
126 145 174
124 143 174
123 141 172
123 142 173
116 132 175
110 124 183
111 123 191
111 123 197
111 123 198
109 121 196
104 116 190
108 120 194
111 123 199
111 124 200
110 122 198
109 121 195
109 121 196
108 120 194
107 120 194
108 120 194
110 122 198
117 129 207
111 124 200
114 126 204
111 123 198
111 123 198
114 126 203
110 122 198
112 124 199
112 125 201
111 123 197
111 123 198
112 124 199
112 124 199
113 126 202
113 125 201
109 121 194
111 123 198
115 128 206
110 122 197
113 125 200
110 122 196
110 122 197
113 126 202
112 124 199
114 125 201
109 122 196
110 122 198
112 124 200
115 127 204
106 118 192
113 125 200
108 119 193
111 123 198
111 123 197
112 124 199
109 121 195
110 122 196
108 120 194
110 122 197
115 126 202
109 122 196
111 123 197
109 122 197
106 118 191
109 120 195
109 121 196
109 121 195
117 128 205
109 122 197
110 122 196
109 121 194
112 124 200
107 119 192
107 119 193
110 122 197
108 119 191
109 120 193
110 122 197
108 120 195
106 115 187
113 125 200
107 117 190
104 115 187
113 124 199
104 115 187
106 117 191
112 122 197
107 117 189
107 117 191
106 118 192
105 115 187
103 110 179
113 124 199
109 120 194
104 114 186
99 107 176
108 116 187
99 106 174
103 112 182
104 112 181
108 118 179
112 125 174
120 135 169
123 141 170
120 136 166
123 141 171
123 138 167
124 141 170
125 141 169
125 142 170
124 140 168
124 141 170
124 139 167
125 141 169
126 141 169
130 147 173
124 138 165
127 143 170
127 143 169
129 146 173
128 146 174
127 143 169
125 140 167
126 139 165
127 142 168
127 143 168
127 138 163
136 129 152
139 107 128
144 100 117
144 98 115
160 109 124
159 107 121
151 103 119
156 106 120
154 104 118
152 103 118
157 106 120
156 105 119
158 106 120
161 109 124
164 111 125
164 110 124
154 104 118
162 110 124
157 107 121
157 106 120
154 105 119
151 107 122
149 130 150
139 140 163
132 146 171
133 150 175
131 147 172
130 143 168
132 147 171
132 149 174
128 144 169
132 149 174
131 147 172
132 149 174
133 150 175
132 150 175
133 149 175
133 150 175
132 152 178
132 152 178
133 150 175
132 151 176
132 151 177
133 152 178
133 151 177
133 151 177
133 152 178
135 154 180
134 153 179
132 150 176
132 153 179
133 153 180
132 152 178
133 153 178
134 154 180
133 152 178
134 154 180
133 152 178
134 153 180
133 153 180
133 153 179
132 151 177
133 154 181
134 154 180
134 154 181
134 154 180
134 154 180
133 154 181
133 153 180
133 153 180
134 154 181
134 154 180
133 153 179
133 153 180
134 154 181
134 153 179
133 154 181
133 154 180
134 154 180
133 154 181
133 153 179
134 154 181
133 154 181
135 155 181
134 154 181
133 154 181
134 154 181
135 155 180
134 154 181
132 152 178
134 154 181
134 154 181
132 153 181
133 153 180
133 154 181
133 153 180
134 154 181
134 154 181
134 154 181
133 154 181
133 154 181
133 154 180
134 154 181
134 154 181
133 154 181
132 153 181
132 153 181
134 154 180
134 154 181
133 153 180
134 154 181
134 154 181
134 154 181
133 154 181
134 154 180
134 154 180
133 154 181
134 154 181
134 154 180
134 154 181
134 154 181
134 154 181
133 154 180
134 154 181
134 154 181
134 154 181
134 154 181
134 155 181
134 154 181
133 154 181
134 154 181
133 154 181
134 154 181
134 154 181
133 154 181
134 154 180
134 154 181
134 155 181
135 155 181
134 154 181
134 154 181
133 154 181
134 154 181
134 154 181
134 154 181
133 154 181
134 154 181
133 154 181
134 154 181
134 154 181
133 154 181
133 154 180
135 155 181
133 154 181
133 154 181
134 154 181
134 154 181
134 154 180
133 154 181
134 154 181
133 154 181
133 154 181
133 154 181
133 154 181
133 154 181
134 154 181
134 154 181
133 154 181
134 154 181
134 154 181
135 155 181
133 154 181
133 154 181
134 154 181
134 154 181
134 154 181
134 154 181
133 154 181
134 155 181
133 154 181
134 154 181
133 154 181
135 155 181
134 154 181
133 154 181
134 154 181
134 154 181
133 154 181
133 154 181
133 154 181
135 155 181
133 154 181
135 155 181
134 154 181
135 155 181
133 154 181
134 154 181
133 154 181
133 154 181
133 154 181
134 155 181
134 154 181
134 154 181
133 154 181
134 154 181
134 154 181
135 155 181
134 154 181
134 154 181
133 154 181
134 154 181
133 154 180
134 154 181
134 154 180
134 154 180
133 154 181
133 154 181
133 153 180
134 154 181
134 154 181
133 154 181
134 154 180
133 154 181
133 153 180
132 153 179
134 154 181
134 154 181
133 153 180
134 154 180
133 154 180
133 154 181
133 154 180
132 153 179
134 153 180
134 154 181
134 154 180
134 154 181
133 153 179
132 153 180
134 154 180
132 152 179
134 154 181
133 153 180
133 154 181
134 154 181
134 154 180
132 152 179
131 151 179
134 154 180
132 152 179
132 153 180
132 152 179
132 152 179
134 154 180
130 150 178
131 151 179
130 149 177
129 149 177
131 151 179
130 150 178
132 153 180
128 148 176
128 148 176
129 149 177
132 152 180
130 150 178
129 148 177
128 147 175
127 146 175
125 145 174
125 144 174
126 145 176
123 141 172
122 140 170
119 137 169
116 132 166
119 137 173
116 132 180
108 121 182
107 120 180
110 123 193
106 118 192
107 118 192
110 121 196
112 125 201
117 129 206
113 124 200
110 122 198
104 116 188
111 123 198
111 123 199
111 123 199
111 124 199
111 124 200
113 125 201
109 121 195
108 120 194
109 122 196
111 122 196
111 123 198
114 126 203
110 122 196
110 123 197
111 124 199
111 123 197
113 125 200
112 124 199
112 124 199
110 122 197
115 127 203
112 124 199
111 123 198
111 123 198
114 126 202
112 125 200
113 125 199
110 122 197
117 129 206
118 130 207
110 123 197
110 123 198
111 123 198
111 123 198
107 120 194
115 127 203
109 122 197
110 123 197
105 117 189
109 122 197
110 122 197
108 120 195
113 124 199
110 122 197
108 119 192
111 122 196
110 122 196
111 123 198
115 127 203
112 124 199
110 122 196
104 115 187
109 120 194
113 125 201
112 124 199
112 123 199
107 119 192
108 120 194
109 119 193
105 116 188
110 122 197
112 124 201
107 118 192
105 115 188
107 118 191
107 118 192
108 119 194
106 117 189
114 125 201
110 121 195
107 117 190
107 118 192
100 111 183
110 120 194
102 111 182
110 120 194
103 111 180
104 112 182
105 113 184
104 112 184
104 114 184
102 110 178
106 116 182
105 113 172
107 118 174
107 120 162
115 128 161
124 141 171
120 137 167
125 140 167
120 135 164
128 145 174
125 140 167
125 141 170
125 140 167
127 145 174
128 143 170
126 142 168
126 143 170
126 142 169
125 141 168
126 141 168
128 145 172
125 142 169
124 139 167
129 144 171
127 140 165
128 143 168
125 138 164
126 140 166
126 135 162
131 128 151
136 112 134
142 98 115
155 104 121
151 102 119
157 106 121
157 106 121
153 103 117
158 106 121
152 103 118
164 111 125
157 106 122
160 109 123
156 105 119
159 108 122
157 106 120
156 105 119
156 105 119
159 107 122
154 104 118
150 101 115
146 106 122
142 127 146
136 139 162
131 142 166
132 144 168
128 144 169
130 144 168
131 146 171
131 146 172
131 147 173
130 144 169
130 145 170
131 148 173
132 150 176
132 149 175
132 150 176
133 152 179
132 150 176
132 150 176
132 151 178
133 151 177
134 152 178
133 152 178
131 146 170
133 152 179
134 154 179
132 150 176
133 151 177
132 151 177
133 150 175
134 153 178
133 152 178
132 149 175
133 153 180
133 152 178
133 150 176
133 153 179
134 154 180
133 154 181
133 152 178
134 153 179
134 154 180
134 154 180
134 154 180
133 153 180
133 153 180
133 153 179
134 153 179
133 153 179
133 153 180
132 153 179
134 153 179
134 153 180
134 154 181
134 154 181
134 154 181
133 153 179
133 153 180
134 154 180
133 154 181
134 154 180
133 154 180
134 154 181
133 154 181
133 154 181
132 152 179
134 154 181
134 154 180
134 154 180
133 153 180
133 153 179
134 154 181
133 154 181
134 154 180
134 154 180
134 154 181
134 154 181
133 154 181
134 154 181
134 154 181
134 154 181
134 154 180
134 154 180
134 154 181
134 154 181
135 155 181
134 154 181
133 153 180
133 154 181
134 154 180
134 154 181
134 154 181
134 154 181
134 154 181
134 154 181
133 154 180
134 154 181
134 154 181
134 154 181
133 154 180
135 155 181
133 154 181
133 154 181
134 154 180
133 154 180
134 154 181
134 155 181
134 154 181
134 154 181
134 154 181
133 154 181
133 154 181
134 154 180
133 154 181
134 154 181
134 154 181
133 154 180
134 154 181
134 154 181
134 154 181
134 154 181
134 154 181
133 154 180
134 155 181
133 154 181
134 154 181
134 154 181
134 154 181
133 154 181
134 154 181
133 154 181
133 154 181
134 154 181
134 154 181
134 154 181
133 154 181
133 154 181
134 155 181
134 154 180
134 154 180
134 154 181
134 154 181
134 154 181
134 154 181
134 154 181
134 154 181
134 154 181
134 154 181
133 154 181
133 154 181
133 154 181
133 154 181
134 154 181
134 154 181
133 154 181
134 154 181
134 154 181
134 154 181
134 154 181
134 154 181
134 154 181
133 154 181
135 155 181
133 154 181
134 154 181
134 154 181
133 154 181
134 154 181
134 154 181
133 154 181
134 154 181
133 154 181
134 154 181
133 154 181
133 154 181
133 154 181
133 154 180
134 154 181
134 154 180
135 155 181
134 154 181
134 154 181
133 154 181
133 154 180
134 154 181
134 154 180
134 154 180
134 154 181
134 154 180
133 153 180
134 154 181
134 154 181
134 154 181
134 153 180
133 154 180
133 154 181
134 154 180
134 154 181
133 154 180
133 153 180
135 155 181
134 154 180
133 153 180
133 154 181
133 154 181
134 154 180
133 154 180
133 153 180
133 154 181
134 154 180
133 154 181
133 154 181
132 153 180
133 154 180
134 154 181
132 152 179
133 154 181
134 154 181
133 154 181
131 151 179
133 153 180
133 153 179
131 152 179
133 153 180
132 152 179
132 152 179
134 154 180
131 151 179
133 153 180
132 152 179
132 152 180
132 152 179
130 150 178
133 153 180
132 152 179
132 153 180
130 150 178
130 150 178
128 148 178
131 150 178
130 150 178
130 149 177
129 149 177
129 148 177
129 149 178
130 149 177
126 145 175
130 150 178
124 143 173
125 144 174
121 140 170
123 141 172
121 140 171
123 142 172
119 136 170
113 130 166
116 133 170
114 129 174
114 130 178
109 122 182
107 120 185
112 125 197
106 118 192
108 120 195
111 122 197
106 117 191
108 120 195
107 119 193
104 116 189
107 119 193
108 120 196
108 121 195
107 120 194
103 116 188
112 123 199
109 122 197
113 126 202
114 126 202
110 122 197
108 120 195
112 124 201
113 125 201
111 123 198
111 123 197
116 129 206
116 128 204
114 126 202
113 125 200
114 126 201
114 126 201
116 128 205
110 122 196
114 125 201
114 125 201
110 122 196
112 123 198
114 126 202
110 122 198
108 120 194
114 126 201
108 121 195
110 122 197
107 119 193
111 124 198
113 125 200
111 123 197
115 126 202
112 124 199
115 128 205
114 126 203
108 121 195
112 124 198
108 121 196
111 123 198
109 121 195
104 116 188
107 118 192
113 125 200
109 121 197
112 123 199
108 119 191
112 123 197
108 119 194
112 123 199
101 113 185
110 122 196
107 117 190
111 122 198
108 118 192
109 121 196
107 118 192
106 116 189
106 117 191
109 120 193
107 117 190
109 120 193
107 117 191
106 117 190
112 122 197
108 118 190
109 118 191
104 114 187
105 116 189
108 118 191
101 112 183
103 113 183
106 115 184
104 112 178
100 111 170
105 116 175
108 118 171
103 111 164
113 127 170
116 130 166
117 132 166
122 139 171
120 136 165
122 139 169
121 138 167
122 138 168
122 134 162
126 144 172
126 143 171
126 143 170
125 142 168
126 142 171
127 141 168
126 142 170
125 138 164
125 142 169
127 144 170
123 138 165
127 143 169
127 141 166
124 139 166
123 138 165
126 140 165
125 136 161
125 135 159
135 125 147
133 103 123
141 98 116
154 104 119
156 106 121
155 105 119
155 105 121
158 107 121
156 105 120
159 107 121
158 106 120
155 105 119
159 107 122
161 109 122
148 101 115
157 107 121
156 106 120
161 108 122
161 109 123
158 107 122
158 107 121
159 112 128
143 117 135
138 134 155
131 144 168
131 144 169
129 143 168
130 142 167
130 143 168
131 144 168
131 148 173
130 148 174
132 148 173
132 147 171
131 146 171
131 149 175
133 151 177
131 147 172
130 148 173
130 148 173
133 149 174
134 154 180
134 151 176
131 150 176
133 151 177
133 153 179
133 153 180
133 152 178
134 154 181
133 152 178
133 152 178
133 151 177
132 150 175
133 152 178
133 151 177
134 153 179
134 153 178
133 152 179
133 152 178
132 152 178
132 153 179
133 152 178
134 154 180
134 154 180
132 150 176
134 154 180
133 152 178
134 153 179
133 153 179
133 153 180
134 154 180
134 154 181
134 154 181
134 154 180
133 153 179
133 154 181
134 154 181
134 153 179
134 155 181
133 154 181
133 154 181
133 154 180
133 154 181
134 154 180
134 154 181
133 154 181
135 155 181
133 153 179
134 154 181
134 154 181
135 155 181
133 154 181
134 154 180
134 154 181
133 153 180
134 154 181
133 153 180
133 153 180
134 154 181
134 154 181
134 154 181
133 154 181
134 155 181
134 154 181
133 153 180
133 154 181
134 154 181
134 154 181
134 154 181
134 154 181
134 154 181
134 154 181
134 155 181
134 154 181
134 154 181
134 154 181
134 154 181
133 154 181
133 154 181
133 154 181
134 154 181
135 155 181
133 154 181
133 154 180
134 154 181
133 154 181
135 155 181
134 154 181
134 154 181
133 154 181
134 154 181
135 155 181
134 154 181
134 154 181
133 154 181
133 154 181
133 153 180
134 154 181
134 154 181
135 154 180
135 155 181
133 154 181
134 154 181
134 154 181
134 154 181
134 154 181
134 154 181
136 155 181
134 154 181
134 154 181
133 154 181
135 155 181
133 154 181
134 154 181
133 154 181
134 154 181
135 155 181
134 154 181
134 154 181
133 154 180
134 154 181
134 155 181
135 155 181
134 154 181
133 154 181
133 154 181
134 154 181
133 154 181
134 154 181
133 154 181
134 154 181
135 155 181
133 154 181
135 155 181
134 154 181
133 154 180
134 154 181
134 154 181
133 154 181
134 154 181
133 154 181
133 154 181
134 154 181
134 154 181
135 155 181
133 154 181
133 154 180
134 154 181
134 154 181
134 154 180
133 154 181
133 153 180
134 154 181
134 154 181
134 154 181
133 154 181
133 154 181
134 154 181
134 154 181
132 153 180
133 154 181
134 154 181
132 153 180
134 154 181
134 154 181
134 154 181
134 154 181
135 155 181
135 155 181
133 154 181
133 153 180
135 155 181
134 154 181
134 154 181
133 154 180
134 154 181
134 154 181
132 153 180
134 154 181
134 154 180
134 154 180
133 154 181
134 154 181
133 154 181
134 154 181
134 154 181
134 154 180
132 153 180
133 153 180
132 153 180
133 154 181
134 154 181
132 153 180
134 154 181
134 154 180
134 154 180
133 153 179
134 154 180
132 153 180
134 154 181
132 153 180
133 153 180
133 154 181
133 153 180
134 154 181
133 153 180
132 152 179
132 152 180
132 152 179
131 152 179
132 153 179
133 153 180
132 153 180
132 152 179
132 152 179
131 151 179
132 153 180
129 149 176
131 151 179
131 152 179
129 150 178
128 148 176
129 148 176
131 151 178
128 147 176
129 148 176
129 149 177
128 147 175
123 141 171
127 146 175
122 140 171
121 140 171
116 134 166
121 139 170
120 139 171
115 132 166
116 134 167
109 124 161
113 129 164
111 127 167
113 128 171
111 125 180
105 118 179
111 125 193
106 117 186
108 119 195
112 124 201
110 122 196
112 124 200
112 124 201
108 120 196
108 120 194
110 122 198
110 122 199
106 118 192
115 127 203
106 118 191
112 124 199
112 124 200
109 122 197
106 119 193
107 119 193
114 126 201
110 121 195
108 121 196
112 124 200
110 122 196
115 127 203
112 124 200
113 126 201
110 122 197
110 122 197
113 125 202
115 127 204
111 123 198
111 124 200
108 121 195
109 121 196
111 123 198
111 123 198
115 127 203
112 124 200
110 122 196
111 123 197
110 123 198
110 122 197
111 123 198
111 123 197
111 123 198
113 125 201
112 124 199
109 121 196
110 121 195
115 126 202
109 121 196
110 122 197
108 120 194
109 122 197
106 118 192
113 124 199
113 125 201
104 116 189
110 121 196
106 117 190
110 121 196
112 124 200
106 117 191
112 124 199
113 124 199
108 120 195
108 118 192
109 120 193
111 122 197
111 122 198
105 116 189
103 113 185
106 117 192
106 116 188
109 121 196
107 117 191
101 111 182
102 113 185
106 117 190
103 112 180
107 117 183
110 121 184
106 116 180
102 113 171
108 118 173
106 118 166
110 124 164
110 122 166
112 126 162
118 134 168
119 134 164
115 130 159
123 139 168
121 134 163
123 140 168
124 140 169
121 137 166
125 143 171
123 138 167
127 143 170
125 142 168
125 143 172
125 141 168
128 143 170
126 142 169
122 136 163
130 147 173
129 145 170
127 140 165
126 141 167
126 140 166
120 132 159
128 143 169
122 133 158
122 137 163
123 129 153
125 114 136
136 104 125
140 96 114
153 103 119
150 102 118
155 104 120
153 104 118
151 102 116
157 107 121
161 108 123
159 108 123
152 103 118
149 101 116
161 109 123
159 108 122
158 106 120
157 106 121
155 104 118
152 102 116
159 108 123
157 106 120
157 109 124
146 124 143
130 132 154
128 140 164
131 144 168
129 140 163
131 142 166
130 143 167
129 143 167
133 151 176
131 145 170
132 147 172
132 149 174
131 148 174
132 149 174
132 148 174
133 150 176
132 149 174
132 149 175
132 146 171
131 148 173
132 148 174
132 148 173
132 150 176
133 151 177
133 153 179
132 150 175
133 152 178
133 152 178
134 152 178
132 152 178
133 153 180
133 152 178
134 153 178
133 153 180
134 153 179
133 152 178
132 152 178
134 153 179
133 153 180
134 153 179
133 153 180
133 153 180
134 154 180
133 153 179
133 152 178
134 154 181
133 152 178
133 154 181
133 153 179
133 154 181
133 153 180
133 153 180
134 154 180
133 153 179
134 154 181
134 155 181
134 154 181
134 154 181
134 154 181
133 154 181
134 154 181
134 154 180
134 154 181
134 154 181
133 154 181
133 153 179
133 154 180
133 153 179
134 154 181
133 154 181
133 154 181
133 154 181
134 154 181
134 154 181
134 154 181
133 153 180
134 154 181
134 154 180
134 154 181
133 154 181
134 154 181
133 154 180
133 154 181
133 153 180
134 154 181
133 154 181
135 155 181
134 154 181
134 154 181
133 154 181
134 154 181
133 154 181
134 154 181
133 154 180
134 154 181
133 154 181
133 153 180
134 154 181
133 154 181
134 154 181
134 154 181
134 154 180
134 154 180
133 154 181
134 154 181
133 154 181
134 154 181
134 155 181
134 154 181
134 154 181
134 154 181
133 154 181
134 154 181
135 155 181
133 154 181
133 154 180
133 154 181
134 154 181
133 154 181
133 154 181
134 154 181
134 154 181
134 154 181
134 154 181
133 154 181
135 155 181
133 154 180
133 153 180
135 155 181
134 154 180
134 154 180
134 155 181
134 154 181
133 154 181
134 154 181
134 154 181
134 154 181
134 154 181
134 154 181
134 154 181
134 154 181
133 154 181
133 154 181
134 154 181
134 154 181
133 154 181
132 153 181
134 154 181
134 154 181
133 154 181
134 155 181
134 154 181
134 154 181
134 154 181
133 154 181
134 154 181
133 154 181
134 154 181
133 154 181
134 154 181
134 154 181
133 154 181
134 154 181
134 154 181
133 154 181
132 153 180
133 154 181
134 154 181
133 153 180
134 154 181
134 154 181
134 154 181
133 154 181
134 154 181
134 154 181
133 154 180
134 154 181
134 154 181
134 154 180
133 154 181
134 154 181
134 154 181
134 154 181
133 154 181
134 154 181
133 153 180
133 154 181
134 154 181
134 154 181
134 154 180
133 153 179
133 154 181
134 154 181
133 154 181
134 154 181
133 154 181
133 154 180
133 154 181
133 154 181
133 153 180
133 154 181
132 152 179
131 152 179
133 153 180
133 154 180
133 154 181
133 154 181
134 154 180
134 154 180
133 153 180
133 154 181
133 154 180
133 154 180
133 154 180
133 153 180
133 154 181
134 154 181
134 154 180
133 154 180
133 153 180
133 154 180
133 154 181
132 153 179
132 152 179
133 153 180
131 152 179
132 153 180
131 152 179
134 154 180
132 152 179
131 152 179
132 153 180
132 152 179
130 151 179
130 150 178
130 150 178
130 151 179
131 152 179
131 151 178
128 148 177
129 148 177
130 149 177
127 147 176
126 146 175
129 149 177
126 146 176
127 147 176
123 142 172
124 143 172
123 142 173
124 143 172
118 136 168
123 141 171
120 138 170
117 135 167
111 128 162
115 131 166
119 136 167
113 129 168
110 125 169
109 123 176
107 122 177
107 119 187
109 121 192
110 122 197
108 120 194
109 121 197
104 116 190
112 125 202
111 123 198
109 120 196
111 123 199
110 123 198
113 125 201
110 122 198
113 126 201
110 122 197
110 122 197
112 124 199
109 121 195
109 121 195
113 125 200
109 120 195
115 126 202
114 127 203
111 123 199
110 122 198
111 123 197
111 124 199
115 127 203
109 121 195
110 122 197
110 122 197
110 122 197
109 122 197
111 123 199
111 123 198
111 123 198
113 125 200
115 127 203
106 118 191
113 124 199
110 122 196
116 128 205
109 122 196
115 128 205
114 127 204
107 119 193
110 121 196
113 125 200
107 119 194
110 121 195
112 124 199
109 121 196
110 122 197
108 120 195
112 123 199
113 125 202
106 117 191
109 121 195
110 122 197
106 117 191
110 122 198
112 123 199
112 123 198
114 125 201
103 113 186
105 117 190
111 122 197
110 121 196
106 116 189
107 118 191
107 117 190
106 117 192
111 122 199
102 111 183
104 116 189
105 116 188
104 115 184
109 119 184
103 115 180
105 116 177
103 116 169
104 116 168
106 117 171
107 120 168
111 125 166
108 121 157
113 129 163
111 127 160
111 124 159
119 135 164
120 136 167
119 136 168
127 144 172
126 143 172
119 134 162
123 140 169
125 143 171
125 142 170
125 141 169
126 143 171
128 144 171
125 143 171
126 143 171
126 143 170
124 139 165
125 141 169
127 143 170
124 139 165
126 142 169
123 135 160
127 142 168
123 135 161
121 132 157
125 139 164
119 129 152
119 127 150
124 115 138
136 102 121
141 95 113
151 102 118
156 104 120
151 102 117
157 106 120
159 108 123
154 103 117
156 106 121
154 104 118
157 106 121
155 105 119
158 106 120
161 108 122
160 108 121
164 111 125
158 107 122
151 102 116
163 110 124
153 103 117
145 106 121
143 121 141
133 133 154
129 136 159
128 138 161
132 143 166
129 142 166
130 140 164
129 140 164
131 145 169
130 143 167
129 143 168
130 145 170
132 149 174
131 147 173
131 148 174
133 150 175
131 147 172
133 151 177
129 147 172
132 150 175
132 151 176
131 147 173
132 151 177
132 148 174
134 153 178
132 151 177
132 152 178
132 152 178
132 151 177
132 152 179
133 153 179
134 152 177
132 150 176
134 154 180
133 151 177
134 154 180
132 151 177
133 154 181
133 153 179
134 154 181
135 154 180
133 154 180
134 154 181
134 154 180
135 155 181
133 154 180
133 153 180
133 153 180
134 153 179
134 154 180
133 153 180
134 154 181
134 154 181
133 154 180
133 153 180
134 154 181
134 154 181
134 154 181
133 154 181
134 154 180
134 154 180
133 152 178
134 154 181
133 153 179
133 154 181
134 154 181
133 154 181
134 154 180
135 155 181
134 154 181
133 154 180
133 154 181
134 154 180
133 154 180
134 154 181
133 154 181
133 154 181
133 154 181
134 154 181
134 154 181
133 154 181
133 154 181
133 153 180
134 154 180
133 154 181
134 154 181
133 154 181
134 154 181
133 154 181
134 154 181
134 154 181
134 154 181
135 155 181
133 153 180
133 154 181
134 154 181
133 153 180
134 154 181
134 154 181
134 154 181
134 154 181
135 155 181
133 154 181
133 154 181
133 154 181
133 154 181
134 154 181
133 153 180
132 153 181
134 154 181
134 154 181
134 154 181
134 154 181
134 154 181
134 154 181
133 154 181
134 154 181
134 154 181
134 154 181
134 154 181
134 154 181
134 154 181
134 154 181
134 154 181
133 154 181
134 154 181
133 154 180
134 154 181
134 154 181
134 154 181
134 154 181
134 154 180
133 154 181
133 154 181
134 154 181
133 154 181
133 154 181
134 154 181
134 154 181
133 154 181
134 154 181
134 154 181
133 154 181
134 154 181
134 154 181
134 154 181
134 154 181
133 154 181
134 154 181
134 154 181
134 154 181
134 154 181
134 154 181
134 154 181
133 154 181
133 154 181
134 154 181
134 154 181
134 154 181
134 154 181
133 154 181
133 154 181
133 154 181
134 154 181
134 154 181
134 155 181
134 154 181
133 154 180
134 154 181
133 154 181
133 154 181
133 154 180
134 155 181
134 154 181
134 154 181
133 154 181
133 154 180
134 154 181
134 154 181
134 154 181
134 154 181
134 154 181
135 155 181
134 154 181
133 154 180
133 154 181
132 153 181
132 153 181
134 154 181
134 154 181
134 154 181
134 154 180
134 154 180
134 154 181
134 154 181
134 154 181
134 154 181
133 154 181
134 154 181
132 153 180
133 153 179
133 154 180
134 154 181
133 153 180
133 154 180
134 154 181
133 153 180
132 152 180
133 153 180
133 153 180
133 154 180
134 154 181
132 153 180
134 154 181
133 154 180
134 154 180
133 154 180
132 153 180
132 153 180
133 153 180
131 151 178
132 153 180
133 154 180
134 154 181
133 154 181
133 153 180
131 151 179
132 152 180
132 152 179
132 153 180
132 152 179
128 148 177
132 152 179
132 152 179
129 148 177
132 152 179
130 150 178
127 147 176
126 146 175
130 149 178
127 147 175
130 150 178
129 149 178
128 148 176
125 144 172
127 147 176
126 146 176
124 143 173
123 143 173
120 138 170
124 143 173
120 138 169
119 137 169
118 135 167
118 135 168
115 132 165
121 138 170
112 129 164
116 133 167
111 127 162
111 127 167
111 126 171
102 115 169
108 120 181
107 120 184
111 123 195
110 122 198
108 120 195
105 117 192
106 118 192
109 121 195
107 120 194
111 123 198
110 122 197
112 124 200
111 123 199
111 123 198
108 120 194
111 123 198
113 125 202
111 123 200
110 122 196
108 121 195
113 126 202
114 126 202
113 125 200
111 122 196
110 122 197
112 124 201
113 125 202
108 120 195
113 125 200
110 122 196
111 123 198
109 122 196
112 124 200
111 123 197
108 120 194
108 120 194
110 122 196
112 123 199
115 128 204
108 120 194
110 122 197
115 126 202
105 117 190
112 123 198
111 123 197
113 125 200
113 126 202
108 120 195
111 123 199
109 121 194
110 122 197
115 126 203
111 124 199
105 115 187
106 118 191
105 117 190
109 121 196
111 122 197
102 113 185
111 122 198
108 119 191
112 123 199
103 114 186
110 120 195
108 120 195
111 121 196
106 117 191
103 114 185
111 122 196
103 113 185
109 120 195
106 118 190
107 118 188
108 118 186
109 122 184
115 127 187
108 121 177
110 124 178
108 122 171
110 125 171
114 129 170
116 132 167
114 129 165
116 132 164
113 126 160
113 127 159
120 135 167
121 137 168
117 133 165
122 137 166
117 133 164
123 141 172
123 138 166
123 140 169
126 145 173
125 142 170
124 138 167
128 145 171
123 141 169
127 143 170
127 142 169
129 145 171
127 142 169
124 138 164
126 141 168
125 137 164
127 141 166
127 142 168
124 139 165
127 139 164
121 134 160
125 140 165
120 127 152
120 132 157
118 126 151
126 111 132
134 102 122
132 91 112
149 100 116
151 102 118
158 107 122
157 106 120
157 105 119
157 106 121
155 105 119
161 108 122
156 104 118
155 104 117
158 107 121
154 104 118
157 106 120
156 105 119
159 107 121
154 105 119
159 107 120
159 107 121
158 112 127
138 117 136
134 127 148
128 138 161
126 138 161
129 139 163
129 143 167
131 146 171
129 143 168
130 145 169
131 143 166
131 146 170
131 147 173
130 143 167
133 148 173
131 146 171
128 143 168
128 142 167
131 150 176
132 150 176
133 151 177
132 150 176
133 152 178
133 152 178
132 151 177
133 152 178
131 150 176
132 151 178
132 151 178
132 151 178
132 149 174
131 151 177
132 150 176
133 152 178
134 154 180
132 151 177
133 152 178
133 153 178
134 154 180
134 153 179
133 154 181
133 154 181
133 153 179
133 153 180
134 154 181
133 154 181
133 154 181
134 153 178
133 151 177
133 153 180
133 154 181
134 154 181
133 153 180
134 154 181
135 155 181
133 154 181
133 153 180
134 153 179
133 153 180
133 153 179
133 153 180
134 154 181
133 153 180
133 153 180
133 154 181
133 153 180
134 154 181
134 155 181
134 154 180
134 154 181
135 155 181
134 154 180
134 154 181
134 154 181
134 154 181
134 154 181
134 154 181
133 154 181
134 154 181
133 153 179
133 154 180
134 154 180
133 154 181
134 154 181
134 154 181
133 154 181
133 153 180
134 154 181
135 155 181
134 154 181
134 154 181
134 154 181
134 154 181
134 154 181
133 154 181
134 154 181
134 154 181
134 154 181
134 154 180
134 154 181
134 154 180
133 153 180
134 154 181
133 154 181
134 154 181
134 154 180
134 154 180
133 154 181
134 154 181
134 154 181
133 153 180
134 154 181
134 154 181
134 154 181
134 154 181
134 154 181
133 154 181
134 154 181
134 154 181
134 154 181
134 154 181
134 154 181
134 154 181
134 154 181
134 154 181
133 154 181
133 154 181
134 154 181
134 154 181
133 153 180
134 154 181
135 155 181
134 154 181
134 154 181
134 154 181
134 154 181
133 154 181
134 154 181
134 155 181
134 154 181
133 154 181
133 154 181
133 154 181
133 154 181
133 154 181
134 154 181
134 154 181
133 154 181
133 154 181
134 154 181
133 154 181
134 154 181
134 154 181
134 154 181
134 154 181
133 154 181
134 154 181
134 154 181
134 154 181
133 154 181
134 154 181
134 154 181
134 154 181
133 154 181
134 154 181
133 154 181
134 154 181
133 154 181
133 154 181
133 154 181
135 155 181
134 155 181
134 154 181
133 154 180
134 154 181
134 154 181
134 154 181
135 155 181
133 154 181
134 154 180
134 154 181
134 154 180
133 154 180
134 154 181
134 154 181
134 154 181
134 154 180
134 154 181
133 154 180
134 154 181
134 154 181
133 154 181
134 154 181
133 154 181
134 155 181
133 153 180
133 154 180
133 153 180
134 154 181
133 153 180
134 154 181
134 154 180
134 154 180
134 154 181
133 154 181
133 154 181
132 153 180
134 154 181
133 154 180
134 154 181
134 154 181
134 154 181
133 154 181
133 153 180
134 154 180
132 152 180
133 153 180
133 153 180
132 152 179
133 153 179
134 154 180
133 153 180
133 153 180
132 152 179
134 154 181
133 153 180
132 152 179
132 152 179
132 152 180
132 153 180
131 151 179
131 152 180
129 149 178
131 151 178
132 152 179
129 149 177
132 152 178
130 150 178
130 150 178
128 148 177
130 150 178
127 147 176
129 149 177
126 146 176
125 144 173
129 149 178
123 142 172
125 145 174
124 144 174
125 144 174
124 144 173
122 140 170
122 140 170
122 140 171
123 142 172
121 138 170
120 138 171
119 137 170
115 132 166
112 127 162
116 133 168
112 128 164
110 125 162
113 129 168
107 121 170
109 124 175
108 120 181
108 119 188
103 115 184
110 122 199
110 121 196
109 121 197
107 119 193
109 121 196
114 126 203
105 117 191
106 118 191
108 120 195
113 124 200
114 127 203
113 125 201
108 120 194
112 125 201
110 122 197
110 122 197
113 125 199
112 125 201
108 121 194
113 125 199
114 127 202
112 124 200
111 123 197
116 128 204
109 121 195
107 118 190
110 121 195
113 125 201
107 119 192
113 125 200
111 123 198
110 123 199
106 118 191
110 123 198
112 124 199
112 124 200
114 125 200
108 120 195
110 122 197
108 121 196
110 122 196
112 124 200
108 120 194
109 121 196
107 120 194
115 127 203
111 123 198
107 119 193
111 123 197
108 120 195
105 117 191
109 120 195
110 122 198
108 120 194
111 124 200
103 114 187
109 120 194
106 116 190
109 120 195
106 116 191
107 119 193
104 115 187
106 117 191
106 118 190
104 115 183
106 119 183
104 115 178
109 122 178
108 121 177
115 130 176
114 128 176
112 127 168
109 122 159
114 131 165
114 130 164
116 132 164
114 130 164
116 132 165
121 138 169
116 132 165
115 131 163
120 137 169
122 138 168
117 133 164
123 141 172
123 140 169
119 136 167
125 140 167
123 140 170
125 142 170
125 141 168
128 144 171
124 142 171
129 146 172
122 140 168
130 146 172
124 140 165
126 143 170
127 143 170
124 138 164
129 147 174
127 143 169
127 141 167
124 134 159
122 134 158
122 132 157
124 134 158
120 129 152
120 130 153
120 128 152
126 110 131
137 102 121
138 94 112
139 93 110
152 102 117
158 107 122
156 104 119
151 101 116
155 104 117
158 107 122
158 107 122
160 108 122
158 106 119
156 105 119
157 105 119
147 99 113
159 107 121
159 107 121
153 103 117
152 102 116
160 107 121
143 108 124
145 119 137
130 132 155
126 135 158
128 136 159
128 140 163
128 139 163
131 145 169
132 148 173
130 143 168
129 144 169
130 140 163
132 146 170
131 145 170
132 148 172
132 147 172
133 149 174
131 148 173
132 150 176
131 148 174
129 143 167
133 150 176
132 150 176
132 150 176
135 154 179
132 149 175
132 151 178
132 152 178
132 150 176
132 152 178
133 152 178
133 151 176
134 153 179
133 153 179
133 153 179
132 152 178
132 153 180
132 152 179
133 153 180
133 153 179
132 152 178
132 152 179
133 151 176
133 153 179
133 153 180
133 153 179
134 154 180
135 154 180
133 154 181
134 154 180
133 154 181
132 152 178
133 154 181
133 153 179
134 154 180
133 154 181
133 154 181
134 154 181
133 153 179
133 152 178
133 153 180
134 154 180
134 154 180
134 154 181
134 154 181
134 154 181
134 154 181
134 154 181
133 154 181
134 154 181
134 154 181
133 153 179
134 154 180
132 153 180
133 154 181
134 154 181
134 154 181
135 155 181
134 154 181
134 154 181
134 155 181
134 154 181
135 155 181
134 154 181
134 154 180
133 154 181
134 154 181
133 154 180
134 154 181
134 154 181
134 154 181
134 154 181
134 155 181
134 154 181
134 154 181
135 155 181
133 154 181
135 155 181
134 154 181
134 154 181
134 154 181
134 154 181
134 154 181
133 154 181
134 154 181
133 154 181
133 154 181
135 155 181
134 154 181
133 154 181
134 154 181
133 154 181
134 154 181
133 154 181
134 154 181
134 154 181
133 154 181
133 154 181
134 154 181
134 154 181
134 154 181
134 154 181
134 154 181
135 155 181
134 154 181
133 154 181
135 155 181
135 155 181
134 154 180
134 154 181
134 154 181
133 154 181
133 154 181
134 154 181
133 154 181
134 154 181
133 154 181
134 154 181
133 154 181
134 154 181
133 154 181
133 154 181
133 154 181
135 155 181
134 154 181
134 154 180
134 154 180
134 154 181
134 154 181
133 154 181
133 154 181
133 154 181
134 154 181
133 154 181
133 154 181
134 154 181
134 154 181
135 155 181
134 154 181
134 154 181
134 154 181
134 154 181
135 155 181
134 154 181
133 154 181
134 154 181
135 155 181
134 154 181
134 154 181
133 153 180
133 154 181
134 154 181
133 154 181
134 154 181
133 154 181
134 154 181
134 154 180
134 154 181
134 154 180
134 154 181
134 154 181
135 155 181
134 154 181
134 154 181
134 154 181
135 154 180
133 154 181
133 154 180
134 154 181
134 154 180
133 154 181
134 154 181
134 154 181
133 154 181
134 154 181
134 154 181
133 154 181
133 154 181
133 153 180
134 154 181
134 154 180
133 154 181
133 154 181
134 154 181
133 154 181
134 154 181
133 154 180
133 153 180
133 154 181
133 153 180
134 154 181
133 154 180
133 153 180
134 154 180
134 154 181
132 152 179
134 154 180
134 154 180
132 152 179
133 154 180
132 153 179
133 154 180
133 153 180
132 153 179
132 152 180
133 153 180
131 152 179
133 154 180
132 153 180
134 154 180
132 152 179
132 152 179
132 152 179
131 151 179
129 149 176
131 152 179
132 152 179
128 148 177
131 151 178
130 150 178
126 146 174
129 149 177
128 148 176
126 145 174
128 148 176
128 147 177
129 148 176
127 147 176
127 146 176
123 142 172
124 142 172
126 145 175
122 140 171
122 140 171
127 147 176
123 140 170
118 136 168
121 139 170
118 135 169
116 133 166
116 134 168
114 130 164
113 128 163
116 132 168
110 125 162
107 121 170
108 122 171
110 123 188
112 125 191
110 123 192
104 116 187
105 116 191
108 120 195
111 123 199
106 118 191
114 126 202
108 120 194
117 129 207
109 121 196
107 119 193
107 119 193
113 126 201
116 128 205
108 120 195
112 124 199
111 124 198
108 121 195
111 123 198
110 123 198
111 123 198
115 128 206
109 121 195
110 121 196
109 120 194
110 122 197
110 122 197
114 126 203
111 123 197
110 122 196
112 124 199
109 121 196
109 122 196
104 115 188
116 128 205
115 127 205
106 118 191
113 125 201
108 120 195
106 118 192
114 125 201
112 124 199
106 117 191
108 121 195
111 123 198
107 118 192
108 120 193
112 123 199
107 118 192
106 118 192
111 123 199
112 123 199
108 119 192
105 117 191
108 119 194
112 123 200
108 118 192
110 121 197
108 119 192
109 120 194
108 120 193
106 118 184
101 112 175
105 117 177
105 118 172
110 122 176
107 120 169
109 123 169
109 123 165
112 126 162
110 124 160
113 127 161
119 137 168
110 125 157
115 131 163
113 129 163
114 130 164
120 136 168
122 139 170
120 135 166
119 137 168
121 138 168
120 135 164
120 138 169
127 143 171
124 141 170
127 144 171
122 139 169
121 138 168
124 140 167
121 135 162
128 146 172
128 145 173
127 143 170
123 140 168
124 140 167
128 144 171
128 145 172
127 142 169
125 140 167
127 142 168
125 139 165
127 138 163
123 135 160
129 143 169
129 143 168
124 133 157
122 130 154
122 134 159
125 132 155
124 118 140
135 118 139
134 102 121
149 104 120
158 105 119
151 101 116
150 100 115
158 106 121
156 105 119
155 105 119
153 104 118
162 108 121
154 103 117
161 109 123
158 106 120
159 107 121
158 106 120
155 105 119
147 98 112
156 105 119
148 100 113
146 117 135
135 122 142
128 135 158
128 140 164
127 133 156
129 136 158
128 141 165
130 138 161
129 140 164
130 143 167
130 141 165
131 146 171
130 146 170
129 144 169
132 147 171
132 150 176
131 149 175
132 148 173
134 151 176
132 149 174
133 151 176
132 148 174
132 150 176
133 150 176
132 150 176
132 151 178
133 152 178
132 151 176
133 150 176
132 150 176
134 153 179
134 152 178
133 152 178
133 152 178
133 153 179
133 153 180
134 153 179
133 152 178
133 153 179
133 153 179
133 154 181
134 154 180
133 153 179
133 152 178
135 154 180
133 153 179
133 152 178
134 154 181
134 154 180
134 154 180
133 153 180
134 154 181
134 154 180
133 153 180
134 154 180
133 152 178
134 154 181
134 154 181
135 155 181
134 154 180
133 153 179
133 154 181
134 153 179
134 154 181
134 154 180
133 154 181
132 153 181
134 154 181
133 153 180
133 153 180
135 155 181
134 155 181
134 154 181
134 154 181
133 153 180
134 154 181
134 155 181
133 154 181
134 154 181
135 155 181
133 154 181
134 154 181
134 154 181
133 154 181
134 154 181
133 153 180
133 154 181
134 154 181
134 154 181
133 154 181
134 154 181
134 154 181
133 154 181
135 155 181
134 154 181
135 155 181
134 154 181
134 154 181
134 154 181
133 154 181
133 154 181
133 154 181
134 154 181
134 154 181
133 154 181
134 154 181
134 154 181
135 155 181
134 154 181
134 154 181
135 155 181
133 154 181
134 154 181
134 154 181
134 154 181
134 154 181
133 154 181
134 154 181
133 154 181
134 154 181
134 154 181
133 154 181
133 154 181
133 154 181
133 154 181
134 154 181
134 154 181
134 154 181
134 154 181
133 154 181
134 154 181
134 154 181
133 154 181
134 154 181
134 154 181
133 154 181
133 154 181
134 154 181
135 155 181
133 154 181
134 154 181
134 154 181
134 154 181
134 154 181
134 154 181
133 154 181
134 154 181
133 153 180
134 154 181
133 154 181
132 153 181
134 154 181
133 154 181
134 154 181
133 154 181
133 154 181
133 154 180
134 154 181
134 154 181
134 154 181
134 154 181
134 154 180
134 155 181
134 154 181
134 154 181
134 154 181
133 154 181
134 154 180
133 154 181
133 154 181
133 154 181
134 154 180
134 154 181
134 154 181
134 154 181
134 154 181
134 154 181
134 154 181
134 154 181
134 154 181
134 154 180
134 154 181
133 154 181
134 154 181
134 154 181
133 154 180
133 154 181
134 154 181
134 154 181
133 153 180
134 154 181
135 155 181
134 154 181
134 154 181
133 153 180
133 153 180
133 154 181
133 154 181
134 154 181
133 153 180
133 154 181
134 154 181
133 153 179
133 154 180
135 155 181
133 154 181
133 154 180
133 154 181
132 152 179
133 154 181
134 154 181
134 154 181
133 154 181
133 154 181
133 153 180
133 153 179
131 151 179
132 153 180
133 154 180
132 153 179
132 152 179
133 153 180
131 151 179
131 152 179
132 152 180
133 154 181
132 153 180
134 154 180
131 151 179
133 154 180
131 151 179
132 152 179
131 151 178
129 149 177
129 150 177
130 150 177
131 152 179
130 151 179
130 150 178
128 147 176
130 150 179
129 149 177
125 144 173
127 146 175
126 145 175
129 149 178
127 146 176
124 143 172
127 147 175
124 143 173
120 138 170
128 147 176
123 142 172
123 141 172
123 141 172
120 138 171
120 138 171
121 140 170
118 135 168
120 137 169
119 137 168
117 135 169
112 128 162
117 134 167
114 131 167
111 127 163
116 132 172
113 129 172
117 133 184
107 121 182
105 117 184
109 122 194
106 117 192
106 118 192
110 122 198
112 124 200
109 121 196
111 123 198
109 121 196
115 128 205
113 125 202
109 121 194
114 127 204
112 124 199
119 130 208
110 122 197
113 125 202
112 125 201
113 125 201
110 123 199
107 119 191
110 122 198
114 126 203
112 124 198
111 124 199
111 123 198
112 123 198
114 126 203
109 120 194
113 125 200
110 122 197
109 121 196
111 122 198
107 119 193
114 125 201
112 125 201
104 116 188
103 114 187
111 122 197
114 125 201
108 120 195
106 117 192
107 119 193
121 132 210
106 117 191
113 125 201
113 125 200
110 122 198
107 118 192
110 121 195
106 117 192
107 117 190
107 118 192
103 114 188
105 116 189
109 121 197
109 120 192
104 115 182
105 117 181
106 119 180
108 121 173
106 118 170
108 121 166
109 123 169
111 126 165
110 125 162
116 132 167
114 130 162
115 131 166
115 131 164
113 127 161
118 135 166
118 135 167
122 139 171
119 135 167
122 138 168
121 138 170
122 138 168
119 136 168
120 137 168
120 138 168
122 140 169
123 139 169
125 143 173
122 140 170
126 144 173
127 144 171
126 144 172
126 142 171
128 145 172
125 141 168
128 144 172
125 142 169
127 144 171
129 146 171
130 148 174
130 146 173
126 142 169
127 143 170
127 141 167
126 139 165
125 136 160
128 144 170
127 143 170
125 138 163
125 136 160
124 135 160
122 132 156
124 133 157
125 123 145
124 115 137
133 114 134
140 106 123
151 109 125
150 106 121
149 104 120
157 107 121
153 102 116
158 106 120
159 108 122
152 102 116
152 102 116
154 104 118
159 106 119
154 103 118
154 102 116
157 111 125
157 109 124
145 107 123
144 109 125
142 123 142
129 125 146
124 131 153
126 131 153
128 137 160
129 140 165
131 144 169
131 142 165
129 139 163
132 146 170
131 145 169
132 147 172
132 140 164
132 146 170
129 144 168
131 146 171
133 149 174
132 149 175
132 150 176
132 147 173
132 149 175
132 148 173
131 149 175
132 146 171
133 151 177
133 151 176
131 149 175
133 152 178
133 152 178
133 152 178
132 151 178
133 152 178
133 152 178
133 153 178
133 152 179
134 154 180
134 153 179
132 151 177
133 152 178
132 152 179
134 152 178
132 153 179
133 153 179
134 154 180
133 153 180
133 153 180
133 153 179
134 155 181
135 154 179
133 154 181
134 154 180
134 153 179
134 154 181
134 153 179
134 154 181
134 154 180
133 153 179
133 153 180
134 154 180
133 153 179
133 154 181
133 154 181
134 154 181
133 153 180
133 154 181
134 154 181
134 154 181
134 154 181
134 154 180
133 154 181
133 153 179
133 153 180
133 153 179
133 154 181
134 154 181
134 154 181
134 154 180
133 154 181
133 154 180
133 154 181
133 154 180
134 154 180
134 154 181
133 154 181
133 154 181
133 154 181
133 154 181
132 153 181
134 154 181
134 154 181
133 153 180
133 154 181
135 155 181
135 155 181
134 154 181
133 154 181
134 154 181
134 155 181
133 154 181
134 154 181
134 154 181
133 154 181
134 154 180
133 154 181
134 154 181
133 154 181
134 154 181
134 154 181
133 154 181
134 154 181
134 154 181
134 154 181
135 155 181
134 154 181
134 154 181
134 154 181
135 155 181
133 153 180
133 154 180
134 154 181
134 154 181
134 154 181
134 154 181
134 155 181
134 154 181
135 155 181
133 154 181
134 154 180
134 154 181
134 154 181
134 154 181
133 154 181
134 154 181
134 154 181
134 154 181
134 154 181
134 154 181
134 154 181
134 154 181
133 154 181
133 154 181
133 154 181
133 154 181
135 155 181
134 155 181
134 154 181
134 154 181
133 154 181
133 154 181
134 154 180
134 154 181
134 154 181
134 154 181
134 154 181
134 154 181
133 154 181
134 154 181
133 154 180
133 154 181
134 155 181
134 154 181
133 154 181
134 154 181
134 155 181
134 155 181
134 154 181
133 154 180
134 154 181
134 154 181
134 154 181
134 154 181
134 154 180
133 154 181
133 154 181
133 154 181
134 154 181
133 154 181
133 154 181
133 154 180
133 154 181
134 154 181
135 155 181
134 154 181
134 154 181
134 154 181
133 154 181
133 153 180
133 154 181
133 154 181
134 154 181
133 154 180
133 153 180
134 155 181
133 154 181
134 154 180
132 153 180
132 153 180
134 154 180
133 154 180
133 154 181
134 154 181
133 153 180
134 154 181
133 154 181
133 154 180
134 154 181
133 154 181
134 154 181
134 154 181
132 153 180
133 154 181
133 153 180
134 154 181
134 154 181
132 153 179
133 153 180
132 153 180
133 153 180
133 154 180
133 153 180
133 153 180
132 153 179
132 153 180
133 153 180
131 151 179
131 151 179
132 152 179
131 152 179
132 152 179
130 151 178
133 153 180
129 149 177
131 152 179
130 151 179
131 152 179
131 151 179
132 152 180
131 152 179
130 149 177
130 150 178
132 152 180
129 149 177
128 148 177
129 148 177
127 147 176
127 147 176
129 149 177
127 146 175
123 142 172
126 145 175
123 142 172
123 141 172
123 141 172
123 141 172
122 140 171
123 141 172
125 144 174
122 141 172
120 139 171
117 134 168
117 134 167
115 131 166
115 132 167
116 133 168
117 134 168
119 137 170
110 127 161
116 131 168
110 124 167
105 119 171
108 122 176
109 122 187
104 116 186
112 124 198
104 115 189
110 122 200
109 121 195
112 124 200
109 121 196
109 121 196
106 118 191
111 123 197
113 125 201
112 125 201
107 120 194
112 124 199
111 124 199
114 126 202
114 126 204
112 125 201
109 121 196
110 123 198
109 121 195
115 128 205
112 124 200
109 120 194
110 123 198
112 124 200
108 121 195
113 125 201
108 120 194
118 130 207
111 123 198
109 122 197
109 121 195
111 122 197
111 122 197
108 119 193
106 118 192
107 119 192
110 121 197
111 124 200
112 125 202
109 120 196
109 121 197
106 118 193
107 118 191
104 115 189
105 115 188
109 120 196
110 121 197
108 118 192
104 115 186
103 115 182
109 122 186
103 114 177
113 125 183
113 128 183
112 126 175
113 128 177
114 127 173
107 121 162
108 123 161
112 129 164
116 132 164
111 126 160
115 132 166
113 129 164
120 138 170
120 138 169
115 132 164
122 139 170
123 141 172
113 130 164
119 137 169
118 132 164
120 137 169
125 143 172
122 140 169
126 143 171
125 142 172
123 141 171
127 145 175
123 138 167
129 146 174
127 145 174
128 146 173
121 138 166
129 146 173
127 144 173
125 144 173
129 148 176
127 145 172
128 145 171
129 144 170
128 144 170
130 147 174
127 141 167
125 142 169
127 143 170
126 142 168
125 140 166
124 135 160
127 141 166
127 140 167
125 137 162
127 142 168
125 140 166
128 136 159
126 137 160
126 135 158
127 124 147
132 112 132
137 113 132
139 113 131
148 111 128
145 105 120
154 109 124
148 103 118
149 109 124
153 109 124
145 100 114
152 108 124
144 108 124
152 109 124
147 108 124
148 117 134
144 114 131
144 119 137
137 123 142
130 121 140
129 135 158
129 138 161
130 141 165
133 145 169
132 142 165
128 142 166
132 146 170
131 143 167
132 147 171
130 146 170
132 146 171
130 145 170
131 147 172
131 148 173
131 148 173
134 151 177
131 147 172
132 150 176
132 151 177
133 150 175
133 150 176
132 147 171
133 152 178
134 153 179
133 151 177
134 152 177
134 152 178
132 152 178
133 152 178
133 152 178
133 153 180
133 151 177
132 151 177
132 152 178
133 150 176
133 150 175
133 153 179
132 152 179
133 154 181
133 152 179
134 154 181
134 153 179
133 153 180
134 152 178
132 152 179
134 154 181
133 152 178
134 154 180
134 154 181
134 154 180
134 154 180
134 153 179
134 154 181
133 153 180
133 153 179
134 154 180
133 153 180
134 154 181
134 154 180
135 154 180
134 154 181
134 154 181
134 154 181
134 154 181
134 154 181
135 155 181
134 154 181
134 154 180
134 154 181
134 154 180
133 154 181
133 154 181
134 154 181
133 153 180
134 154 181
134 154 181
135 155 181
133 154 181
134 154 181
134 154 181
134 154 181
134 154 181
133 154 181
133 154 180
134 154 181
132 153 181
133 154 181
133 154 180
135 155 181
133 154 181
134 154 181
134 154 181
133 154 181
135 155 181
134 154 180
134 154 180
135 155 181
133 154 181
133 153 180
136 155 181
134 154 181
134 154 181
134 154 181
134 154 181
133 154 181
133 154 181
133 154 181
133 154 181
133 153 180
134 154 181
133 154 181
134 154 181
133 154 181
134 154 181
134 154 181
133 154 181
134 154 181
134 154 180
134 154 181
133 154 181
134 154 181
133 154 181
134 154 181
134 154 181
133 154 181
135 155 181
133 154 181
134 154 181
133 153 180
133 154 181
134 155 181
133 154 181
134 154 181
134 154 181
134 154 181
134 154 181
134 154 181
134 154 181
134 154 180
134 154 181
134 154 181
133 154 181
134 154 181
133 154 181
134 154 181
134 154 181
134 154 181
134 154 181
133 154 181
134 154 181
133 154 180
133 154 181
134 154 181
134 154 181
134 154 181
134 154 181
133 154 181
134 155 181
133 153 180
133 154 181
134 154 181
134 154 181
135 155 181
134 154 181
133 154 181
133 154 181
133 154 181
134 154 181
133 154 180
134 154 181
134 154 181
133 154 181
134 154 181
133 154 181
133 154 180
134 154 181
133 154 181
134 154 181
134 154 180
135 155 181
133 154 180
134 154 181
133 154 181
133 154 181
134 154 181
134 154 181
134 154 181
133 153 180
133 154 181
133 154 181
132 153 180
134 154 181
134 154 181
134 154 180
133 154 181
133 153 180
133 154 180
133 154 181
134 154 181
134 154 181
134 154 181
134 154 181
134 154 180
134 154 181
134 154 181
133 153 180
133 153 180
134 154 181
134 154 180
133 153 180
132 153 180
133 153 180
133 154 180
133 153 180
132 152 179
133 153 180
133 153 180
133 153 180
134 154 181
134 154 181
133 153 180
133 153 180
133 154 180
132 153 180
132 152 180
133 153 180
133 153 180
131 151 179
132 153 180
132 152 180
133 153 180
131 151 179
131 152 179
131 151 179
130 151 178
130 150 177
130 149 177
130 150 178
131 151 179
130 150 178
128 148 177
128 147 175
130 150 179
127 147 177
128 148 176
125 144 173
126 145 175
124 143 173
126 146 176
129 149 177
126 145 175
124 143 174
125 144 173
124 142 173
121 138 170
125 144 174
121 140 171
119 138 169
123 142 173
117 134 169
119 137 169
115 132 165
119 136 169
114 131 165
115 132 166
118 135 168
116 133 167
115 131 165
114 130 168
109 125 166
104 117 169
110 123 180
103 115 181
108 119 192
109 121 194
107 118 193
111 123 199
111 123 198
106 118 192
107 119 193
110 122 196
109 121 195
113 125 201
112 124 199
111 123 198
110 122 196
109 121 196
113 124 199
111 123 196
108 120 195
117 129 207
110 122 197
112 124 198
111 123 198
112 125 201
113 125 200
107 119 193
109 122 197
106 118 191
113 125 201
110 122 196
110 121 197
111 123 200
109 121 195
108 119 194
108 120 195
111 123 198
110 122 198
111 123 199
111 123 199
107 119 195
105 116 189
104 116 189
108 119 193
107 119 193
107 118 193
111 122 197
105 117 189
107 119 191
108 120 191
103 114 179
112 124 186
110 124 177
106 121 169
100 113 166
108 123 171
109 125 170
112 127 164
113 129 164
113 130 164
112 129 163
112 128 163
116 133 167
116 132 164
119 136 170
119 136 168
119 135 168
114 130 164
120 137 169
117 133 165
124 141 172
119 136 167
119 137 168
121 139 169
126 144 173
124 142 170
123 139 168
125 142 172
121 138 167
123 141 170
122 140 168
123 140 169
128 147 176
126 144 172
124 142 170
126 145 174
128 143 170
125 142 169
127 144 171
127 144 171
128 143 170
127 142 169
126 142 170
127 142 168
128 145 171
128 146 173
128 146 172
128 144 170
129 142 167
128 144 170
128 145 172
127 141 166
129 144 170
128 144 170
129 143 168
126 140 165
127 139 164
127 139 164
126 137 161
127 140 165
125 133 156
128 132 155
128 126 148
130 129 151
139 123 142
133 127 148
138 114 132
141 120 140
141 110 127
144 113 130
144 120 138
141 120 138
139 112 129
144 120 138
138 125 145
137 128 148
138 132 153
133 130 151
134 134 156
126 133 156
128 138 161
127 138 161
129 142 166
131 141 165
129 144 168
128 139 163
133 146 171
130 145 170
131 146 171
131 144 168
129 144 169
131 147 172
133 148 173
132 145 170
132 147 172
133 151 176
132 152 179
132 149 174
132 152 178
131 147 172
133 152 178
133 151 177
132 151 177
133 151 177
133 152 178
134 153 179
134 154 180
134 153 179
133 152 178
134 153 179
133 153 180
133 151 177
133 153 179
132 151 177
133 152 178
133 153 180
133 152 177
133 153 179
134 153 179
133 154 181
134 154 180
133 153 179
133 154 181
133 153 179
133 153 179
134 154 181
133 154 181
133 154 181
132 153 181
134 153 179
133 152 178
134 154 181
134 154 180
133 153 179
134 153 179
134 154 180
134 154 180
134 154 181
134 154 181
133 154 181
134 154 180
134 153 179
134 154 181
133 153 180
134 154 181
133 154 181
134 154 181
133 154 181
134 154 180
134 154 181
134 154 180
134 154 181
134 154 180
133 154 181
134 154 181
133 154 181
134 154 181
134 154 181
133 154 181
133 154 181
133 154 181
133 154 181
134 154 181
134 154 180
134 155 181
133 154 181
134 154 180
134 154 181
134 154 181
133 154 181
133 154 181
134 154 181
134 154 181
135 155 181
134 154 181
134 154 181
134 154 180
133 153 180
133 154 181
133 154 181
132 153 181
134 154 181
134 154 181
134 154 181
135 155 181
134 154 181
134 154 181
134 154 181
133 154 181
133 154 180
134 154 181
134 154 181
134 154 181
133 154 181
134 154 180
134 154 181
133 154 181
133 154 181
133 154 181
134 154 180
133 153 180
134 154 181
134 155 181
135 155 181
134 154 181
134 154 181
134 154 181
134 154 181
134 154 181
133 154 180
133 154 180
134 154 181
134 154 181
133 154 181
133 154 181
134 154 181
134 154 181
134 154 181
133 154 181
134 154 181
134 154 181
134 154 181
134 155 181
134 154 181
134 154 181
134 155 181
134 154 181
134 154 181
134 154 181
134 154 181
134 154 181
134 154 181
135 155 181
134 154 181
134 154 181
134 154 180
134 154 181
134 154 181
134 154 181
133 153 180
134 154 181
134 154 181
134 154 181
133 154 181
133 154 181
133 153 180
133 154 181
134 154 181
133 153 180
134 155 181
133 154 180
134 154 181
134 154 181
133 154 181
133 154 181
134 154 181
133 154 181
134 154 181
133 154 181
134 154 181
133 154 181
134 154 181
134 154 181
134 154 180
134 154 181
133 154 180
134 154 181
133 154 181
133 154 181
134 154 180
133 154 181
133 153 180
134 154 181
133 154 180
134 154 181
134 154 181
134 154 181
134 154 181
134 154 181
132 152 179
134 154 181
133 154 181
132 153 180
133 154 180
134 154 181
133 154 180
133 153 180
134 154 181
133 153 180
134 154 181
133 153 180
132 153 180
133 154 180
134 154 180
132 152 179
132 153 180
133 153 180
134 154 180
132 153 180
133 154 181
133 153 180
133 154 181
132 152 180
134 154 180
132 152 179
132 152 179
131 151 179
132 151 178
131 152 179
133 153 179
134 153 180
132 152 179
131 151 178
128 148 177
129 149 177
133 152 179
131 151 179
130 151 179
131 151 179
130 151 179
131 152 179
130 150 178
130 149 177
127 147 176
129 149 177
128 148 177
129 149 178
129 149 177
131 151 179
125 145 174
127 147 175
121 140 171
127 147 177
123 142 174
122 141 171
123 141 172
124 143 174
121 140 172
121 140 171
123 141 173
120 138 170
118 135 168
120 138 171
121 138 171
115 132 166
117 134 165
115 132 166
117 134 168
112 128 163
111 126 164
114 129 168
103 116 162
109 124 177
110 123 181
106 118 185
109 121 194
110 122 198
109 120 195
109 121 195
109 121 196
110 123 198
107 119 192
108 120 195
112 124 202
108 120 194
111 124 199
111 123 198
111 123 198
114 126 202
113 125 202
108 120 194
106 118 192
110 121 195
105 117 190
112 125 201
111 123 199
108 121 195
109 121 196
108 119 193
110 122 197
110 122 196
108 120 195
113 125 200
109 121 196
106 118 193
108 120 195
111 123 198
109 120 195
107 119 193
112 124 200
107 118 193
107 118 193
110 122 199
104 115 189
106 118 192
109 120 191
105 117 182
107 120 184
105 118 180
108 121 178
109 123 175
111 125 173
112 128 172
112 128 169
114 131 166
116 133 167
112 129 165
117 133 166
111 127 161
119 136 168
112 128 162
114 130 164
118 135 166
118 135 168
114 131 163
116 133 166
123 141 172
121 139 170
121 138 169
123 142 172
117 134 166
122 139 169
123 141 171
118 135 168
128 147 176
124 142 172
124 142 172
126 145 174
126 144 173
126 144 173
124 144 172
125 143 171
130 150 177
126 144 173
128 147 174
124 142 171
130 149 176
128 146 174
128 145 171
129 145 171
130 147 173
128 145 172
129 146 172
128 145 172
127 145 172
128 146 173
127 145 172
126 142 168
130 147 173
127 143 169
130 146 172
128 143 169
127 143 169
128 139 162
129 144 168
128 141 166
128 138 162
127 137 161
129 141 165
128 141 166
130 142 166
127 143 168
127 140 165
128 140 164
130 135 157
127 128 149
130 134 156
128 127 148
132 131 152
133 130 152
133 131 153
132 125 145
133 129 150
130 134 156
130 129 151
127 133 155
126 131 153
128 136 159
128 137 160
127 138 161
130 140 163
130 143 167
129 142 167
131 148 172
128 142 166
130 144 168
132 145 170
130 144 168
129 142 166
132 150 175
132 148 173
128 143 168
133 148 172
132 148 174
131 145 169
132 148 172
132 148 173
132 148 173
133 150 175
133 152 178
132 149 174
133 152 178
134 151 177
133 151 177
131 149 174
132 150 176
131 149 174
134 153 178
133 152 178
132 152 178
133 150 175
133 153 179
132 151 176
134 153 178
133 153 179
133 150 175
133 152 178
132 152 178
134 152 178
134 153 179
133 151 177
133 154 181
133 154 181
133 153 179
133 154 181
133 154 180
134 154 181
133 154 181
133 153 179
133 154 181
133 154 181
133 154 181
133 153 180
132 152 179
133 154 181
133 153 180
133 153 179
133 154 181
134 154 181
134 154 180
132 153 180
133 153 180
133 154 181
133 154 181
134 154 181
134 154 180
133 153 179
134 154 181
134 154 181
134 154 180
134 154 181
133 154 181
134 154 181
134 154 181
133 154 181
133 153 180
134 154 181
134 154 181
134 154 180
134 154 181
134 154 181
133 154 181
134 154 181
134 154 181
133 154 181
134 154 181
134 154 181
133 154 181
134 154 181
134 154 181
133 154 181
134 154 181
133 154 181
134 154 181
134 154 181
134 154 181
134 154 181
134 154 181
134 154 181
133 154 181
134 154 181
134 154 181
134 154 181
134 154 181
133 154 181
134 154 181
133 153 180
134 154 181
134 154 181
133 154 181
134 154 181
133 154 181
134 154 181
134 154 181
133 154 181
134 154 181
134 154 181
134 155 181
134 154 181
134 154 181
134 154 181
133 154 181
134 154 181
134 154 181
134 154 180
133 154 181
133 154 181
134 154 180
133 154 181
135 155 181
133 154 181
134 154 181
133 154 181
134 154 181
134 154 181
134 154 181
133 154 181
134 154 180
134 154 181
134 154 181
134 154 181
134 154 181
134 154 181
133 154 180
133 154 181
133 154 181
134 154 181
134 154 181
134 154 181
133 154 181
134 154 181
134 154 181
134 154 181
133 154 181
134 154 181
134 154 181
132 153 181
133 154 181
133 154 181
134 154 181
133 154 181
133 154 181
135 155 181
134 155 181
135 155 181
134 154 181
134 154 181
133 154 181
134 154 181
134 154 181
133 154 181
134 154 180
134 154 180
134 154 181
134 154 181
135 155 181
134 154 181
134 154 181
132 153 180
133 154 181
135 155 181
133 154 181
133 153 180
135 155 181
133 154 181
134 154 181
133 154 181
134 154 180
133 154 181
133 154 181
134 154 181
133 154 180
134 154 181
133 154 180
133 153 180
132 153 180
133 153 180
133 154 180
133 154 181
134 154 181
134 154 181
133 153 180
133 154 180
133 154 180
132 153 180
133 154 181
133 153 180
133 153 180
132 152 179
132 153 180
132 153 180
134 154 181
134 154 181
132 153 180
132 153 180
134 154 181
132 153 180
132 153 179
132 153 180
134 154 181
132 153 180
134 154 181
132 153 180
131 151 179
133 153 179
132 153 180
132 153 180
133 153 180
132 153 180
132 152 179
133 153 180
132 152 179
131 151 178
131 151 179
131 151 178
132 153 180
130 150 178
132 152 179
132 152 179
130 150 177
129 150 178
130 150 178
130 150 178
129 149 177
128 147 176
132 152 179
129 149 177
128 148 177
128 148 177
130 150 178
127 147 176
127 146 175
126 145 175
127 147 175
127 146 175
123 142 172
122 140 170
125 144 174
120 138 170
123 142 173
120 138 169
120 137 169
120 138 169
122 140 170
116 133 165
120 138 171
117 134 169
113 129 163
117 134 166
114 130 163
111 128 162
114 130 165
109 124 169
114 129 177
106 120 179
111 124 186
107 119 192
110 122 194
110 122 197
106 118 192
112 124 200
109 121 196
116 128 205
113 124 200
107 119 193
110 122 196
108 120 193
110 122 197
111 122 197
111 123 198
113 125 200
113 124 201
109 122 197
111 122 197
110 122 197
109 121 195
114 127 204
107 119 192
105 117 190
111 123 199
109 121 196
111 123 199
108 120 194
106 117 190
107 119 194
105 117 191
108 119 194
106 118 192
106 118 192
111 122 196
109 120 194
107 118 191
104 116 186
107 119 188
107 120 179
105 118 178
109 121 177
113 128 176
115 130 172
111 126 173
115 132 168
111 127 164
113 129 164
113 130 163
117 133 166
116 132 166
114 130 165
119 137 170
117 133 166
113 130 165
121 139 171
118 134 166
117 134 168
119 135 167
120 138 170
122 141 171
122 140 171
121 140 172
123 141 170
118 136 168
125 144 173
125 144 174
127 145 174
125 143 171
126 143 172
125 143 172
124 141 170
127 145 174
126 145 173
126 143 172
129 147 174
125 144 174
125 142 170
127 146 175
129 148 175
128 147 175
128 146 174
129 148 176
128 146 173
129 146 172
130 149 176
128 146 173
130 147 173
129 148 175
131 148 175
131 149 176
126 144 172
128 144 170
131 149 176
128 145 170
128 142 167
127 140 165
133 152 178
127 140 165
130 148 173
128 140 164
127 141 166
130 147 172
129 144 169
128 140 165
129 141 165
129 143 168
127 139 163
128 137 160
128 139 163
125 134 157
130 141 165
127 139 163
127 138 161
129 140 164
129 137 160
129 140 163
124 134 158
127 139 164
126 136 160
128 142 166
130 141 165
128 141 165
130 141 164
129 144 169
127 138 161
130 143 168
130 144 169
129 143 168
129 146 172
132 143 167
130 143 168
130 146 172
131 149 174
129 146 171
132 149 174
129 146 170
131 147 172
131 147 173
131 149 174
131 148 174
131 150 176
131 149 175
131 149 176
132 148 173
131 149 175
132 150 176
132 149 174
132 150 175
133 152 178
133 151 176
133 153 179
134 152 178
133 151 177
133 151 177
134 152 178
135 154 180
132 152 178
133 153 178
132 149 175
134 153 178
133 153 179
133 153 180
134 154 180
134 154 180
133 153 180
133 153 179
134 154 180
133 153 180
134 153 179
134 153 179
132 153 180
133 154 180
134 154 181
134 153 179
134 153 179
134 154 181
133 153 179
134 154 181
133 153 178
134 154 179
133 153 180
134 154 181
131 152 178
134 154 181
134 154 181
134 154 180
134 154 181
133 153 179
133 153 180
134 154 181
133 154 181
134 154 181
133 154 181
134 154 180
134 154 181
134 154 181
134 154 180
133 154 180
134 154 180
134 154 181
133 154 181
133 154 181
133 154 181
134 154 181
133 154 181
134 154 181
134 154 181
133 154 181
133 154 181
133 154 181
134 154 181
133 154 181
133 154 181
134 154 181
134 154 181
134 154 181
133 154 181
133 154 181
133 153 180
133 154 181
134 154 181
133 154 181
134 154 181
134 154 181
134 154 181
134 154 180
136 155 181
134 154 181
134 154 181
134 154 181
134 154 181
134 154 181
134 154 181
134 154 181
134 154 181
134 154 181
134 154 181
133 154 181
133 154 181
134 154 181
133 154 181
134 154 180
133 154 181
133 154 181
134 154 181
133 154 181
133 154 181
133 154 181
134 154 181
134 154 181
134 155 181
134 154 181
133 154 181
133 154 181
134 154 181
134 154 181
133 154 181
134 154 181
133 154 181
133 154 181
134 154 181
134 154 181
134 154 181
133 154 181
133 154 181
134 154 181
133 154 181
133 154 181
134 154 181
133 154 181
134 155 181
133 154 181
134 154 181
134 154 181
134 154 181
134 154 181
134 154 181
133 154 181
134 154 181
133 153 180
135 155 181
134 154 181
134 154 181
134 154 181
133 154 181
134 154 181
134 154 181
133 154 180
134 154 181
134 154 181
134 154 181
133 154 181
134 154 180
134 154 181
134 154 181
134 154 181
133 154 181
135 155 181
134 154 181
133 154 181
133 154 180
132 153 180
132 153 180
134 154 181
133 154 181
134 154 181
134 154 181
133 154 181
133 154 181
133 154 180
133 154 181
133 154 181
133 154 180
134 154 180
133 154 181
133 154 181
133 154 181
134 154 181
134 154 180
134 154 181
133 154 181
133 154 180
133 154 180
134 154 181
134 154 181
134 154 181
134 154 181
133 154 180
133 154 181
134 154 181
134 154 181
133 154 181
133 153 179
134 154 181
133 154 181
133 154 181
133 153 180
134 154 181
134 154 180
132 153 180
132 153 180
132 153 180
133 153 179
134 154 180
132 152 179
131 152 179
132 153 180
132 152 179
131 152 179
133 153 180
132 153 180
132 152 179
133 153 180
133 153 180
132 153 180
132 152 179
132 153 180
132 152 179
131 151 179
127 147 176
131 152 179
131 152 179
129 149 178
130 150 178
132 152 179
130 149 178
131 150 179
132 152 179
129 149 177
132 153 180
128 148 176
129 149 178
129 149 178
128 147 176
124 143 172
129 149 178
124 144 174
126 145 175
123 141 172
125 144 174
125 144 175
128 146 175
123 141 173
123 141 173
124 143 173
119 137 169
118 136 168
118 135 168
123 142 173
118 136 170
118 135 168
118 136 168
119 137 170
115 132 167
118 136 168
116 133 166
113 129 164
114 130 165
114 130 173
110 124 177
115 130 188
108 121 185
109 121 193
109 121 195
100 112 184
111 122 197
108 120 194
106 118 192
109 122 198
106 119 193
112 125 201
112 124 199
115 128 205
113 126 202
109 120 194
111 124 201
108 120 194
111 123 199
108 120 194
105 117 190
108 120 194
107 119 193
108 120 196
109 121 195
110 122 197
112 123 199
109 120 195
104 116 190
113 125 201
111 122 198
109 120 194
108 120 194
107 118 190
100 111 175
113 126 197
113 125 185
108 122 173
112 127 177
113 129 175
112 127 169
110 126 166
110 125 168
112 128 165
115 131 164
110 126 160
113 129 165
113 129 163
115 132 165
119 136 170
117 135 169
116 133 167
121 139 170
119 135 169
123 142 172
118 135 168
118 135 168
122 140 171
122 138 168
120 138 168
120 137 169
126 144 174
123 142 174
123 141 172
125 143 172
124 142 172
126 144 173
126 144 174
128 147 175
122 140 170
127 146 174
127 145 174
129 149 176
130 149 176
129 148 177
126 146 175
126 145 174
129 147 175
130 151 177
128 147 176
129 148 176
128 147 176
127 144 172
130 148 175
129 148 175
132 149 175
129 146 173
129 146 172
128 145 171
129 144 170
131 149 175
126 145 172
130 147 173
129 147 173
131 148 175
130 147 173
127 144 171
130 145 170
130 146 172
129 143 168
127 142 167
131 148 173
130 145 170
132 149 175
130 145 171
130 144 169
129 143 168
126 139 163
128 139 163
129 140 163
128 142 166
128 142 167
127 137 161
128 136 160
131 143 167
130 139 163
130 142 165
130 145 169
129 140 165
130 142 166
129 145 170
129 144 168
129 140 164
132 145 170
130 144 168
128 142 167
131 143 168
130 146 171
129 144 169
131 144 169
132 148 174
129 145 170
132 147 172
131 151 178
134 148 172
132 149 175
131 147 173
130 147 172
132 149 173
132 150 176
132 150 175
133 152 178
132 151 177
133 152 178
132 149 174
132 149 174
132 150 176
133 153 179
133 152 178
132 150 175
133 152 178
132 150 176
132 150 175
132 152 178
133 152 178
133 152 178
134 154 180
133 153 179
133 153 179
134 154 180
133 153 180
133 152 178
133 153 179
134 154 180
133 151 177
134 153 178
134 153 179
134 154 180
133 153 179
134 154 181
133 154 181
133 153 180
134 154 180
133 152 179
133 154 181
133 152 178
133 153 179
134 154 180
133 154 181
133 153 180
133 153 180
134 154 181
133 153 180
134 154 181
134 154 181
133 153 179
134 154 181
133 154 181
134 154 180
133 154 181
133 153 179
133 153 180
134 154 180
132 152 179
133 154 181
134 154 181
134 154 181
134 154 181
134 154 181
133 153 180
133 154 181
135 155 181
134 154 180
133 154 180
134 154 181
134 154 181
133 153 180
133 154 181
134 154 180
134 154 181
133 154 180
134 154 181
134 154 181
133 154 181
134 154 181
134 154 181
134 154 181
134 154 181
133 154 180
133 153 180
135 155 181
134 154 181
133 154 181
133 154 181
134 154 181
134 154 181
133 154 181
135 155 181
133 154 181
134 155 181
134 154 181
133 154 181
134 154 181
134 154 181
133 154 181
134 154 181
134 154 181
133 153 180
134 154 181
133 154 181
134 154 180
135 155 181
133 154 181
133 154 181
134 154 181
133 154 181
133 154 181
133 154 181
133 154 181
134 154 181
134 154 181
134 154 181
134 154 181
133 154 181
133 154 181
134 154 181
134 154 181
134 154 181
135 155 181
134 154 181
133 154 181
133 154 181
133 154 181
134 154 181
133 154 181
133 154 181
134 154 180
134 154 181
134 154 181
134 154 181
133 154 181
133 154 181
132 153 181
133 154 181
134 154 181
134 154 181
133 154 181
133 154 181
134 154 181
133 154 181
133 154 181
133 154 181
133 154 181
135 155 181
134 154 181
133 154 181
134 154 181
134 154 181
134 154 181
134 154 181
135 155 181
133 154 181
135 155 181
134 154 181
133 154 180
133 153 180
133 154 181
134 154 181
134 154 181
133 154 181
132 153 180
134 154 180
134 154 181
134 154 181
134 155 181
133 154 180
134 154 181
133 154 180
134 155 181
133 154 180
133 154 181
134 154 180
133 153 180
134 154 181
134 154 181
134 154 180
134 154 181
134 154 181
133 154 181
133 153 180
134 154 180
134 154 181
134 154 180
134 154 181
133 154 180
134 155 181
133 153 180
132 153 180
135 155 181
134 154 180
134 154 181
132 153 179
134 154 180
134 154 181
133 153 180
132 153 180
133 153 180
134 154 181
133 153 180
133 153 180
134 154 181
133 153 179
134 154 181
133 154 180
134 153 180
133 153 180
133 154 180
132 153 180
133 153 180
133 153 180
133 153 180
131 151 178
134 154 181
132 152 179
132 153 180
132 153 179
130 150 177
133 153 179
131 151 179
132 152 179
130 150 178
131 151 179
130 149 177
131 151 179
131 152 179
130 150 178
127 147 176
130 150 178
127 146 175
131 151 179
130 149 178
129 149 177
129 149 177
130 149 176
127 146 175
129 148 177
129 148 177
129 148 177
127 146 176
126 145 175
126 146 176
126 146 176
125 144 173
124 143 173
126 146 175
127 147 175
118 136 168
119 137 169
122 140 171
121 140 171
119 137 170
115 132 167
117 135 167
119 137 170
116 133 167
113 130 165
114 131 166
118 135 168
114 131 166
114 131 167
107 122 165
106 120 164
108 122 176
103 115 177
109 121 191
109 121 195
109 121 197
111 123 200
107 119 194
110 122 196
114 127 204
107 119 193
108 120 194
110 122 196
105 117 191
113 126 202
108 121 196
106 118 192
105 117 192
108 120 195
107 119 194
106 118 193
112 124 200
109 120 195
108 120 195
108 119 194
109 121 197
108 120 194
109 121 196
105 116 188
110 121 190
104 116 182
109 121 189
103 115 173
107 119 180
105 117 169
114 130 172
112 128 167
114 130 169
111 127 164
119 136 169
114 130 163
107 122 157
114 130 164
117 134 168
120 137 169
116 134 165
114 131 164
117 134 167
117 135 167
115 131 164
121 140 172
122 140 171
122 140 171
118 136 168
124 144 174
121 138 169
121 139 169
121 139 170
123 141 172
123 142 172
128 146 174
125 144 173
125 143 173
124 142 173
126 145 174
129 147 175
127 145 175
128 147 175
128 147 175
128 147 175
129 149 177
127 146 174
131 151 178
127 145 175
128 146 174
129 147 175
129 149 177
129 148 176
128 145 172
129 148 175
128 147 175
130 149 177
129 148 175
126 145 174
129 148 175
130 147 173
129 147 174
127 143 170
130 148 175
129 145 172
130 147 173
129 146 173
131 149 175
130 148 175
128 146 173
130 148 173
131 147 174
130 148 174
130 149 175
130 145 171
132 149 175
129 145 171
130 144 169
130 143 168
128 142 167
131 145 170
129 142 167
129 145 170
130 141 165
131 147 173
130 142 166
131 147 172
131 142 166
130 141 165
129 143 168
131 145 169
129 143 168
129 142 167
130 147 172
131 147 173
131 146 171
132 147 172
130 145 170
133 147 172
132 148 173
131 148 174
131 146 171
128 142 166
130 145 170
130 146 171
132 150 175
132 149 175
132 149 175
131 145 170
130 147 172
132 150 175
133 151 177
133 151 177
132 150 176
133 150 175
134 152 177
132 152 178
132 150 175
133 153 179
133 150 176
132 152 179
134 152 178
131 149 174
133 153 179
130 149 175
132 151 178
133 149 175
133 151 177
134 154 180
133 151 177
134 153 179
134 153 179
133 153 180
133 153 179
134 154 181
133 153 179
134 154 181
132 151 177
133 152 178
133 154 181
133 153 179
132 150 175
132 152 178
133 153 180
133 154 181
134 154 181
133 154 181
134 154 180
134 154 181
135 155 181
133 154 181
134 154 181
133 154 181
134 155 181
134 153 179
133 153 179
134 154 181
133 153 180
133 154 181
133 154 181
133 154 181
134 154 181
132 153 180
133 154 181
134 154 181
134 154 181
134 154 181
134 154 181
133 153 180
133 154 181
134 154 181
134 154 181
133 154 181
135 155 181
133 154 180
135 155 181
134 154 181
134 154 181
133 153 180
133 154 181
134 154 181
133 154 181
133 154 181
134 154 181
134 154 181
133 154 181
133 154 181
134 154 181
134 154 181
133 154 181
133 154 181
133 154 181
134 154 180
134 154 181
133 154 181
134 154 181
134 154 181
134 154 181
133 154 181
133 154 181
133 154 181
134 154 181
133 153 180
134 155 181
134 154 181
134 154 181
133 154 181
133 153 180
134 155 181
133 154 181
134 154 181
135 155 181
134 154 181
134 154 181
133 154 181
133 154 181
134 154 180
134 154 181
134 154 181
133 154 181
133 154 181
134 154 181
132 154 181
134 154 181
134 154 181
133 154 181
133 153 180
134 154 181
134 154 181
134 154 181
134 154 181
134 154 181
134 154 181
133 154 181
134 154 181
134 154 181
134 154 181
134 154 181
134 154 181
134 154 181
134 154 181
134 154 180
134 154 181
133 154 181
134 154 181
134 154 181
134 154 181
134 154 181
135 155 181
133 153 180
133 154 181
134 154 181
134 154 181
134 154 181
134 154 181
133 154 181
134 154 181
134 154 181
134 154 181
134 154 181
133 154 181
135 155 181
134 154 181
134 154 181
134 154 181
133 154 180
134 154 181
134 154 181
133 154 180
133 154 181
134 154 180
133 154 181
134 154 181
133 153 180
135 155 181
133 154 181
134 154 181
134 154 181
133 153 180
133 154 180
134 154 181
134 154 180
133 154 181
134 154 181
133 154 181
134 154 181
134 154 181
134 154 181
133 154 181
134 154 181
134 154 181
134 155 181
134 154 180
133 154 180
134 154 181
134 154 180
134 154 181
134 154 181
133 153 180
135 155 181
134 154 181
134 154 180
134 154 181
134 154 181
133 154 181
134 154 181
133 153 180
133 154 180
132 153 180
132 153 180
132 152 179
133 154 181
132 152 179
133 154 180
133 154 180
133 153 180
133 154 181
132 152 179
133 153 180
133 153 180
132 152 179
134 154 180
133 154 180
133 153 180
134 154 181
133 153 180
133 153 180
132 152 179
131 152 178
131 151 178
131 150 178
131 151 178
131 151 179
134 154 180
131 151 179
130 151 179
130 150 178
131 151 179
130 151 178
130 151 178
129 148 176
131 151 179
132 152 179
128 148 177
129 148 176
131 151 179
128 148 176
130 150 178
129 149 177
128 148 176
126 146 174
128 148 177
126 145 175
124 143 173
125 145 175
129 149 178
123 142 174
123 142 173
116 133 166
125 144 174
121 140 170
125 144 173
117 134 167
117 134 168
121 139 170
119 137 170
122 141 172
119 137 168
119 137 170
118 135 167
119 137 170
111 127 164
113 130 165
117 134 167
113 130 164
109 124 161
113 129 170
111 125 172
111 125 181
108 119 185
107 120 187
107 119 192
104 116 189
108 120 195
109 121 196
108 120 194
109 121 195
114 126 203
109 121 196
109 121 196
109 121 197
106 118 192
108 120 194
111 123 199
110 121 196
107 118 193
107 119 193
107 119 194
110 122 198
109 121 195
112 124 197
111 123 194
108 120 192
109 122 186
109 123 180
106 119 171
111 125 176
105 119 165
114 130 170
115 130 171
111 127 163
111 127 163
116 133 167
115 132 165
111 127 162
116 134 168
117 134 167
116 133 166
114 131 164
121 139 170
120 138 170
117 134 167
122 140 171
121 138 170
124 142 174
119 138 169
121 139 170
125 144 174
119 137 168
126 145 174
127 146 175
123 142 172
127 146 175
125 144 174
126 146 176
123 141 171
127 145 174
127 146 175
128 147 176
127 146 175
126 145 175
125 144 173
128 147 177
125 144 172
128 147 175
126 145 174
128 147 176
132 151 177
129 147 173
129 146 173
130 148 175
130 150 178
126 145 173
131 148 175
130 148 175
129 148 177
129 148 176
130 149 175
129 147 174
131 149 176
132 150 177
131 148 175
128 146 172
132 150 176
130 148 174
131 150 177
132 150 177
132 152 178
131 148 174
132 150 175
130 147 173
129 145 171
132 150 176
131 149 175
131 145 171
131 147 173
128 143 168
131 148 174
130 146 172
134 150 175
133 148 173
130 146 172
131 148 174
129 141 165
130 143 168
129 142 167
130 146 171
131 147 172
130 145 170
129 144 169
131 147 173
131 146 171
130 141 165
129 145 169
132 148 174
130 145 170
132 148 173
130 146 171
130 143 168
132 148 173
131 145 170
130 147 172
131 146 171
131 148 173
133 149 175
131 147 173
133 150 176
132 150 175
133 148 173
133 151 176
132 150 175
133 152 178
132 149 175
132 151 178
132 151 177
133 151 176
133 153 179
133 153 179
132 150 176
133 152 178
133 153 180
132 150 175
133 151 176
132 152 179
133 153 179
133 154 180
132 151 178
134 152 178
133 152 178
133 154 181
134 153 179
133 153 178
133 151 177
133 153 180
132 153 180
132 152 179
133 153 179
132 152 179
134 154 181
133 154 180
133 153 180
134 154 180
133 153 180
132 152 178
133 152 178
133 154 181
134 154 181
134 154 181
133 153 180
134 154 180
134 154 181
134 154 180
134 154 180
134 153 179
134 154 181
133 153 180
133 153 180
133 153 180
134 154 180
134 154 181
133 154 180
134 154 181
132 152 178
133 153 180
134 154 181
134 154 181
134 154 181
134 154 180
134 154 181
134 154 181
133 154 181
133 154 181
134 154 181
133 154 181
134 154 181
134 154 181
132 153 181
134 154 181
134 154 181
133 153 180
134 154 181
133 154 181
135 155 181
134 154 181
134 154 181
133 154 181
134 154 181
134 154 181
134 154 180
133 154 181
133 153 180
133 153 180
134 154 180
134 154 181
134 154 181
135 155 181
134 154 181
133 154 181
135 155 181
134 154 181
133 154 181
134 154 180
134 154 181
134 154 181
134 154 181
134 154 181
133 154 181
133 154 181
133 154 180
134 154 181
134 154 181
134 154 181
134 154 181
134 154 181
135 155 181
134 154 181
134 154 181
134 154 180
133 154 181
134 154 180
134 154 181
134 154 181
134 154 181
133 154 181
134 154 181
133 153 180
134 154 181
134 154 181
134 154 181
134 154 181
134 154 181
134 154 181
134 154 181
133 154 181
134 154 181
134 154 181
134 154 181
133 154 181
134 154 181
134 154 181
134 154 181
133 154 180
135 155 181
133 154 181
133 154 181
134 154 181
133 154 180
134 154 181
134 154 180
135 155 181
133 154 181
134 154 181
133 154 181
134 154 181
133 154 181
134 154 181
132 153 181
133 154 181
134 154 181
135 155 181
133 154 181
134 155 181
133 154 180
134 154 181
134 154 181
134 154 181
134 154 181
134 154 181
134 154 181
133 154 181
133 154 181
133 154 180
133 154 181
134 154 181
134 154 181
134 154 181
133 154 181
134 154 181
134 154 181
134 154 181
134 154 181
135 155 181
133 154 181
134 154 181
133 154 181
134 154 181
134 154 181
133 153 180
133 154 180
133 154 180
133 154 181
133 154 181
133 153 180
134 154 181
133 154 181
133 153 180
133 153 180
133 154 180
134 154 181
133 153 180
134 154 181
132 153 180
134 154 180
133 153 180
134 154 181
133 153 180
133 154 181
133 154 181
133 154 181
134 154 181
133 153 180
133 153 180
134 154 180
133 154 180
133 153 180
132 152 179
133 154 180
132 153 180
132 153 180
133 154 181
132 152 179
132 152 179
133 153 180
133 154 180
132 153 180
132 153 180
132 152 179
132 153 180
132 153 180
130 150 177
132 152 180
130 150 177
132 152 179
131 151 179
132 152 178
130 150 178
130 150 178
131 152 179
132 152 179
133 153 180
132 152 179
130 150 178
130 151 178
132 152 179
128 148 176
128 148 176
128 148 177
129 149 178
128 147 176
130 150 177
128 147 175
128 147 176
129 149 177
127 147 176
129 149 177
126 146 176
124 143 173
129 148 176
126 146 176
124 143 175
124 143 173
123 141 172
127 146 176
124 142 173
119 138 170
115 132 165
120 137 169
123 141 171
122 140 172
123 141 172
116 133 166
122 140 171
114 131 165
115 132 165
109 125 161
114 131 166
109 125 160
117 133 170
113 128 172
110 124 175
112 126 181
105 118 184
104 116 189
114 125 201
107 119 194
111 124 200
110 122 198
113 125 200
107 119 194
108 119 193
112 124 200
111 123 200
113 125 201
112 124 199
113 125 201
110 121 196
106 117 190
115 127 202
105 117 186
113 127 187
110 123 185
117 131 190
110 124 175
108 123 168
115 131 176
109 125 166
110 125 162
115 131 168
111 127 162
118 135 167
117 134 166
109 125 160
115 131 165
116 133 166
115 132 165
116 132 166
116 132 166
122 140 169
117 133 166
123 141 172
120 138 171
122 140 172
120 136 168
124 143 173
121 139 169
124 143 173
126 146 175
126 145 174
124 142 173
124 143 173
123 141 172
123 141 172
127 146 175
126 144 173
125 144 174
127 146 176
126 145 174
125 145 174
127 146 176
128 148 177
128 148 176
130 149 176
128 147 177
127 146 174
130 148 175
129 149 176
129 148 176
129 148 175
130 148 175
130 150 176
129 148 176
129 146 173
129 148 177
130 150 177
130 150 177
130 149 176
131 150 177
131 150 177
130 149 176
131 148 175
131 149 175
130 148 175
131 149 176
132 151 177
132 151 177
130 147 174
133 152 178
131 148 175
129 144 171
130 149 175
129 145 171
131 150 177
130 148 175
131 150 177
130 148 174
130 146 172
131 147 173
130 148 175
133 150 175
130 145 170
130 144 169
131 147 172
132 147 172
133 148 174
132 150 176
132 147 172
132 149 173
131 148 174
130 145 169
129 146 171
131 148 174
130 146 172
131 146 171
131 145 169
131 146 170
131 147 173
131 147 172
131 143 168
132 149 175
132 148 173
130 145 171
133 149 174
131 149 175
131 147 173
131 150 175
130 147 173
131 149 175
131 147 173
131 149 174
129 146 172
133 151 178
132 150 176
132 150 175
131 149 175
133 150 175
134 152 177
133 153 179
134 153 179
132 151 177
133 152 178
133 151 177
132 152 178
134 153 179
132 152 179
132 149 175
133 152 178
132 151 177
133 153 179
133 153 180
134 153 178
133 153 180
133 153 179
133 154 181
133 153 180
134 154 180
133 151 176
132 152 178
133 153 179
133 153 180
133 153 180
133 153 180
133 152 178
133 153 180
134 153 178
134 154 180
134 154 181
133 154 181
134 153 179
134 154 181
134 154 181
133 154 181
134 154 180
133 153 179
134 154 180
134 153 179
133 153 180
134 154 181
133 153 179
134 154 181
133 154 181
134 154 181
134 154 181
133 154 180
134 153 179
134 154 181
133 154 181
133 154 181
133 154 181
133 153 179
134 154 181
134 154 180
133 154 181
134 154 181
133 154 181
134 154 180
134 154 181
133 154 181
134 154 181
134 154 181
133 154 181
132 153 181
134 154 181
133 154 181
134 154 181
134 154 181
133 154 181
133 154 181
134 154 181
133 154 181
133 153 180
134 154 181
134 154 181
134 154 181
134 154 181
135 155 181
134 154 181
133 154 181
133 154 180
133 154 181
133 154 181
133 154 181
134 154 181
134 154 181
133 154 181
134 154 181
133 154 181
133 154 181
134 154 181
135 155 181
134 154 181
134 154 181
134 154 181
135 154 180
134 154 181
133 154 181
134 154 181
133 154 181
135 155 181
133 154 181
133 154 181
134 154 181
134 154 181
133 154 181
134 154 181
133 154 181
134 154 180
135 155 181
135 155 181
133 154 181
133 154 181
133 154 181
134 154 181
133 154 181
134 154 181
134 154 181
134 154 181
133 153 180
134 154 181
134 154 181
134 154 181
134 154 180
134 154 181
134 154 181
133 154 181
133 154 181
134 154 181
134 154 181
134 154 181
134 154 181
135 155 181
134 154 181
133 154 181
134 154 181
134 154 181
134 154 181
133 154 181
134 154 181
133 154 181
134 154 181
133 154 181
134 154 181
133 154 181
133 154 181
134 155 181
134 154 181
134 154 180
135 155 181
134 154 181
134 154 181
134 154 181
133 154 181
134 154 181
134 154 181
133 154 181
133 154 181
134 154 180
134 154 181
133 154 181
132 153 180
134 154 181
133 153 180
132 153 180
133 154 181
133 154 181
134 154 181
134 154 180
133 154 181
134 154 180
134 154 181
134 154 181
135 155 181
135 155 181
133 154 180
134 154 181
133 154 181
133 154 181
133 153 180
133 153 180
133 154 180
134 154 181
133 154 181
134 154 180
133 153 180
134 154 181
132 152 179
134 154 180
133 154 180
133 153 180
133 154 181
134 154 180
133 153 179
134 154 180
133 153 180
134 154 180
134 154 181
134 154 181
133 154 180
132 153 180
134 154 181
133 153 180
132 152 179
133 153 180
133 154 180
132 153 180
132 152 179
133 153 180
133 153 180
132 152 179
133 154 180
133 153 180
133 153 179
130 150 177
132 152 179
132 152 179
131 151 179
132 152 179
130 150 178
132 152 179
132 152 180
133 153 179
129 149 176
131 151 179
130 150 178
130 150 178
129 149 177
129 149 177
129 149 178
129 149 177
131 151 179
129 149 177
127 146 175
128 148 177
126 146 176
129 150 178
125 144 174
128 148 176
127 146 175
126 145 175
122 141 171
125 144 174
124 143 173
124 143 174
124 142 172
125 144 174
124 143 172
121 139 171
122 140 172
125 144 175
119 137 170
118 136 171
118 135 169
119 137 169
123 141 171
115 132 166
117 135 167
117 134 167
119 137 169
114 131 166
114 131 164
111 126 168
110 125 170
113 127 183
105 118 178
114 126 198
107 119 190
104 116 191
110 123 198
106 117 191
112 123 199
102 114 185
110 122 197
106 117 191
106 118 192
109 121 192
107 118 189
106 118 185
105 118 182
107 120 176
108 122 175
106 120 171
111 126 171
110 125 167
112 128 168
113 129 166
113 129 164
113 131 164
111 127 162
115 132 167
120 138 170
115 132 167
116 134 168
112 126 160
118 136 169
118 135 168
120 138 170
123 141 171
119 136 168
124 142 172
119 137 170
119 136 169
121 140 170
124 142 172
121 139 172
128 146 175
127 145 175
126 145 174
122 139 171
123 142 173
127 145 175
126 144 174
128 146 175
126 146 175
125 144 173
124 143 172
123 141 171
128 148 176
128 148 176
127 147 175
129 149 177
131 151 178
128 148 176
130 149 177
129 148 177
131 150 178
128 147 175
131 150 177
129 149 176
131 151 178
132 152 179
130 148 175
128 146 173
129 147 174
130 148 176
131 151 179
131 151 179
130 148 175
133 150 176
130 150 178
131 152 179
130 149 176
131 152 179
131 148 174
132 151 178
130 148 174
131 150 177
131 148 174
131 150 177
132 152 179
131 150 176
131 150 176
132 151 177
131 149 175
131 147 173
132 151 177
130 148 174
133 151 177
132 150 176
131 146 171
129 147 172
131 150 176
133 151 177
132 148 174
132 150 176
131 148 174
130 147 173
132 149 175
132 151 177
131 146 171
133 149 173
130 146 171
132 150 175
132 150 176
132 151 177
131 147 172
132 149 175
131 147 173
132 151 177
132 147 172
133 151 176
132 150 176
130 146 171
131 146 171
131 150 175
133 150 176
133 152 178
131 147 172
133 151 177
133 151 176
133 151 176
132 150 176
132 150 176
134 151 177
133 152 178
132 150 176
132 150 176
132 151 177
133 153 180
132 151 177
131 151 177
132 150 175
133 152 178
132 150 176
133 151 177
133 152 178
132 152 178
131 150 177
132 152 178
133 151 176
134 154 180
133 151 178
133 152 178
133 152 178
132 151 177
133 153 179
133 152 177
133 153 179
135 155 181
133 153 180
134 154 180
135 155 181
132 151 178
133 151 178
133 152 178
133 153 179
133 153 180
134 154 181
134 154 181
132 153 180
134 154 180
133 153 179
134 154 180
134 154 181
134 153 179
134 154 180
133 154 181
133 153 180
134 153 178
134 154 181
133 154 180
133 153 179
134 154 181
134 154 180
134 154 181
134 154 181
133 153 179
133 154 180
133 154 181
134 154 180
134 154 180
135 154 180
134 154 181
133 153 180
132 153 181
134 154 181
133 154 181
133 154 181
133 152 179
134 154 181
133 154 181
134 154 181
134 154 181
134 154 180
134 154 181
135 155 180
134 154 180
134 154 181
134 154 181
134 154 181
133 153 180
134 154 181
134 154 181
133 153 180
134 154 181
134 154 181
133 154 181
134 154 181
133 154 181
134 154 181
134 154 181
134 154 181
133 154 181
133 154 181
134 154 181
134 154 181
134 154 180
133 154 180
134 154 181
134 154 181
134 154 181
133 154 181
133 153 180
134 154 181
134 154 181
134 154 181
134 154 181
135 155 181
133 154 181
134 154 181
134 154 181
133 154 181
133 154 181
134 154 181
135 155 181
134 154 181
134 154 181
134 154 181
134 154 181
134 154 181
134 154 181
134 154 181
133 154 181
135 155 181
134 154 181
133 154 181
133 154 181
133 154 181
134 154 181
134 154 181
135 155 181
134 154 181
133 154 181
134 154 181
135 155 181
134 154 181
134 154 181
134 154 181
133 154 181
134 154 181
134 154 180
134 154 181
134 155 181
134 154 180
133 154 181
134 154 180
134 154 181
133 154 181
133 154 181
134 154 181
133 154 180
134 154 181
133 154 181
133 154 181
134 154 181
133 154 180
134 154 181
133 154 181
133 154 181
134 154 180
134 154 180
133 154 181
132 153 179
135 155 181
133 154 181
133 154 180
133 154 181
134 154 181
133 154 181
134 154 181
133 154 181
134 154 181
133 154 181
133 154 181
134 154 181
134 154 181
133 154 181
134 154 180
133 154 181
135 155 181
133 154 180
134 154 181
133 154 180
134 154 181
133 154 180
133 154 181
134 154 181
133 154 181
134 154 181
133 154 181
133 154 180
133 153 180
133 154 180
131 152 180
134 154 181
133 154 180
133 154 181
134 154 181
133 154 181
133 153 180
134 154 180
134 154 180
133 153 180
134 154 180
133 152 179
133 154 181
134 154 180
134 154 180
133 153 180
132 153 180
131 151 179
134 154 180
132 152 179
134 154 180
132 152 179
132 152 179
133 154 181
133 153 180
131 151 178
133 154 181
133 153 180
131 151 179
132 152 179
131 151 179
128 149 177
132 152 179
132 152 179
133 153 180
131 151 179
132 152 179
131 152 179
131 152 179
130 150 178
132 152 179
131 151 178
131 151 179
131 152 179
132 152 179
130 151 178
131 151 179
130 150 177
130 151 179
130 149 177
124 144 173
128 148 177
128 148 176
128 148 178
127 146 174
130 150 178
127 146 175
128 146 176
128 148 177
128 147 176
126 145 174
125 144 174
123 142 174
124 142 173
125 144 174
129 148 177
125 144 173
125 144 175
122 140 170
122 141 172
120 138 170
121 139 171
119 137 170
116 133 166
116 134 167
115 132 166
118 136 168
118 136 168
116 133 166
112 128 166
111 126 168
105 120 164
110 124 182
108 122 182
110 122 190
107 118 190
109 121 196
109 121 194
108 121 196
106 117 188
105 116 187
111 124 189
107 119 183
104 118 175
108 121 177
108 122 173
115 131 174
108 123 162
108 123 162
114 130 166
110 125 162
115 131 164
113 130 166
116 134 165
120 138 170
122 140 171
116 133 165
119 137 168
119 137 169
121 139 170
117 134 169
118 136 169
122 140 171
123 141 172
121 139 171
121 139 171
121 139 172
125 143 173
124 142 173
129 148 176
121 139 170
121 140 170
125 144 173
123 141 173
125 144 174
124 143 173
127 146 175
124 143 173
125 143 172
129 149 178
128 148 177
128 148 177
127 147 176
127 145 173
128 148 176
128 147 176
129 149 177
129 149 177
131 152 179
131 149 177
128 148 176
130 150 177
128 147 175
131 151 179
129 149 177
129 149 177
130 149 177
131 150 177
132 151 178
131 151 178
130 150 178
132 152 179
131 150 177
130 148 176
130 148 175
132 151 178
131 150 177
133 150 176
131 150 177
129 148 175
129 147 174
132 150 176
130 148 175
132 152 178
131 148 173
132 150 176
132 152 178
132 150 177
131 148 175
133 151 177
131 148 174
133 151 177
131 149 175
132 151 177
132 147 172
131 150 176
130 147 172
132 149 174
132 149 175
132 149 175
129 146 172
133 150 176
131 147 172
130 145 170
134 150 175
131 150 176
132 150 175
133 151 176
129 148 175
132 148 174
130 148 173
131 149 175
131 148 173
131 149 175
132 150 176
133 153 180
132 149 175
132 150 175
132 149 175
134 151 177
131 146 171
130 147 172
133 151 177
132 148 174
132 151 176
133 149 174
132 151 177
133 153 179
132 150 176
133 150 176
132 152 178
134 153 179
133 151 177
133 151 177
133 150 176
133 151 177
132 152 178
132 151 177
133 152 178
133 153 180
133 152 178
133 153 179
133 152 178
134 153 179
134 153 179
133 153 179
134 153 179
134 153 179
132 150 176
132 151 177
132 152 179
133 152 178
133 153 180
134 154 180
132 151 177
134 154 180
133 154 181
133 154 181
133 153 180
133 154 181
134 154 180
132 153 180
134 153 179
133 153 180
133 153 180
133 153 179
133 154 181
133 153 180
133 154 181
133 153 179
133 154 181
134 154 181
133 153 180
133 153 180
133 154 180
134 154 180
134 154 180
133 153 180
134 154 180
134 154 180
134 153 179
133 154 181
134 154 180
134 154 181
134 154 181
134 154 181
133 154 181
134 154 181
134 154 181
133 153 180
134 154 181
134 154 181
133 154 181
134 154 181
133 154 181
134 154 181
134 154 181
133 153 180
134 154 180
134 154 181
133 154 181
134 154 181
134 154 181
133 153 179
134 154 181
133 154 181
134 154 181
133 154 180
134 154 181
133 154 181
135 155 181
134 154 181
133 154 180
135 155 181
134 154 181
133 154 180
133 154 181
134 154 181
133 153 180
134 154 181
134 154 181
134 154 181
134 155 181
133 154 181
134 154 181
134 154 181
134 154 181
133 154 181
134 154 181
133 154 181
134 154 180
133 154 181
133 154 181
134 154 181
134 154 181
133 154 181
133 154 181
133 154 181
134 154 181
134 154 181
135 155 181
134 154 181
133 154 181
134 154 180
134 154 181
134 154 181
133 154 181
133 154 181
133 154 181
133 154 181
134 154 181
134 154 181
134 154 181
134 154 181
134 154 181
133 154 181
134 154 181
134 154 181
134 154 180
134 154 181
134 154 181
133 154 181
133 154 181
134 154 181
134 154 181
134 154 181
133 153 180
134 154 181
134 154 181
134 154 181
133 154 181
134 154 181
134 154 181
134 154 181
134 154 180
134 154 181
134 154 181
135 155 181
133 154 181
134 154 181
134 154 181
133 153 180
133 154 181
135 155 181
133 154 181
135 155 181
134 154 181
134 154 181
134 154 181
133 154 181
134 154 181
134 154 181
135 155 181
134 154 181
134 154 181
133 154 181
133 154 181
133 154 181
133 154 180
133 154 180
133 154 181
134 154 180
134 154 181
134 154 181
133 154 181
134 154 181
133 154 181
135 155 181
134 154 181
133 154 181
134 154 181
134 154 181
134 154 181
133 154 180
134 154 181
134 154 181
133 154 180
134 154 181
133 154 180
133 154 181
134 154 181
133 153 180
133 154 181
134 155 181
133 153 179
133 153 180
133 153 180
134 154 181
133 153 180
134 154 181
134 154 181
132 152 180
133 153 180
133 153 180
133 153 180
133 152 179
132 152 179
134 154 181
133 154 180
134 154 181
133 153 180
132 153 180
132 152 180
132 152 179
134 154 181
133 153 180
132 152 179
132 152 179
133 154 180
133 153 179
133 153 180
133 153 180
132 153 180
131 151 179
133 153 180
133 154 180
133 153 180
131 151 179
131 151 179
131 152 179
132 152 179
129 149 177
132 153 179
132 153 180
129 149 177
131 151 179
130 151 179
129 149 178
129 149 177
128 148 177
126 146 174
130 150 178
130 150 178
129 149 178
130 150 178
128 147 176
127 146 175
129 149 177
127 146 175
124 143 173
126 146 175
124 142 173
124 143 173
123 143 173
125 143 173
123 141 172
126 145 174
124 143 173
121 139 170
124 142 172
124 142 174
120 137 171
122 140 171
122 140 171
119 137 170
115 133 166
122 140 171
115 132 166
120 137 170
114 131 166
120 137 169
109 125 162
111 127 170
112 127 173
111 126 184
104 116 181
114 128 197
107 120 186
110 123 186
110 124 186
109 122 180
111 126 176
106 120 166
113 128 171
109 124 163
107 123 162
116 133 168
115 133 165
116 133 167
118 136 170
114 131 165
114 132 163
118 136 168
123 141 171
120 138 169
121 139 171
117 134 165
123 142 172
123 141 172
122 141 172
123 141 172
123 142 173
124 143 174
121 139 170
126 146 175
121 140 170
124 142 172
123 142 173
123 141 171
127 147 175
127 147 176
126 145 175
126 145 174
124 143 174
126 145 174
126 145 174
127 147 175
129 148 177
127 147 175
128 147 176
131 151 178
128 148 176
125 144 173
130 149 177
130 150 178
129 148 178
130 149 176
131 151 178
132 151 178
132 152 180
129 150 177
128 147 175
131 150 177
131 149 176
130 149 177
130 148 175
131 151 178
131 151 178
132 152 179
132 152 179
131 151 178
131 150 178
131 150 177
131 149 177
132 151 178
129 148 175
130 149 176
132 151 177
132 150 176
133 152 178
132 151 177
131 150 177
129 147 174
131 150 177
132 149 175
132 152 179
131 150 177
131 151 178
131 148 174
132 152 178
132 151 178
132 151 178
131 150 177
131 148 174
132 150 177
131 150 177
132 149 176
130 147 173
133 151 176
131 150 177
132 149 174
130 147 173
131 148 174
131 150 176
131 148 174
130 147 172
131 147 172
132 150 177
133 151 177
132 150 176
131 149 175
133 151 176
132 149 175
130 148 174
131 149 175
131 147 172
132 149 174
133 149 174
131 149 175
129 145 170
132 149 175
132 149 174
133 152 177
132 151 178
131 150 176
131 147 173
133 153 179
133 152 178
132 151 177
132 151 177
132 150 176
134 151 176
133 151 176
134 154 180
131 151 177
134 151 177
133 153 179
132 151 177
133 152 178
133 152 178
134 153 179
134 154 180
134 154 180
133 153 179
134 153 179
133 151 177
133 153 179
133 154 181
134 153 179
133 153 180
134 153 179
133 152 178
134 154 181
133 152 178
132 153 180
133 154 181
134 154 181
133 153 180
134 152 178
132 152 177
132 153 180
134 154 180
133 153 179
134 154 181
134 154 181
133 154 181
132 153 179
134 154 181
133 153 179
133 153 180
134 154 181
133 153 179
132 152 179
133 153 180
134 154 180
133 154 181
134 154 181
134 154 181
133 154 181
134 153 179
133 153 180
134 154 180
134 154 181
133 154 181
134 154 180
134 154 181
133 154 180
134 154 181
133 154 180
133 154 181
133 154 181
132 152 178
133 153 180
134 154 181
133 154 181
134 154 181
134 154 181
133 153 179
134 154 181
133 154 180
133 154 181
134 154 181
133 154 181
133 154 181
133 154 181
134 154 181
134 154 181
134 154 181
134 154 181
133 154 180
134 154 180
133 154 181
133 154 181
134 154 181
133 154 181
134 154 181
134 154 181
134 154 180
133 153 180
134 154 181
134 154 180
135 155 181
133 154 181
134 154 181
134 155 181
133 154 181
133 154 181
134 154 181
134 154 181
133 154 181
133 154 180
134 154 181
133 154 181
134 154 181
133 154 181
133 153 180
134 154 181
134 154 181
133 154 181
133 154 180
134 154 181
134 154 181
134 154 181
135 155 181
134 154 181
134 154 181
134 155 181
134 154 181
134 154 181
135 155 181
134 154 181
133 154 181
134 154 181
134 154 181
134 154 181
135 154 180
133 154 181
133 154 181
134 154 181
134 154 181
133 154 181
134 154 181
134 154 181
134 154 181
133 154 180
135 155 181
134 154 180
133 154 181
133 154 181
132 153 181
133 154 181
133 154 181
133 154 181
134 154 181
134 154 181
134 154 181
134 154 181
133 154 180
133 154 181
134 154 181
134 155 181
134 154 181
133 154 181
134 155 181
134 154 181
133 154 181
134 154 181
134 154 180
134 154 181
134 154 181
134 154 181
133 154 181
133 154 181
134 154 181
133 154 181
133 154 181
134 154 181
134 154 181
134 154 181
133 154 180
133 154 181
134 154 180
134 154 181
133 154 181
134 154 181
134 154 181
134 155 181
134 154 181
134 154 181
134 154 181
133 154 181
133 153 180
133 154 180
133 154 181
134 154 181
133 154 181
133 154 180
134 154 181
133 154 181
133 154 181
133 154 180
133 153 180
134 154 180
133 154 181
134 154 181
134 154 180
133 154 180
134 154 181
134 154 180
134 154 181
133 153 180
133 153 180
134 154 181
132 153 180
133 154 180
134 154 181
133 153 180
133 153 180
134 154 180
132 153 180
133 154 180
132 153 181
135 155 181
134 154 180
133 153 180
132 153 180
133 153 180
133 153 180
131 152 179
133 154 180
133 153 180
132 152 179
132 153 180
134 154 180
132 152 179
131 151 179
132 153 180
130 151 178
131 151 178
132 153 180
130 151 178
134 154 180
132 152 179
132 153 179
132 152 179
131 151 179
131 151 178
129 149 176
131 151 178
130 150 179
127 147 177
130 150 178
131 151 179
128 147 177
129 149 176
128 148 177
129 148 177
131 151 178
128 148 176
129 149 178
124 143 173
124 143 173
126 145 174
127 146 175
129 148 177
128 147 176
125 144 174
124 142 173
122 141 173
126 145 175
126 145 174
125 143 173
123 142 173
124 143 174
122 140 171
123 142 172
119 137 167
121 140 172
123 141 172
123 142 172
121 139 171
116 132 166
120 138 170
114 131 166
114 130 171
117 133 178
107 121 177
116 131 183
114 130 175
114 130 171
115 131 174
113 129 167
107 122 161
112 128 164
115 132 165
119 135 168
114 131 167
117 135 167
121 140 171
122 140 171
119 136 169
123 141 172
123 142 173
119 137 169
119 137 169
119 137 170
123 142 172
124 143 174
119 137 169
124 143 173
124 143 174
125 144 173
119 137 169
124 143 173
124 143 174
128 147 176
126 145 174
123 142 171
122 141 171
126 145 175
129 148 177
128 148 177
124 144 173
127 147 175
125 145 174
128 147 176
128 147 176
125 144 174
126 146 175
126 145 174
126 146 175
127 147 175
130 150 179
130 150 178
130 150 179
130 150 178
129 149 177
130 150 177
128 147 174
129 147 174
130 150 178
128 147 175
130 150 177
129 148 176
128 147 174
132 151 178
129 149 177
130 150 177
130 149 177
133 152 179
131 150 177
130 149 175
132 151 177
133 154 180
133 152 178
132 152 179
131 150 177
132 151 178
130 149 176
131 151 178
131 149 175
132 152 179
133 152 179
132 151 178
132 151 177
132 151 178
131 152 180
132 151 177
133 154 181
133 150 177
132 151 177
131 150 177
132 152 178
132 150 176
131 149 176
133 151 177
131 151 177
132 149 175
133 152 178
132 150 176
132 150 176
133 151 176
132 151 178
133 151 177
130 147 172
131 148 174
133 153 180
133 152 178
131 148 173
132 148 174
133 151 177
132 150 175
130 149 176
130 148 174
131 149 175
132 151 177
133 153 178
132 149 175
130 148 174
133 150 176
132 152 179
133 151 176
131 149 175
133 153 179
133 153 179
133 152 178
133 153 179
133 152 177
133 152 178
133 153 179
132 151 177
132 152 178
133 152 178
134 153 178
134 152 178
132 151 177
133 152 178
133 154 180
133 152 178
132 152 179
132 152 179
133 152 178
132 153 179
133 153 179
133 153 179
133 152 178
133 153 180
133 153 179
134 154 180
134 153 179
132 152 178
133 152 179
133 152 178
134 154 180
133 153 179
135 155 181
134 154 180
133 152 178
134 154 181
134 154 181
133 154 180
134 153 179
133 153 180
135 154 180
134 154 180
133 153 180
134 154 181
134 154 181
133 153 180
132 153 180
133 153 179
135 155 181
133 154 181
134 154 181
132 153 181
134 154 181
133 154 181
134 154 181
133 154 181
134 154 181
134 154 181
134 154 181
134 154 181
133 154 181
134 154 181
134 154 181
134 154 181
133 153 180
133 154 181
134 154 181
134 154 181
133 154 181
134 154 180
134 154 181
133 154 181
134 154 180
134 154 181
133 154 181
133 154 181
134 154 181
134 154 180
133 154 181
135 155 181
133 154 181
134 154 181
134 154 181
133 154 181
134 154 181
134 154 181
134 154 181
134 155 181
133 154 181
133 154 181
134 154 181
134 155 181
133 154 181
133 153 180
134 154 181
134 154 181
134 154 181
134 154 181
134 154 181
134 154 181
135 155 181
134 154 181
134 154 181
133 154 181
134 154 181
134 154 180
133 154 181
134 154 181
135 155 181
133 154 181
133 154 181
133 154 181
133 154 181
134 154 181
134 154 181
134 154 181
133 154 181
134 154 181
134 154 181
134 154 181
134 154 181
133 154 181
134 154 181
134 154 181
133 153 180
133 154 181
134 154 181
133 154 181
133 154 181
134 155 181
134 154 181
133 154 181
134 154 181
133 154 181
136 155 181
134 154 181
134 154 181
135 155 181
134 155 181
134 155 181
133 154 181
133 154 181
134 154 181
134 154 181
134 154 181
135 155 181
134 154 181
134 154 181
135 155 181
134 154 181
135 155 181
135 155 181
134 154 181
133 154 181
134 154 181
134 154 180
134 154 181
133 154 181
133 154 181
134 154 181
134 154 181
134 154 181
134 154 181
133 154 181
133 154 181
134 154 181
133 154 181
135 155 181
134 154 181
133 154 180
134 154 181
134 154 181
133 154 181
133 154 181
133 154 181
134 154 181
134 154 181
134 154 181
134 154 181
134 154 181
133 154 180
133 154 181
134 154 181
132 153 180
133 154 181
134 154 181
134 154 181
133 154 181
134 154 181
133 154 181
135 155 181
133 154 181
133 154 181
134 154 181
133 154 180
133 153 180
134 154 181
133 154 181
133 153 180
134 154 181
133 153 180
133 154 181
133 153 180
133 154 180
133 153 180
134 154 180
135 155 181
133 154 181
133 154 180
133 153 180
133 153 180
133 154 180
134 154 180
132 153 180
133 153 179
132 153 180
133 153 180
134 154 180
133 153 180
133 153 180
134 154 181
133 153 179
132 152 179
132 152 179
133 154 181
132 153 180
132 153 180
134 154 180
132 153 180
133 153 180
132 152 179
133 154 180
131 152 180
132 152 179
134 154 180
132 153 179
130 149 177
131 152 179
132 151 178
132 152 180
132 152 179
133 153 180
129 149 177
131 152 179
130 150 178
131 150 178
130 150 178
131 151 179
128 148 176
131 152 179
129 149 177
129 149 177
130 150 177
130 150 177
126 146 175
127 147 176
126 145 175
128 147 175
128 147 176
129 149 178
127 146 175
127 147 176
127 146 175
127 147 176
126 145 174
123 142 172
123 143 172
126 145 175
122 140 172
124 143 172
123 142 172
127 146 175
124 143 173
122 140 171
122 140 171
122 141 170
120 138 170
126 145 174
123 142 174
119 137 168
124 142 173
123 141 172
121 138 173
123 141 175
116 132 170
121 138 173
114 131 167
121 139 170
118 135 169
118 135 167
122 140 171
120 138 169
119 137 169
124 142 172
119 138 171
120 139 169
122 141 171
124 143 174
120 138 169
121 139 170
123 142 173
121 139 170
123 141 172
125 144 174
121 140 171
129 148 176
126 144 174
124 143 174
126 146 174
123 142 173
126 145 175
127 146 175
123 142 172
125 144 173
126 145 175
127 147 176
128 148 176
127 147 176
129 148 175
128 148 176
130 150 178
127 146 176
128 148 176
129 149 177
125 144 173
130 150 179
129 148 176
127 145 174
129 148 177
132 152 179
129 149 177
128 148 175
128 147 176
130 151 179
131 151 178
130 150 178
132 153 180
130 149 177
133 152 179
131 150 177
131 151 178
130 150 178
130 151 179
131 151 178
130 150 178
133 153 179
131 151 179
132 152 180
131 150 177
132 152 179
131 151 178
132 152 179
132 152 179
132 153 179
130 150 176
132 151 178
133 152 179
131 150 176
133 150 176
132 151 177
133 153 180
130 148 174
132 151 177
132 152 178
130 149 176
131 152 179
131 149 175
132 151 177
132 149 175
130 150 177
133 152 178
131 150 177
131 151 178
133 153 178
132 152 178
132 150 176
134 153 179
132 150 177
132 151 177
133 153 180
132 152 178
131 149 175
134 153 179
131 149 175
133 152 178
132 151 177
133 152 178
134 152 178
132 152 179
133 153 180
132 152 178
133 153 179
132 152 178
133 153 179
131 149 175
131 150 177
133 151 177
133 152 178
132 152 179
132 148 173
132 152 179
133 152 178
131 150 177
133 153 180
132 150 177
133 152 178
132 150 177
133 153 179
132 151 177
134 153 179
132 152 179
133 153 179
133 153 179
132 152 179
133 153 179
134 153 179
132 151 177
133 153 180
134 153 179
131 152 179
133 152 178
132 152 179
132 153 180
134 153 179
134 153 179
133 152 178
134 154 181
133 152 178
133 152 178
133 152 178
134 154 181
133 153 180
133 153 179
132 151 178
132 152 178
135 154 179
134 154 180
133 152 178
133 154 181
133 153 179
133 153 180
134 154 180
132 152 178
133 153 180
133 153 179
134 154 181
134 153 179
134 154 180
133 153 180
133 153 180
133 154 181
134 155 181
134 154 181
133 153 180
133 153 180
134 154 181
134 154 181
133 153 179
135 155 181
133 154 181
133 153 179
134 154 180
134 154 181
133 154 181
134 154 181
134 154 180
134 154 181
134 154 181
134 154 181
133 153 180
134 154 181
134 154 181
134 154 181
134 154 180
134 154 181
133 153 180
134 154 181
133 154 181
133 153 180
134 155 181
134 154 181
134 154 181
134 154 180
133 154 181
134 154 180
134 154 181
133 154 181
134 154 181
134 153 179
133 154 180
133 154 181
134 154 181
134 154 181
134 154 181
133 154 181
133 154 181
134 154 181
134 154 181
133 153 180
134 154 181
134 154 181
134 154 181
134 154 181
133 154 181
134 154 181
134 154 181
134 154 181
133 154 181
133 154 181
132 153 180
133 154 181
135 155 181
133 154 181
133 154 181
134 154 181
134 154 181
133 154 181
134 154 181
134 154 181
134 154 181
133 154 181
134 154 180
134 154 181
133 154 181
134 154 181
134 154 181
134 154 181
134 154 180
133 154 181
133 154 181
133 154 181
134 154 181
134 154 180
134 154 181
133 154 181
133 154 181
135 155 181
134 154 181
134 154 181
134 155 181
135 155 181
134 154 181
133 154 181
134 154 181
133 154 181
133 153 180
134 154 181
133 154 181
134 154 181
133 154 181
134 154 181
134 154 181
135 155 181
134 154 180
134 154 181
134 154 181
134 154 181
134 154 181
133 154 181
133 154 180
134 154 181
133 154 181
134 154 181
133 154 181
133 154 181
134 154 181
134 154 181
133 154 181
133 154 181
134 154 181
134 154 181
134 154 181
134 154 181
133 154 181
133 154 181
133 154 181
133 154 181
134 154 181
133 154 181
133 154 181
133 154 181
133 154 181
133 154 180
134 154 181
134 154 181
134 154 181
133 154 181
134 154 181
133 154 181
134 154 181
133 154 181
133 154 181
134 154 181
134 155 181
132 153 181
134 154 181
133 154 181
134 154 181
133 153 180
134 154 181
133 153 180
134 155 181
133 154 181
133 153 180
133 154 181
132 152 179
133 153 180
132 153 180
134 154 181
133 153 180
134 154 180
135 155 181
134 154 180
133 153 180
134 154 181
132 153 179
134 154 181
132 152 179
133 153 180
135 155 181
133 153 180
134 154 181
134 154 181
133 153 179
132 153 179
131 151 179
132 152 179
133 154 180
133 153 180
132 152 179
131 151 179
133 153 180
133 154 181
132 152 180
133 153 179
133 153 180
128 148 176
132 152 178
132 152 180
130 150 178
133 153 180
132 152 179
133 153 180
131 151 178
132 152 179
132 152 180
129 149 177
131 151 179
131 151 179
130 150 177
130 151 179
127 147 176
127 147 176
131 150 178
127 147 176
126 146 175
129 149 177
128 148 176
128 148 176
126 146 175
128 147 176
128 148 177
128 148 176
127 147 176
126 146 175
128 148 177
127 146 175
124 143 173
125 144 174
127 146 175
128 148 176
124 143 173
125 143 173
127 147 176
122 141 171
124 142 173
123 141 172
125 143 173
120 138 169
127 146 176
123 142 172
129 148 176
126 145 174
123 142 172
123 141 174
125 145 175
125 144 174
127 147 175
123 141 171
127 146 175
123 141 172
123 141 172
124 143 174
122 140 172
123 142 174
118 136 169
122 141 172
123 142 173
123 141 171
126 145 176
125 144 175
124 143 173
130 150 178
125 143 173
122 140 171
125 144 174
119 136 168
128 147 176
130 150 177
129 148 177
124 144 173
128 148 176
126 145 174
126 145 174
130 150 178
126 145 174
129 149 178
129 149 176
130 150 178
128 147 176
128 148 177
129 149 177
131 151 178
130 150 178
128 148 176
131 151 178
130 149 176
128 147 175
132 152 179
130 150 178
130 148 175
131 151 179
132 152 179
132 152 179
129 149 176
130 150 178
131 151 179
133 153 180
131 151 179
131 151 178
132 153 180
131 151 178
132 152 178
132 151 179
132 152 178
130 150 178
132 152 179
132 153 180
132 152 179
132 153 179
131 151 178
130 149 177
133 153 180
132 150 177
132 152 179
133 152 179
132 152 180
130 150 178
133 153 180
134 153 179
132 152 180
134 151 177
133 153 180
132 150 176
133 153 180
134 153 179
132 153 180
131 150 177
132 151 177
134 154 180
132 152 179
132 152 178
132 152 179
133 152 178
130 150 177
132 151 177
132 152 178
131 150 176
132 150 176
132 151 177
133 151 178
131 150 176
133 151 177
133 153 178
132 152 178
133 153 179
131 150 175
132 151 177
133 151 177
133 152 178
132 150 176
131 151 177
132 151 178
133 152 178
132 151 178
132 151 178
133 153 179
132 150 175
133 152 178
132 151 178
132 150 176
133 151 177
133 153 179
132 150 176
133 152 179
134 154 181
133 152 178
132 151 177
133 152 178
133 152 178
133 153 179
134 153 179
132 152 178
133 152 178
134 153 178
132 151 177
133 152 178
134 154 181
132 152 178
132 153 180
134 154 180
134 152 178
133 153 180
134 154 180
133 153 179
133 153 180
133 154 181
134 154 180
134 154 180
134 154 181
133 153 180
133 153 179
133 153 180
134 154 181
134 154 181
134 153 179
133 153 180
132 153 180
133 153 179
134 154 181
133 153 180
134 154 181
134 154 180
134 154 180
134 154 180
133 152 178
134 154 180
134 154 181
134 154 181
133 154 180
133 154 181
133 154 181
134 154 180
133 153 180
134 154 181
133 154 181
133 153 180
132 152 179
134 154 181
133 154 181
134 154 181
134 154 181
134 154 180
133 154 181
134 154 181
134 154 181
134 154 181
133 153 180
134 154 181
134 154 181
133 153 180
134 154 181
134 154 180
134 154 181
133 154 181
134 154 181
133 154 181
134 154 181
133 153 180
134 154 181
134 154 181
133 154 181
134 154 181
134 154 181
133 154 181
133 154 181
133 154 181
134 155 181
133 154 181
133 154 181
133 154 181
133 154 181
134 154 181
134 154 181
133 153 180
135 154 180
133 154 181
133 153 180
133 154 181
134 154 181
134 155 181
134 154 181
134 154 181
133 154 180
133 154 181
134 154 181
133 154 181
135 155 181
133 154 181
134 154 181
134 154 181
133 154 181
133 154 181
133 154 181
134 154 181
133 153 180
134 154 181
134 154 181
133 154 181
134 154 181
134 154 181
134 154 181
134 154 181
133 154 181
134 154 181
134 154 181
134 154 181
134 154 181
135 155 181
134 154 181
133 154 181
133 154 181
134 154 181
134 154 181
134 154 181
134 154 181
134 154 181
133 154 181
133 154 181
134 154 181
134 154 181
134 154 181
134 154 181
134 154 181
133 154 181
134 155 181
134 154 181
133 154 181
133 154 181
133 154 181
134 154 181
134 154 181
134 154 181
133 154 181
133 154 181
133 154 181
134 154 181
134 154 181
134 154 181
134 154 181
134 154 181
134 154 181
133 154 181
135 155 181
133 154 181
134 154 181
133 154 181
134 154 181
133 153 180
134 154 181
133 154 181
133 154 181
133 154 181
134 154 181
133 154 181
134 154 181
134 154 181
133 153 180
134 154 181
133 154 181
134 154 181
134 154 181
134 154 181
134 154 181
134 154 181
134 154 180
133 154 180
134 154 180
133 154 181
133 154 180
133 154 180
134 154 180
133 154 181
134 154 181
134 154 181
134 154 181
133 154 181
134 154 181
134 154 181
134 154 181
134 154 181
134 154 180
133 154 181
134 154 181
134 154 180
134 154 180
134 154 180
134 154 180
134 154 180
133 153 180
133 153 179
134 154 181
134 154 180
133 153 180
132 152 179
135 155 181
134 154 181
133 153 180
133 153 179
133 153 180
133 153 180
132 153 180
134 154 181
132 153 180
133 154 180
132 153 180
132 152 180
132 152 178
133 153 180
134 154 181
133 153 180
133 153 179
132 152 179
132 153 180
133 153 180
131 152 179
131 152 179
133 153 180
133 154 180
132 152 179
132 152 179
133 154 180
133 154 180
133 154 180
131 151 178
132 153 180
130 150 177
131 152 180
131 151 178
128 148 177
129 149 177
132 151 178
132 152 180
130 150 178
130 150 178
129 149 177
130 150 178
128 148 176
129 149 177
128 147 176
131 151 178
131 152 179
125 144 173
127 146 177
128 147 176
130 150 179
126 145 175
128 147 176
129 149 177
128 147 176
125 145 176
126 146 174
127 146 176
127 146 175
128 147 176
124 143 172
123 141 171
128 147 176
125 144 173
125 144 173
127 146 175
127 146 176
126 145 174
128 147 176
128 147 176
127 147 176
126 145 174
125 144 174
126 145 174
125 144 173
123 141 172
127 147 175
127 146 175
123 142 173
125 144 173
128 148 177
126 146 176
124 143 174
129 149 178
123 142 172
123 141 172
128 147 175
129 148 177
126 145 174
128 148 176
126 146 176
130 150 178
130 150 178
130 150 178
127 146 175
131 151 179
126 145 173
128 147 176
128 148 177
129 148 176
129 148 177
130 150 179
128 146 175
129 149 177
131 151 179
129 148 177
129 149 177
128 147 176
129 148 177
129 148 176
128 149 177
131 151 179
130 150 179
132 151 179
129 149 177
132 152 179
130 150 178
131 151 179
131 150 177
132 152 179
131 152 179
129 150 178
132 153 180
133 154 181
131 151 179
132 152 179
133 151 178
131 150 177
132 151 178
133 153 180
133 153 180
134 154 180
132 152 179
132 152 179
134 153 178
131 151 178
132 151 179
132 153 180
131 151 178
133 154 180
132 153 179
133 152 178
133 153 179
132 151 177
132 150 176
133 152 178
133 152 178
131 149 176
132 151 177
132 151 178
133 153 180
132 153 180
132 151 178
133 153 180
132 152 178
134 153 179
132 151 178
134 153 179
133 152 179
132 150 176
132 151 178
134 153 179
132 150 176
132 152 178
132 149 175
134 154 181
132 152 179
134 153 179
132 152 178
133 152 178
132 151 178
133 153 180
133 153 179
133 152 178
132 152 179
132 152 179
133 152 178
134 152 178
132 150 176
132 149 176
134 153 179
133 150 176
134 153 179
133 153 179
133 151 177
131 150 175
133 153 179
133 153 179
133 152 179
132 150 176
133 153 180
132 151 178
133 153 179
133 153 179
133 152 178
133 153 180
132 152 178
133 151 177
134 154 180
133 152 178
133 153 180
134 154 181
134 153 179
132 152 178
134 153 179
134 154 180
133 153 179
133 153 179
133 153 180
133 152 178
132 152 179
132 153 180
134 154 181
132 152 178
134 153 179
134 154 181
133 153 178
133 153 179
134 154 180
133 153 180
131 151 177
134 154 181
134 154 180
133 153 180
133 153 179
133 153 180
134 154 181
134 154 181
134 154 180
134 154 180
134 154 181
133 153 180
134 153 179
133 153 180
133 154 181
134 154 181
134 154 181
133 154 181
134 154 181
133 154 181
134 154 181
133 153 179
133 154 181
133 153 180
134 154 180
133 154 181
133 154 181
134 154 180
133 153 180
134 154 181
134 154 181
134 154 181
134 154 181
134 154 181
135 155 181
134 154 181
134 154 181
133 154 181
134 154 181
133 154 181
133 154 181
133 153 180
134 154 181
134 154 181
133 154 181
134 154 181
134 154 181
134 154 181
134 154 181
133 154 181
134 154 181
134 155 181
133 154 180
133 154 181
133 154 181
134 154 181
133 154 181
134 154 181
133 153 180
134 154 181
134 154 181
134 154 181
133 153 180
134 154 181
134 154 181
133 153 180
133 154 181
133 154 181
133 154 181
133 154 181
133 154 181
134 154 181
133 154 181
134 154 181
134 154 181
134 154 181
133 154 181
133 154 181
133 154 181
134 154 181
134 154 181
134 154 181
134 154 181
135 155 181
134 154 181
133 153 180
134 154 181
134 154 181
134 154 181
134 154 181
133 154 181
135 155 181
134 154 181
134 154 181
133 154 181
134 154 181
134 154 181
134 154 181
133 154 181
134 154 181
134 154 181
133 154 181
133 154 181
134 154 181
134 154 181
134 154 181
134 154 180
133 154 181
134 154 181
134 154 181
133 154 181
134 154 181
134 155 181
133 154 181
134 155 181
134 154 181
134 154 181
133 154 181
134 154 181
133 154 181
134 154 181
134 155 181
134 154 181
134 154 181
134 154 180
132 153 181
134 155 181
133 154 181
133 154 180
134 155 181
133 154 181
134 154 181
134 154 181
133 154 181
134 154 181
134 154 181
134 154 181
135 155 181
134 154 181
133 154 181
132 153 180
134 154 181
133 154 181
134 154 181
133 154 181
134 154 181
133 154 181
134 154 181
134 154 181
134 154 181
134 154 181
134 154 180
134 154 181
133 153 180
133 153 180
134 154 181
133 154 181
133 153 180
133 153 180
134 154 181
134 154 181
133 153 180
133 153 180
133 153 180
133 154 181
133 154 181
133 153 180
134 154 180
132 153 179
133 153 180
134 154 181
133 154 181
134 154 181
132 152 180
135 155 181
133 154 181
132 152 180
134 155 181
134 154 181
133 154 181
134 155 181
133 153 180
133 153 180
133 154 181
133 153 180
134 154 180
132 153 180
132 153 180
132 152 180
133 153 180
134 154 181
134 154 180
132 152 179
133 153 180
131 151 180
132 153 180
133 153 180
133 153 179
134 154 180
130 150 178
133 153 180
133 154 180
132 153 180
133 153 180
132 152 179
131 152 179
131 152 179
129 149 177
130 150 177
132 152 179
131 151 179
130 150 179
131 151 179
133 153 179
128 147 175
132 152 179
132 152 179
132 152 180
132 151 179
130 150 178
130 150 178
130 151 178
129 149 177
129 149 177
129 148 177
131 152 179
128 148 176
131 151 178
129 148 177
130 150 178
129 149 176
130 150 178
129 149 177
127 146 175
131 152 179
126 145 174
130 150 177
128 147 176
128 148 176
126 145 175
129 149 177
131 151 179
127 146 174
130 149 177
127 146 175
126 145 174
125 144 173
131 151 179
128 147 176
126 145 174
125 144 174
125 144 174
128 147 176
125 144 174
126 145 174
125 144 173
127 146 175
126 145 174
124 143 174
127 146 175
127 146 175
124 143 173
126 145 174
125 144 173
125 145 174
126 144 174
128 148 176
129 149 176
130 149 178
128 147 176
129 148 176
126 145 174
129 149 178
127 146 174
126 146 175
130 149 177
126 146 175
128 148 176
128 148 176
130 149 176
130 150 178
132 152 179
130 150 178
131 150 177
130 149 178
131 151 178
128 148 176
132 153 180
129 149 176
130 149 176
131 150 177
131 151 178
131 151 179
128 148 176
131 151 179
133 153 180
130 150 177
132 152 179
132 152 179
130 150 177
131 150 177
132 151 178
131 152 179
133 153 180
132 153 180
132 153 180
132 151 178
133 153 179
132 152 179
132 152 178
131 152 178
133 153 180
132 153 180
133 153 178
133 153 179
133 153 180
133 153 180
132 152 179
132 152 179
133 153 180
131 150 177
133 154 181
132 152 179
134 154 181
133 153 180
132 150 176
132 153 179
133 153 179
131 151 179
133 153 179
132 152 179
133 152 179
132 153 180
133 153 179
134 154 180
131 150 177
133 152 178
132 152 178
133 153 180
132 152 178
134 154 180
133 151 176
133 153 180
132 150 177
134 152 177
133 151 177
133 152 178
133 152 179
133 153 180
132 152 179
133 153 179
132 151 176
133 152 178
133 154 180
133 151 177
135 153 179
132 150 176
133 151 177
133 152 178
134 154 180
134 153 179
133 151 177
134 153 179
133 153 179
133 153 179
133 152 178
135 155 181
132 152 178
132 153 180
134 154 180
133 153 179
133 153 180
132 151 177
133 153 179
133 152 178
134 153 179
133 153 179
133 153 180
132 152 178
132 151 178
133 154 181
133 152 178
133 153 179
133 153 179
134 154 181
134 154 181
133 154 181
133 153 180
133 154 181
133 153 179
134 154 180
134 154 181
133 152 178
133 154 181
133 154 181
133 153 180
134 154 181
133 154 181
133 153 179
134 154 181
133 153 180
133 153 179
134 154 180
132 152 179
133 152 178
133 153 180
133 154 181
134 154 181
134 154 181
133 153 180
134 155 181
133 153 180
134 154 181
133 154 181
133 154 180
134 154 181
134 154 181
133 154 180
133 154 181
134 154 181
133 154 181
134 154 181
135 155 181
134 154 180
132 153 180
133 153 179
134 154 181
134 154 181
134 154 181
134 154 181
135 154 180
133 153 180
133 154 181
134 154 181
134 154 181
134 154 181
134 154 181
134 154 181
134 154 181
134 154 181
134 153 179
134 154 181
133 153 180
134 154 181
133 154 181
133 153 180
133 154 181
133 154 181
134 154 181
134 154 181
134 154 181
134 154 181
133 154 181
134 154 181
133 154 180
134 154 181
134 154 181
133 154 181
133 154 181
133 154 181
134 154 181
133 153 180
134 154 181
133 153 180
134 154 180
134 154 180
133 154 181
134 154 181
134 154 181
135 155 181
134 154 181
134 154 181
133 154 181
134 154 181
134 154 181
133 154 181
133 153 180
134 154 181
133 154 181
134 154 181
134 154 181
133 154 181
134 154 181
134 154 181
134 154 181
134 154 181
134 154 181
134 154 181
134 154 181
134 154 180
134 154 181
135 155 181
134 154 181
134 154 181
134 154 181
133 154 181
134 154 180
133 154 181
134 154 181
134 154 181
134 154 181
134 154 181
134 154 181
133 154 180
134 154 181
135 155 181
133 154 181
133 154 181
134 154 181
134 154 181
133 154 181
133 154 181
133 154 181
133 154 181
133 154 181
133 154 181
134 154 181
133 154 181
134 154 181
134 154 181
133 154 181
133 154 181
133 154 181
133 154 181
132 153 181
134 154 181
134 154 181
134 154 181
133 154 181
133 154 181
134 154 181
134 154 181
133 154 181
133 154 181
133 154 180
134 154 181
133 154 181
133 154 181
135 155 181
134 154 181
134 154 181
133 154 181
134 154 181
134 154 181
134 154 181
134 154 181
133 153 180
132 153 180
134 154 181
133 154 181
135 155 181
133 153 180
134 154 180
133 154 181
133 154 181
133 154 180
133 154 181
133 154 181
132 153 180
134 154 180
132 153 181
134 154 180
133 153 180
133 154 181
133 154 181
133 154 181
134 154 180
134 154 181
133 154 181
133 154 181
132 153 180
133 154 180
134 154 181
132 153 180
133 154 181
134 154 180
132 153 180
133 154 180
133 153 180
133 154 180
133 154 180
134 154 181
133 154 181
134 154 180
134 154 180
133 153 180
132 153 180
133 154 181
132 153 180
132 153 180
134 154 180
133 154 180
132 153 180
134 154 180
134 154 181
133 153 180
132 152 179
133 153 180
132 152 179
131 151 179
132 152 179
132 153 180
133 154 180
132 152 179
133 153 179
131 151 178
133 153 180
131 151 179
132 152 179
133 153 180
131 151 179
133 153 180
132 153 180
131 152 179
131 151 178
130 151 179
131 152 179
132 152 179
131 151 179
131 151 179
131 151 179
131 151 179
131 152 180
130 150 179
129 149 176
131 152 179
127 147 176
128 147 176
131 152 179
130 150 177
130 150 179
130 150 178
129 149 178
132 152 180
131 151 179
128 148 177
128 147 176
128 148 177
128 148 176
132 152 179
129 149 177
128 149 177
130 149 178
128 148 176
129 149 176
128 148 176
128 148 177
128 148 176
130 149 178
128 148 176
128 148 176
127 146 174
129 149 176
129 148 177
130 150 178
127 146 176
129 149 177
129 149 177
127 147 176
129 148 176
127 147 176
125 143 174
128 148 177
127 147 175
130 150 178
128 147 176
128 147 176
130 150 178
128 148 176
129 149 176
128 147 176
129 149 177
131 151 179
129 149 177
130 151 179
128 148 176
130 150 178
132 152 179
132 152 179
132 152 179
130 151 178
130 150 178
129 150 178
131 152 179
131 151 179
132 152 180
129 148 177
132 152 179
131 151 179
130 151 178
132 151 178
130 149 177
132 152 179
131 151 178
133 151 178
132 152 179
132 152 180
133 153 180
133 153 180
132 151 179
133 152 179
133 153 180
132 152 179
133 153 180
132 152 179
132 152 179
132 151 178
132 151 178
131 152 179
131 151 178
132 152 179
134 154 180
132 153 180
131 152 178
134 154 181
132 152 179
133 153 180
133 152 179
134 154 180
132 152 179
133 153 180
133 153 179
134 154 181
131 152 179
132 153 180
134 153 178
133 152 178
134 154 180
133 151 176
132 152 179
133 153 179
133 152 178
132 151 178
132 152 179
133 153 180
133 153 180
133 153 179
132 151 177
132 151 177
133 153 179
133 152 178
133 154 181
134 153 179
133 151 177
133 152 179
133 153 180
133 151 178
133 153 180
134 153 179
133 153 179
132 151 178
133 154 181
133 151 177
132 152 178
132 152 178
132 152 178
134 152 178
134 153 180
133 153 180
133 153 179
134 153 179
134 154 180
133 153 179
133 153 179
133 154 181
133 153 180
132 152 178
133 153 179
134 154 181
133 151 177
132 151 178
133 152 178
134 154 180
132 150 175
133 152 178
133 153 179
133 152 178
133 154 181
133 152 178
133 154 180
134 154 180
133 153 180
133 153 180
132 152 178
134 154 181
133 153 180
133 153 179
133 153 179
133 153 179
134 154 180
134 154 181
134 153 179
134 154 181
134 154 180
133 154 181
134 154 181
134 154 180
134 154 180
134 154 180
134 154 181
133 153 180
133 153 179
133 154 181
134 155 181
134 154 181
134 154 181
133 154 181
133 153 180
133 154 181
134 154 180
133 153 179
134 154 181
134 154 180
133 154 181
133 154 180
133 153 180
135 155 181
134 154 181
134 154 181
135 155 181
133 154 181
133 154 181
134 154 181
134 154 181
133 154 181
134 154 181
135 155 181
134 154 181
134 154 181
134 154 180
133 154 181
133 153 180
133 154 181
134 154 181
134 154 180
133 154 181
134 154 181
133 154 181
134 154 181
134 155 181
134 154 181
133 154 181
133 154 180
134 154 181
133 154 181
134 154 181
134 154 181
133 154 180
134 154 181
134 154 181
134 154 181
135 155 181
133 154 181
134 154 181
135 155 181
133 154 181
132 153 180
134 154 181
134 154 181
133 154 181
133 154 181
134 155 181
133 154 181
133 154 181
133 154 181
134 154 181
133 154 181
134 154 181
133 153 180
134 154 181
134 154 180
134 154 181
134 154 180
132 153 181
133 154 181
133 154 181
134 154 181
134 154 181
135 155 181
133 153 180
135 155 181
134 154 181
134 154 181
133 154 181
134 154 181
134 154 181
134 154 180
134 154 181
134 154 181
135 155 181
134 154 181
134 154 181
134 154 181
134 154 181
134 154 181
134 154 181
134 154 181
134 154 181
133 154 181
134 154 181
134 154 181
134 154 181
133 154 181
134 154 181
133 154 181
134 154 181
133 154 181
133 154 181
134 154 181
133 154 181
133 154 181
134 154 181
133 154 181
134 154 181
134 154 181
133 154 181
133 154 181
134 154 181
134 154 181
134 154 181
134 154 181
133 154 180
134 154 181
134 154 181
134 154 181
134 154 181
134 154 181
133 154 181
135 155 181
134 154 181
134 154 181
133 154 181
134 154 181
133 154 181
133 154 181
133 154 181
133 154 181
134 154 181
133 154 181
133 154 181
134 154 181
134 154 181
134 155 181
135 155 181
133 154 181
135 155 181
134 154 181
134 154 181
134 154 181
133 154 181
134 154 181
134 154 181
134 154 181
133 154 181
134 154 181
133 153 180
135 155 181
135 155 181
133 154 181
133 154 181
133 154 181
132 152 179
134 154 180
133 154 181
134 154 181
134 154 181
133 154 181
134 154 180
133 154 181
134 154 181
133 154 180
133 154 180
133 154 181
132 153 181
133 153 180
134 154 181
134 154 180
131 152 179
134 154 181
132 153 179
133 153 180
134 154 180
132 152 179
133 154 180
133 154 181
133 154 181
133 154 180
133 154 181
133 153 180
134 153 180
133 153 179
133 154 181
133 153 180
133 154 180
133 154 180
133 153 180
133 153 180
132 153 180
133 153 180
133 153 179
132 152 179
132 152 180
132 153 180
133 153 180
130 150 178
131 151 179
134 154 180
132 152 180
132 153 180
132 152 179
132 153 180
133 153 180
132 152 180
132 153 180
133 153 180
131 152 179
132 152 179
132 153 179
130 150 178
131 151 179
132 153 179
131 151 178
130 149 177
129 149 178
131 152 179
129 149 177
129 149 177
128 148 177
130 150 178
132 152 179
130 150 178
130 149 177
129 149 178
132 153 180
131 150 178
129 148 177
130 151 179
132 151 178
131 151 179
129 149 177
128 148 177
128 148 177
129 148 176
131 150 177
130 149 178
127 146 174
127 147 176
130 150 178
130 150 178
129 149 177
128 148 177
130 150 177
129 149 177
128 147 176
130 150 178
130 149 177
124 143 173
131 150 178
129 149 178
130 149 178
129 149 177
130 150 178
129 149 177
130 151 178
130 150 178
131 152 180
129 149 177
130 150 178
129 149 178
133 152 179
127 146 176
128 148 177
131 151 179
129 149 176
131 151 179
130 150 178
130 151 178
130 150 178
131 151 179
129 148 176
129 149 176
131 151 178
132 152 179
131 151 179
131 151 179
130 150 178
131 150 178
132 152 179
130 151 179
132 152 179
131 151 178
130 151 178
130 150 177
132 153 180
131 151 179
132 151 178
131 151 178
132 152 179
133 153 180
133 153 180
132 153 179
134 154 180
133 152 178
132 152 179
132 152 179
133 153 180
134 153 180
132 153 180
132 153 179
131 151 178
133 154 181
132 151 177
131 150 177
133 153 180
132 152 178
131 151 178
133 153 180
132 152 179
132 152 179
132 153 180
133 153 180
133 152 179
133 153 180
132 151 177
133 153 180
133 153 180
132 151 178
131 151 178
132 151 178
132 152 179
133 152 179
132 151 178
133 153 180
134 154 180
134 154 180
134 154 180
133 152 178
132 151 177
133 154 181
133 153 179
134 154 180
133 152 178
132 153 180
134 154 180
134 153 179
134 154 180
133 153 179
133 153 179
132 152 178
132 150 177
133 154 181
133 150 176
133 152 178
133 154 181
133 153 180
133 152 179
133 152 179
133 152 178
133 153 179
133 153 180
133 152 178
133 153 180
133 152 179
132 151 177
133 153 178
133 153 179
133 153 180
133 153 180
133 152 178
132 152 178
133 153 179
134 154 180
132 151 178
134 153 179
134 154 181
133 152 178
132 153 180
134 153 179
133 153 180
134 154 181
134 154 181
134 154 180
133 154 181
133 153 180
134 154 180
133 152 178
133 153 180
133 153 180
133 152 178
134 154 181
133 153 180
132 151 178
134 154 181
133 154 181
134 154 181
134 154 180
133 154 181
134 154 181
134 154 181
133 153 179
133 153 179
134 154 181
132 153 181
133 153 180
133 153 179
133 154 181
134 154 181
133 154 181
134 153 179
134 154 181
134 154 181
134 154 181
134 154 181
134 154 181
133 154 181
134 154 181
133 152 178
133 154 181
133 153 179
133 153 180
133 154 181
134 154 181
134 154 180
133 154 181
134 154 181
133 154 181
133 154 181
133 153 180
133 153 180
134 154 181
133 153 180
134 154 181
134 154 180
134 154 180
134 154 181
133 154 181
134 154 181
134 154 181
133 154 181
133 154 181
133 154 181
134 154 181
134 154 180
135 155 181
133 154 181
134 155 181
134 154 181
134 154 181
133 153 180
134 154 181
134 154 181
134 154 181
134 154 181
133 154 181
134 154 181
134 154 181
134 154 181
134 154 181
134 154 181
134 154 181
134 154 181
134 154 181
134 154 181
134 154 180
133 154 181
134 154 181
134 154 181
135 155 181
134 154 181
133 154 181
134 154 181
133 154 180
134 154 181
135 155 181
134 154 181
134 154 181
134 154 181
134 154 181
135 155 181
134 154 181
133 154 181
134 154 181
134 154 181
133 154 181
134 153 179
134 154 181
134 154 181
134 154 181
134 154 181
135 155 181
134 154 181
134 154 181
134 155 181
133 154 181
134 154 181
134 154 181
134 154 180
134 154 181
133 154 181
134 154 181
133 154 181
133 153 180
134 154 181
134 154 181
134 154 181
133 154 181
133 154 181
134 154 181
134 154 181
133 154 181
134 154 181
133 154 181
133 154 181
135 155 181
134 154 180
133 154 180
134 154 181
134 154 181
134 154 181
134 154 181
134 154 181
134 154 181
134 154 181
133 154 181
134 154 180
133 154 181
134 154 181
134 154 181
133 154 180
134 154 181
134 154 181
133 154 181
133 154 180
134 154 181
134 155 181
134 155 181
134 154 181
134 154 181
133 154 181
134 154 181
134 154 181
133 154 180
132 153 180
133 154 181
133 154 181
133 154 180
134 154 181
134 154 180
134 154 181
133 153 180
133 153 180
133 154 181
133 154 181
133 154 181
133 154 181
134 155 181
133 153 180
133 154 180
133 154 181
134 154 180
134 154 181
133 154 181
134 154 181
134 154 181
134 154 181
134 154 181
133 153 180
133 153 180
133 154 181
134 154 181
133 153 180
133 153 180
134 154 181
133 153 180
134 154 180
134 154 180
134 154 181
133 154 180
134 154 180
134 154 181
132 153 180
133 154 181
133 154 181
134 154 181
132 153 180
132 153 179
134 154 181
133 152 179
132 153 180
133 153 180
133 152 179
133 153 180
132 152 179
132 152 179
134 154 181
134 154 181
132 152 179
133 153 180
132 153 180
134 154 181
131 151 179
133 153 180
133 153 180
132 152 179
132 152 180
132 152 179
130 150 177
134 154 180
132 153 179
132 152 179
133 153 180
132 152 179
132 152 179
132 152 179
129 149 178
130 150 178
133 153 180
133 153 180
131 151 178
132 152 179
132 153 180
132 152 179
131 151 179
131 151 180
129 149 177
131 151 179
129 149 178
133 153 179
130 151 179
130 150 178
130 149 178
131 150 177
130 150 178
129 149 177
131 151 177
131 151 179
130 150 178
131 151 179
130 149 177
128 147 177
130 150 177
130 150 177
129 148 177
128 148 176
128 148 177
130 150 178
131 152 179
129 149 177
128 148 176
129 149 177
130 150 178
130 151 178
130 150 177
130 149 177
129 149 177
128 148 177
131 151 178
130 151 178
127 146 174
130 150 178
129 149 178
130 150 178
131 151 179
131 151 178
130 150 179
131 151 179
129 149 177
128 148 176
131 152 180
133 153 180
131 151 178
132 152 179
130 150 178
128 149 177
128 147 176
128 148 176
130 150 178
132 152 179
132 152 179
132 152 180
133 153 180
128 148 175
132 152 179
133 153 180
131 152 178
132 153 180
132 151 178
131 150 176
132 152 179
132 151 178
132 152 179
132 153 180
132 152 180
132 152 179
132 153 180
131 151 179
132 153 180
132 153 179
133 153 180
132 153 180
133 153 180
132 153 180
134 154 181
131 151 178
132 152 179
133 153 180
133 154 181
133 153 179
133 153 180
133 152 178
134 153 179
132 152 179
132 152 178
132 151 178
132 153 180
133 153 179
134 154 180
133 153 179
131 151 178
133 153 180
135 154 180
132 152 179
132 153 180
133 154 180
133 153 180
132 153 180
132 152 179
133 153 179
132 153 180
134 154 181
133 153 179
133 153 179
133 152 179
133 152 178
133 153 180
134 154 181
132 151 178
133 153 179
132 152 178
133 153 179
133 152 178
133 153 180
133 153 179
133 152 178
132 153 180
133 153 179
133 153 180
133 152 179
132 152 179
133 153 180
132 153 179
134 153 179
133 152 178
132 152 178
133 152 179
133 152 178
131 151 178
134 154 181
134 154 181
133 152 178
133 154 180
131 151 178
132 152 179
133 153 179
133 154 181
132 151 177
133 153 179
134 154 180
133 153 179
133 153 179
133 152 178
133 154 181
133 153 180
134 154 180
133 154 180
134 154 181
132 152 179
134 154 181
134 154 180
133 154 180
133 153 180
133 152 178
134 154 181
134 154 180
133 153 179
133 153 180
134 154 181
134 154 181
133 153 179
133 154 181
134 154 180
133 153 180
134 154 180
132 152 179
133 153 180
133 154 181
133 154 181
133 154 180
133 154 181
134 153 179
134 154 181
133 153 180
133 152 178
134 154 180
135 154 179
133 154 181
133 154 181
134 154 181
133 154 181
134 154 180
133 153 179
134 154 181
134 154 180
134 155 181
134 155 181
133 154 181
134 154 181
133 153 180
133 154 181
133 153 180
133 154 181
134 154 181
133 154 181
133 154 181
133 154 181
133 153 180
133 154 180
134 154 181
134 154 180
134 154 181
133 154 181
134 154 180
133 154 181
133 154 181
133 153 180
133 154 181
134 154 181
134 154 181
134 154 181
134 154 180
134 154 180
133 153 180
134 154 181
133 154 181
134 154 181
134 154 181
135 155 181
133 154 181
134 154 181
134 154 181
134 154 181
133 154 181
134 154 180
133 153 180
134 154 181
134 154 181
134 154 181
133 154 181
133 154 181
134 154 181
133 154 180
134 154 181
134 154 181
134 154 181
134 154 181
134 154 180
134 155 181
133 154 181
134 154 181
134 154 181
135 155 181
134 154 181
133 154 181
134 154 181
134 155 181
133 153 180
134 154 181
135 155 181
134 154 181
135 155 181
134 154 181
134 154 181
133 154 181
134 154 181
133 154 181
133 154 180
133 154 181
134 154 181
134 154 180
133 154 181
135 155 181
134 154 181
134 154 181
133 154 181
133 154 180
133 154 181
134 154 181
133 154 181
134 154 181
134 154 181
133 154 181
133 154 181
134 154 181
134 154 181
134 154 181
134 154 181
133 154 180
133 154 181
134 154 181
134 154 181
134 154 181
134 154 181
133 154 181
134 154 181
134 154 181
134 154 181
133 154 181
134 154 181
134 154 181
134 154 181
134 154 181
134 154 181
134 154 181
134 154 181
134 154 181
134 154 181
135 155 181
133 154 181
134 154 181
134 154 181
133 154 181
133 154 181
134 154 181
133 154 181
134 154 181
134 154 181
133 154 181
133 154 181
133 153 180
134 154 181
134 155 181
133 154 181
134 154 181
133 154 180
134 154 181
133 154 180
133 153 180
134 154 180
134 154 181
133 154 180
134 154 181
135 155 181
134 154 181
134 154 181
134 154 181
133 154 180
133 154 181
134 154 181
133 154 180
132 153 179
133 154 181
134 154 181
134 154 180
135 155 181
134 154 181
134 154 180
133 154 181
133 153 180
133 154 180
133 154 181
134 154 180
133 153 180
134 154 180
133 153 180
134 154 180
133 154 180
133 153 180
132 152 179
133 154 180
133 154 180
133 154 181
132 153 179
134 154 181
133 154 180
133 153 180
133 153 180
134 154 181
133 154 180
133 154 181
133 154 181
133 153 179
133 154 181
134 154 181
133 154 181
133 154 180
134 153 179
134 154 181
133 153 180
132 153 180
132 153 180
133 154 181
131 151 179
133 153 179
132 152 179
132 153 180
131 151 178
132 152 179
133 154 180
132 152 179
131 152 179
132 153 180
134 154 181
131 151 178
132 153 179
133 153 180
131 152 179
132 152 179
130 151 178
132 153 180
131 151 178
131 151 178
133 153 180
130 150 178
133 153 180
132 152 179
131 151 179
133 154 180
133 153 180
130 149 177
130 150 178
133 154 180
130 151 179
131 150 178
129 150 178
128 148 176
131 151 179
132 152 180
131 150 177
131 150 178
130 150 179
130 149 177
132 151 178
129 148 176
131 151 178
131 151 179
129 149 177
132 151 179
129 149 177
131 151 179
132 151 178
129 149 178
129 150 178
129 148 176
133 153 180
130 150 178
131 150 177
130 149 177
131 151 178
131 152 180
133 154 181
131 151 179
131 152 179
133 153 180
132 152 178
132 151 178
130 150 178
132 152 179
129 149 177
131 151 178
131 152 179
132 152 180
130 150 178
130 150 178
129 149 177
132 153 180
129 149 178
130 150 177
131 151 178
131 151 177
132 152 178
133 153 180
133 153 180
130 151 179
133 153 180
130 151 178
131 152 179
133 153 179
132 153 180
133 153 180
132 152 179
131 151 179
134 154 180
132 153 180
133 154 180
131 151 179
132 152 179
134 154 180
133 153 180
132 151 177
133 153 179
133 153 179
133 153 180
132 152 179
132 153 180
132 153 180
133 153 180
133 154 180
133 153 180
132 153 180
131 151 178
132 152 180
133 153 180
133 152 179
133 152 179
132 152 179
133 153 180
134 154 180
134 154 180
132 152 179
133 153 179
133 153 180
132 151 178
132 153 180
133 153 179
133 153 180
133 152 179
133 153 180
133 153 179
133 153 180
133 154 180
134 153 179
134 154 181
133 153 180
133 153 180
134 154 180
133 154 181
134 153 179
133 152 179
134 154 181
133 152 178
133 153 179
134 153 179
132 152 179
133 152 178
133 153 180
133 153 180
134 154 180
133 153 180
131 150 176
133 152 178
132 152 179
133 153 180
132 151 177
133 153 180
133 153 180
133 153 180
132 152 178
133 153 180
134 154 180
132 152 178
132 152 178
133 153 180
134 154 181
132 152 178
133 153 180
134 153 179
134 153 179
131 151 177
134 154 180
134 153 179
133 152 178
134 154 181
133 153 179
133 154 181
134 153 179
133 154 181
134 153 179
133 153 179
134 154 180
133 153 179
133 153 179
133 153 180
133 153 180
133 153 180
134 153 179
133 153 180
133 153 179
133 154 181
133 153 180
133 153 180
133 152 179
133 153 179
134 154 181
134 153 179
134 154 180
134 154 181
133 153 179
133 154 181
133 154 181
133 153 180
133 154 181
133 154 181
133 153 179
134 154 181
133 154 181
134 154 180
134 154 180
133 154 181
133 153 180
132 152 179
134 154 181
132 152 178
134 154 180
134 154 181
134 154 181
133 154 181
133 154 181
134 154 181
133 154 181
133 154 181
133 153 180
133 154 181
134 154 181
133 153 179
134 154 181
135 154 180
134 154 181
133 154 181
134 154 181
133 154 181
133 154 181
133 154 181
135 155 181
133 153 180
134 154 181
133 154 181
134 154 181
134 154 180
134 154 181
134 154 181
133 154 181
133 154 181
134 154 181
133 154 181
133 154 181
134 154 181
134 154 181
133 154 181
134 154 181
134 154 181
134 154 181
134 154 181
135 155 181
134 154 181
135 155 181
134 154 181
134 154 181
135 155 181
134 154 181
134 154 181
134 154 181
133 153 180
134 154 181
133 154 181
134 154 181
134 154 181
133 154 181
134 154 181
134 154 181
133 154 181
134 154 181
134 154 181
133 154 181
134 154 181
134 154 181
134 154 181
133 154 181
133 154 181
134 154 181
135 155 181
134 154 181
134 154 181
134 154 181
133 154 181
134 154 180
134 154 181
134 154 181
134 154 181
135 155 181
134 154 180
133 154 181
133 154 181
134 154 180
134 154 181
134 154 181
133 154 180
134 154 181
133 154 181
133 154 181
134 154 181
133 154 181
132 153 181
134 155 181
134 154 181
134 154 181
133 154 181
134 154 181
134 154 181
134 154 181
133 154 181
134 154 181
133 154 181
133 154 181
134 154 181
134 154 181
134 154 180
134 154 181
134 154 181
133 154 181
133 154 181
134 154 181
134 154 181
134 154 181
133 154 181
134 154 181
134 154 181
134 154 181
134 154 181
133 154 181
134 154 181
133 154 180
134 154 181
134 154 181
135 155 181
134 154 181
133 154 181
134 154 181
133 154 181
133 154 181
134 154 181
134 154 181
134 154 180
134 154 181
134 154 181
133 154 180
135 155 181
133 153 180
134 154 181
133 154 181
133 154 180
134 154 181
133 154 181
134 154 181
134 154 181
133 154 180
133 153 180
134 154 181
134 154 181
133 154 180
132 153 180
134 154 180
134 154 181
134 154 181
133 153 179
134 154 181
133 154 181
133 154 180
134 154 181
134 154 181
133 154 181
133 153 180
132 153 180
133 153 180
134 154 180
134 155 181
133 154 180
134 154 181
133 154 180
133 153 180
133 154 180
133 154 180
132 152 179
134 154 181
133 154 181
134 154 181
134 154 181
133 153 179
133 154 180
133 153 180
133 153 180
134 154 181
134 154 181
131 151 179
131 152 179
132 153 180
133 154 180
134 154 180
133 154 181
133 153 180
133 153 180
132 152 180
131 151 179
132 153 180
132 153 179
133 153 180
132 152 180
133 153 180
133 153 180
132 153 180
132 152 179
133 153 180
133 154 180
131 151 178
131 151 178
133 153 180
131 151 178
133 153 180
132 152 179
132 152 180
131 151 178
131 152 179
133 153 180
132 152 179
132 152 179
133 154 181
132 152 179
132 152 178
132 152 180
130 150 177
132 152 179
132 153 180
132 151 179
133 153 180
132 152 179
131 151 179
129 148 176
129 149 177
131 151 179
130 150 177
130 150 178
133 153 179
131 150 178
131 151 179
130 150 178
132 152 179
130 151 178
133 153 180
129 148 177
130 150 179
131 150 178
131 152 179
132 153 180
131 151 179
132 152 180
130 150 177
129 149 178
129 149 177
131 150 178
132 152 179
130 150 179
131 151 178
131 151 178
130 151 178
127 147 176
132 152 179
132 152 179
132 153 180
132 153 179
132 153 180
131 151 179
132 151 179
132 153 180
130 150 178
129 150 177
131 151 179
130 150 176
130 151 179
130 150 177
130 150 178
132 153 180
132 152 179
132 153 180
133 153 179
132 152 179
132 152 179
130 151 179
132 153 180
133 154 181
131 152 178
131 152 180
131 152 179
131 151 178
131 151 179
134 154 180
134 154 181
132 152 179
133 154 181
133 154 180
131 152 179
133 153 180
132 152 179
134 154 180
134 154 181
134 154 181
132 153 180
131 152 178
133 153 180
134 154 180
133 153 179
132 152 179
133 153 180
133 153 180
131 152 178
133 154 181
133 153 179
132 152 179
132 152 179
133 151 177
133 153 180
133 153 180
132 152 179
133 153 179
134 154 181
133 153 179
132 153 180
133 154 181
132 153 180
133 152 179
133 153 180
133 153 180
133 153 180
134 154 181
133 153 179
132 153 179
133 152 178
133 153 179
134 154 181
133 153 179
133 154 181
134 154 180
132 152 179
132 152 179
132 153 179
134 153 179
133 153 180
133 152 178
133 154 180
133 153 179
133 152 178
132 152 179
133 153 179
133 153 179
134 152 178
134 154 180
133 154 181
134 154 181
133 153 179
134 154 180
133 153 179
133 153 178
134 154 180
133 154 181
133 153 179
133 152 179
132 153 179
134 154 180
134 154 180
133 154 181
133 154 181
134 153 179
133 154 181
132 153 179
134 154 180
133 154 181
132 151 178
134 154 181
133 153 180
134 154 180
133 153 179
133 153 180
132 151 178
133 152 179
134 154 181
134 154 181
133 153 179
133 153 180
134 154 181
134 154 180
134 154 180
133 153 179
134 154 181
133 153 180
133 153 180
134 154 180
134 154 180
134 154 181
134 153 179
133 154 181
134 154 181
133 153 180
133 154 181
133 153 180
134 154 180
133 154 181
134 154 181
134 153 179
134 154 180
133 154 181
134 154 181
133 154 181
135 155 181
133 153 180
134 154 181
133 154 181
133 153 180
134 154 181
134 153 179
133 154 181
134 154 181
133 154 181
134 154 181
133 154 181
133 154 181
134 154 181
134 154 181
134 154 180
134 154 181
134 154 181
134 154 180
133 154 181
133 154 181
134 154 180
133 154 181
133 153 180
133 153 180
133 154 181
134 154 181
133 154 181
133 154 181
133 154 181
134 154 181
134 154 181
133 154 180
134 154 180
133 154 181
134 154 181
134 154 181
135 155 181
134 154 181
134 154 181
133 154 181
134 154 181
133 154 181
133 153 180
133 154 181
133 154 181
133 154 181
134 154 181
134 154 181
134 154 181
133 153 180
133 154 181
134 154 181
133 154 180
133 153 180
133 154 181
134 154 181
134 154 181
133 153 180
134 154 181
132 153 181
134 154 181
134 154 181
134 154 181
133 154 181
135 155 181
133 154 180
134 154 181
134 154 181
134 154 181
133 154 181
134 154 181
133 154 181
134 154 181
133 154 181
134 154 180
133 154 180
133 154 181
133 154 181
134 154 181
134 154 181
134 154 181
133 154 181
134 154 181
134 154 181
134 154 181
133 153 180
134 154 181
135 155 181
133 154 181
135 155 181
134 154 180
134 154 181
134 154 181
133 154 181
134 154 181
134 154 180
134 154 181
134 154 181
134 154 181
133 154 181
135 155 181
134 154 181
134 154 181
134 154 181
133 154 181
134 154 181
134 155 181
134 154 181
134 154 181
134 154 181
134 154 181
133 154 181
133 154 181
134 154 181
134 154 181
134 154 181
134 154 181
134 154 181
135 155 181
135 155 181
135 155 181
134 154 181
133 154 181
134 154 181
134 154 181
134 154 181
133 153 180
134 154 181
134 155 181
134 154 181
134 154 181
134 154 181
134 154 181
133 153 180
134 154 181
135 155 181
134 154 181
135 155 181
133 153 180
133 154 181
133 154 181
134 154 181
133 154 181
134 154 180
133 154 180
133 153 180
133 154 181
133 154 181
133 154 180
133 153 180
134 154 181
134 154 181
133 154 180
134 154 181
134 154 180
133 154 180
134 155 181
133 154 181
133 154 180
132 153 180
134 154 181
133 154 181
133 153 180
133 153 180
132 153 180
134 154 180
133 154 181
133 154 181
134 155 181
134 154 181
134 154 181
133 154 180
133 154 180
133 154 180
132 152 179
133 153 180
133 153 180
133 154 180
133 153 180
132 153 180
134 154 181
134 154 180
134 154 181
133 154 180
132 152 179
134 154 180
133 154 181
134 154 181
132 152 179
133 154 180
133 154 181
134 154 181
132 152 180
132 153 180
133 153 180
132 153 180
132 151 178
131 152 179
132 152 179
133 153 180
131 151 179
133 153 180
132 152 179
133 153 180
133 153 180
133 153 180
132 153 179
131 151 178
133 153 180
134 154 181
134 154 180
132 153 180
133 153 180
131 151 179
132 153 180
133 153 180
133 152 179
130 150 178
131 152 179
133 153 180
134 154 180
132 152 179
131 151 178
133 153 180
131 151 179
131 151 179
130 151 179
133 153 180
134 154 180
131 152 179
133 153 179
133 153 180
131 151 179
132 153 180
131 152 179
131 151 178
131 151 179
133 153 180
131 152 179
132 153 180
131 150 178
131 152 179
131 151 179
131 152 179
132 151 178
131 150 178
131 151 178
132 152 179
131 152 179
132 153 180
130 150 178
133 153 180
129 149 177
130 151 179
132 153 180
133 152 179
131 151 179
132 152 179
132 152 179
130 151 178
133 153 180
133 153 180
132 153 180
131 152 179
132 152 179
133 154 181
133 154 181
132 153 180
133 153 179
132 152 180
133 153 180
133 153 180
132 152 179
133 153 179
132 152 179
132 153 180
132 153 180
132 152 178
133 153 180
132 152 179
133 153 180
132 153 180
133 153 180
132 153 179
132 152 179
133 153 180
132 152 179
131 151 178
133 153 180
133 153 180
134 153 179
131 151 178
133 154 180
133 152 178
132 153 180
133 154 180
132 152 179
132 152 179
133 153 180
133 153 180
134 154 181
133 152 179
134 154 180
133 152 178
133 154 180
133 153 179
134 154 180
133 154 180
131 151 179
133 153 179
133 154 180
133 153 180
133 153 179
132 153 180
133 153 180
133 153 179
133 153 180
134 153 179
133 154 180
134 154 181
133 153 179
133 153 180
134 154 180
133 153 180
133 153 179
132 152 179
133 152 179
133 153 179
133 154 181
133 153 179
133 154 181
133 152 178
133 153 180
134 153 179
132 153 180
133 153 180
134 154 180
133 153 180
133 153 180
133 153 179
133 153 180
134 154 180
134 154 181
133 153 180
135 154 179
132 152 179
133 153 180
133 154 181
133 153 179
133 153 180
134 154 180
133 153 180
133 153 180
133 153 179
133 153 179
133 152 178
134 154 181
133 153 179
133 154 181
133 153 179
133 153 179
133 152 178
133 154 181
133 153 179
132 152 178
133 154 180
134 154 181
133 153 180
134 154 181
133 153 180
133 154 180
133 153 179
133 154 180
134 153 179
133 153 180
134 154 181
134 154 180
134 154 181
135 154 180
133 153 180
133 154 181
134 154 181
133 154 180
134 154 181
133 153 179
134 154 181
133 154 181
134 154 181
134 154 181
134 154 181
133 154 181
134 154 181
134 154 181
134 154 181
134 154 180
134 154 181
133 154 181
133 153 180
134 153 179
133 154 181
133 154 180
133 154 181
134 154 181
134 154 180
133 153 180
133 154 181
134 154 181
133 154 181
133 154 181
134 154 181
133 154 181
134 154 181
134 154 181
134 154 181
134 154 181
133 153 180
134 154 180
132 153 181
133 154 181
134 154 181
133 154 180
133 154 181
134 154 181
133 153 180
133 154 180
134 154 181
133 154 181
134 154 181
134 154 181
134 154 181
134 154 181
133 154 181
134 154 181
134 154 181
134 154 180
133 154 181
133 154 181
134 154 181
134 154 181
133 154 181
134 154 181
133 154 180
133 154 181
133 154 181
133 154 181
133 154 181
134 154 181
133 154 181
134 154 181
133 154 180
133 154 181
134 154 180
133 153 180
134 154 181
134 154 181
134 154 180
133 154 181
133 154 181
134 154 181
134 154 181
134 154 180
134 154 181
134 154 181
134 154 181
134 154 181
133 154 181
134 154 181
133 154 180
133 154 181
133 153 180
133 154 181
133 154 181
134 154 181
133 154 181
134 154 181
134 154 181
134 154 181
134 154 181
133 153 180
133 154 181
133 154 181
133 154 181
134 154 181
133 154 181
134 154 181
134 154 181
134 154 181
134 154 181
133 154 181
134 155 181
135 155 181
134 154 181
134 154 181
134 154 181
133 154 181
133 154 181
134 154 181
134 155 181
133 154 181
134 154 181
134 154 181
135 155 181
134 154 181
133 154 181
134 154 181
134 154 181
133 154 181
133 154 181
134 155 181
134 154 181
133 154 181
133 154 181
134 155 181
134 154 181
133 154 181
133 154 180
133 154 181
134 154 181
134 154 181
134 154 181
133 154 181
134 154 181
135 155 181
133 154 181
134 154 181
134 154 181
134 154 181
134 154 181
134 154 181
134 154 181
134 154 181
133 154 181
135 155 181
133 154 181
133 154 181
134 154 181
133 154 181
133 153 180
133 154 181
133 154 181
133 154 181
134 154 181
133 154 180
133 154 180
135 155 181
133 153 179
133 153 180
134 154 181
134 154 181
133 153 180
132 153 180
134 154 181
132 153 181
134 154 181
134 154 181
134 154 181
133 154 181
134 154 180
133 154 180
134 154 181
134 154 181
133 154 181
134 154 181
134 154 181
135 155 181
134 154 181
134 154 180
134 154 180
134 154 180
133 154 180
133 154 180
134 154 181
134 154 181
134 154 181
133 153 180
133 154 180
133 154 180
133 154 181
132 153 180
134 154 181
134 154 181
133 153 180
133 153 180
134 155 181
133 153 180
134 154 180
133 154 181
133 154 181
134 154 181
134 154 180
133 154 181
133 154 181
134 154 180
132 153 180
132 152 180
133 153 180
132 152 179
133 153 180
133 154 181
133 153 180
133 154 181
132 153 179
132 152 179
131 151 179
133 153 179
133 154 181
132 152 179
132 153 180
133 153 180
132 152 179
131 152 179
133 154 180
131 151 179
133 153 180
132 152 179
132 153 180
131 151 179
130 150 178
132 152 179
131 152 180
133 153 180
134 153 180
132 152 180
132 152 179
130 150 177
130 150 178
133 153 180
131 151 178
132 152 179
131 152 179
133 153 179
132 152 179
133 153 180
131 151 178
133 153 180
132 152 179
131 151 179
132 152 179
130 150 178
132 152 178
132 152 180
132 152 179
130 150 178
130 150 178
132 152 179
133 153 180
131 152 179
131 152 179
131 151 179
132 152 180
133 153 180
131 151 179
132 152 179
131 151 179
132 153 179
132 152 179
130 150 178
132 153 180
133 152 179
133 153 180
132 153 180
132 152 179
132 153 180
132 152 179
133 153 179
133 153 180
134 154 181
131 151 178
131 152 179
131 151 179
132 152 178
132 152 178
134 154 181
132 153 180
131 151 178
132 153 180
132 153 179
132 153 180
133 153 180
132 152 178
133 153 180
133 153 180
132 152 179
133 153 180
133 153 180
133 153 180
131 151 178
132 153 179
132 152 179
133 153 179
133 152 179
134 154 181
133 153 179
133 154 181
135 155 181
134 154 180
133 153 180
132 151 178
133 153 180
133 153 180
134 154 180
133 153 179
133 153 180
133 153 179
133 153 180
133 154 180
132 152 179
133 154 180
133 154 181
134 153 180
133 153 180
134 154 180
133 153 179
132 153 180
134 154 181
135 154 180
132 153 180
133 153 178
133 153 180
134 154 180
133 154 181
134 154 180
134 154 181
134 153 179
133 153 180
133 154 181
134 154 181
134 153 179
133 154 181
134 152 178
133 154 180
134 154 180
133 154 180
133 153 179
133 153 180
133 154 180
134 154 180
133 153 180
134 154 181
134 154 180
134 154 181
134 154 181
134 154 180
133 153 179
134 154 180
133 154 181
133 154 180
134 154 181
134 154 180
134 154 180
134 154 180
133 153 179
133 151 177
134 154 181
133 153 180
134 154 180
134 154 181
134 154 181
133 154 180
133 153 180
134 154 181
133 152 179
134 154 181
133 154 181
134 154 181
132 153 179
133 154 180
133 153 180
134 154 181
133 154 181
134 154 180
133 154 181
134 153 179
134 154 181
134 154 180
133 154 181
133 154 181
134 154 181
134 154 181
133 152 179
133 154 181
134 154 180
133 153 180
134 154 180
134 154 181
133 153 180
133 154 181
134 154 181
133 153 180
133 154 181
133 153 179
134 154 180
134 154 181
133 154 180
133 154 181
134 154 181
133 154 181
132 153 180
133 154 181
134 154 181
133 153 179
134 154 180
134 154 181
134 154 181
134 154 181
133 154 181
134 154 181
134 154 180
134 154 181
134 154 181
134 154 181
133 153 180
133 154 181
134 154 181
134 154 181
134 154 181
133 154 181
134 154 181
134 154 181
134 154 181
134 153 179
133 154 180
134 154 181
133 154 181
134 154 181
134 154 181
134 154 181
134 154 181
135 154 180
134 154 181
134 154 181
134 154 181
134 154 181
134 154 181
133 153 180
134 154 180
134 154 181
134 154 181
134 154 181
134 154 181
134 154 181
134 154 180
134 154 181
134 154 181
134 154 181
134 154 181
134 154 181
134 154 181
135 155 181
135 155 181
133 154 181
134 154 181
134 154 181
134 154 181
134 154 181
133 154 181
134 154 181
134 154 181
134 154 181
133 154 181
134 154 181
133 154 181
133 154 181
134 154 180
134 154 181
133 154 181
134 154 181
134 154 180
134 154 181
134 154 181
134 154 181
134 154 180
134 154 181
134 154 181
134 154 181
134 154 181
134 154 181
133 154 180
134 154 181
133 154 181
133 154 181
134 154 181
133 154 181
134 155 181
134 154 181
135 155 181
134 154 181
133 154 181
133 154 181
133 154 181
135 155 181
134 154 181
133 154 181
132 153 180
134 154 181
134 154 181
134 154 181
133 154 181
133 154 181
133 154 181
134 154 181
135 155 181
134 154 181
134 154 181
134 154 181
133 154 181
134 154 181
134 154 181
134 154 181
133 154 181
134 154 181
134 154 181
135 155 181
134 154 181
134 154 181
134 155 181
134 154 180
134 154 181
134 154 181
134 154 181
134 154 181
134 154 181
133 154 181
135 155 181
133 154 180
133 154 181
134 154 181
134 154 180
135 155 181
134 154 181
134 154 181
133 154 181
134 155 181
134 154 181
135 155 181
133 154 181
133 154 181
134 154 181
134 154 181
133 154 181
133 154 181
134 154 181
134 154 181
134 154 181
134 154 181
134 154 181
133 154 181
134 154 181
134 154 181
134 154 181
133 154 181
134 154 181
134 154 181
134 154 181
132 153 180
133 154 181
134 154 181
134 154 181
133 154 180
133 154 180
135 154 180
134 154 181
133 153 180
133 153 180
133 154 180
134 154 181
134 154 181
134 154 181
134 154 181
134 154 180
133 154 181
133 154 181
133 154 181
134 154 180
134 154 181
134 154 181
134 154 181
133 154 181
133 153 179
132 153 180
133 154 180
134 154 181
134 154 181
134 154 181
133 154 180
133 153 180
132 152 179
134 154 181
133 153 180
132 152 179
132 153 179
133 153 180
134 154 180
133 153 180
133 154 180
132 153 179
133 153 180
133 154 180
132 152 180
132 152 179
132 152 180
133 154 180
133 154 181
133 154 180
134 154 180
133 153 179
133 153 180
132 152 180
131 152 179
133 153 180
133 153 180
131 152 179
132 152 179
132 153 180
133 153 180
131 151 178
130 151 178
132 152 179
134 154 180
132 152 180
132 153 180
132 152 179
131 151 179
133 153 180
132 152 180
132 153 180
131 152 179
132 152 179
129 149 176
131 152 179
132 152 179
132 152 180
131 152 179
131 152 179
130 150 179
133 153 179
132 153 180
133 153 180
133 153 180
132 153 180
132 152 179
133 153 180
133 153 180
132 153 180
133 153 180
131 151 179
132 153 180
131 151 179
132 152 179
133 152 180
132 152 178
132 152 179
131 151 178
132 152 179
133 154 181
131 151 179
132 152 179
131 152 180
133 153 180
133 153 179
132 153 179
133 153 180
131 151 179
132 152 179
132 152 179
132 152 179
131 151 178
133 154 181
131 152 179
132 152 179
133 153 180
133 153 180
132 152 179
133 153 180
134 153 180
132 153 180
133 154 181
134 154 180
132 153 180
131 151 178
133 153 180
132 153 179
133 153 180
132 152 179
133 153 180
132 152 178
132 152 178
131 152 180
135 154 180
134 153 180
133 153 179
134 154 180
133 153 180
133 154 180
132 153 180
133 153 179
134 153 179
131 151 177
132 152 179
133 153 180
134 154 180
133 153 180
133 153 179
133 154 181
133 153 180
133 154 181
133 154 180
134 154 180
134 154 180
132 153 180
134 154 180
134 153 180
134 153 180
133 153 180
133 153 179
134 154 180
134 154 181
133 152 178
133 153 180
132 152 179
133 153 179
133 153 179
132 153 180
132 153 180
133 153 179
133 153 180
134 154 181
133 153 180
133 154 181
133 153 180
133 153 180
133 153 180
133 151 177
133 153 180
132 153 179
134 153 179
132 152 178
133 153 179
132 152 178
132 151 178
134 154 181
132 153 180
133 154 181
131 150 177
133 153 180
134 154 180
133 152 179
134 154 180
134 154 180
133 153 179
133 152 178
134 154 180
134 154 181
133 154 181
134 154 180
133 154 181
133 153 180
133 153 180
134 154 181
134 154 181
133 154 181
133 153 179
134 154 180
133 153 179
133 153 180
134 154 180
132 153 180
133 154 181
134 153 179
134 154 181
134 154 181
134 153 179
134 154 180
134 154 180
134 154 181
134 154 181
133 154 181
134 154 180
133 154 181
134 154 181
134 154 181
133 153 179
133 154 181
133 153 179
134 154 180
133 154 181
133 153 180
132 152 179
134 154 181
134 154 181
133 154 181
134 154 181
133 154 181
134 154 181
134 154 181
134 154 181
133 153 179
134 154 181
134 154 181
133 154 181
134 154 181
134 154 181
134 154 181
134 154 181
134 154 181
133 154 181
134 154 181
134 154 180
134 154 181
134 154 181
133 154 181
133 154 181
133 154 181
134 154 181
134 154 181
133 154 181
133 154 181
133 153 179
133 154 181
134 154 181
134 154 181
133 153 180
135 155 181
134 154 181
134 154 181
133 154 181
134 154 181
133 154 180
133 154 181
133 153 180
134 154 181
134 154 181
133 154 181
134 154 181
134 154 180
133 154 181
135 155 181
134 154 181
134 154 181
134 154 181
134 154 181
133 154 181
134 154 180
133 154 181
134 154 181
134 154 180
134 154 180
133 154 181
133 154 181
133 154 180
133 154 181
133 154 181
135 155 181
134 154 181
134 154 181
134 154 181
134 154 181
135 155 181
133 154 181
133 154 181
134 154 181
134 154 181
133 154 181
132 153 180
133 154 181
134 154 181
133 154 180
134 154 181
134 154 181
133 154 181
134 154 181
134 154 181
134 155 181
134 154 181
134 154 181
134 154 180
133 154 181
133 154 181
133 154 181
134 154 181
133 154 181
133 154 181
133 154 180
135 155 181
134 154 181
133 154 181
134 154 181
134 154 181
133 154 181
133 154 181
133 154 181
134 154 181
133 154 181
134 154 181
134 154 181
134 154 181
135 155 181
134 154 181
133 154 181
133 154 181
135 155 181
134 154 181
134 154 181
134 154 181
133 154 181
134 154 181
134 154 181
134 154 181
134 154 181
134 154 181
133 154 181
134 154 181
133 154 181
134 154 181
134 154 181
134 154 181
133 154 181
134 154 181
134 154 181
135 155 181
133 154 181
134 154 181
133 153 180
134 154 181
134 154 181
134 155 181
134 154 181
134 154 181
134 154 181
133 154 181
134 154 181
135 155 181
134 154 181
133 154 181
134 154 181
134 154 181
133 154 181
134 154 181
134 154 181
134 154 181
133 154 181
133 154 180
134 155 181
134 154 181
134 154 181
133 154 180
134 154 181
134 154 181
134 154 181
134 154 181
133 154 181
133 154 180
134 154 181
134 154 180
134 154 180
134 154 181
134 154 180
133 154 181
133 154 181
133 154 180
133 154 181
134 154 180
134 154 181
134 154 181
133 154 181
133 153 180
133 154 181
133 154 180
134 154 181
133 154 180
135 155 181
134 154 181
134 154 181
133 154 181
132 153 179
133 153 180
132 153 180
133 154 181
134 154 181
133 154 181
133 153 180
133 154 181
133 153 180
134 154 180
134 154 181
134 154 181
133 153 180
134 154 180
133 153 180
133 154 180
134 154 181
133 154 181
133 153 180
132 153 180
133 153 180
133 154 181
134 154 181
133 153 180
132 153 180
133 153 180
134 154 180
131 152 179
134 154 180
133 153 180
132 152 179
133 154 180
133 154 180
131 151 178
133 154 180
133 153 180
132 153 180
132 152 180
133 153 180
132 152 180
132 153 180
134 154 181
133 153 180
132 152 179
133 153 180
131 151 179
134 154 180
131 152 179
133 154 181
132 153 179
133 154 180
132 152 179
130 150 178
133 152 179
132 152 179
133 153 180
133 153 180
131 152 179
131 152 179
133 153 180
132 153 180
134 154 180
132 152 180
133 154 180
132 153 179
132 153 180
133 154 181
133 153 179
133 153 180
132 152 179
131 152 179
131 151 178
131 152 180
131 151 178
133 154 180
132 153 179
133 153 180
132 153 180
132 152 179
133 153 180
132 153 180
133 154 181
133 153 179
131 151 178
133 154 180
133 153 180
132 153 179
131 151 178
133 153 180
133 153 180
131 151 178
133 153 180
132 152 179
133 153 180
132 152 179
133 153 180
133 153 180
133 153 180
132 153 180
132 153 180
133 153 180
132 151 179
133 154 180
132 153 180
132 152 179
133 153 180
132 153 180
132 152 180
133 154 180
133 153 180
134 154 180
132 152 179
133 153 179
133 154 180
133 153 179
134 154 180
133 154 181
133 154 181
133 154 181
133 152 179
133 153 180
133 154 180
133 154 180
134 154 181
133 152 179
133 154 180
134 153 178
134 154 181
132 152 179
132 152 180
134 154 180
134 153 180
133 154 181
134 154 181
134 154 181
133 153 180
134 154 181
133 153 180
133 153 180
133 154 181
133 153 180
133 152 179
133 154 180
133 152 179
133 153 180
133 154 181
134 154 181
133 154 181
133 153 180
134 154 181
133 153 179
133 153 179
135 154 180
133 154 180
133 153 179
134 154 180
133 153 180
134 154 180
133 153 180
133 153 180
134 154 180
134 154 181
133 154 181
134 154 181
133 154 181
134 154 180
134 154 181
133 154 180
133 153 179
132 151 177
134 154 180
132 153 180
132 153 180
134 154 181
134 154 180
133 154 180
134 154 181
133 153 179
133 154 180
133 153 179
133 152 178
134 154 181
134 153 179
133 153 179
132 153 180
134 154 180
134 154 180
134 154 181
132 153 180
133 154 181
134 155 181
133 153 179
133 154 180
134 155 181
133 154 181
133 154 181
133 154 181
133 153 180
133 153 179
134 154 180
133 153 179
133 154 181
134 154 181
133 154 181
133 154 181
134 154 180
132 153 180
134 154 181
133 154 181
134 154 181
134 153 179
134 154 181
134 154 181
134 154 180
133 154 181
134 154 181
134 154 180
133 154 181
134 154 180
134 154 181
133 153 180
133 154 181
134 154 181
134 154 180
133 154 181
134 154 181
133 153 180
133 154 181
133 154 181
133 154 181
134 154 180
134 154 181
133 153 180
133 154 181
134 154 181
134 154 181
132 153 179
133 154 181
134 155 181
134 154 181
133 154 181
134 154 180
133 154 181
134 154 181
134 154 181
134 154 181
134 154 181
132 153 180
134 154 181
134 154 181
135 155 181
134 154 180
134 154 181
134 154 181
133 154 181
134 155 181
134 154 181
134 154 181
133 153 180
134 154 181
134 154 181
134 154 181
134 154 181
134 154 181
133 153 180
134 154 181
133 153 180
134 154 181
133 154 181
133 154 181
134 154 181
134 154 181
134 154 181
133 154 181
134 154 181
134 154 181
134 154 181
134 154 181
134 154 181
133 154 181
134 154 181
134 154 181
134 154 181
134 154 181
134 154 181
134 154 181
134 154 181
134 154 181
134 154 181
133 154 181
133 154 181
134 154 181
134 154 181
133 154 181
134 154 181
135 155 181
134 154 181
134 154 181
134 154 181
134 154 181
135 155 181
134 154 181
134 154 181
134 154 181
134 154 181
133 154 181
134 154 181
133 154 181
134 154 181
134 154 181
133 154 181
136 155 181
134 154 181
134 154 181
133 154 181
134 154 181
133 154 181
133 154 181
133 154 181
134 154 181
133 154 181
133 154 181
134 154 181
134 154 181
134 154 181
134 154 181
134 154 181
133 154 181
134 154 181
134 154 181
135 155 181
134 154 181
134 154 181
134 154 181
133 154 181
134 154 181
133 154 181
135 155 181
133 154 180
133 154 181
134 154 181
134 154 181
134 154 180
134 154 181
133 154 181
134 154 181
133 154 181
133 154 181
134 154 181
134 154 181
134 154 181
133 154 181
134 154 181
133 154 181
134 154 181
134 154 181
132 153 180
133 154 180
133 154 181
133 154 181
133 154 181
133 154 181
134 154 181
132 153 180
133 154 181
134 154 181
133 154 181
133 153 180
134 154 181
134 154 181
134 154 181
134 154 181
133 154 180
135 155 181
134 154 181
133 154 181
134 154 181
133 154 181
133 154 181
134 154 181
133 153 180
133 154 181
133 154 181
134 154 180
134 154 181
134 154 181
133 153 180
133 153 180
134 154 181
135 155 181
133 154 181
133 153 180
133 154 180
133 153 180
134 154 181
134 154 181
133 154 181
132 153 179
134 154 181
133 154 181
134 154 181
134 154 180
132 153 180
134 154 181
134 154 181
133 154 181
133 154 180
133 154 180
132 153 180
133 154 181
133 154 180
133 154 181
134 154 181
134 154 180
133 154 181
133 154 181
134 154 181
134 154 180
133 153 180
132 153 180
134 154 181
134 154 181
133 153 180
134 154 181
132 152 180
134 154 181
134 154 180
134 154 180
133 153 180
132 153 180
133 153 180
132 153 180
133 153 180
133 153 180
132 153 180
133 154 181
133 153 180
133 154 181
132 152 179
134 154 180
132 152 179
134 154 180
134 154 181
134 154 180
132 152 180
134 154 180
132 153 180
132 153 180
133 153 180
132 152 179
132 152 180
132 152 179
133 153 179
132 153 179
134 154 180
133 153 180
133 154 181
132 152 179
131 151 178
134 154 181
132 152 179
131 151 178
133 153 180
133 152 179
133 153 180
130 151 179
132 152 179
132 151 179
133 153 180
132 152 180
133 153 180
132 152 179
132 152 180
133 154 180
131 152 179
132 152 179
132 152 179
131 151 178
130 150 178
133 153 179
133 153 180
133 153 180
133 153 180
133 154 180
133 153 180
133 153 180
132 152 179
133 153 180
133 153 180
131 152 180
133 153 179
134 154 181
134 154 180
133 154 180
132 153 180
134 154 180
132 153 180
133 154 180
132 153 180
133 153 180
132 153 179
134 154 181
133 154 180
132 153 180
133 153 180
134 154 181
133 154 181
133 153 180
132 153 179
132 153 180
133 153 180
133 153 180
134 154 181
133 154 180
134 154 180
133 153 180
133 153 180
133 154 180
132 153 180
134 154 180
132 153 179
134 154 180
132 153 180
134 154 180
133 153 180
133 153 180
133 154 181
135 154 180
133 154 180
133 154 181
134 154 181
133 154 180
134 154 180
134 154 181
133 153 180
134 154 180
133 153 180
134 154 180
133 154 180
133 154 181
133 153 180
135 155 181
134 154 181
134 154 180
133 154 181
133 154 180
133 154 180
133 153 180
133 152 178
134 154 180
132 153 180
133 153 180
133 153 179
133 153 179
133 154 181
133 152 178
134 154 181
133 153 179
134 154 181
132 152 178
133 152 178
133 154 181
134 154 180
133 152 178
134 154 180
133 152 178
132 153 180
133 153 180
134 154 181
133 153 178
134 154 181
134 154 180
133 152 179
134 154 181
133 153 180
134 154 181
133 152 178
132 153 180
134 154 181
133 153 179
134 153 179
134 154 181
133 153 179
134 154 181
134 153 179
134 154 181
133 154 180
134 154 180
133 153 179
133 153 180
134 154 181
134 154 181
134 154 181
134 154 181
133 154 181
133 154 180
134 154 180
134 153 179
133 154 181
134 154 181
134 154 181
133 153 180
134 154 181
133 154 181
134 154 180
133 154 181
134 154 181
133 154 180
134 153 179
134 153 179
134 154 180
134 153 179
134 154 181
134 154 180
134 154 180
134 154 180
133 153 180
133 153 180
133 154 181
133 154 181
133 154 181
134 154 180
134 154 180
133 154 181
133 154 181
134 154 181
133 153 180
134 154 181
134 154 181
133 154 181
133 154 181
135 155 181
134 154 181
134 154 181
133 154 180
134 154 181
134 154 181
134 154 181
133 154 181
133 154 181
133 153 179
134 155 181
133 154 181
133 153 180
133 154 181
133 154 181
134 154 181
133 154 181
133 153 180
133 154 180
134 154 181
134 154 181
134 154 181
134 154 181
133 154 181
133 154 181
134 154 180
133 154 181
133 153 180
134 154 181
134 154 181
134 154 181
134 154 181
133 154 181
135 155 181
134 154 181
134 154 181
134 154 181
134 154 181
134 154 181
134 154 181
135 155 181
132 153 180
134 154 180
134 154 181
133 154 181
134 154 181
134 154 181
133 154 181
133 154 181
134 154 181
134 154 181
134 154 181
134 154 181
134 154 181
134 154 181
134 154 181
134 154 181
134 154 180
134 154 181
135 155 181
133 154 181
133 154 181
134 155 181
134 154 181
134 154 181
135 155 181
133 154 181
133 154 181
133 154 181
133 154 181
134 154 181
134 154 181
133 154 181
133 154 181
133 154 180
133 154 181
133 154 181
133 154 181
133 154 181
134 154 181
134 154 181
133 154 181
134 154 180
134 155 181
134 154 181
134 154 181
135 155 181
133 154 181
135 155 181
134 154 180
134 154 181
134 154 181
134 154 181
133 154 181
134 154 181
133 154 181
134 154 181
134 154 180
134 154 181
134 154 181
135 155 181
134 154 181
133 154 181
134 154 181
133 154 181
133 154 181
133 154 180
134 154 181
134 154 180
134 154 181
134 154 181
133 154 181
133 154 180
133 154 180
134 154 181
133 154 181
133 154 181
134 154 181
133 153 180
135 155 181
133 154 181
133 153 180
134 154 181
134 154 181
134 154 181
134 154 181
134 154 181
133 154 181
134 154 181
134 154 181
133 154 181
134 154 181
134 154 180
132 153 181
133 154 181
133 153 180
134 154 181
134 154 181
135 155 181
134 154 181
133 154 181
134 154 180
133 154 181
134 154 181
133 154 181
133 154 181
133 154 181
133 154 181
133 154 181
134 154 181
133 154 181
135 155 181
133 154 181
134 154 180
134 154 181
133 154 181
133 153 180
133 154 180
134 154 181
134 154 181
133 154 180
133 154 181
134 154 181
133 153 180
133 154 181
133 153 180
134 154 181
134 154 181
133 153 180
132 153 180
133 153 180
134 154 180
134 154 180
133 154 181
133 154 181
133 153 180
133 153 179
132 153 180
133 154 181
134 154 181
133 153 179
133 153 180
133 154 180
133 154 181
134 154 180
134 154 180
133 153 180
132 153 180
133 154 180
134 154 181
133 153 180
134 154 180
134 154 180
133 153 180
134 154 180
133 153 180
134 154 181
132 153 180
132 152 179
134 154 181
134 154 181
132 152 179
133 154 180
133 154 180
133 152 179
133 153 180
132 152 179
133 154 180
131 152 179
134 154 180
133 153 180
133 153 179
133 153 180
133 154 181
133 154 181
133 153 179
133 153 180
133 153 180
132 153 180
132 153 180
132 153 179
134 154 181
133 153 179
134 153 180
133 153 180
133 153 179
132 153 179
133 153 180
133 153 180
132 153 180
132 152 179
132 152 179
133 154 180
134 154 181
135 155 181
133 153 180
133 153 180
132 153 180
134 153 179
132 152 179
133 153 180
133 153 180
132 153 180
132 152 179
133 154 180
132 152 179
132 153 179
133 153 180
133 153 180
134 154 180
132 152 179
132 153 180
133 153 179
132 152 180
134 154 181
133 153 180
133 152 179
133 154 181
134 154 180
132 153 180
132 153 180
133 153 180
133 153 180
133 154 180
134 154 180
133 153 180
133 153 180
134 154 181
133 153 180
133 154 180
133 153 180
132 153 179
132 152 179
132 152 179
133 153 180
133 154 181
133 153 180
133 154 181
133 154 180
133 153 179
133 153 180
132 152 179
134 154 181
133 154 181
133 153 180
132 152 179
133 153 179
134 154 180
133 154 181
134 154 181
134 154 181
133 153 179
132 153 180
134 154 181
132 152 180
134 154 181
132 153 180
133 154 180
134 155 181
133 154 181
133 153 180
133 153 180
134 154 181
133 154 181
133 154 180
133 153 180
133 153 180
134 154 181
133 153 180
134 154 181
134 154 181
132 153 179
133 153 180
134 154 180
132 152 179
133 153 180
134 154 181
134 154 181
133 152 178
134 154 181
133 153 180
134 154 181
134 153 179
134 154 181
133 154 181
133 154 181
133 154 181
133 153 179
133 153 180
133 154 181
133 154 181
134 154 180
134 154 181
134 154 181
133 153 180
133 154 181
134 154 181
133 154 181
135 154 180
134 153 179
132 152 178
133 153 179
133 153 179
133 154 181
134 154 181
133 154 181
134 154 180
133 154 181
134 153 179
134 154 180
134 154 180
134 155 181
133 153 180
134 154 181
134 154 181
133 154 181
133 152 178
133 153 179
132 153 180
133 154 181
134 154 181
134 154 180
134 154 180
135 155 181
134 154 181
133 153 180
133 154 181
134 154 181
133 154 181
134 154 180
134 154 181
133 154 181
133 154 181
133 154 181
133 154 180
134 154 181
134 154 180
134 154 181
134 154 180
134 153 179
133 153 180
134 154 181
134 154 180
133 154 181
133 154 181
133 154 181
134 155 181
133 153 180
133 153 180
135 155 181
133 153 179
134 154 181
134 154 181
134 154 181
134 154 181
134 154 181
134 154 180
134 154 181
134 154 181
133 154 181
132 153 180
134 154 181
134 154 181
134 154 181
134 154 181
133 154 181
133 153 180
134 154 181
134 154 181
133 154 181
134 154 181
133 154 180
134 154 181
133 153 180
134 154 181
134 154 181
133 154 181
134 154 181
133 154 181
135 155 181
133 154 181
133 154 181
134 154 181
134 154 180
134 154 181
134 154 181
133 154 181
134 154 181
134 154 181
133 154 181
135 155 181
134 154 181
134 154 181
134 154 181
133 154 181
134 154 181
134 154 181
132 153 181
134 154 181
134 154 181
134 154 181
133 154 181
134 154 181
134 154 181
134 154 181
133 154 181
133 154 181
134 154 181
134 154 180
134 154 181
133 154 181
134 154 181
134 154 181
134 154 181
133 154 181
133 153 180
134 154 180
133 154 181
134 154 181
133 154 181
135 155 181
134 154 181
133 154 181
134 154 180
134 154 180
134 154 181
134 155 181
134 154 181
133 154 181
134 154 181
134 154 181
134 154 181
134 154 181
134 154 181
133 154 181
134 154 181
134 154 181
134 154 181
134 154 181
134 154 181
134 154 181
133 154 181
134 154 181
134 154 181
134 154 181
134 154 181
133 154 181
134 154 181
134 154 180
134 154 181
134 154 181
134 154 181
134 154 181
134 154 181
134 154 181
134 154 181
135 155 181
134 154 181
133 154 181
134 154 181
133 154 181
134 154 181
133 154 181
134 154 181
134 154 181
135 155 181
132 153 180
134 154 180
134 154 181
133 154 181
134 154 181
134 154 181
133 154 181
132 153 180
134 154 181
134 154 181
133 154 181
134 155 181
134 154 181
134 154 181
133 154 180
134 154 181
134 154 181
134 155 181
133 154 181
134 154 180
133 154 181
134 154 181
133 154 180
133 154 181
134 154 181
133 154 181
134 154 181
133 154 180
133 154 181
133 154 180
133 153 180
134 154 180
133 154 181
134 154 181
135 155 181
134 154 181
134 154 181
132 153 181
133 154 181
133 154 181
134 154 181
133 154 180
134 154 181
134 154 181
133 154 181
133 154 181
134 154 181
134 154 181
134 154 181
133 154 181
133 154 181
134 154 181
132 153 179
134 154 181
134 155 181
133 153 180
134 154 180
134 154 180
133 154 180
134 154 181
134 154 181
132 153 180
133 154 181
133 154 181
133 154 181
133 154 181
133 154 181
133 154 181
133 154 181
133 154 181
134 154 180
134 154 181
134 154 181
134 154 181
133 154 181
133 154 181
134 154 181
134 154 180
134 154 181
133 154 181
133 154 180
132 153 180
133 154 181
132 153 180
135 154 180
133 153 180
133 153 180
133 154 180
133 154 180
132 152 179
133 154 180
131 152 180
133 154 181
133 154 181
134 154 181
134 154 181
133 153 180
133 153 180
133 153 180
133 153 179
133 153 180
134 154 180
133 153 180
133 153 180
133 154 181
134 153 179
132 152 180
133 154 181
133 154 180
133 153 180
132 153 180
132 153 179
132 152 180
133 153 180
133 153 180
132 152 179
131 151 179
133 154 181
132 152 179
132 153 180
132 152 179
131 152 179
133 153 180
132 153 179
133 154 181
134 154 181
133 153 180
133 154 180
133 153 180
134 154 180
133 153 180
132 152 179
133 154 180
133 154 181
133 153 180
130 150 177
132 152 180
134 154 181
131 151 179
131 152 179
133 154 180
133 153 180
133 153 180
133 153 180
133 154 181
133 154 180
133 153 180
133 154 181
133 154 181
133 153 180
133 153 180
133 153 180
132 152 178
132 152 179
134 154 180
133 152 179
134 154 180
133 153 180
134 154 181
134 154 180
133 153 180
133 153 179
133 153 179
133 153 180
133 154 180
133 153 180
132 153 179
133 153 180
133 154 181
134 154 181
132 153 180
132 152 179
135 155 181
133 154 181
135 154 180
132 153 180
133 153 180
134 154 180
133 153 180
132 153 180
133 153 180
133 153 180
133 154 181
133 154 180
134 154 181
134 154 181
133 153 180
134 154 181
133 154 181
133 153 180
134 154 180
133 154 180
131 151 178
134 154 181
133 153 180
134 154 181
134 154 181
134 154 180
133 153 180
133 153 180
133 153 180
134 154 181
132 153 179
133 153 180
134 154 180
134 154 181
133 154 180
133 154 181
133 154 181
134 154 181
133 153 180
133 153 180
133 154 181
133 154 181
134 154 181
134 154 181
133 154 181
133 153 180
133 154 180
134 154 181
134 154 181
134 154 180
132 152 180
134 154 181
133 153 180
134 154 181
133 154 180
133 153 180
134 154 181
134 154 180
133 154 181
134 155 181
133 154 181
133 152 178
134 154 181
134 153 179
135 155 181
133 153 180
132 153 180
133 154 181
133 153 180
133 153 179
134 154 181
133 153 180
133 153 179
134 154 180
133 153 179
134 154 181
133 153 180
135 155 181
134 153 179
134 154 181
133 153 179
133 153 180
133 153 180
134 154 181
133 154 181
133 154 181
134 154 181
133 153 180
134 154 181
132 153 180
133 153 179
134 154 180
134 154 181
133 154 181
134 153 179
134 154 181
133 153 180
133 154 181
134 154 181
134 154 181
133 154 181
134 154 181
134 154 180
133 154 181
133 153 180
133 154 181
133 154 181
133 154 181
135 155 181
133 154 180
133 153 180
133 154 181
133 154 181
133 153 179
136 155 181
133 154 181
134 154 181
134 154 181
133 154 181
134 154 181
133 153 180
133 154 181
134 154 180
134 154 181
134 154 181
134 154 181
133 153 180
134 154 181
134 154 181
133 154 181
133 154 181
134 154 180
134 154 181
134 154 181
134 154 181
134 154 181
134 154 181
133 154 181
133 153 180
133 154 181
135 155 181
135 155 181
133 154 181
133 154 181
134 154 181
133 154 181
134 154 181
134 154 181
134 154 181
134 155 181
133 154 181
134 154 181
134 154 181
134 154 181
134 154 181
134 154 181
133 153 180
134 154 181
134 154 181
134 154 181
133 154 181
133 154 181
133 154 181
134 154 181
133 154 181
134 154 181
133 154 181
133 154 181
134 155 181
134 154 181
133 154 181
134 154 181
133 154 181
133 154 181
134 154 181
134 154 181
134 154 181
134 154 181
133 154 181
133 154 181
133 154 181
134 154 181
133 154 181
134 154 181
134 154 181
133 154 181
134 154 181
134 154 181
133 154 181
133 154 181
134 154 181
133 153 180
134 154 181
133 154 181
134 154 181
133 154 181
135 155 181
133 154 181
133 154 181
134 154 181
134 154 181
133 154 181
134 154 180
134 154 181
134 155 181
133 154 180
135 155 181
133 154 181
133 154 181
133 154 180
134 154 181
135 155 181
134 154 181
133 154 181
134 154 181
134 154 181
133 154 181
134 154 181
134 154 180
133 154 181
134 154 181
134 154 181
133 154 181
134 154 181
134 154 181
134 154 181
134 154 181
134 154 181
134 154 181
134 154 181
134 154 181
133 154 181
134 154 180
133 154 180
134 154 181
133 154 181
135 155 181
133 154 181
134 154 181
133 154 181
134 154 181
133 154 181
134 154 180
133 154 181
134 154 181
135 155 181
134 154 181
134 154 181
133 154 181
135 155 181
133 154 181
133 154 181
133 154 181
132 154 181
134 154 181
134 154 181
133 154 181
135 155 181
134 154 180
134 154 181
134 154 181
134 154 181
134 154 181
133 154 181
135 155 181
134 154 181
134 154 181
133 154 181
134 154 181
134 155 181
134 154 181
134 154 181
134 154 181
133 153 180
134 154 181
133 153 180
134 154 181
134 154 181
134 154 181
134 154 181
134 154 180
134 154 181
134 154 181
134 154 181
133 154 181
133 154 180
134 154 180
133 154 181
134 154 181
133 154 181
134 154 181
133 154 181
133 153 180
134 154 180
133 154 180
134 154 181
134 154 180
134 154 181
134 154 181
133 153 180
134 154 181
134 154 180
132 153 180
133 153 180
134 154 180
133 154 180
133 153 180
134 154 181
134 154 181
134 154 181
133 153 180
133 153 179
133 154 180
134 154 181
133 153 180
133 154 181
133 153 180
134 154 180
133 154 180
134 154 180
133 153 180
132 153 180
133 154 180
133 154 181
133 153 180
134 154 180
132 153 179
132 153 180
133 153 180
133 153 180
133 153 180
132 153 180
133 154 181
134 153 180
134 154 181
133 153 180
133 153 179
133 153 180
134 154 181
131 151 179
133 153 179
134 154 181
132 152 179
133 153 180
133 153 180
134 154 181
133 154 181
133 153 180
133 154 181
132 153 180
133 154 180
133 153 180
132 153 180
133 154 180
133 153 179
133 154 181
134 154 181
132 152 179
132 152 179
133 153 180
132 152 179
133 154 181
132 153 180
133 154 180
132 153 180
134 154 180
132 152 179
132 153 180
133 153 180
133 154 181
134 154 180
132 152 180
134 154 181
133 154 180
133 154 181
134 154 181
134 154 181
133 154 181
133 154 180
133 154 180
133 153 179
133 153 180
134 154 181
133 153 180
134 154 181
133 154 180
133 154 180
134 154 181
134 154 180
133 154 181
134 154 180
133 153 179
134 154 181
133 153 180
130 151 178
134 154 181
133 153 179
133 153 179
133 154 181
133 153 180
133 154 181
133 154 180
134 154 180
133 153 180
133 154 181
132 153 179
134 154 181
133 153 179
134 154 181
133 154 181
133 153 180
132 153 180
133 154 180
134 154 181
132 153 180
133 153 179
133 154 181
133 154 181
134 154 181
133 153 180
134 154 180
133 154 181
134 154 181
133 153 180
133 154 181
133 153 180
133 154 181
133 153 180
135 155 181
134 154 181
134 154 181
133 154 181
133 154 181
134 155 181
134 154 180
134 154 181
134 154 181
134 153 179
133 154 181
132 152 179
132 153 181
133 154 181
134 153 179
134 154 181
133 153 179
135 155 181
133 153 180
133 154 181
133 153 180
134 154 181
134 154 181
134 154 181
134 154 180
133 154 181
134 154 181
134 154 180
134 154 181
133 153 179
134 154 181
134 154 181
133 153 180
134 154 180
134 154 179
133 153 179
134 154 181
133 154 180
133 154 181
133 154 181
133 153 180
133 154 181
134 154 181
133 154 181
133 153 180
133 154 181
134 154 181
132 153 181
133 153 180
134 154 181
134 154 181
134 154 180
134 153 179
135 155 181
134 154 181
134 154 181
134 154 180
133 154 181
134 154 181
134 154 181
133 154 181
134 154 181
134 154 181
134 154 181
134 154 181
133 153 180
135 155 181
134 154 181
133 154 181
134 154 181
134 154 181
133 154 181
134 154 181
134 154 181
133 154 181
134 154 181
133 153 180
134 154 181
133 153 180
134 154 181
133 153 178
133 153 180
134 154 181
134 154 181
133 154 181
134 154 181
134 154 181
134 154 181
134 154 181
134 154 181
134 154 181
134 154 181
134 154 180
135 155 181
134 154 181
134 154 181
134 154 181
134 155 181
134 154 181
133 154 181
134 154 181
133 154 181
134 154 181
134 154 181
134 154 180
134 154 181
134 154 181
134 154 181
135 155 181
133 153 180
134 154 181
135 155 181
133 154 181
134 154 181
133 154 181
134 154 181
134 154 181
133 154 181
134 154 181
134 154 181
134 154 181
134 154 181
134 155 181
133 154 181
134 154 181
134 154 181
133 154 181
134 154 181
134 154 181
134 154 181
133 153 180
134 154 181
133 153 180
133 154 181
134 154 181
133 154 181
134 154 181
134 154 181
133 154 181
134 154 181
133 154 181
134 154 181
133 154 181
134 154 181
133 154 181
134 154 181
134 154 181
134 154 181
134 154 181
133 154 181
133 154 181
134 154 181
134 154 181
133 154 181
133 154 181
134 154 181
134 154 181
134 154 181
134 154 181
134 154 181
134 154 181
134 154 181
134 154 181
134 154 181
134 154 181
134 154 181
133 154 181
134 154 181
133 154 181
133 154 181
135 155 181
134 154 181
134 154 181
133 154 181
133 154 181
134 154 181
133 154 181
134 154 180
134 154 181
134 154 181
133 154 181
134 155 181
133 154 181
134 154 181
133 154 181
135 155 181
134 154 181
133 154 181
133 154 181
134 154 181
134 154 181
134 154 181
134 154 181
133 154 181
134 154 181
134 154 181
134 154 181
134 154 181
134 154 181
134 154 181
135 155 181
132 153 181
133 154 181
134 155 181
134 154 181
134 154 181
134 154 181
135 155 181
133 154 181
133 154 181
134 154 181
134 154 181
134 154 181
134 154 181
134 154 181
133 153 180
133 154 181
134 154 180
134 154 181
134 154 181
134 154 181
133 154 181
134 154 181
134 154 181
133 154 181
134 154 181
135 155 181
134 154 181
133 154 181
133 154 181
133 154 181
133 154 181
134 154 181
134 154 181
133 154 181
133 154 181
134 154 180
134 154 181
133 153 180
133 154 181
133 154 180
134 154 180
134 154 181
134 154 181
134 154 181
133 154 181
134 154 181
134 154 181
133 153 180
134 154 180
134 154 181
133 154 181
134 154 181
133 154 181
133 154 180
134 154 181
133 154 181
133 154 181
133 154 181
133 153 180
133 154 181
132 153 180
133 154 180
134 154 180
134 154 181
133 153 180
134 154 181
133 154 181
134 154 181
134 154 181
133 154 181
134 154 181
134 154 181
133 153 180
134 154 181
134 154 180
132 153 180
134 154 180
133 154 180
134 154 180
134 154 181
133 153 180
133 154 181
133 154 181
134 154 180
132 153 180
134 154 181
133 154 181
135 155 181
133 153 180
132 152 179
133 153 180
133 154 181
133 154 180
131 151 178
133 153 180
133 154 181
132 153 180
132 153 179
133 153 180
134 154 181
134 154 180
133 154 180
133 153 180
134 154 181
132 153 180
133 154 181
132 153 179
133 153 180
133 153 180
134 154 180
134 154 180
134 154 181
133 153 180
133 154 180
134 154 180
133 154 181
133 153 180
133 154 181
133 153 180
133 153 180
133 153 180
133 154 181
132 153 180
133 153 180
134 154 181
133 153 180
133 153 180
132 153 180
133 154 180
133 153 180
132 153 180
133 154 181
133 153 180
133 154 181
132 152 180
132 153 180
134 154 181
133 154 181
133 154 180
133 154 180
134 154 181
133 153 180
134 154 180
133 153 179
132 152 179
133 154 180
133 153 180
133 154 180
131 152 179
132 153 180
133 153 180
133 153 179
132 153 180
132 153 180
133 153 180
134 154 180
133 154 180
133 152 179
133 154 180
132 153 180
133 153 180
133 154 181
133 153 180
132 153 179
133 154 181
134 153 179
134 154 181
134 154 181
134 153 180
134 154 181
134 154 181
133 153 180
133 154 180
134 154 180
133 153 180
133 153 179
132 153 180
134 154 180
134 154 181
133 153 180
133 154 181
133 153 180
134 154 181
134 154 180
133 154 180
134 154 180
133 153 180
134 154 181
134 154 181
133 153 180
135 155 181
134 154 180
133 154 180
135 154 180
134 154 181
132 151 177
133 153 180
133 154 180
134 154 180
133 154 181
133 152 178
133 153 180
133 153 179
134 154 181
134 154 180
133 154 181
134 154 180
133 153 180
134 154 180
133 154 181
133 154 181
133 154 180
134 154 181
134 154 180
133 154 181
133 153 180
134 154 180
133 154 180
133 154 181
133 153 180
134 154 181
133 154 181
133 154 181
133 153 180
133 154 181
134 153 180
133 154 181
133 154 181
134 154 181
133 154 181
134 154 180
133 154 181
134 154 181
133 154 181
133 154 181
134 154 180
133 153 180
133 154 181
133 153 180
134 154 181
134 154 181
134 154 181
134 154 181
135 154 180
133 153 180
133 154 180
133 152 179
135 155 181
134 154 181
133 154 181
133 154 181
133 153 179
133 154 181
134 154 181
133 154 181
134 154 181
133 153 180
133 154 180
133 153 180
134 154 181
134 155 181
134 154 181
133 154 180
133 154 181
133 153 180
134 154 180
133 154 181
134 154 181
132 153 179
134 154 181
135 155 181
134 154 181
133 154 181
133 154 181
134 154 181
134 154 181
134 154 181
133 154 181
133 154 181
134 154 181
135 154 180
133 154 181
134 154 181
134 154 181
133 153 180
134 154 181
133 153 179
133 154 181
133 154 181
133 154 180
134 154 181
134 154 180
134 154 181
134 154 180
134 154 181
134 154 181
134 154 181
133 154 181
133 154 181
134 154 181
134 154 180
135 154 180
134 154 180
135 155 181
134 154 181
133 154 180
133 154 181
133 154 181
134 154 181
134 154 181
133 154 181
134 154 181
134 154 181
134 154 181
135 155 181
134 154 181
135 155 181
134 154 181
134 154 181
133 154 181
133 154 181
134 154 181
134 154 181
133 154 181
134 154 181
134 154 181
133 154 181
134 154 181
133 154 181
134 154 181
135 155 181
133 154 181
133 154 181
135 155 181
134 154 181
133 154 181
134 154 181
134 154 181
134 154 181
134 154 180
134 154 181
133 154 181
133 154 181
133 154 181
134 154 181
134 154 181
134 154 181
134 154 181
134 154 181
134 154 181
135 155 181
133 153 180
134 154 181
133 154 181
134 154 181
134 154 181
134 154 181
133 154 181
134 154 181
135 155 181
134 154 181
133 154 181
134 154 180
134 154 181
133 154 181
134 154 181
134 154 181
134 154 181
134 154 181
134 154 181
134 154 181
133 154 181
134 154 181
134 154 181
134 154 181
134 154 181
134 154 181
134 155 181
134 154 181
133 154 181
134 154 181
134 154 181
134 154 181
133 153 180
134 154 181
133 154 181
133 154 180
133 154 181
134 154 181
134 154 181
133 154 181
134 154 181
134 154 181
134 154 181
134 154 181
134 154 181
134 154 181
134 155 181
133 154 180
134 154 181
134 154 181
134 154 181
133 154 181
133 154 180
134 154 181
134 154 181
134 154 181
133 154 181
134 154 181
133 154 181
133 154 181
134 154 181
133 154 181
134 154 181
133 154 181
134 154 181
134 154 180
134 154 181
134 154 181
134 154 181
134 154 181
134 154 181
134 154 181
133 154 181
134 154 180
133 153 180
134 154 181
133 154 181
134 154 181
135 155 181
134 154 181
134 154 181
134 154 180
133 154 181
133 154 181
133 154 181
133 153 179
133 153 180
134 154 181
133 154 180
134 154 181
133 154 181
133 154 181
133 153 180
133 154 181
134 154 181
133 154 181
133 154 181
133 154 181
133 154 181
133 154 180
134 154 181
134 154 180
134 154 181
133 154 180
133 154 181
133 154 181
134 154 181
133 154 181
134 154 181
134 154 181
134 154 181
133 154 180
134 154 181
134 153 180
133 154 181
134 154 181
134 154 181
132 153 180
134 154 181
133 154 181
133 153 180
133 154 180
134 154 181
134 154 181
134 155 181
134 154 181
133 154 180
133 154 181
133 154 181
134 154 181
133 153 180
134 154 181
133 154 180
133 154 180
133 153 180
134 154 180
133 154 181
133 154 181
134 154 181
134 154 180
133 154 180
132 153 180
133 154 181
134 153 180
133 154 180
134 154 181
134 154 180
133 153 180
134 154 181
133 153 180
133 153 180
133 153 180
132 153 179
134 154 181
133 154 181
134 154 181
134 154 181
133 153 180
133 153 180
133 153 180
133 153 180
134 154 181
133 153 180
134 154 181
133 154 181
133 154 180
134 154 181
134 154 181
134 154 181
132 153 180
134 154 180
135 155 181
133 153 180
134 154 181
133 153 179
134 154 180
132 152 179
132 153 180
132 153 179
133 154 180
134 154 180
134 154 180
133 154 180
134 154 181
133 154 181
134 154 180
134 154 180
134 154 180
132 152 178
133 153 180
133 154 181
133 153 180
134 154 181
132 152 179
133 153 180
134 154 180
134 154 181
134 154 180
132 153 180
133 153 180
133 153 180
133 154 181
133 154 181
133 154 180
134 154 181
133 152 179
133 153 180
133 153 180
132 153 179
134 154 180
134 154 181
133 154 180
133 154 180
133 154 181
134 154 181
134 154 180
134 154 181
132 153 180
133 153 180
134 154 181
134 154 181
133 153 179
133 153 180
133 153 180
132 152 180
134 154 181
132 152 179
133 153 180
134 154 181
135 155 181
134 154 181
133 154 181
133 154 181
133 153 180
133 153 180
134 154 180
134 153 179
133 153 179
134 154 181
134 154 181
134 154 181
133 154 180
134 154 181
133 154 181
134 154 181
132 153 179
133 154 181
134 154 181
133 153 180
133 154 181
132 152 179
133 153 180
134 154 181
132 153 180
134 154 181
133 154 181
133 153 180
133 154 181
133 154 181
133 154 181
133 153 180
135 155 181
133 154 181
134 154 180
135 154 180
134 154 180
133 154 181
133 154 181
134 154 181
133 154 180
133 153 180
133 153 180
134 154 180
133 153 180
133 154 181
134 154 180
134 154 181
134 154 180
134 154 180
134 154 181
133 153 179
133 154 181
134 154 181
135 154 180
134 154 181
133 154 181
133 154 181
134 154 181
134 154 181
134 154 181
133 154 180
133 153 180
134 155 181
134 154 181
134 154 181
133 153 179
134 154 180
134 154 181
134 155 181
134 154 181
135 155 181
133 154 181
135 155 181
133 154 180
133 154 181
133 154 181
134 154 181
134 154 181
133 154 181
135 155 181
134 154 181
134 154 181
134 155 181
134 154 181
134 154 181
133 153 180
133 153 179
134 154 181
134 154 181
134 153 179
135 155 181
133 154 181
134 154 181
133 154 180
133 154 181
134 154 181
133 153 180
134 153 179
134 154 181
134 154 181
134 154 181
133 153 180
133 153 180
133 154 181
135 155 181
135 155 181
134 154 181
134 154 181
135 155 181
134 154 181
133 154 181
134 154 181
133 154 181
133 153 180
134 154 181
133 154 181
134 154 181
134 154 181
135 155 181
134 154 181
134 154 181
134 154 181
134 154 181
134 154 181
134 154 181
133 154 181
134 154 181
133 153 180
134 154 181
133 154 181
134 154 181
133 154 180
133 154 181
134 154 181
133 154 180
134 154 181
134 154 181
133 154 181
134 154 181
133 153 180
134 154 181
134 154 181
134 154 181
134 154 181
133 154 181
134 154 181
134 154 180
133 154 181
134 154 181
135 155 181
134 154 181
134 154 181
133 154 181
133 154 181
134 154 181
133 154 181
135 155 181
133 154 181
133 154 181
135 154 180
134 154 181
134 154 181
134 154 181
134 154 180
134 154 181
134 154 181
133 154 180
133 154 181
135 155 181
133 154 181
135 155 181
134 154 181
134 154 181
133 154 181
134 154 181
134 154 181
132 153 180
134 154 181
133 154 181
134 155 181
133 154 181
133 154 181
134 154 181
133 154 181
134 154 181
134 154 181
133 154 181
134 154 181
134 154 181
134 154 181
134 154 181
133 154 181
134 154 181
134 154 181
134 155 181
133 154 181
133 154 181
134 154 181
133 154 181
134 154 180
134 154 180
134 154 181
132 153 181
135 155 181
135 155 181
134 154 181
134 154 181
134 155 181
134 154 180
133 154 181
133 154 181
134 154 181
134 154 181
134 154 181
133 154 181
133 154 181
134 154 181
134 154 181
133 154 180
134 154 181
134 154 181
133 154 181
134 154 181
134 154 181
134 154 181
134 154 181
134 154 181
133 153 180
133 154 181
134 154 181
133 153 180
134 154 181
132 153 181
134 154 181
134 154 181
133 154 180
134 155 181
133 154 181
134 154 181
134 154 181
134 154 181
134 154 181
133 154 181
134 154 181
132 153 180
135 154 180
134 154 181
134 154 180
134 154 181
134 154 181
133 154 180
134 154 180
134 154 181
134 154 181
134 154 181
134 154 181
133 154 180
133 154 181
133 154 181
134 154 180
133 154 181
134 154 181
134 154 181
134 154 181
134 154 181
133 154 181
133 154 181
133 154 181
134 154 181
133 154 181
134 154 181
134 154 181
134 154 181
134 154 181
134 154 180
135 155 181
134 154 181
133 154 181
134 154 181
134 154 181
133 153 180
133 153 180
132 153 180
134 154 181
133 154 181
133 154 180
133 154 180
133 154 181
134 154 181
133 154 181
134 154 181
133 154 180
133 154 181
134 154 181
134 154 180
133 153 180
134 154 181
133 154 181
133 153 180
133 154 181
132 153 179
133 154 181
133 153 180
132 153 180
133 154 181
134 154 181
134 154 180
133 154 181
134 154 180
132 153 179
133 153 180
133 154 180
134 154 180
134 154 181
132 152 179
133 154 180
133 154 181
133 154 181
132 153 180
132 153 180
134 154 181
131 151 179
134 154 181
134 154 181
134 154 181
132 153 180
133 152 179
133 154 181
131 152 179
133 153 179
133 153 179
134 154 180
132 152 180
133 154 181
133 153 180
133 153 180
134 154 181
133 154 181
133 154 180
133 154 181
133 153 180
133 153 179
133 154 180
133 153 180
133 153 180
133 153 180
132 153 180
133 153 180
132 153 180
133 153 180
134 154 181
134 154 180
133 154 181
133 153 180
134 154 181
132 153 180
135 154 180
134 154 181
132 152 180
132 153 180
133 154 180
133 154 180
133 154 181
133 153 180
134 154 181
133 153 180
133 153 180
133 153 180
134 154 180
133 153 180
132 153 180
134 154 180
134 154 181
134 154 181
133 154 180
133 154 181
134 154 180
133 153 180
134 154 180
133 154 180
133 154 181
133 153 180
133 154 181
134 154 181
134 154 180
133 154 181
133 153 180
134 155 181
134 154 180
134 154 181
133 153 180
134 154 181
133 153 180
134 154 180
133 153 180
134 154 180
133 154 181
134 154 180
134 154 181
133 154 180
133 154 181
134 154 181
134 154 180
133 154 180
133 153 179
134 154 180
133 154 181
134 154 181
133 153 180
133 154 181
132 152 180
133 154 180
133 154 181
134 154 181
134 154 181
133 154 181
134 154 180
133 153 180
133 154 181
134 154 180
133 154 181
134 154 181
133 153 179
134 154 181
132 153 179
133 154 181
134 154 181
134 154 180
133 154 181
134 154 180
134 154 181
133 153 180
133 153 179
134 154 181
133 153 179
133 154 181
133 154 181
133 154 181
133 154 181
134 154 181
134 154 180
133 153 180
134 154 181
133 153 180
134 154 181
132 152 179
133 153 180
133 153 180
133 153 180
134 154 181
134 154 181
133 153 180
133 154 181
132 153 179
134 154 181
133 153 179
135 155 181
134 154 180
133 154 181
132 153 180
134 154 181
134 154 181
134 154 181
132 152 178
134 154 180
134 154 181
134 154 180
133 153 179
133 153 179
133 154 181
134 154 181
134 154 181
134 154 181
133 154 181
133 154 181
134 154 180
133 154 181
133 154 181
134 153 179
134 153 180
133 154 181
134 154 181
132 153 181
133 154 181
134 154 181
134 154 181
133 153 180
134 154 181
133 154 180
134 154 181
134 154 181
135 154 180
133 154 180
133 154 181
134 153 178
133 153 180
133 154 181
134 154 181
133 153 180
134 154 181
134 154 181
134 154 180
134 154 181
134 154 180
134 154 181
133 154 181
134 154 180
134 154 181
133 154 181
134 154 181
134 154 180
133 154 181
133 154 181
133 154 181
134 154 181
133 154 181
133 154 181
134 154 181
134 154 180
134 154 180
133 154 181
133 154 181
134 154 181
134 154 181
134 154 181
134 154 181
134 154 180
134 154 181
133 154 181
133 154 181
135 155 181
133 154 181
133 154 181
135 155 181
134 154 181
133 154 181
133 153 180
134 154 181
134 155 181
134 154 181
134 154 181
134 154 181
134 154 181
133 154 181
132 153 181
133 154 181
133 154 181
134 154 181
133 154 181
134 154 181
134 154 181
134 154 181
134 154 181
134 154 181
133 154 181
133 154 181
134 154 181
134 154 181
134 154 181
134 154 181
134 154 181
133 154 181
134 154 181
134 154 181
134 154 181
134 155 181
134 155 181
133 154 181
134 154 181
134 154 181
134 154 181
135 155 181
133 154 181
133 154 181
135 155 181
135 155 181
133 154 181
133 154 181
134 154 181
134 154 181
135 155 181
134 154 181
133 154 181
134 154 181
135 155 181
134 154 181
133 154 181
133 154 181
133 154 181
133 154 181
134 154 181
134 154 181
134 154 181
133 154 181
134 154 180
133 154 181
134 154 181
134 154 181
134 154 181
134 154 181
133 154 181
134 154 181
134 154 181
133 154 181
133 154 181
133 154 181
134 154 180
134 154 180
133 154 181
134 154 181
134 154 181
133 154 181
134 154 181
133 154 181
134 154 181
133 154 181
134 154 181
134 154 181
134 154 181
134 154 181
134 154 180
132 153 180
134 154 181
135 155 181
133 154 181
134 154 181
134 154 181
134 154 181
133 154 181
134 154 181
133 154 180
133 154 181
134 154 181
135 154 180
134 154 181
133 154 181
134 154 181
134 154 181
134 154 181
133 154 181
134 154 181
134 154 181
132 153 181
134 154 181
133 154 181
134 154 181
134 154 181
134 155 181
134 154 180
133 153 180
134 154 181
133 154 181
134 154 181
134 154 181
134 154 180
135 155 181
134 155 181
134 154 181
134 154 180
134 154 181
134 154 181
133 154 180
135 155 181
134 154 181
133 154 181
134 154 181
133 154 180
134 154 181
133 153 179
134 154 181
134 154 181
134 154 181
133 154 181
133 154 181
134 154 181
134 154 181
134 154 181
134 154 181
134 154 181
134 154 180
133 153 180
133 153 180
133 154 180
133 154 180
134 154 181
133 153 180
134 154 181
133 154 181
133 154 181
134 154 181
133 154 181
135 155 181
132 152 180
133 154 181
133 153 180
133 154 181
133 154 181
133 154 180
133 154 181
133 154 181
135 155 181
134 154 181
134 154 181
133 153 180
134 154 181
133 154 181
135 155 181
133 153 180
133 154 180
134 154 181
134 154 180
133 154 181
133 154 180
133 154 181
132 153 179
133 154 181
134 153 180
135 155 181
133 153 180
132 153 181
133 154 181
134 154 181
132 153 179
133 153 180
133 154 180
134 154 181
133 153 180
133 153 179
134 154 180
132 153 180
133 153 180
133 153 180
134 155 181
133 153 180
134 154 181
133 154 181
132 153 180
134 154 181
134 154 181
133 153 180
133 154 181
134 154 181
134 154 181
135 155 181
133 154 180
133 154 181
133 153 180
133 154 181
133 153 180
134 154 181
134 154 180
133 154 181
132 152 179
133 154 180
133 154 180
134 154 181
132 152 179
132 153 180
134 154 180
134 154 180
133 153 180
133 154 181
133 153 180
133 153 180
134 154 181
133 154 180
132 153 180
133 154 180
133 153 180
135 155 181
133 154 181
133 154 180
133 154 180
133 154 181
133 154 181
134 154 181
134 154 180
132 153 180
132 153 179
135 155 181
133 154 180
134 154 180
133 154 181
133 153 180
134 154 181
132 153 180
134 154 180
134 154 181
134 154 181
134 154 181
133 153 180
133 154 180
134 154 180
134 154 181
132 153 180
133 153 180
133 154 181
134 153 179
133 153 180
133 153 180
133 153 180
134 154 181
133 154 180
133 154 181
132 152 179
134 154 180
133 154 181
134 154 181
133 154 180
133 154 180
134 154 180
134 155 181
132 153 180
134 154 181
134 154 181
133 153 180
133 153 180
134 154 181
133 153 180
134 154 181
134 154 181
134 154 180
133 153 180
133 153 180
134 154 181
133 154 180
134 154 181
133 153 180
133 153 180
133 153 180
134 155 181
133 153 180
134 154 181
134 154 181
133 154 181
134 154 181
134 154 181
134 154 180
133 153 180
134 154 181
134 154 180
133 154 180
134 154 181
133 154 181
133 154 180
133 154 181
135 155 181
133 153 180
133 154 181
134 154 180
133 154 181
133 153 180
133 154 181
134 154 181
133 153 180
134 154 181
134 154 181
135 155 181
134 154 181
134 154 180
133 153 180
134 154 181
134 154 180
133 154 181
134 154 181
134 154 181
133 154 180
133 153 180
133 153 180
134 154 181
133 154 181
134 154 181
134 154 181
133 154 181
133 154 181
134 154 181
133 154 181
133 153 180
133 154 181
133 153 179
133 154 181
133 154 181
132 153 180
133 154 181
133 154 181
133 153 180
133 154 181
135 155 181
133 153 180
134 154 181
134 154 181
134 154 181
134 154 181
133 154 181
134 154 181
133 153 180
134 155 181
133 153 180
134 154 181
134 154 180
134 154 181
133 154 181
134 154 181
133 153 180
132 153 181
133 154 181
135 155 181
134 154 181
134 154 181
134 154 181
133 154 181
134 154 181
134 154 181
133 154 181
133 154 181
134 154 181
134 154 181
134 154 181
134 154 181
134 154 181
134 154 181
133 154 181
134 154 181
134 154 181
133 154 181
133 154 181
133 154 181
133 154 181
134 154 181
134 154 181
135 155 181
134 154 181
134 154 181
134 154 181
132 153 180
134 154 181
135 155 181
133 154 181
133 154 181
133 153 180
133 154 181
133 154 181
133 154 181
134 154 181
134 154 181
135 155 181
134 154 181
134 154 181
135 155 181
133 154 181
133 153 180
133 154 181
134 154 181
134 154 181
133 154 181
135 155 181
134 154 181
133 154 181
134 155 181
134 154 181
134 154 181
133 154 181
134 154 181
134 154 181
134 154 181
135 155 181
133 154 180
134 154 181
134 154 181
134 154 181
134 154 181
133 153 180
134 154 181
134 154 181
134 154 181
134 154 181
133 154 181
134 154 181
134 154 181
133 154 181
135 155 181
134 154 181
133 154 181
134 154 180
135 155 181
134 154 181
133 154 181
134 155 181
133 154 181
134 154 181
134 154 181
133 154 181
133 154 181
134 154 181
134 154 181
134 154 180
133 154 181
134 154 181
134 154 181
133 154 181
134 154 181
134 154 181
133 154 181
133 154 181
134 154 181
134 154 180
134 154 181
133 154 181
134 154 181
134 154 181
134 154 181
133 154 181
133 154 181
134 154 181
133 154 181
135 155 181
134 154 181
133 154 181
134 154 181
134 154 181
133 154 180
134 154 181
134 154 181
134 154 181
134 154 181
133 154 180
133 154 181
133 154 181
134 154 181
133 154 181
134 154 181
134 154 181
134 154 181
133 154 181
134 154 181
134 155 181
133 154 181
134 154 181
134 154 181
134 154 181
133 154 181
133 154 181
136 155 181
133 154 181
134 154 181
133 154 181
134 154 181
134 154 181
134 154 181
134 154 181
134 154 181
134 154 181
134 154 181
134 154 181
134 154 181
133 154 181
133 154 181
134 154 181
133 153 180
134 154 181
134 154 181
134 154 181
133 154 181
135 155 181
134 154 181
133 154 181
133 154 180
133 153 180
133 154 181
134 154 181
134 154 181
133 154 181
133 154 181
133 154 181
133 154 180
133 154 181
134 154 180
134 154 181
133 154 181
133 154 181
133 154 181
134 154 181
134 154 181
133 154 181
132 153 180
134 154 181
134 154 181
133 154 181
134 154 181
134 154 181
133 154 180
132 153 180
134 154 181
132 153 181
133 154 181
133 154 181
134 154 181
132 153 180
132 153 180
134 154 180
133 154 180
133 154 181
133 154 180
135 155 181
134 155 181
133 154 181
133 153 180
134 154 181
133 154 181
134 155 181
133 154 181
133 154 181
133 153 180
134 154 181
134 154 181
134 154 181
134 154 180
134 154 181
133 154 180
133 154 180
134 154 180
134 154 181
133 153 180
134 154 180
133 153 180
133 154 180
133 153 180
133 153 179
134 154 181
132 153 179
134 154 181
132 153 179
135 155 181
133 154 180
134 154 181
133 153 180
133 153 180
134 154 180
134 154 181
133 154 181
134 154 181
134 154 180
133 154 181
133 153 180
133 153 180
132 153 180
133 154 180
133 153 180
133 153 180
133 153 180
135 154 180
135 154 180
134 154 180
132 152 178
134 154 180
132 153 180
133 153 179
134 154 180
133 154 180
133 154 181
134 154 181
133 153 180
133 154 180
134 154 181
133 153 180
133 154 181
133 154 180
133 154 180
134 154 181
134 154 180
134 154 181
133 154 181
134 154 181
134 154 181
133 152 179
132 153 181
133 153 180
134 154 181
133 154 180
133 154 181
134 154 181
133 153 180
134 154 181
134 154 181
134 154 181
133 153 180
133 153 180
134 154 181
133 154 181
133 154 181
133 154 181
133 154 181
133 153 180
133 153 180
133 154 181
133 154 180
133 154 181
134 154 181
134 154 181
134 154 181
134 154 181
133 153 180
134 154 180
133 154 181
133 154 181
134 154 181
134 154 181
133 153 180
133 154 181
133 154 181
134 154 180
133 154 181
134 154 180
134 154 181
134 154 181
133 154 181
133 154 181
134 154 180
134 154 181
134 154 180
133 153 179
133 154 181
134 154 180
133 154 181
134 154 180
133 154 181
133 154 181
133 154 181
134 154 181
134 154 181
133 154 181
134 154 181
133 154 180
134 154 181
134 154 181
133 154 181
134 154 180
133 154 181
132 153 180
134 154 181
134 154 180
133 154 181
133 154 181
135 155 181
133 154 181
134 154 181
133 153 179
134 154 180
134 154 181
133 154 181
134 154 181
133 154 181
134 154 180
133 154 180
134 154 181
134 154 180
133 153 180
134 154 180
134 154 181
134 154 181
133 154 181
134 154 181
133 153 179
133 154 181
134 154 181
134 154 181
134 154 181
133 154 181
134 154 181
134 154 181
134 154 181
135 155 181
134 154 181
133 154 180
134 154 180
132 153 180
134 154 180
134 154 181
133 154 181
133 154 181
134 154 181
133 153 180
133 153 180
134 154 181
133 153 180
133 154 181
134 154 181
133 154 181
134 154 181
134 154 181
134 154 181
134 154 180
133 154 181
134 154 181
134 154 181
134 154 181
133 154 181
133 153 180
134 154 181
133 153 180
134 154 181
133 153 180
134 154 181
133 153 180
134 154 181
133 154 181
133 154 181
135 155 181
134 154 181
133 154 181
134 154 181
134 154 181
132 153 179
134 154 181
134 154 181
134 154 181
133 154 181
134 154 180
133 154 181
133 154 180
134 154 181
133 154 181
134 154 181
134 154 181
134 154 181
133 154 181
134 154 181
133 153 180
133 154 181
134 154 181
134 154 181
134 154 181
133 154 181
134 154 181
134 154 181
134 154 181
135 155 181
134 154 181
134 154 181
133 154 181
134 154 181
133 154 181
134 154 181
133 154 181
133 153 180
134 154 180
133 154 181
135 155 181
134 154 181
134 154 181
133 154 181
135 155 181
133 154 181
133 154 181
133 154 181
134 154 181
134 154 181
134 154 181
134 154 181
133 154 180
134 154 181
134 154 181
134 154 181
134 154 181
134 154 181
134 154 180
133 154 181
134 154 181
134 154 181
134 154 181
134 154 181
133 154 181
134 154 181
133 153 179
133 154 181
134 154 181
133 154 180
133 154 181
133 154 181
135 155 181
134 154 181
134 154 181
134 154 181
133 154 181
134 154 181
135 155 181
133 154 181
133 154 181
134 154 180
134 154 181
133 154 181
134 154 181
134 154 181
134 154 181
133 154 181
134 154 181
134 154 181
134 154 181
135 155 181
133 154 181
133 154 181
134 154 181
133 154 181
133 154 181
133 154 181
133 154 181
133 154 181
133 154 181
133 154 181
134 154 181
133 154 181
134 154 181
134 154 181
133 154 181
134 154 181
135 155 181
134 154 180
134 154 181
134 154 181
133 154 181
135 155 181
133 154 181
134 154 181
133 154 181
134 154 181
134 154 181
134 154 181
133 154 180
134 154 181
133 154 180
134 154 181
133 154 181
134 154 181
134 154 181
133 153 180
134 154 181
134 154 181
134 154 181
134 154 181
134 154 181
134 154 181
133 153 180
134 154 181
133 154 181
134 154 181
134 154 181
133 154 180
133 154 181
133 154 181
133 153 180
133 154 181
134 154 181
134 154 181
134 154 181
133 153 180
134 154 181
134 154 181
133 154 181
133 154 180
134 154 180
133 154 181
134 155 181
134 154 181
134 154 181
134 154 181
134 154 181
133 154 181
133 153 180
134 155 181
133 154 181
134 154 181
134 154 181
134 154 181
134 154 181
134 154 181
133 153 180
133 154 180
134 154 180
133 154 180
133 154 180
133 154 181
134 154 181
133 153 180
134 154 180
133 154 181
133 154 181
135 155 181
134 154 181
134 154 180
134 154 180
134 154 181
133 153 180
133 154 181
132 153 180
134 154 181
133 154 181
132 153 180
134 154 181
133 153 180
133 154 181
133 154 180
135 155 181
134 154 181
134 154 181
132 153 181
133 154 180
134 154 181
134 154 181
134 154 181
134 154 180
133 153 180
134 154 181
134 155 181
133 154 181
134 154 181
133 153 180
133 154 180
133 154 180
133 152 179
133 154 181
134 154 181
133 154 180
134 154 181
133 153 180
133 154 181
134 154 181
133 154 180
134 154 181
135 155 181
132 152 179
134 154 181
133 153 180
132 153 179
134 154 180
133 154 180
134 154 180
132 152 179
132 152 178
134 154 181
134 154 181
134 154 181
134 154 181
134 154 181
134 154 180
133 153 180
133 153 180
134 154 181
134 154 181
133 154 181
132 153 180
133 153 180
133 153 180
134 154 180
134 154 180
133 154 181
134 154 180
134 154 180
133 154 180
134 154 181
133 154 181
133 153 180
133 154 181
133 153 180
133 153 180
133 153 180
134 154 181
133 153 180
132 152 180
133 154 180
133 153 180
134 154 181
133 154 181
133 153 180
132 152 180
133 154 181
133 154 181
133 154 181
133 154 180
133 153 180
134 154 181
134 154 180
134 154 181
133 153 180
133 153 180
134 154 181
133 154 181
133 153 180
132 153 180
134 154 181
134 154 181
134 154 181
134 154 181
133 153 180
133 153 180
134 154 181
132 153 179
133 154 180
134 154 181
134 154 181
135 155 181
133 153 180
134 154 180
134 154 181
134 154 181
134 154 181
134 154 181
134 154 181
133 153 180
133 154 180
132 153 180
134 154 181
134 154 181
133 152 179
134 154 181
133 154 181
132 153 180
134 154 180
134 155 181
133 153 180
133 154 181
133 153 179
133 153 180
133 153 180
134 154 180
133 154 181
134 154 181
134 155 181
134 154 181
133 154 181
133 153 180
134 154 181
133 154 181
134 154 180
134 153 179
134 154 180
133 153 180
133 154 180
134 154 181
133 154 181
134 154 180
134 154 180
133 153 179
134 154 181
134 154 181
134 154 181
133 154 181
134 154 181
133 153 180
134 153 179
133 152 179
133 153 179
133 154 180
134 153 179
134 154 181
133 153 179
134 154 181
134 154 181
134 154 181
134 154 181
132 153 181
134 153 179
133 154 181
134 154 180
134 154 180
133 153 180
134 154 181
133 153 180
134 154 181
134 154 181
133 154 181
134 154 181
133 154 181
135 154 180
134 154 180
133 154 180
134 154 181
134 154 181
133 154 181
134 154 181
135 155 181
133 154 181
134 154 181
133 154 181
134 154 181
134 155 181
134 154 181
134 154 181
134 154 181
133 154 181
134 154 181
134 154 181
134 154 181
133 154 181
134 154 181
134 154 180
133 154 181
134 154 181
134 154 181
134 154 181
134 154 181
134 154 180
134 154 181
134 154 181
133 154 181
133 154 181
132 153 180
134 154 181
134 154 181
134 154 181
134 154 181
134 154 180
134 154 181
134 154 180
134 154 181
133 154 181
134 154 180
134 154 181
133 154 181
134 154 181
134 153 179
133 153 180
134 154 181
133 154 180
133 154 181
133 154 181
134 154 181
134 155 181
133 153 179
134 154 181
133 154 181
134 154 181
134 154 181
133 154 180
134 154 181
134 154 180
133 154 181
134 154 181
134 154 181
134 155 181
134 154 181
134 154 181
134 154 181
134 154 181
134 154 181
134 154 181
133 154 181
134 154 181
134 154 181
134 154 181
133 154 181
134 154 181
134 154 181
134 154 181
133 154 180
133 154 181
133 154 181
134 154 181
134 154 181
134 154 181
133 154 181
134 154 181
134 154 181
134 154 181
134 154 181
134 154 181
133 154 181
133 154 181
134 154 181
134 154 181
134 154 181
134 155 181
134 154 181
134 154 181
134 154 181
134 154 181
133 154 181
134 154 181
134 154 181
134 154 181
134 154 181
134 154 181
134 154 181
134 154 181
134 154 181
133 154 181
133 154 181
134 154 181
134 154 181
134 154 181
133 154 181
134 154 181
133 154 181
134 154 181
134 154 181
133 154 181
134 154 181
134 154 181
133 154 181
133 154 180
133 154 181
134 154 181
134 154 181
134 154 181
133 154 181
134 154 181
133 154 181
134 154 181
134 154 181
133 154 181
134 154 181
133 154 181
133 154 180
134 154 181
132 153 181
134 154 181
133 154 181
133 154 181
134 154 181
133 154 181
133 154 181
133 154 181
134 154 181
134 154 181
133 154 181
134 154 181
133 154 181
134 154 181
134 154 181
133 154 181
133 154 181
134 154 181
135 155 181
134 154 181
134 154 180
133 154 181
134 154 181
135 155 181
134 154 181
133 154 181
134 154 181
133 154 180
134 154 181
134 154 181
134 154 181
134 154 181
134 154 180
133 154 181
133 154 181
134 154 181
134 154 181
134 154 181
134 154 181
133 154 181
133 154 181
134 154 181
133 154 181
134 154 181
134 154 180
134 154 181
133 154 181
133 154 180
134 154 181
134 154 180
133 154 181
133 154 181
134 154 181
134 154 181
134 155 181
133 154 181
135 155 181
134 154 181
134 154 180
133 154 180
134 154 181
133 154 180
134 154 181
134 154 181
134 154 181
134 154 181
134 154 181
133 154 180
133 154 181
134 154 181
134 154 181
134 154 181
134 154 181
133 154 181
134 154 181
133 154 180
134 154 181
134 154 181
133 154 181
134 154 181
134 154 180
134 154 180
134 154 181
134 154 181
134 154 181
134 154 180
132 152 179
134 154 181
133 154 181
134 154 181
135 155 181
134 154 181
134 154 181
134 154 181
133 153 180
133 153 180
133 154 180
134 154 180
134 154 180
133 154 181
133 154 181
133 153 180
132 152 179
134 154 181
134 154 181
134 154 181
134 154 181
133 154 181
133 153 180
131 152 180
134 154 180
133 154 181
132 152 179
134 154 180
133 153 180
133 154 181
133 154 181
133 154 181
134 154 180
133 153 180
134 154 181
133 153 180
134 154 181
134 154 181
133 154 181
134 154 181
133 154 181
134 154 181
132 152 179
133 153 180
134 154 181
134 154 181
133 154 180
133 153 180
134 154 181
134 154 181
134 154 181
134 154 181
133 154 181
134 154 181
134 154 181
133 154 181
134 155 181
133 154 181
133 154 181
133 153 180
134 154 181
134 154 181
133 153 180
134 154 181
134 154 180
133 153 180
132 153 180
133 154 181
133 154 181
133 153 180
135 155 181
133 153 180
133 154 181
132 152 179
134 154 180
133 153 180
133 154 181
133 154 181
135 155 181
133 153 180
133 154 181
134 154 181
134 154 180
134 154 181
133 154 181
134 154 181
133 154 181
133 154 181
133 154 180
134 154 181
134 154 181
133 154 181
134 154 181
134 154 181
134 154 180
133 154 181
133 154 181
133 154 181
134 154 180
133 154 181
134 154 181
134 154 181
134 154 181
133 154 181
133 154 181
134 154 181
133 154 181
132 152 179
134 154 181
133 154 180
133 154 180
134 154 181
134 154 180
134 154 181
134 154 180
134 154 181
133 154 181
134 154 181
132 153 180
134 154 181
133 154 180
133 154 180
133 153 180
134 154 181
134 154 181
134 154 181
133 154 181
133 154 180
134 154 180
134 154 181
134 154 181
134 154 180
133 154 181
134 154 181
134 155 181
133 154 181
134 154 181
133 153 180
133 152 178
133 153 180
134 154 181
133 154 181
134 154 181
134 154 181
133 153 180
133 154 181
134 154 181
133 154 181
133 154 181
133 154 181
133 154 180
134 154 181
133 154 181
133 154 180
133 153 179
132 152 178
134 154 180
134 154 181
134 154 181
134 154 181
134 154 181
133 153 180
133 154 181
134 154 181
133 154 181
134 154 181
133 154 181
133 154 181
133 153 180
134 154 181
134 154 181
134 154 181
134 154 181
133 154 181
134 154 181
133 154 181
134 154 181
134 154 181
134 154 181
134 154 181
133 153 180
134 154 181
133 154 180
134 154 181
133 153 180
134 155 181
133 154 181
134 154 180
133 154 181
134 154 181
135 155 181
134 154 180
133 154 181
133 154 181
134 154 181
133 153 180
133 154 181
134 154 181
134 154 181
133 154 181
132 153 180
135 155 181
133 154 181
133 154 181
134 154 181
133 153 179
134 154 181
134 154 181
133 154 180
134 154 181
134 154 181
133 154 181
134 154 181
134 154 181
134 154 181
133 153 180
134 154 181
134 154 181
134 154 181
134 154 181
134 154 181
133 154 181
132 153 180
134 154 180
133 154 181
133 154 181
133 154 181
133 154 181
133 154 181
135 155 181
134 154 181
133 154 181
134 154 181
133 154 181
134 154 181
134 154 180
134 154 180
134 154 181
134 154 181
134 154 181
134 154 181
134 154 181
134 154 181
133 154 181
133 154 180
134 154 181
134 154 181
134 154 181
133 154 181
134 154 181
135 155 181
134 154 180
134 154 181
133 154 181
133 154 181
133 154 181
134 155 181
134 154 181
134 154 181
133 154 181
134 154 181
133 154 181
134 154 181
133 154 181
133 154 181
133 154 181
133 154 181
133 153 180
133 154 181
133 154 181
134 154 181
134 154 181
133 154 181
133 154 181
133 154 181
135 155 181
134 154 181
133 154 181
134 154 181
133 153 180
133 154 181
133 154 181
133 153 180
134 154 181
133 154 181
133 154 181
134 154 181
134 154 181
134 154 181
134 154 181
134 154 181
134 154 180
134 154 181
134 154 181
134 155 181
134 154 181
134 154 181
134 154 181
133 154 181
134 154 181
134 154 181
134 154 181
133 154 181
134 154 181
134 154 181
135 155 181
134 154 181
133 154 181
134 155 181
133 154 181
133 154 181
134 154 181
134 154 181
133 154 181
134 154 181
134 154 180
133 154 181
134 154 181
134 154 181
133 154 181
134 154 181
133 154 181
134 154 181
135 155 181
134 154 181
134 154 181
134 154 181
134 154 181
134 154 181
134 154 181
133 154 181
134 154 181
134 154 181
134 154 181
134 154 181
133 154 181
133 154 181
134 154 181
134 154 181
134 154 181
133 153 180
134 154 181
134 154 181
134 154 181
134 154 181
133 154 181
134 154 181
133 154 180
135 155 181
135 155 181
133 154 180
135 155 181
134 154 181
133 154 181
133 154 181
133 154 181
134 154 181
134 154 181
133 154 181
134 154 180
134 154 181
134 154 181
134 154 181
134 154 181
134 154 181
134 154 181
134 155 181
133 154 181
133 154 181
134 154 181
133 154 180
133 154 181
133 154 181
134 154 181
134 154 181
134 154 181
134 154 181
134 154 181
133 154 181
134 154 181
135 155 181
134 154 181
134 154 180
134 154 181
134 154 181
134 154 181
134 154 180
134 154 181
134 154 181
134 154 181
133 153 180
133 154 181
134 154 181
133 154 181
133 153 179
133 153 179
134 154 181
134 154 181
134 154 181
134 154 181
133 153 180
135 155 181
134 154 181
134 154 181
133 154 181
133 154 181
134 154 181
135 155 181
133 154 181
135 155 181
133 154 180
133 154 181
135 155 181
133 154 180
134 154 181
134 154 181
134 154 181
132 153 180
135 155 181
133 153 180
133 154 181
134 154 181
134 154 181
133 154 180
133 154 180
133 154 181
133 154 181
133 153 180
133 153 180
134 154 181
133 154 180
134 154 181
133 153 180
133 153 180
133 153 180
133 153 180
132 153 180
133 154 181
133 153 180
134 154 181
134 154 181
134 154 181
133 153 180
133 154 181
134 154 181
134 154 181
133 154 181
133 154 181
133 153 179
134 154 181
133 153 180
134 154 181
134 154 181
133 153 180
132 153 179
133 153 180
133 154 181
133 153 180
135 155 181
134 154 181
133 154 181
133 153 180
133 154 180
132 153 180
133 153 180
133 153 180
133 153 180
132 153 180
133 153 180
133 154 181
133 154 181
133 153 180
134 154 181
133 153 180
134 154 181
133 154 181
133 153 180
133 154 181
134 154 181
133 154 181
133 153 180
133 154 181
133 154 181
134 154 181
134 154 181
133 154 180
134 154 181
134 154 181
133 154 181
134 154 181
132 153 180
133 154 181
133 154 181
134 154 180
132 153 180
134 154 181
133 154 180
134 154 180
134 154 181
134 154 181
133 154 181
133 154 181
134 154 181
133 154 181
134 154 181
134 154 181
133 154 180
133 153 180
134 154 180
134 154 181
133 154 181
134 154 181
133 153 180
133 154 181
133 153 180
134 154 180
134 154 181
133 153 180
134 154 181
134 154 181
134 154 181
134 154 180
134 154 181
133 154 180
134 154 181
132 153 180
133 153 180
134 154 181
133 154 181
133 154 181
133 154 181
134 154 181
133 154 181
135 155 181
134 154 181
133 153 180
135 155 181
133 153 179
133 154 180
134 154 181
134 154 181
133 154 180
133 153 180
134 154 180
133 153 180
133 153 180
134 154 181
133 154 181
134 154 180
134 154 180
134 154 181
133 153 180
134 154 181
134 154 181
133 154 180
134 154 181
133 154 181
134 154 181
133 154 181
133 154 181
134 153 179
133 154 181
134 154 180
134 154 181
134 154 181
134 154 181
133 154 181
133 154 180
134 154 181
134 154 180
133 154 180
133 154 180
133 154 181
134 154 181
133 154 181
134 154 181
133 153 179
134 154 180
133 154 181
134 154 180
134 154 181
134 154 181
134 154 181
134 154 181
133 153 179
135 155 181
134 154 181
134 154 181
134 154 181
134 154 181
134 154 181
134 154 181
133 154 181
134 154 181
132 152 179
134 154 181
133 154 181
134 154 180
134 154 181
133 154 181
133 153 180
134 154 181
133 154 181
135 155 181
133 154 181
133 153 180
134 154 181
133 154 181
134 154 181
134 154 181
134 154 181
134 153 179
133 153 180
135 155 181
134 154 181
134 154 181
134 154 181
134 154 181
135 154 180
134 154 181
134 154 181
134 154 181
134 154 181
133 154 181
134 154 181
134 154 181
134 154 181
133 154 181
134 154 181
134 154 181
134 154 181
133 154 181
134 154 181
134 154 181
134 154 180
134 154 181
134 154 181
134 154 181
135 155 181
134 154 181
133 154 181
133 154 181
134 154 181
134 154 180
134 154 181
133 154 181
133 154 181
134 154 181
134 154 181
133 154 181
134 154 181
135 155 181
134 154 181
133 154 181
134 154 181
133 154 181
134 154 181
134 154 181
134 154 181
134 154 181
132 153 180
134 154 180
133 154 181
133 154 181
134 154 181
133 154 181
133 154 181
134 154 180
134 154 181
134 154 181
134 154 181
133 154 181
134 154 181
134 154 181
134 154 181
134 154 181
134 154 181
134 154 181
134 154 181
133 153 180
134 154 180
134 154 181
134 154 181
133 154 181
134 154 181
134 154 181
134 154 180
134 154 181
133 154 180
134 154 181
134 154 181
133 154 181
135 155 181
134 154 181
134 155 181
133 154 181
135 155 181
133 154 181
134 155 181
134 154 181
134 154 181
134 154 181
134 154 181
134 154 181
134 154 180
133 154 181
133 154 181
134 154 181
134 154 181
134 154 181
133 154 181
134 154 181
134 154 180
133 154 181
134 154 180
134 154 181
133 154 181
134 154 181
134 155 181
134 154 181
133 154 181
133 154 181
133 154 181
134 154 181
134 154 181
134 154 180
134 154 181
133 154 181
134 154 181
135 155 181
134 154 181
134 154 181
134 155 181
134 154 181
134 154 181
134 154 181
133 154 181
133 154 181
133 154 181
133 154 181
134 154 181
133 154 181
133 154 181
133 154 180
135 155 181
133 154 181
134 154 180
134 154 181
134 154 181
133 153 180
133 154 180
134 154 181
133 154 181
133 154 181
133 154 181
133 154 180
134 154 181
134 154 181
134 155 181
133 154 181
134 154 180
134 154 181
134 154 180
135 155 181
133 154 181
133 154 180
134 154 181
133 154 181
134 154 181
134 154 181
134 154 180
133 154 180
133 154 180
134 154 181
134 154 181
134 154 181
133 154 181
133 154 181
134 154 181
134 154 181
134 154 180
134 154 181
133 154 181
133 154 180
133 153 180
134 154 180
134 154 181
133 154 181
134 154 181
133 153 180
134 154 181
134 154 181
134 154 181
133 154 180
134 154 181
134 154 181
134 154 181
133 153 180
134 154 181
134 154 181
133 154 181
134 154 181
134 154 181
134 154 181
133 153 180
133 154 180
134 154 181
135 155 181
134 154 180
134 154 181
133 154 181
134 154 181
134 154 181
133 154 181
134 154 181
133 154 181
133 154 181
134 154 181
133 154 180
134 154 181
134 154 181
133 153 180
134 154 181
134 154 181
134 154 181
134 153 179
134 154 181
133 154 181
132 153 180
133 153 180
133 153 180
134 154 181
134 154 181
133 154 180
135 155 181
133 154 181
133 154 181
133 154 180
135 155 181
133 154 181
133 154 181
133 153 180
133 154 181
133 154 181
133 154 180
133 154 180
134 155 181
133 153 180
134 154 181
134 154 181
133 154 181
134 154 181
134 154 181
132 153 180
133 153 180
134 154 181
134 154 181
134 154 181
134 154 180
134 154 181
135 155 181
133 154 180
133 154 181
134 154 181
133 154 181
133 153 180
133 154 181
133 154 181
133 154 180
134 154 180
134 154 181
133 153 180
133 153 180
134 154 181
134 154 181
133 153 180
134 154 181
133 154 181
134 154 180
133 154 180
133 154 181
134 154 180
134 154 181
134 154 180
133 154 181
133 154 181
133 154 181
134 154 180
132 153 180
134 154 181
133 154 181
132 153 179
133 154 180
134 154 181
133 153 180
134 154 181
134 154 181
134 154 181
133 154 180
133 153 180
134 154 180
134 154 180
133 153 180
133 153 180
134 154 181
133 153 180
133 154 181
134 154 181
133 154 181
133 154 181
134 155 181
134 154 181
134 154 181
133 153 180
133 154 181
134 154 181
134 154 181
134 154 180
134 154 180
134 154 181
134 154 181
134 154 181
133 154 181
134 154 181
133 153 180
133 154 181
134 154 181
133 154 181
134 154 181
134 154 180
132 153 180
133 153 180
134 154 181
134 154 181
134 154 181
133 153 180
134 154 181
134 154 181
134 154 181
132 152 179
134 154 180
134 154 181
133 153 179
134 154 181
133 153 180
134 154 181
133 154 181
134 154 181
134 154 181
134 154 180
134 154 181
132 153 179
133 154 180
134 154 180
134 154 181
134 154 181
135 154 180
133 154 181
133 154 181
133 154 181
134 154 180
133 154 181
132 153 180
134 154 181
134 154 181
133 154 180
134 154 181
135 155 181
133 154 181
134 154 181
133 154 181
133 154 181
134 154 181
134 154 180
133 154 181
134 154 181
134 154 181
134 154 181
134 154 181
134 155 181
134 154 180
133 154 181
134 154 181
133 154 181
133 154 181
134 154 180
133 154 181
135 155 181
134 154 181
133 154 181
135 154 180
133 154 181
134 154 180
134 154 181
134 154 181
134 154 181
134 154 181
134 154 181
133 154 181
134 154 181
134 154 180
134 154 181
134 154 180
134 154 181
134 154 181
133 153 180
134 154 181
133 154 181
134 154 181
134 154 181
133 154 181
135 155 181
133 154 181
135 154 180
134 154 181
135 155 181
133 154 181
134 154 181
134 154 181
134 154 181
134 155 181
133 154 181
133 153 180
133 154 181
133 154 181
134 154 181
133 154 181
134 154 181
134 154 181
133 154 181
135 155 181
134 154 181
134 154 181
133 154 181
135 154 180
134 154 181
133 154 181
134 155 181
134 154 181
134 154 181
134 154 181
134 154 181
134 154 181
134 154 181
134 154 181
134 154 181
133 154 181
134 154 181
134 154 181
134 154 181
134 154 180
134 154 181
133 153 179
134 154 181
133 154 181
133 154 180
133 153 180
133 154 181
134 154 181
134 154 181
134 154 181
135 155 181
133 154 181
133 154 181
133 154 180
134 154 181
133 154 181
133 154 181
134 154 181
134 154 181
134 154 181
133 154 181
134 154 181
133 154 181
134 154 181
134 154 181
134 154 181
133 154 181
133 154 181
133 154 181
134 154 181
134 154 181
134 154 181
134 154 181
134 154 181
134 154 181
134 154 181
134 154 181
134 154 181
134 154 181
133 154 181
133 154 181
133 154 181
134 154 181
133 154 181
133 154 181
135 155 181
133 154 181
134 154 181
134 154 181
134 154 181
133 154 181
134 154 181
134 154 181
133 154 181
133 154 180
134 154 181
134 154 181
133 154 181
135 155 181
134 154 181
134 155 181
133 153 180
133 154 180
134 154 181
134 155 181
134 154 181
134 154 181
134 154 181
134 154 181
133 154 180
133 154 181
134 154 181
133 153 180
134 154 181
135 155 181
133 154 181
134 154 181
134 155 181
134 154 181
135 155 181
134 154 181
134 154 181
134 154 181
134 155 181
133 154 181
133 154 181
134 154 180
133 154 181
134 154 180
134 154 181
134 154 181
134 154 181
134 154 181
134 154 181
134 154 181
134 154 181
134 154 181
133 154 180
134 154 181
134 154 181
134 154 181
133 154 181
134 154 181
134 154 181
133 154 180
133 154 181
134 154 181
134 154 181
133 154 181
134 154 181
135 155 181
134 154 180
134 154 181
134 154 181
134 154 181
134 154 181
134 154 181
134 154 181
133 154 181
133 154 181
133 154 181
134 154 180
134 154 181
133 154 181
133 154 181
133 154 181
134 154 181
133 154 181
134 154 181
133 153 180
133 154 181
134 154 181
134 154 181
133 153 179
134 154 181
134 154 181
133 153 180
134 154 181
134 154 181
134 154 181
133 154 181
132 153 180
133 153 180
133 154 181
133 153 180
134 154 181
133 154 181
133 154 180
133 154 181
134 154 181
135 155 181
134 154 181
133 154 181
134 154 180
133 154 181
134 154 181
134 154 180
133 154 181
133 154 181
134 154 181
134 154 181
133 154 181
134 154 180
134 154 181
134 154 181
133 153 180
135 155 181
134 154 181
133 154 181
132 153 180
133 153 180
134 154 181
134 154 180
134 154 181
133 154 181
133 154 180
134 154 181
135 155 181
133 154 181
133 154 181
132 153 179
132 153 181
134 154 180
134 154 181
133 154 181
134 154 181
133 154 181
133 154 180
133 153 180
135 155 181
133 154 181
133 154 181
133 154 180
133 154 181
134 154 180
134 154 181
133 153 180
133 154 181
133 154 181
133 154 181
134 154 181
135 155 181
133 154 181
133 154 181
134 154 181
134 154 180
133 154 181
134 154 181
134 154 181
134 154 181
135 155 181
133 153 180
134 154 181
134 154 181
133 154 181
134 154 180
134 154 181
134 154 181
134 154 181
133 154 181
133 154 180
133 154 181
134 154 181
134 154 181
134 154 180
134 154 181
134 155 181
134 154 180
133 154 180
134 154 181
134 154 181
134 155 181
133 153 180
134 154 181
134 154 181
133 154 180
134 154 181
134 154 180
134 154 180
134 154 181
134 154 181
134 154 180
134 154 181
133 153 180
134 154 181
133 153 180
134 154 180
134 154 181
134 154 180
133 153 179
134 154 181
134 154 181
134 154 181
134 154 181
133 153 180
133 153 180
134 154 181
133 154 181
134 154 181
133 154 181
134 154 180
133 154 180
134 154 181
133 154 181
135 155 181
134 154 181
134 154 181
134 153 179
133 153 180
134 154 181
134 154 181
134 154 181
135 155 181
133 153 180
133 154 181
134 154 181
133 154 180
135 155 181
133 154 181
133 154 181
135 155 181
134 154 180
134 154 181
133 154 180
133 154 181
134 155 181
134 154 181
133 153 180
134 154 181
134 154 181
133 154 180
134 154 181
134 154 181
133 153 180
134 154 181
134 154 181
133 154 181
133 154 180
134 155 181
134 154 181
134 154 181
134 154 181
133 154 181
133 154 180
133 154 181
134 154 181
133 153 180
133 154 181
135 154 180
133 153 180
133 154 181
134 154 180
134 154 181
134 154 181
134 154 181
134 154 181
133 154 181
134 154 181
134 154 180
133 154 181
134 154 181
133 154 180
134 154 181
134 154 181
134 154 180
134 154 181
133 154 181
133 153 180
133 154 181
135 155 181
134 154 181
134 154 181
134 154 181
134 154 181
134 154 181
134 154 181
134 154 180
133 154 181
133 154 181
133 154 181
133 154 181
134 154 181
134 154 181
133 154 181
135 155 181
134 154 181
134 154 181
134 154 181
134 154 181
134 154 181
134 154 180
134 154 181
133 154 181
133 154 181
134 154 181
134 154 181
134 154 181
134 154 181
134 154 181
133 154 181
134 154 181
135 155 181
134 155 181
133 154 181
134 154 181
134 154 181
134 154 181
134 154 181
133 154 181
133 154 181
134 154 181
133 154 181
134 154 181
133 154 181
133 154 181
134 154 181
134 154 181
134 154 181
132 153 181
134 155 181
134 154 181
134 154 180
133 154 180
133 154 181
135 155 181
133 154 181
134 154 181
134 154 181
134 154 181
133 154 181
134 154 181
134 154 181
133 154 181
134 154 181
134 154 181
134 154 181
133 154 181
134 154 181
134 154 181
132 153 180
133 154 181
133 154 181
134 154 181
133 154 181
134 154 181
133 154 181
134 154 181
133 154 181
133 154 181
134 154 181
134 154 181
134 154 181
134 154 181
133 154 181
134 154 181
135 155 181
133 154 181
134 154 181
134 154 181
133 154 181
134 155 181
133 153 180
134 154 181
134 154 181
134 154 181
134 154 181
134 154 181
134 154 181
134 154 181
135 155 181
134 154 181
133 154 181
135 155 181
135 155 181
133 154 181
134 154 180
134 154 181
134 154 181
134 154 181
134 154 181
134 155 181
133 154 181
134 154 181
134 154 181
133 154 181
134 154 181
134 154 181
134 154 181
133 154 181
134 154 181
133 154 181
133 154 181
133 154 181
134 154 181
134 154 181
134 154 181
134 154 181
134 154 181
134 154 181
133 154 180
135 155 181
134 154 181
134 154 181
134 154 181
134 154 181
133 154 181
134 154 181
133 154 181
133 154 181
133 153 180
134 154 181
133 154 180
133 154 181
134 154 181
134 154 181
134 154 181
135 155 181
134 154 181
133 154 180
133 154 181
134 154 180
135 155 181
134 154 181
133 154 181
134 154 181
134 154 181
134 154 181
134 154 181
134 155 181
134 154 181
133 154 181
135 155 181
134 154 181
134 154 181
134 155 181
134 154 181
134 154 181
134 154 181
134 154 181
133 154 181
133 154 181
132 153 181
134 154 181
134 154 181
134 154 181
133 154 181
134 154 181
133 154 181
134 154 180
133 154 181
134 154 181
134 154 180
133 154 181
133 154 181
134 154 180
133 154 181
134 154 181
133 154 181
133 154 180
133 154 181
133 153 180
134 154 181
133 154 181
133 154 181
132 153 181
134 154 181
134 154 181
133 154 180
134 155 181
134 154 181
133 154 181
134 154 181
132 152 179
133 154 181
135 155 181
133 153 180
134 154 181
134 154 180
134 154 181
134 154 181
133 154 181
133 154 181
135 155 181
133 154 181
134 154 181
134 154 181
133 154 180
133 154 181
133 153 180
134 154 181
133 153 180
134 154 180
133 154 180
133 153 180
134 154 181
133 154 180
133 154 181
134 155 181
135 155 181
134 154 180
134 154 181
133 154 180
135 155 181
133 153 180
133 154 181
133 154 181
133 154 181
134 154 181
133 154 181
135 155 181
134 154 181
133 154 181
133 154 181
133 154 180
134 154 181
133 154 181
133 154 180
134 154 180
133 153 180
133 153 180
134 154 180
133 154 181
133 153 180
134 154 181
133 154 180
132 153 180
134 154 181
132 153 180
133 154 180
134 154 181
133 154 181
133 154 180
133 154 180
133 153 180
135 154 180
134 154 180
133 154 181
133 153 180
133 153 180
134 154 180
134 154 181
134 154 181
133 154 180
133 154 180
135 155 181
132 153 180
133 154 180
134 154 181
134 154 181
133 153 180
134 154 181
134 154 181
134 154 179
133 153 180
133 153 180
133 153 180
133 154 181
134 154 181
134 154 180
133 154 180
134 154 181
133 154 181
134 154 181
133 153 180
133 154 180
134 154 181
134 154 181
133 154 180
133 154 181
132 153 179
133 153 180
133 153 180
133 153 180
134 154 181
133 154 181
134 154 181
134 154 180
133 153 180
134 154 181
134 154 181
134 154 181
134 154 180
134 154 181
133 153 179
133 154 180
134 154 181
133 154 181
134 154 181
133 153 180
133 154 181
134 154 180
134 154 181
134 154 180
133 154 181
134 154 181
134 154 181
134 154 180
133 154 181
133 154 180
134 154 181
135 155 181
133 154 181
134 154 181
134 154 181
133 154 180
134 154 181
133 154 181
134 154 181
134 154 180
133 154 181
133 154 181
134 154 180
134 154 181
134 154 181
132 153 180
134 154 181
133 154 180
133 154 180
133 153 180
133 153 180
133 154 180
134 154 181
134 154 181
134 154 181
134 154 181
134 154 181
134 154 181
134 154 181
134 155 181
133 154 181
133 154 181
135 155 181
133 154 181
133 153 180
133 154 181
134 154 180
134 154 181
135 155 181
134 154 181
134 154 181
133 154 181
133 153 180
134 154 181
133 154 181
134 154 181
133 154 181
133 154 180
133 153 180
133 153 180
134 154 180
134 154 180
133 154 181
133 154 181
134 154 181
134 154 181
134 154 180
133 154 181
134 154 181
132 153 180
134 154 181
134 154 181
134 154 181
134 154 181
134 154 180
134 154 181
134 154 180
134 154 181
135 155 181
132 153 181
134 154 181
134 154 181
134 154 181
134 154 181
134 154 180
134 154 181
133 154 180
134 154 181
133 154 181
133 153 180
134 154 181
134 155 181
134 154 181
134 154 181
133 154 181
134 154 180
134 154 181
134 154 181
134 154 181
133 154 181
133 154 181
134 153 179
133 154 181
133 154 180
133 154 181
134 154 181
133 154 181
134 154 181
134 154 181
134 154 181
133 153 180
134 154 181
134 154 181
134 154 181
133 154 181
133 154 181
133 154 181
134 154 181
134 154 181
134 154 181
133 154 181
133 154 181
134 154 181
134 154 181
135 155 181
134 154 181
134 154 181
133 154 181
134 154 181
135 155 181
134 154 181
134 154 180
134 154 181
134 154 181
135 155 181
134 155 181
133 154 181
134 154 181
134 154 180
134 154 180
133 154 181
134 154 181
134 154 181
134 155 181
134 154 181
134 154 181
133 154 180
134 154 181
134 154 181
133 154 181
133 154 181
134 154 181
133 154 181
134 154 181
133 154 180
134 154 181
134 154 181
134 154 181
134 154 181
134 154 181
134 154 181
133 154 181
133 154 181
133 154 181
134 154 181
134 154 181
133 154 181
134 154 181
134 154 181
133 154 181
134 154 180
134 155 181
134 154 181
134 154 181
134 154 181
134 154 181
134 154 181
133 154 181
134 154 181
134 154 181
134 154 181
133 154 181
133 154 181
133 154 181
134 154 181
133 154 181
134 155 181
134 154 181
134 154 181
133 154 181
133 154 181
134 154 181
134 154 181
133 154 181
135 155 181
134 154 181
133 154 181
134 154 181
134 154 181
134 154 181
134 154 181
135 155 181
134 154 181
135 155 181
133 154 181
134 154 181
133 154 181
134 154 181
134 154 181
134 154 181
134 154 181
134 155 181
135 155 181
133 154 181
133 154 181
134 154 181
133 154 181
134 154 181
134 154 181
133 154 181
133 154 181
133 154 181
134 154 181
133 154 181
132 153 180
134 154 180
134 154 181
133 154 181
134 154 181
133 154 181
133 154 181
134 154 181
134 154 181
134 154 181
133 154 181
134 154 181
133 154 181
134 154 181
134 154 181
133 153 180
133 154 181
134 154 181
133 154 181
134 154 181
134 154 181
134 154 181
134 154 181
132 153 180
134 154 181
133 154 181
134 154 180
133 154 181
134 154 181
133 154 181
133 154 181
133 154 181
133 154 181
134 154 181
134 154 181
134 154 181
133 154 181
134 154 181
135 155 181
133 153 180
134 154 181
135 155 181
133 154 181
134 154 181
134 154 181
134 154 181
133 154 181
133 153 180
134 154 181
133 154 180
133 154 181
134 154 181
133 154 181
133 154 181
133 153 180
134 154 181
133 154 181
133 154 181
134 154 181
134 154 181
133 154 180
134 154 181
134 154 181
134 154 181
134 154 181
134 154 181
134 154 180
134 154 181
132 153 181
132 153 180
132 153 180
134 154 181
133 154 181
134 154 181
134 154 181
134 154 181
134 154 181
133 154 181
133 154 181
134 154 181
134 154 181
133 154 181
133 153 180
134 154 181
133 154 181
133 154 180
134 154 181
132 153 181
133 154 181
133 154 181
132 153 180
134 154 180
133 154 181
133 154 181
134 154 181
134 154 181
133 154 181
134 154 181
134 154 181
134 154 181
134 154 181
133 154 181
133 154 181
134 154 181
134 154 181
133 153 180
133 154 181
134 154 181
133 154 181
134 154 181
133 154 181
134 154 181
133 154 180
134 154 181
134 154 181
134 154 180
135 155 181
134 154 181
133 153 180
134 154 181
134 154 180
133 154 180
133 154 180
134 154 181
134 154 180
134 154 181
134 154 181
134 154 181
133 154 180
134 154 181
133 154 181
134 154 181
133 154 180
133 153 180
133 154 181
133 153 180
134 154 181
135 155 181
134 154 181
133 154 181
133 154 181
133 154 181
132 153 180
134 154 181
134 154 181
133 153 180
134 154 181
134 155 181
133 154 180
133 153 180
134 154 180
134 154 181
134 154 181
132 153 179
134 154 181
132 153 180
133 153 180
133 154 181
133 154 181
133 154 180
133 154 181
134 154 181
133 154 180
134 154 180
133 154 180
134 154 181
134 154 181
135 155 181
134 154 180
134 154 181
133 154 180
134 154 181
134 154 181
132 153 181
134 154 181
133 154 181
133 153 180
134 154 181
134 154 180
132 153 180
133 154 181
133 154 181
134 154 181
133 154 181
133 154 181
133 154 181
133 153 180
134 154 181
133 153 180
134 154 180
134 154 181
134 154 181
133 154 181
133 153 180
134 154 181
133 154 181
133 154 181
135 155 181
133 154 180
134 154 181
133 153 180
134 154 181
134 154 181
134 154 181
134 154 181
133 154 181
133 153 180
133 154 181
133 154 181
133 154 181
133 154 181
133 154 181
134 154 181
134 154 181
134 154 180
134 154 181
134 154 181
134 154 181
134 154 181
133 154 181
133 153 180
135 155 181
135 155 181
134 153 179
134 154 181
134 154 181
134 154 181
133 154 181
134 154 181
134 154 181
133 154 181
134 154 181
134 154 181
134 154 181
134 154 181
134 154 181
133 154 181
133 154 180
134 154 181
133 153 180
133 154 181
134 154 181
134 154 181
133 154 181
133 153 180
133 154 181
134 154 181
134 154 181
133 154 181
134 154 181
134 154 181
135 154 180
133 153 180
133 154 180
134 154 181
133 154 180
133 154 181
133 154 181
135 155 181
134 154 181
135 155 181
133 154 181
134 154 181
134 154 181
133 154 181
134 154 181
133 154 181
134 154 181
134 154 181
134 154 181
134 154 181
134 154 181
134 154 181
133 154 181
134 155 181
133 153 180
133 154 181
134 154 181
134 154 181
134 154 181
133 154 181
134 154 181
134 155 181
133 153 180
133 154 181
134 154 181
134 154 181
133 154 181
133 154 181
134 154 181
133 154 181
133 154 181
134 154 181
133 154 181
134 154 181
133 154 180
133 154 181
134 154 181
133 154 181
133 154 181
134 154 181
134 154 181
135 155 181
134 154 180
133 154 181
133 153 180
133 154 181
134 154 181
134 154 181
134 154 181
134 154 181
133 153 180
133 154 181
135 155 181
134 154 181
134 154 181
134 154 181
134 154 181
134 154 181
134 154 180
133 154 181
133 153 180
133 154 181
134 154 181
135 155 181
134 154 181
133 154 180
134 154 181
134 154 181
134 155 181
133 154 181
133 154 181
133 154 181
134 154 181
133 154 181
134 154 181
133 154 181
134 155 181
133 154 181
134 154 181
134 154 181
135 155 181
134 154 180
133 154 181
135 155 181
135 155 181
134 154 181
133 154 181
134 154 181
134 154 181
134 154 181
134 154 181
134 154 181
135 155 181
135 155 181
133 154 181
134 154 181
134 154 181
133 154 181
135 155 181
134 154 181
134 154 181
133 154 181
134 154 181
133 153 179
133 154 181
133 154 181
134 154 181
134 154 181
134 155 181
133 154 181
134 154 181
134 154 181
134 154 181
134 154 181
134 154 181
133 154 181
133 154 181
133 154 181
134 154 181
133 154 181
135 155 181
134 154 181
135 155 181
133 154 181
133 154 181
134 154 181
134 154 181
133 154 181
134 154 181
134 154 181
134 154 181
134 154 181
134 154 181
133 153 180
133 154 181
134 154 181
133 154 181
133 154 181
134 154 181
133 154 181
134 154 181
134 154 181
134 154 181
134 154 181
134 154 181
133 154 181
135 155 181
134 154 181
134 154 181
134 154 181
134 154 181
134 154 181
134 154 181
134 154 181
134 154 181
134 154 181
133 154 181
133 154 181
133 154 180
133 154 181
133 154 181
134 154 181
134 154 181
134 155 181
134 154 181
133 154 181
133 154 181
134 155 181
133 153 180
133 154 181
135 155 181
134 154 181
132 154 181
134 154 180
133 154 181
135 155 181
133 154 181
134 154 180
134 154 180
134 154 181
133 154 181
133 154 181
134 154 180
134 154 181
133 153 180
134 154 181
133 154 181
133 154 181
133 154 181
134 154 181
134 154 181
134 154 181
133 154 181
134 154 181
134 154 181
133 154 180
134 154 181
134 154 181
133 154 181
134 154 181
133 154 181
134 154 181
134 154 181
133 154 180
134 154 180
134 154 181
133 154 181
134 154 181
134 154 181
133 154 181
133 154 181
134 154 181
134 154 181
134 154 181
134 154 181
133 154 181
133 154 181
134 154 181
133 154 181
133 153 180
133 153 180
134 154 181
133 154 180
132 153 180
133 154 181
133 154 181
133 153 180
133 154 180
133 154 181
133 154 181
133 153 180
134 154 181
133 154 181
133 154 180
134 154 181
133 153 180
134 154 180
133 154 180
135 155 181
133 154 181
133 154 181
133 154 181
133 154 181
133 154 181
134 154 181
134 154 181
134 154 181
132 153 180
134 154 180
133 154 181
133 154 180
133 153 180
134 154 181
134 154 181
134 154 181
134 154 181
134 154 181
133 154 181
135 154 180
134 154 181
133 154 181
133 154 181
133 153 180
134 153 180
134 154 181
134 154 181
133 154 181
134 155 181
132 153 180
133 154 181
134 154 181
133 153 180
133 153 180
134 154 181
134 154 181
133 154 181
133 153 180
134 154 181
134 154 180
132 153 181
134 154 181
134 154 181
134 154 181
133 154 181
134 154 181
134 154 180
133 154 180
134 154 181
133 154 181
133 154 180
134 154 181
134 154 181
133 154 181
134 154 181
133 153 180
133 154 181
134 154 181
134 154 181
134 154 181
133 154 181
132 153 180
134 154 180
134 154 181
134 154 181
134 154 181
133 154 181
134 154 181
134 154 181
134 154 181
134 154 180
134 155 181
133 153 180
133 154 180
134 154 180
133 154 180
134 154 181
134 155 181
134 154 180
133 154 180
134 154 181
134 154 181
134 155 181
134 154 181
133 154 181
134 154 181
134 154 181
133 154 181
133 154 181
134 154 181
134 154 181
134 154 180
133 154 181
133 153 180
134 154 181
133 154 181
134 154 180
134 154 181
133 154 180
134 154 181
134 154 181
133 154 181
133 154 181
133 154 181
134 154 181
133 154 180
134 154 181
134 154 181
134 154 181
133 154 180
134 154 181
133 154 181
134 154 181
134 154 181
133 154 180
134 154 181
134 154 181
135 154 180
134 154 181
135 155 181
133 154 181
134 154 181
133 154 180
134 154 181
133 154 181
134 154 180
135 155 181
133 153 180
134 154 181
133 153 180
134 154 181
133 154 181
134 154 180
134 154 181
134 154 181
133 153 179
133 154 181
134 154 181
133 154 181
134 155 181
133 153 180
134 155 181
134 154 180
134 154 181
133 154 181
134 154 180
134 154 181
133 153 180
134 154 181
133 154 181
134 154 181
133 154 181
134 154 181
134 154 181
133 154 181
134 154 181
134 154 181
133 154 181
133 154 181
133 154 181
134 154 181
132 154 181
134 154 180
134 154 181
134 154 181
134 154 181
134 154 181
133 154 180
134 154 181
134 154 180
133 154 180
135 154 180
134 154 181
134 154 181
133 153 180
134 154 181
133 154 181
135 155 181
134 154 180
134 154 181
134 154 181
135 155 181
133 154 181
135 155 181
134 154 181
134 154 181
134 154 181
134 154 181
133 154 181
134 154 181
132 153 180
135 155 181
134 154 181
134 154 181
133 154 181
134 154 181
134 154 181
134 154 181
134 154 181
134 154 181
134 154 181
134 154 181
134 154 181
134 154 181
134 154 181
134 154 181
133 154 181
134 154 181
134 154 181
133 153 180
134 154 181
133 153 180
133 154 181
134 154 180
133 154 181
133 154 181
133 154 181
134 154 181
134 154 181
134 154 180
133 154 181
134 154 181
134 154 181
134 154 181
135 155 181
134 154 181
133 153 180
133 154 181
134 154 181
134 154 181
134 154 181
133 154 181
135 155 181
133 154 181
134 154 181
134 154 181
133 154 181
134 154 181
134 154 181
134 154 181
135 155 181
134 154 181
134 154 181
135 155 181
134 154 181
134 154 181
134 154 181
133 154 181
134 154 181
134 154 181
135 155 181
135 155 181
133 154 181
134 154 181
133 154 181
134 154 181
133 154 180
134 154 181
133 154 181
133 154 181
134 154 181
134 154 181
134 154 181
134 154 181
133 154 181
134 154 181
134 154 181
134 154 181
134 154 181
134 154 181
133 154 180
134 154 181
133 154 181
133 154 181
134 154 181
134 154 180
133 154 181
133 154 181
133 154 181
134 154 181
134 154 181
134 154 181
133 154 181
134 154 181
133 154 181
133 154 181
134 154 181
133 154 181
134 154 180
133 154 181
134 154 181
134 155 181
134 155 181
134 154 181
134 154 181
133 154 181
133 154 181
132 154 181
134 155 181
134 154 180
134 154 181
134 154 180
134 154 181
133 154 181
134 154 181
134 154 181
134 154 181
133 154 181
133 154 181
134 154 181
134 154 181
132 153 180
134 154 181
133 154 181
132 153 181
133 153 180
134 154 181
134 154 181
134 154 181
133 154 181
134 154 181
134 154 181
134 154 181
134 154 181
134 154 181
133 154 181
134 155 181
134 154 181
134 154 181
134 154 181
133 154 181
134 154 181
134 154 181
134 154 181
134 155 181
133 154 181
134 154 181
134 154 180
134 154 181
134 154 181
133 154 180
133 154 181
134 154 181
134 154 181
133 154 181
135 155 181
134 154 181
133 154 181
134 154 181
134 154 180
133 154 181
133 154 181
134 154 181
133 154 181
133 154 181
135 155 181
134 154 181
134 154 181
133 154 181
134 155 181
133 154 181
133 153 180
133 153 180
134 154 181
133 154 181
134 154 181
132 153 180
134 154 181
134 154 181
134 154 180
135 155 181
134 154 181
133 154 181
134 154 181
133 154 181
133 154 181
134 154 181
135 155 181
134 154 180
133 153 179
134 154 181
134 154 181
134 154 181
135 155 181
133 154 181
135 155 181
134 154 181
133 154 181
134 154 181
134 154 181
133 154 181
134 154 180
133 154 181
135 155 181
133 154 181
132 153 181
134 154 181
135 155 181
134 154 181
134 154 181
134 154 181
134 154 181
132 153 179
134 154 181
133 154 181
133 154 180
134 154 181
133 154 181
134 154 181
134 154 181
134 154 181
134 154 181
134 154 181
134 154 181
133 154 181
133 154 181
134 154 181
134 154 181
133 153 180
133 153 180
133 154 180
133 154 181
134 154 181
133 154 181
134 154 181
134 154 181
133 154 181
134 154 181
134 154 181
133 154 181
134 154 181
133 154 181
134 154 181
133 154 181
134 154 180
133 154 180
134 154 181
134 154 181
134 154 181
133 154 181
134 154 181
134 154 180
133 154 180
134 154 181
134 154 181
133 154 181
133 153 180
134 154 181
134 154 181
134 154 181
133 154 181
133 154 181
133 154 180
134 154 181
134 154 181
135 155 181
133 154 181
134 154 181
135 155 181
134 154 181
133 154 181
133 154 180
134 154 181
134 154 181
134 154 181
134 154 180
133 154 181
134 154 181
133 154 181
132 153 180
134 154 181
133 154 181
133 154 181
134 154 181
133 154 181
133 154 181
135 154 180
134 154 181
134 154 181
133 154 181
134 154 181
133 154 181
133 154 181
134 154 181
134 154 181
134 154 180
133 153 180
134 154 181
133 154 180
134 154 181
134 154 181
134 154 181
133 154 181
134 154 180
133 154 181
134 154 181
134 154 181
134 154 180
134 154 181
134 155 181
133 154 181
133 154 181
133 153 180
134 154 181
134 154 181
134 154 181
133 154 181
133 154 181
133 154 181
135 155 181
133 153 180
134 154 181
133 154 181
133 154 181
134 154 181
134 154 181
135 155 181
134 154 181
133 154 181
133 154 181
134 154 181
134 154 181
134 154 181
134 155 181
134 154 181
133 154 181
134 154 181
134 154 181
132 153 181
133 154 181
134 154 181
134 154 181
133 154 181
133 154 181
133 154 181
134 154 181
134 154 181
135 155 181
134 154 181
134 154 181
133 154 181
134 154 181
134 154 181
134 154 181
134 154 181
134 154 181
133 154 181
133 154 180
133 154 181
134 154 180
133 154 181
135 155 181
133 154 181
134 154 181
133 154 181
134 155 181
133 154 181
134 154 181
134 154 181
133 154 181
134 154 181
133 154 181
134 154 181
134 154 181
134 155 181
133 154 181
133 153 180
134 154 181
133 154 181
133 154 181
133 154 181
134 154 181
134 154 181
134 155 181
134 154 181
134 154 181
135 155 181
133 154 181
133 154 181
134 155 181
134 154 181
134 154 181
134 154 181
133 154 181
134 154 181
134 154 181
134 154 181
134 154 181
134 154 181
134 154 181
133 153 179
133 153 180
134 154 181
134 155 181
133 154 181
133 154 181
134 154 181
133 154 181
133 154 181
133 154 181
134 154 181
135 155 181
134 154 181
133 154 181
134 154 181
133 154 181
134 154 181
133 154 180
133 154 181
134 154 181
135 155 181
134 154 181
134 154 181
133 154 181
134 154 181
134 154 181
134 154 181
134 154 181
133 154 181
133 154 181
135 155 181
133 154 181
133 154 181
134 154 180
133 154 180
133 154 181
133 154 181
134 154 181
134 154 181
133 154 181
134 154 181
134 154 181
133 154 181
133 154 180
133 154 181
134 154 181
134 154 181
135 155 181
133 154 181
134 155 181
134 154 181
133 154 181
134 154 181
134 154 181
134 154 181
134 154 181
134 154 181
134 154 180
133 154 181
132 153 181
134 154 181
134 154 181
134 154 181
133 154 181
134 154 181
133 154 181
133 154 180
133 154 181
133 154 181
134 154 181
133 154 181
133 154 181
134 154 181
133 154 181
134 154 181
135 155 181
133 154 181
134 154 181
134 154 181
134 154 181
134 154 181
133 154 181
135 155 181
133 154 181
134 154 181
134 154 181
133 154 181
134 154 181
134 155 181
134 154 181
132 153 180
134 154 181
134 154 181
134 154 181
134 154 181
133 154 181
134 154 181
134 154 181
134 154 181
134 154 181
134 154 181
134 154 181
134 155 181
134 154 181
134 154 181
133 154 181
134 154 181
134 154 181
133 154 181
133 154 181
134 154 181
133 154 181
133 154 181
133 154 181
134 154 181
133 153 180
134 154 181
134 154 181
133 154 181
134 154 181
134 154 181
134 154 181
133 154 181
133 154 181
134 154 181
133 154 181
134 154 181
134 154 181
134 154 181
134 154 181
134 154 181
134 154 181
133 154 181
134 154 181
134 154 181
133 154 181
134 154 181
134 154 181
134 154 181
133 154 181
133 154 181
134 154 180
134 154 181
134 154 181
133 154 180
134 154 181
134 154 180
135 155 181
135 155 181
133 154 181
134 154 181
133 154 181
135 155 181
134 154 181
134 154 181
133 154 181
133 153 180
134 154 181
134 154 181
134 154 180
134 154 181
135 155 181
133 154 181
134 154 181
134 154 181
133 154 180
134 155 181
134 154 181
134 154 181
134 155 181
133 154 181
134 154 181
134 154 181
133 154 181
133 154 181
133 154 181
133 153 180
133 154 181
134 154 181
133 154 181
134 154 181
133 154 181
134 154 180
134 155 181
134 155 181
135 155 181
134 154 181
133 153 180
135 155 180
134 154 181
134 154 181
134 154 181
133 154 181
134 154 181
134 154 180
133 154 181
134 154 181
134 154 181
134 154 181
133 154 181
133 154 181
134 154 181
135 155 181
134 154 181
134 154 181
132 153 181
133 154 180
134 154 181
134 154 181
133 154 181
133 153 180
134 154 181
133 154 181
134 154 181
134 154 181
134 154 181
133 154 180
133 154 181
134 154 181
134 154 181
134 154 181
133 154 181
133 154 181
134 154 181
135 155 181
134 154 181
134 154 181
133 154 181
134 154 181
133 154 181
133 154 181
135 155 181
134 154 180
134 154 181
133 154 181
134 154 180
133 154 181
133 154 180
132 153 180
135 155 181
133 153 180
134 154 181
133 154 181
134 154 181
134 154 181
133 154 181
133 154 181
134 154 181
134 154 180
133 154 181
133 154 181
134 154 180
134 154 181
133 153 180
134 154 180
133 153 180
133 153 180
133 154 180
133 154 181
133 154 181
134 154 181
133 154 180
133 154 181
133 154 180
135 155 181
133 154 180
133 154 181
133 154 180
134 154 181
134 154 181
134 155 181
134 154 181
133 154 181
134 154 181
133 153 180
134 154 181
134 154 181
134 154 181
134 154 181
132 153 180
134 155 181
134 154 181
133 154 181
135 155 181
135 155 181
134 154 181
134 154 181
133 154 181
134 154 181
134 154 181
133 154 181
134 154 180
133 154 181
133 154 181
134 154 181
133 154 181
133 154 181
133 154 181
134 154 181
133 154 181
133 154 181
133 154 180
134 154 181
133 154 181
134 154 180
134 154 180
134 154 181
134 154 180
134 154 180
134 154 181
134 154 181
134 154 180
134 154 181
133 154 181
133 154 181
134 154 181
134 154 181
134 154 181
134 154 181
134 154 180
134 154 181
133 154 181
134 154 180
134 154 181
133 154 181
134 154 181
134 154 180
133 154 181
133 154 181
134 154 181
133 154 181
133 153 180
134 154 181
134 154 181
133 154 180
133 154 181
135 155 181
134 154 181
134 154 181
135 155 181
135 155 181
134 154 181
134 154 181
134 154 180
133 154 181
134 154 181
133 154 180
133 154 181
134 154 181
134 154 181
135 155 181
134 154 180
133 154 181
134 154 181
134 154 181
134 154 180
133 154 181
134 154 181
134 154 181
133 154 181
134 154 181
133 154 181
133 154 181
134 154 181
134 154 181
134 154 181
133 154 181
134 154 181
133 154 181
134 154 181
134 154 181
133 153 180
133 154 181
134 154 180
133 154 181
134 154 181
134 154 181
133 154 181
133 154 181
134 154 181
134 154 181
134 154 181
135 155 181
134 154 181
134 154 181
134 154 181
133 154 181
134 154 181
134 154 181
133 154 181
134 154 181
133 154 181
134 154 181
134 154 181
134 154 181
133 154 181
134 154 181
134 154 181
133 154 181
133 154 181
134 154 181
133 154 181
133 154 181
134 154 181
134 154 181
134 154 181
134 154 181
133 154 181
133 153 179
133 154 181
134 154 181
134 154 181
133 154 181
135 155 181
134 154 181
134 154 181
133 154 181
134 154 181
134 154 181
134 154 181
135 155 181
134 154 181
133 154 181
134 154 181
134 154 181
134 154 181
134 154 181
134 154 180
134 154 181
133 154 181
134 154 181
133 154 181
134 154 181
133 154 181
135 155 181
134 154 181
133 154 181
132 153 181
134 154 181
134 154 181
134 154 181
133 153 180
133 153 180
134 154 181
133 154 181
134 154 180
135 155 181
134 154 181
134 154 181
133 154 181
134 154 180
134 154 181
134 154 180
133 154 181
134 154 181
134 154 181
133 154 181
134 154 181
134 154 181
134 154 181
133 154 181
134 154 181
134 154 181
135 155 181
134 155 181
134 154 181
133 154 181
134 154 181
134 154 181
133 154 181
134 154 181
134 154 181
134 154 181
134 154 181
134 154 181
134 155 181
134 154 181
133 154 181
133 154 181
134 154 180
134 154 181
134 154 181
133 154 181
134 154 181
134 154 181
133 154 181
134 154 181
134 154 180
134 154 181
135 155 181
134 154 181
133 154 181
135 155 181
134 154 181
135 155 181
134 154 181
133 154 181
134 154 181
134 154 181
133 154 181
134 154 181
135 155 181
133 154 181
134 154 181
133 154 181
133 154 181
134 154 181
133 154 181
134 154 180
134 154 181
134 154 181
133 154 181
134 154 180
134 154 180
134 154 181
134 154 181
133 154 181
134 154 181
133 154 181
133 154 180
134 154 181
134 154 181
134 154 181
134 154 181
134 154 181
134 154 181
134 154 181
134 154 181
134 154 181
135 155 181
134 154 181
133 154 181
135 155 181
134 154 181
134 154 181
133 154 181
134 154 181
134 154 181
134 154 181
135 155 181
133 154 181
134 154 180
134 154 181
134 154 180
135 155 181
133 154 181
133 154 181
134 154 181
134 154 181
134 154 181
133 154 181
134 154 181
133 154 181
133 154 180
134 155 181
134 154 181
133 154 181
134 154 181
133 154 181
133 154 181
134 154 181
134 154 181
134 154 181
133 154 181
133 153 180
134 154 181
133 154 181
133 154 181
133 154 181
134 154 181
133 154 181
133 153 180
133 154 181
133 154 181
133 154 181
134 154 181
134 154 181
133 154 181
134 154 181
133 154 181
133 154 181
134 154 181
134 154 180
134 154 181
134 154 181
134 154 181
134 154 181
133 153 180
133 154 181
134 154 181
134 154 181
134 154 181
134 154 181
134 154 181
133 154 181
134 154 181
134 155 181
134 154 181
133 154 181
134 154 181
135 155 181
134 154 181
133 154 180
134 154 181
134 154 181
133 154 181
133 153 180
134 154 181
134 154 181
134 154 181
133 154 181
133 153 179
133 153 180
134 154 181
133 153 180
134 154 180
134 154 181
133 154 181
133 153 180
133 154 181
133 154 181
133 154 181
133 153 180
134 154 181
134 154 181
133 154 181
134 154 181
132 153 180
134 154 180
133 154 181
134 154 181
133 154 180
134 154 181
134 154 181
134 154 181
134 154 181
133 154 181
134 154 181
133 154 181
133 153 180
134 154 181
132 153 180
134 154 181
134 154 180
133 154 181
134 154 181
134 154 181
133 153 180
133 154 181
134 154 180
134 154 181
134 154 180
134 154 181
133 154 181
134 154 181
134 154 180
134 154 181
133 153 180
134 154 181
134 154 181
133 154 181
134 154 181
133 154 181
134 154 181
134 154 181
133 154 180
133 153 180
134 154 181
133 154 181
134 155 181
134 154 181
134 154 181
133 154 181
134 154 181
134 154 181
134 154 181
134 154 181
134 154 181
133 154 181
134 154 181
134 154 181
133 153 180
134 154 181
133 154 181
134 154 180
133 153 180
133 154 181
135 155 181
134 154 181
133 154 181
134 154 180
134 154 181
134 154 180
133 153 180
133 154 180
134 154 180
134 154 180
134 154 181
133 154 181
134 154 181
133 154 180
134 154 181
133 154 181
134 154 181
134 154 181
134 154 181
133 154 180
133 153 180
133 154 181
134 154 181
135 155 181
135 155 181
134 154 181
134 154 181
133 154 180
134 154 181
134 154 180
133 154 180
133 154 181
133 154 181
133 153 180
133 153 179
133 153 180
133 154 181
133 154 181
134 154 181
134 154 181
135 155 181
134 154 180
134 154 181
134 154 181
133 154 181
133 154 181
134 155 181
133 154 181
135 155 181
134 154 181
133 154 181
134 153 179
133 154 181
134 154 181
134 154 181
133 154 181
133 154 181
133 153 180
134 154 181
134 154 181
135 155 181
134 154 180
134 154 181
134 154 181
134 154 181
134 154 181
134 154 180
133 154 181
134 155 181
134 154 181
132 153 179
134 154 181
133 154 181
134 154 181
134 154 181
134 154 181
134 154 181
134 154 181
134 154 181
134 154 180
133 154 180
134 154 181
134 154 181
134 154 181
133 154 181
134 154 181
134 154 181
134 154 181
135 155 181
133 154 180
133 154 181
134 154 181
134 154 181
133 154 181
132 153 181
133 154 181
134 154 181
133 154 181
133 154 181
133 154 181
134 154 181
133 154 181
133 154 181
133 154 181
134 154 181
134 154 181
134 154 180
134 154 181
134 154 181
134 154 181
133 153 180
134 154 181
133 154 181
134 154 181
134 154 181
133 153 180
134 154 180
134 154 181
133 154 181
134 154 181
134 155 181
134 154 181
134 154 181
135 155 181
134 154 181
134 154 181
133 154 181
134 154 181
134 154 181
133 154 181
135 155 181
134 154 181
134 154 181
134 154 181
134 154 181
134 154 181
133 153 180
134 154 181
134 154 181
133 154 181
134 154 180
133 154 181
133 154 181
133 154 181
134 154 181
133 154 181
133 154 181
135 155 181
133 154 181
134 154 181
134 154 181
134 154 181
134 154 181
134 154 181
133 153 179
133 154 181
134 154 181
134 154 181
134 154 181
133 154 181
133 154 181
134 154 181
133 154 181
133 154 180
134 154 181
134 154 181
133 153 180
134 154 181
134 154 181
133 154 181
133 154 181
134 154 181
134 154 181
134 154 181
133 154 181
134 154 181
134 154 181
134 154 181
134 154 181
134 154 181
134 154 181
134 154 181
133 154 181
134 154 181
135 155 181
133 154 181
134 154 181
133 154 181
134 154 181
133 153 180
134 154 181
133 154 181
133 154 181
134 154 181
135 155 181
133 154 180
134 154 180
134 154 181
133 154 181
134 154 181
133 154 181
133 154 181
134 154 181
133 154 181
133 154 181
134 154 181
133 153 180
134 154 181
134 154 181
134 154 181
134 154 181
134 154 181
133 154 181
134 155 181
134 154 181
134 154 181
134 154 181
134 154 181
134 154 181
133 153 180
134 154 181
134 154 181
134 154 181
134 154 181
134 154 181
134 154 181
134 154 181
134 154 181
133 154 181
134 154 181
133 154 181
133 154 181
134 154 181
134 154 181
133 154 181
133 154 181
134 154 181
134 154 181
134 154 181
133 154 180
134 154 181
133 154 181
134 154 181
134 154 181
134 154 181
133 154 181
133 154 181
134 154 181
133 154 181
134 154 181
134 155 181
133 154 181
134 154 181
134 154 181
134 154 180
133 154 180
134 154 181
134 154 181
134 154 181
135 155 181
133 154 181
133 154 181
134 154 181
133 154 181
133 154 181
135 155 181
134 154 181
133 154 180
133 154 181
133 154 181
134 154 181
133 154 181
134 155 181
134 154 181
134 154 181
133 154 181
133 154 181
134 154 180
133 154 181
134 155 181
134 154 181
133 154 181
134 155 181
134 154 181
134 154 181
134 155 181
134 154 181
133 154 181
134 154 181
133 154 181
134 154 181
133 154 181
135 155 181
133 154 181
133 154 181
133 154 181
133 153 180
134 154 181
133 154 181
134 154 181
134 154 181
134 154 181
134 154 181
134 154 181
134 154 181
134 154 181
133 153 180
133 154 181
134 154 181
134 154 181
134 154 181
133 154 181
134 154 181
134 154 181
133 154 181
134 154 181
134 154 181
135 155 181
133 154 181
134 154 181
134 154 181
134 154 181
134 154 181
134 154 181
133 153 180
134 154 180
134 154 181
133 154 181
133 154 181
133 154 181
134 154 181
134 154 181
133 154 181
134 154 181
133 154 180
133 154 181
134 154 181
133 154 181
134 154 180
134 154 180
134 154 180
134 154 181
133 153 179
134 154 181
134 154 181
133 154 181
134 154 180
134 154 181
134 154 181
134 154 181
134 154 180
134 154 181
135 155 181
135 155 181
133 154 181
134 153 179
134 154 181
134 154 181
133 154 181
134 154 181
134 154 181
133 154 181
134 154 181
134 154 181
133 154 181
134 154 181
135 155 181
134 154 181
134 154 181
134 154 181
133 154 181
133 154 181
134 154 181
133 154 180
134 154 181
134 154 181
134 154 181
133 154 181
134 154 181
134 154 181
134 154 181
133 154 181
133 154 181
133 153 180
133 154 181
134 154 181
134 154 181
133 154 180
133 154 181
134 154 181
134 154 181
134 154 181
134 154 180
133 153 180
134 154 181
133 154 180
133 154 180
134 154 180
133 154 181
134 154 181
134 154 181
133 153 180
133 154 181
134 154 181
134 154 181
133 154 181
133 154 181
134 154 181
133 154 181
133 154 181
134 154 180
134 154 181
134 154 181
134 154 181
133 153 180
135 155 181
133 154 180
133 154 180
133 154 181
133 154 181
133 154 181
134 154 181
134 154 181
133 154 180
133 153 180
133 154 181
133 154 180
134 154 181
134 154 181
134 154 181
133 154 181
134 154 181
133 154 181
135 155 181
134 154 181
134 154 180
134 154 181
133 154 180
134 154 181
133 154 181
133 154 181
133 154 181
133 153 180
133 154 180
135 155 181
133 154 181
134 154 181
134 154 181
134 154 181
133 153 180
135 155 181
134 154 180
133 153 180
134 154 181
134 154 181
135 155 181
133 153 180
134 154 181
134 154 181
133 154 180
134 154 181
134 154 181
134 154 181
134 154 181
134 154 181
135 155 181
134 154 181
135 155 181
132 153 180
134 154 181
133 154 181
133 154 181
134 154 181
133 154 181
134 154 181
134 154 181
134 154 180
132 153 180
133 153 180
134 154 181
133 154 180
133 154 181
134 154 180
133 154 180
133 154 181
134 154 181
134 154 181
133 154 180
134 154 181
134 154 181
133 153 180
134 154 181
133 154 181
133 154 181
134 154 181
134 154 181
134 154 180
134 155 181
134 154 181
134 154 181
134 154 181
134 154 181
134 154 181
134 154 181
135 155 181
133 154 181
134 154 181
134 154 181
133 154 181
134 154 181
134 154 181
134 154 180
135 155 181
133 154 181
134 154 181
133 154 181
134 155 181
134 154 181
134 154 181
134 154 181
133 153 180
134 154 180
134 154 181
134 154 180
133 153 180
134 154 181
133 153 180
134 154 181
133 154 181
134 154 181
133 154 181
135 155 181
135 155 181
134 154 181
134 154 181
134 154 181
133 154 181
133 154 181
134 154 181
134 154 181
133 154 181
134 154 181
134 154 181
134 154 181
134 155 181
134 154 181
134 154 181
134 154 181
133 154 181
134 154 181
134 154 181
133 154 181
135 155 181
134 154 181
134 154 181
133 154 181
133 154 181
134 154 181
133 154 181
133 153 180
133 154 181
133 154 180
134 154 181
134 154 181
133 154 181
134 154 181
135 155 181
133 154 181
134 154 181
133 154 181
134 154 181
133 154 181
134 154 181
134 154 181
135 155 181
134 154 181
133 154 181
134 154 180
134 154 181
133 154 181
133 154 181
134 154 181
132 153 180
134 154 181
134 155 181
134 154 180
134 154 181
134 154 181
134 154 181
134 154 180
134 154 181
134 154 181
133 154 181
133 154 181
133 154 181
133 154 181
134 154 181
133 154 181
133 154 181
134 154 181
134 154 181
134 154 181
133 154 181
134 154 181
134 154 181
133 154 181
134 154 181
135 155 181
134 154 181
134 154 181
134 154 181
133 154 181
135 155 181
133 154 181
133 154 181
135 155 181
134 154 181
134 154 181
133 154 181
134 154 181
134 154 181
134 154 181
133 154 181
134 154 181
133 154 181
134 154 181
134 154 181
134 154 181
135 155 181
134 154 181
134 154 181
134 154 181
134 154 181
133 154 181
134 154 181
133 153 180
133 153 180
134 154 181
134 154 181
134 154 181
134 154 181
134 154 180
134 154 181
134 154 181
133 154 180
134 154 181
133 154 181
133 154 181
133 154 181
134 154 181
134 154 181
133 154 181
133 154 181
134 154 181
133 154 181
134 154 181
134 154 181
134 154 181
133 154 181
134 154 181
134 154 181
133 154 181
133 154 181
133 154 180
133 154 181
135 155 181
134 154 181
134 154 181
132 153 181
133 154 181
134 154 180
133 154 181
134 154 181
134 154 181
134 154 181
134 154 181
134 154 181
134 154 181
133 154 181
134 154 181
134 154 181
134 154 180
134 155 181
133 153 180
133 154 181
134 154 181
134 154 181
133 154 181
133 154 181
134 154 181
133 153 180
134 154 181
133 154 181
134 154 181
134 154 180
134 154 181
133 154 181
133 154 180
133 154 181
133 154 181
135 155 181
133 154 181
134 154 181
133 153 180
134 154 181
134 154 181
133 154 180
134 154 181
133 154 181
133 154 180
133 154 181
133 154 181
133 154 181
134 154 181
133 153 180
133 154 181
133 154 181
135 155 181
134 154 181
134 154 181
134 154 181
134 154 181
134 154 180
134 155 181
134 154 181
133 154 181
134 154 181
134 154 181
134 154 181
133 154 181
133 154 181
133 154 180
132 153 180
133 154 181
134 154 181
134 154 181
134 154 180
133 154 181
133 154 180
133 153 180
133 154 180
134 154 181
134 154 181
134 154 181
133 154 181
134 154 181
133 154 181
134 154 180
134 154 181
133 153 180
133 153 180
134 153 179
133 154 181
133 154 181
134 154 181
135 155 181
134 154 181
133 153 180
134 154 180
135 155 181
132 153 180
135 155 181
134 154 181
133 154 181
134 154 181
134 154 181
134 154 181
134 154 180
134 154 181
134 154 180
134 154 180
133 154 181
134 154 181
134 154 179
132 153 179
134 154 181
133 154 181
133 153 180
134 154 181
133 154 181
134 154 181
133 154 181
135 155 181
134 154 181
134 154 180
134 154 181
133 154 180
134 154 181
133 154 181
134 154 181
134 154 181
134 154 181
134 154 181
133 154 181
134 154 181
133 154 181
134 154 181
134 154 181
134 154 181
133 154 181
134 154 180
133 154 181
134 154 181
133 154 181
134 154 181
134 154 181
135 155 181
133 154 181
134 154 181
134 154 181
134 154 181
133 154 181
133 154 181
133 153 180
134 154 181
134 154 181
134 154 181
133 154 181
133 154 181
134 154 181
133 154 181
133 154 181
133 154 181
134 154 181
134 154 181
133 154 181
133 154 181
134 154 181
133 154 181
134 154 181
134 154 181
134 154 181
134 154 181
134 154 181
134 154 181
134 154 181
133 154 181
134 154 181
133 154 181
134 154 181
134 154 181
134 154 181
134 154 181
133 153 180
134 154 181
133 154 181
135 155 181
133 154 181
134 154 181
134 154 181
134 154 181
135 155 181
134 154 181
134 154 181
134 154 181
134 155 181
134 154 181
135 155 181
133 153 180
133 154 181
133 153 180
135 155 181
133 154 181
134 154 181
134 154 181
135 155 181
133 154 180
134 154 181
134 154 181
134 154 181
134 154 181
133 154 181
134 154 181
133 153 180
134 154 181
134 154 181
134 154 181
134 154 180
134 154 181
133 154 181
135 154 180
133 154 181
134 154 180
134 154 181
134 154 181
133 154 181
134 154 181
133 154 181
134 154 181
133 154 181
134 154 180
134 154 181
134 154 181
134 155 181
134 154 181
133 154 181
134 154 181
134 154 181
134 154 181
134 154 181
134 154 181
135 155 181
134 154 181
133 154 181
134 154 181
133 154 181
134 154 181
134 154 181
133 154 181
134 154 181
133 154 181
135 155 181
134 154 181
134 154 181
133 154 181
133 154 180
133 154 181
134 154 181
135 155 181
134 154 180
134 154 181
134 154 181
134 154 180
133 154 181
134 154 181
134 154 181
135 155 181
134 154 181
134 154 181
133 154 181
134 155 181
134 154 181
134 154 181
133 154 181
134 154 181
133 154 181
133 154 181
134 154 180
134 154 181
133 153 180
133 154 181
134 154 181
135 155 181
134 154 181
133 154 181
133 154 180
134 154 180
134 154 181
135 155 181
133 154 181
134 154 181
134 154 181
134 154 181
133 153 180
134 154 181
134 155 181
135 155 181
134 154 181
134 154 181
133 154 180
134 154 181
134 155 181
133 154 181
134 154 181
134 154 181
133 154 181
134 154 181
134 154 181
134 154 181
134 154 181
132 153 180
134 154 181
134 154 181
134 154 181
133 154 181
134 154 181
134 154 180
133 153 180
134 154 181
134 154 181
134 154 181
133 154 181
133 154 181
134 154 181
133 154 181
133 154 181
134 154 181
134 155 181
134 155 181
134 154 181
134 154 181
134 154 181
134 154 181
134 155 181
134 154 181
134 154 181
134 154 181
134 155 181
133 154 180
134 154 181
134 154 181
133 154 181
134 154 181
134 154 181
133 154 181
133 154 181
133 154 181
134 154 181
134 154 181
134 154 181
134 154 181
133 154 181
134 154 181
134 154 181
134 154 181
134 154 181
133 154 181
134 154 181
134 154 181
134 154 181
133 154 181
135 155 181
134 155 181
134 154 181
133 154 181
134 154 181
134 154 181
134 154 181
133 154 181
133 154 181
134 154 180
132 153 180
133 154 180
134 154 181
134 154 181
133 154 181
133 154 181
134 154 181
133 154 181
134 155 181
135 155 181
133 154 181
135 155 181
134 154 181
134 154 181
133 154 181
134 154 181
134 154 181
134 154 181
134 154 181
133 154 181
134 154 181
134 154 181
134 154 181
134 154 181
134 154 181
134 154 181
134 154 181
134 154 181
133 154 180
133 154 181
133 154 181
135 155 181
133 154 181
133 154 181
135 155 181
134 154 181
133 154 181
133 154 181
134 154 181
134 154 180
134 154 181
133 154 181
134 154 181
134 154 181
135 155 181
133 154 181
135 155 181
134 154 181
134 154 181
134 154 181
133 154 180
132 153 180
133 154 181
134 154 180
133 154 181
134 154 181
134 154 181
133 154 181
133 154 180
133 154 181
133 154 181
133 154 181
134 154 181
134 154 181
134 154 181
134 154 181
134 154 181
134 154 181
134 154 181
133 154 181
134 154 181
134 154 181
134 154 180
134 154 180
133 154 181
134 154 181
134 154 180
134 154 181
134 154 181
133 154 181
133 154 181
133 154 180
133 154 181
134 154 181
133 154 181
134 154 181
134 154 181
135 155 181
134 154 181
134 154 181
133 154 181
134 154 181
134 154 181
133 154 181
134 154 181
133 154 181
134 154 181
134 154 180
134 154 181
133 154 180
134 154 181
134 154 181
133 154 181
133 153 180
134 154 181
135 155 181
134 154 181
134 155 181
133 154 181
133 154 181
134 154 181
135 154 180
133 154 181
132 153 181
134 154 181
134 154 181
134 154 180
133 154 181
134 154 181
134 154 181
133 153 180
134 154 181
133 154 181
134 154 181
134 154 181
133 154 181
134 154 181
133 154 181
135 155 181
135 155 181
133 154 180
133 154 181
133 154 181
133 154 181
133 154 181
134 154 181
134 154 181
134 154 181
134 154 181
133 154 180
134 154 181
133 154 180
133 154 181
133 154 180
133 154 180
133 154 181
134 154 180
133 154 181
135 155 181
134 154 181
134 154 180
134 154 181
134 154 181
134 154 181
134 154 181
133 154 181
134 154 181
134 154 181
133 154 181
135 155 181
133 154 181
134 154 180
133 154 181
133 153 179
134 154 181
133 153 180
134 154 181
134 154 181
134 154 181
134 154 181
134 154 181
133 154 181
134 154 181
133 154 181
134 154 180
134 154 181
133 154 181
134 154 181
135 155 181
134 154 181
134 154 181
133 154 181
133 153 180
134 154 181
133 154 181
134 154 180
134 154 181
134 154 181
133 154 181
133 154 181
134 154 181
133 154 181
133 154 181
134 154 181
134 154 181
133 154 180
134 154 181
134 154 181
134 154 181
134 154 181
133 154 181
134 154 181
133 154 181
134 154 180
134 154 181
134 154 181
134 154 181
134 154 181
134 154 181
133 154 181
134 154 181
134 154 181
134 154 181
134 154 180
134 154 181
134 154 181
134 154 181
135 154 180
134 154 181
134 155 181
135 155 181
134 154 180
134 154 181
134 154 181
133 154 181
134 154 181
134 154 180
134 154 181
134 154 181
133 154 181
134 154 181
134 154 181
134 154 181
134 154 181
133 154 181
134 154 181
134 154 181
134 154 181
134 154 181
133 154 180
133 154 181
134 154 181
135 155 181
134 155 181
134 154 181
133 154 181
134 154 181
133 154 181
133 154 181
134 154 181
134 154 181
135 154 180
134 154 180
133 154 181
134 154 181
134 154 181
134 154 181
134 154 181
134 154 181
133 154 181
133 154 181
134 154 181
133 154 181
133 154 181
134 154 181
133 154 181
133 154 181
134 154 181
133 154 181
133 154 181
134 154 181
134 154 181
133 154 181
134 154 181
135 155 181
134 154 181
134 154 181
133 154 181
133 154 181
133 154 181
135 155 181
134 154 180
134 154 181
133 154 181
134 154 181
133 154 181
134 154 181
134 154 181
134 154 181
134 154 180
134 154 181
134 154 181
134 154 181
134 154 181
134 154 181
134 154 181
134 154 181
134 155 181
132 153 180
133 154 181
134 154 181
133 154 181
133 154 181
134 154 181
134 154 181
133 154 180
134 154 181
133 154 181
133 154 180
133 154 181
133 154 181
134 154 181
134 154 181
134 154 181
134 154 181
133 154 181
134 154 181
133 154 181
134 154 181
133 154 181
134 154 181
135 155 181
134 154 181
133 153 180
134 154 181
133 154 181
134 154 181
134 154 181
134 154 181
133 154 181
134 154 181
134 154 181
134 154 181
134 154 181
133 154 181
134 154 181
134 154 181
133 154 181
134 154 181
133 154 181
134 154 181
134 154 181
133 154 181
133 154 181
134 154 181
133 154 181
134 154 180
133 154 181
134 154 181
134 154 181
135 155 181
134 154 181
134 154 181
133 153 180
133 154 181
134 154 181
133 154 181
134 154 181
134 154 181
133 154 181
132 153 180
134 154 181
133 154 181
134 154 181
134 154 181
134 154 181
134 154 181
133 154 181
133 154 181
133 154 181
133 154 181
134 154 181
134 154 181
134 154 181
134 154 181
133 154 181
134 154 181
134 154 181
134 154 181
134 154 181
133 154 181
133 154 181
134 155 181
135 155 181
133 154 181
134 154 181
134 154 181
134 154 181
134 154 181
134 154 180
134 154 181
133 153 180
133 154 181
134 154 181
134 154 181
134 154 181
134 154 180
134 154 181
133 154 181
133 154 181
133 154 181
133 154 181
134 154 181
134 154 181
134 154 181
133 154 181
134 154 181
134 154 181
133 154 181
134 154 181
134 154 181
134 154 180
133 154 181
134 154 181
133 154 181
134 155 181
134 154 181
134 154 181
134 154 181
133 154 181
134 154 181
133 153 180
133 153 180
134 154 181
133 153 180
133 154 181
134 154 181
133 154 181
134 154 181
135 155 181
133 154 180
134 154 181
134 154 181
132 153 181
134 154 181
134 154 181
133 154 181
135 155 181
134 154 181
133 154 180
134 154 181
133 154 181
134 154 181
134 154 181
134 154 181
133 154 181
134 154 181
134 154 181
134 154 181
134 154 181
134 154 181
134 154 181
133 154 181
133 154 181
134 154 181
134 154 181
133 154 181
134 154 181
134 154 181
134 154 181
133 153 180
133 154 181
134 154 181
134 154 181
134 154 181
135 155 181
134 154 181
134 154 181
134 154 181
133 154 181
133 154 181
133 154 181
133 154 181
134 154 181
134 154 181
134 154 181
134 154 181
133 153 180
134 154 181
134 154 181
134 154 181
133 154 181
133 154 181
134 154 181
133 153 180
134 154 181
134 154 181
133 154 181
134 154 181
134 154 180
133 154 181
133 153 180
134 154 181
133 154 181
134 154 181
134 154 181
134 154 181
133 154 181
135 154 180
133 154 181
134 154 181
134 154 181
134 154 181
133 154 180
133 153 180
133 154 181
134 154 181
133 154 181
134 154 181
134 154 181
134 154 181
134 154 180
134 154 181
133 154 181
133 154 181
133 154 181
133 154 181
133 154 181
134 154 181
133 154 181
134 154 180
134 154 181
133 154 181
134 154 181
134 154 181
133 153 180
134 154 181
134 154 181
133 154 181
133 154 181
133 154 181
134 154 181
134 154 181
133 154 181
134 155 181
134 154 181
134 154 181
134 154 181
134 154 181
134 154 180
134 154 181
133 154 181
134 154 181
134 154 181
135 155 181
134 154 181
134 154 181
133 154 181
133 154 181
134 154 181
133 154 181
134 154 181
134 155 181
133 154 181
133 154 181
133 154 181
134 154 181
134 154 181
134 154 180
134 154 181
134 154 181
133 154 181
135 154 180
134 154 181
134 154 181
134 154 181
134 154 181
134 154 181
134 154 181
134 154 180
132 153 179
133 154 181
134 154 181
134 154 180
133 154 180
135 155 181
133 154 181
134 154 181
134 154 181
134 154 181
134 154 180
133 154 181
134 154 181
133 154 181
135 155 181
134 154 181
134 154 181
134 154 181
134 154 181
134 154 181
134 154 181
133 154 181
134 154 181
133 154 181
134 154 181
134 154 181
133 154 181
134 154 181
134 154 181
134 154 181
135 155 181
134 154 181
134 155 181
133 154 181
134 154 181
132 153 180
134 154 181
135 155 181
134 154 181
134 154 181
135 155 181
134 154 181
133 154 181
134 154 180
133 154 181
134 154 181
134 154 181
134 154 181
134 154 181
133 154 181
133 154 181
133 153 180
133 154 181
133 154 181
134 154 181
134 154 181
133 153 180
133 154 181
134 154 181
133 154 181
133 154 181
134 154 181
133 154 181
134 154 181
133 153 180
133 154 180
133 154 181
133 154 181
133 154 181
133 154 181
134 154 181
134 155 181
134 154 181
134 154 181
134 154 180
133 154 181
135 155 181
134 154 181
134 154 181
134 154 181
134 154 181
133 154 181
134 154 181
134 154 180
134 154 181
133 154 181
134 154 181
133 154 181
133 154 181
133 154 180
133 153 180
134 154 181
134 154 181
134 155 181
134 154 180
134 154 181
134 154 181
134 154 181
134 154 181
134 154 181
134 154 181
134 154 180
134 154 181
134 154 181
133 154 181
134 154 181
133 154 181
134 154 181
134 154 181
134 154 180
134 154 181
133 154 180
133 154 181
134 154 181
134 154 181
134 154 181
134 154 181
134 154 181
134 154 181
133 154 181
135 155 181
134 154 181
133 154 181
134 154 181
134 154 181
133 154 181
133 154 181
134 154 181
134 154 181
133 154 181
134 154 181
134 154 181
133 154 181
134 154 180
134 154 181
134 154 181
134 155 181
133 154 181
133 154 181
133 153 180
133 154 181
133 154 181
134 154 181
134 154 181
134 155 181
134 154 181
133 154 181
134 154 181
133 154 181
134 154 181
133 154 181
134 154 181
133 154 181
134 154 181
133 154 181
134 154 181
133 154 181
133 154 181
135 155 181
134 154 181
135 155 181
133 154 181
133 154 181
134 154 181
134 154 181
134 154 181
134 154 181
134 154 181
134 154 181
133 154 181
133 154 181
134 154 181
133 154 181
135 155 180
133 154 181
134 154 180
133 153 180
134 154 181
133 154 181
135 155 181
134 154 181
133 154 181
134 154 181
133 154 181
134 154 181
133 154 181
134 154 181
134 154 181
134 154 181
134 154 181
134 154 181
134 154 181
134 155 181
133 154 181
135 155 181
134 154 181
134 154 181
134 154 181
134 154 181
134 154 181
134 154 180
134 154 181
135 155 181
134 154 181
134 154 181
134 155 181
134 154 181
134 154 181
133 154 181
134 155 181
133 154 181
134 154 181
134 154 181
133 154 181
134 154 181
133 154 181
134 154 181
134 154 181
133 154 181
134 154 181
133 154 181
134 154 181
135 155 181
134 154 181
134 154 180
135 155 181
134 154 181
134 154 181
134 154 181
135 155 181
134 154 181
134 154 180
134 154 181
134 154 181
134 154 181
134 154 180
133 154 181
134 154 181
133 154 181
134 154 181
133 154 181
134 154 181
134 154 181
133 154 181
134 154 181
134 154 180
135 155 181
134 154 181
133 154 180
134 154 181
134 154 181
134 155 181
134 154 181
133 154 181
133 154 180
134 154 181
134 154 181
134 154 181
133 154 180
134 154 181
134 154 181
133 154 181
133 154 181
133 154 181
134 154 181
133 154 181
134 154 181
135 155 181
133 154 180
134 154 181
134 154 181
134 154 181
134 154 181
135 155 181
133 154 181
133 154 181
134 154 181
134 154 181
133 154 181
134 154 181
134 154 181
134 154 181
133 154 181
134 154 181
133 154 180
134 154 181
133 154 181
134 154 181
134 154 181
134 154 181
134 154 181
134 154 181
134 154 181
134 154 181
134 154 181
133 154 181
134 154 181
133 154 181
134 154 181
134 154 181
134 154 180
134 154 181
133 154 180
134 154 180
134 154 181
134 155 181
134 154 181
134 154 181
134 154 181
133 154 181
133 153 180
133 154 181
133 154 181
133 154 181
133 154 181
134 154 181
134 154 181
134 154 181
134 154 181
133 154 180
134 154 181
134 154 181
134 154 181
134 154 181
133 154 181
134 154 181
134 154 181
133 154 180
134 154 181
134 154 181
134 154 181
133 154 181
134 154 181
134 154 181
134 154 181
134 154 181
134 154 181
133 154 181
134 154 181
134 154 181
133 154 181
134 154 181
134 154 181
134 154 181
134 154 181
134 154 181
133 154 181
134 154 180
134 154 181
133 154 181
133 154 180
133 154 181
134 154 181
134 154 181
134 154 181
133 154 181
133 154 181
133 154 180
134 154 181
134 154 180
133 154 181
133 154 181
133 154 181
134 154 181
134 154 181
134 154 181
133 154 181
134 154 181
134 154 181
135 155 181
133 153 180
133 154 180
134 155 181
134 154 180
133 154 181
134 154 181
133 154 181
134 154 181
134 154 180
134 154 181
133 153 180
134 154 180
134 154 181
134 154 181
134 154 180
133 154 181
134 154 181
134 154 181
133 154 180
134 154 180
133 154 181
134 154 181
133 154 181
133 154 181
134 154 181
134 154 181
134 154 181
134 154 180
133 154 181
133 154 181
134 155 181
133 153 179
134 154 181
133 154 181
133 154 181
134 154 181
134 154 181
134 154 181
134 154 181
134 154 181
134 154 181
134 154 181
134 154 181
133 154 181
134 154 181
134 154 181
134 154 181
134 154 181
133 154 181
134 155 181
135 155 181
134 154 181
134 154 181
134 154 181
133 154 181
135 155 181
133 154 181
135 155 181
134 154 181
135 155 181
134 154 181
133 154 181
134 154 180
134 154 181
133 154 181
133 154 181
133 154 181
134 154 180
133 154 181
134 154 181
133 154 181
134 154 181
133 153 180
135 155 181
134 154 181
134 154 181
134 154 180
134 154 181
133 154 181
134 154 181
133 154 181
135 155 181
134 154 181
134 154 181
134 154 180
134 154 180
134 154 180
134 155 181
134 154 181
134 154 181
134 154 181
133 154 181
133 154 181
133 154 181
134 154 181
132 154 181
135 155 181
134 154 181
134 154 180
134 154 181
134 154 181
134 154 181
134 154 181
134 154 181
135 155 181
134 154 181
134 154 181
134 154 181
133 154 181
133 154 181
133 154 181
135 155 181
134 154 181
134 154 181
133 154 181
134 154 181
134 154 181
133 154 181
134 154 181
133 154 180
133 154 180
134 154 181
134 154 181
134 154 181
134 154 181
134 154 181
133 154 180
133 154 181
134 155 181
133 154 181
134 154 181
133 154 181
133 154 181
133 154 181
133 153 180
134 154 181
134 154 181
134 154 181
133 154 181
134 154 181
133 153 180
134 154 181
133 154 181
135 155 181
134 154 181
135 155 181
133 154 181
134 154 181
134 154 181
133 154 181
133 154 181
133 154 180
133 154 181
134 154 181
134 154 181
134 154 181
134 154 181
134 154 181
135 155 181
134 154 181
134 154 180
134 154 181
133 154 181
133 154 181
134 154 181
133 153 180
134 154 181
133 154 181
134 154 181
134 154 181
133 154 181
134 154 181
133 154 181
133 154 181
134 154 180
134 154 181
134 154 181
134 154 181
133 153 180
133 154 181
134 154 181
134 154 181
134 154 181
133 154 181
135 155 181
134 154 181
133 154 181
134 154 181
134 154 181
134 154 181
134 154 181
133 154 181
134 154 181
133 154 181
135 155 181
134 154 181
133 154 181
134 154 181
134 154 181
133 154 181
134 154 181
133 154 181
134 154 181
134 154 181
134 154 181
134 154 181
134 154 181
133 154 181
134 154 181
134 154 181
134 154 181
135 155 181
134 154 181
134 154 181
134 154 181
133 154 181
134 154 181
133 154 181
134 154 181
134 154 181
134 154 181
134 154 181
134 154 181
134 154 181
134 154 181
134 154 181
133 154 181
133 154 181
134 154 181
134 154 180
132 153 181
134 154 181
134 154 181
134 154 181
135 155 181
134 154 181
134 154 181
134 154 181
133 154 181
133 154 180
134 154 180
134 154 181
134 154 181
134 154 181
133 154 181
133 154 181
134 154 180
133 154 181
134 154 181
133 154 181
133 154 181
133 154 181
134 154 181
133 154 181
133 154 181
133 154 181
134 154 181
133 154 181
133 153 180
134 154 181
134 154 181
134 154 181
134 154 181
133 154 181
134 154 181
134 154 181
133 153 180
134 154 181
133 154 181
133 154 181
134 154 181
133 154 181
134 154 181
134 154 181
133 154 181
134 154 181
133 154 181
134 155 181
134 154 181
134 154 181
134 154 181
134 154 181
134 154 180
134 154 181
134 154 181
134 154 181
134 154 181
134 154 181
133 154 181
134 154 181
133 154 181
133 154 181
134 154 181
134 154 181
134 154 181
134 154 181
134 154 181
134 154 181
134 154 181
134 154 181
133 154 181
134 154 181
134 154 181
134 154 181
133 154 181
134 154 181
134 154 181
132 153 180
134 154 181
134 155 181
133 154 181
133 154 180
135 155 181
134 154 181
134 154 181
134 154 181
134 154 181
133 153 180
134 154 181
134 154 180
133 153 180
134 154 181
133 154 180
134 154 181
134 154 181
134 154 181
134 154 181
133 154 181
134 154 181
134 154 181
134 154 181
133 154 180
133 153 180
134 154 181
134 154 181
134 154 181
134 154 181
133 154 181
133 154 181
133 154 180
134 154 181
134 154 181
134 154 181
134 154 181
133 154 181
133 154 181
134 154 181
134 154 181
134 154 181
135 155 181
134 154 181
133 154 181
133 154 181
134 154 181
134 154 181
134 154 181
134 154 180
133 154 181
134 154 181
134 154 181
133 153 180
134 154 181
134 154 181
133 154 180
134 154 180
134 154 181
134 154 181
133 154 181
134 154 181
134 154 181
133 154 181
133 154 180
134 154 181
135 155 181
133 154 180
134 154 181
133 153 179
133 154 181
135 155 181
133 154 181
134 154 181
133 154 181
133 154 181
135 155 181
134 154 181
135 155 181
134 154 181
134 154 181
134 154 180
134 154 181
134 154 181
132 153 180
134 154 180
134 154 181
133 154 180
133 154 180
135 155 181
134 154 181
134 154 181
134 155 181
133 154 181
133 154 181
133 154 181
134 155 181
135 155 181
133 154 181
133 153 180
134 154 181
134 154 181
134 154 181
133 154 181
133 154 181
134 155 181
134 154 181
134 154 181
134 154 181
134 154 181
134 154 181
133 154 181
134 154 181
134 154 181
133 153 180
134 154 180
133 154 181
134 154 181
134 154 181
133 154 181
133 154 181
134 154 181
134 154 181
133 154 181
134 155 181
134 154 181
134 154 181
133 154 181
133 154 181
134 154 181
134 154 181
134 154 181
133 154 181
133 154 181
134 155 181
134 154 181
134 154 181
134 154 181
134 154 181
134 154 181
134 154 181
134 154 181
134 154 180
134 154 181
134 154 181
133 154 181
134 154 181
133 154 181
134 154 181
134 154 181
134 154 181
134 154 180
133 154 181
134 154 180
134 154 181
134 154 181
133 154 180
134 154 181
134 154 181
133 154 181
134 154 181
134 154 181
134 154 181
133 154 181
133 154 181
133 154 181
133 154 181
134 155 181
134 154 181
134 154 181
134 154 181
134 154 181
134 154 181
134 154 181
133 154 181
134 154 181
134 154 181
133 154 181
135 155 181
133 154 181
134 154 181
133 153 180
134 154 181
133 154 181
133 153 180
134 154 181
133 154 181
134 154 181
134 154 181
134 154 181
134 154 181
134 154 181
134 154 181
134 154 181
133 153 180
133 154 181
134 154 181
134 154 180
134 154 181
134 154 181
134 154 181
134 154 180
134 154 181
133 154 181
134 154 181
134 154 180
134 154 181
134 154 181
133 154 181
134 154 181
134 154 181
134 154 181
134 154 181
134 154 181
134 154 181
133 153 180
133 154 181
135 155 181
133 154 181
134 154 181
133 154 181
133 154 180
134 154 181
134 154 181
133 154 181
134 154 181
134 154 181
134 154 180
133 154 181
134 154 180
134 154 181
134 154 181
133 154 181
134 154 181
133 154 181
134 154 181
134 154 181
134 154 181
134 154 181
133 154 181
133 154 181
134 154 181
134 154 181
134 154 181
134 154 181
134 154 181
134 154 181
133 154 181
134 154 181
134 154 181
134 154 181
133 154 181
133 154 180
133 154 180
134 154 181
133 154 180
133 154 181
134 154 181
133 154 181
134 154 181
133 154 181
134 155 181
134 154 181
134 155 181
134 154 181
134 154 181
133 154 181
133 154 181
133 154 181
135 155 181
134 154 181
133 154 181
133 154 181
134 154 181
133 154 181
133 154 181
133 154 181
134 154 181
135 155 181
135 155 181
134 154 181
134 154 181
135 155 181
134 154 181
134 154 181
134 154 181
133 154 181
133 154 181
133 154 181
134 154 181
134 154 181
133 154 181
133 154 181
134 154 181
134 154 181
134 154 181
133 154 181
134 154 181
134 154 181
134 154 181
134 154 181
134 154 181
134 154 181
134 154 181
133 154 180
134 154 181
134 154 181
133 154 181
134 154 181
133 154 181
134 154 181
134 154 181
134 154 181
133 154 181
133 154 181
134 155 181
134 154 181
134 154 181
133 154 181
134 154 181
134 154 181
134 154 181
134 154 181
134 155 181
134 154 181
134 154 181
134 155 181
134 154 181
133 154 181
134 154 180
133 154 181
133 154 181
134 154 181
133 154 181
135 155 181
134 154 181
133 154 181
134 154 181
134 154 181
133 154 180
134 155 181
133 154 181
133 154 181
134 154 181
134 154 181
133 154 181
134 154 181
133 154 181
134 154 181
134 154 181
134 154 181
133 154 181
134 154 181
133 154 181
133 154 181
133 154 181
134 154 181
134 154 181
134 154 181
134 154 181
134 154 181
134 154 181
134 154 181
134 155 181
133 154 180
134 154 181
133 154 181
134 154 181
133 154 181
134 154 181
133 154 181
133 154 181
134 154 181
134 154 181
134 154 181
134 154 181
134 154 181
133 154 181
133 154 180
134 154 181
134 154 181
132 153 181
134 154 181
134 154 181
134 154 181
134 154 181
134 154 181
134 154 181
134 154 181
132 153 180
134 154 181
135 155 181
134 154 181
133 154 181
133 154 181
134 154 181
134 154 181
134 154 181
134 154 181
135 155 181
134 154 181
134 154 181
134 154 181
134 155 181
133 154 181
133 153 180
133 154 181
134 154 181
133 154 181
133 153 180
134 154 181
134 154 181
135 155 181
134 154 181
133 154 180
133 154 181
134 154 181
134 154 181
134 154 181
134 154 181
134 154 181
133 154 180
134 154 181
134 154 181
134 154 181
133 154 181
133 154 181
134 154 181
134 154 181
134 154 181
134 154 181
134 154 181
133 153 180
134 154 181
134 154 181
134 154 181
134 154 181
134 154 181
134 154 181
133 154 181
133 154 181
133 154 181
133 154 181
134 154 180
133 153 180
133 154 181
134 154 181
133 154 181
133 154 181
133 154 181
134 154 181
133 154 181
134 154 181
134 154 181
133 154 181
133 153 180
133 154 181
133 154 181
134 154 181
133 154 181
133 154 181
134 154 180
134 154 181
133 153 180
134 155 181
133 154 180
134 154 181
133 154 180
134 154 181
133 154 181
133 154 181
133 154 181
135 155 181
134 154 181
133 154 181
134 154 181
133 154 181
134 154 181
135 155 181
134 155 181
134 154 181
134 154 181
133 154 180
134 154 180
134 154 180
134 154 181
134 154 181
133 154 181
133 154 180
133 154 180
134 154 181
133 154 181
133 153 180
133 153 179
133 154 181
132 152 179
135 155 181
133 154 180
134 154 181
134 154 181
133 154 181
134 154 181
133 154 181
134 154 181
134 154 181
134 154 181
133 154 180
133 154 181
135 155 181
134 154 181
134 154 181
133 154 181
134 154 180
133 154 181
134 154 181
134 154 181
134 154 181
134 154 181
134 154 181
133 153 180
135 155 181
133 154 181
134 154 181
133 154 181
133 154 181
134 154 181
134 154 181
133 154 180
134 155 181
135 155 181
134 154 181
133 154 181
134 154 181
133 154 181
133 154 181
134 155 181
135 155 181
134 154 181
133 154 180
134 154 181
134 154 181
134 154 180
133 154 181
133 153 180
134 154 181
134 154 181
133 154 181
134 154 181
134 154 181
134 154 181
134 154 181
134 154 180
133 154 181
133 153 180
133 154 180
133 154 181
134 154 181
134 154 180
133 154 181
134 154 181
134 154 181
134 154 181
134 154 181
134 154 181
133 154 181
134 154 181
134 154 181
134 154 181
134 154 181
134 154 180
133 154 181
133 154 181
134 154 181
133 154 181
134 154 181
134 154 181
132 153 181
135 155 181
134 154 181
133 154 180
133 154 181
134 155 181
134 154 181
134 155 181
133 154 181
133 154 181
132 153 180
133 154 181
134 154 181
134 154 181
133 153 180
134 154 181
133 154 181
133 154 181
133 154 181
134 154 181
134 154 181
133 154 181
134 154 181
134 154 181
134 154 181
133 153 180
133 154 181
133 154 180
134 154 181
134 154 180
134 154 181
134 154 181
133 154 181
134 154 181
133 154 180
135 155 181
133 154 181
134 154 181
135 155 181
134 154 180
134 154 181
133 154 180
132 153 181
133 154 181
134 154 181
133 153 180
134 154 181
134 154 181
134 154 181
134 154 181
134 154 181
133 154 181
133 154 181
134 154 181
133 154 180
134 154 181
134 154 181
133 153 180
133 154 181
134 154 181
134 154 181
133 154 181
133 154 181
134 154 181
134 154 181
134 154 181
134 154 181
133 154 181
134 155 181
134 154 181
134 154 181
133 154 181
134 154 181
134 154 181
133 154 181
133 154 181
134 154 181
134 154 181
134 154 181
133 154 181
133 154 181
134 154 181
133 154 181
133 154 181
134 154 181
134 154 181
132 153 181
134 154 181
134 154 181
133 154 181
134 154 181
133 154 181
134 154 181
133 154 181
134 154 181
135 155 181
134 154 181
134 154 181
134 154 181
134 154 181
134 154 181
134 154 181
134 154 181
133 154 181
133 154 181
133 154 181
134 154 181
134 154 181
134 154 181
134 154 181
134 154 181
133 154 180
134 154 180
134 154 181
134 154 181
133 154 181
133 154 181
134 154 181
134 154 181
134 154 181
134 154 181
134 154 181
134 154 180
134 154 181
133 153 180
133 154 181
133 154 181
134 154 181
133 154 181
134 154 181
134 154 181
134 154 180
135 155 181
134 154 181
133 154 181
134 154 181
134 154 181
134 154 181
133 154 181
134 154 181
134 154 181
135 155 181
135 155 181
135 155 181
133 154 181
134 154 181
133 154 181
134 154 181
133 154 181
135 155 181
133 154 181
134 154 181
133 154 181
133 154 181
134 154 181
135 155 181
134 154 181
134 154 181
133 154 181
135 155 181
134 154 181
133 154 181
133 154 180
134 154 181
133 154 181
134 154 181
133 154 181
134 154 181
133 154 181
135 155 181
133 154 181
134 154 180
133 154 181
134 154 181
133 154 181
135 155 181
134 154 181
134 154 181
133 154 181
133 154 181
134 154 181
134 154 181
134 154 181
134 154 181
134 154 181
133 154 181
134 154 181
133 154 181
134 154 181
133 154 181
133 154 181
133 154 181
134 154 181
133 153 180
134 154 181
133 154 181
133 154 181
133 154 181
133 154 181
133 154 181
134 154 181
134 154 181
134 154 181
133 154 181
134 154 181
133 154 181
133 154 181
133 154 181
134 154 181
133 154 180
133 154 181
133 154 181
134 154 181
134 154 181
133 153 180
134 154 181
134 154 181
134 154 181
134 154 181
134 154 181
134 154 181
134 154 181
134 154 181
133 154 180
134 154 181
134 154 181
134 154 181
134 154 181
133 154 180
134 154 181
134 154 180
133 154 181
134 154 181
134 154 181
133 154 181
134 154 181
134 154 181
134 154 181
134 154 181
134 154 181
134 154 181
134 154 181
135 155 181
134 154 181
134 154 181
133 154 181
134 154 181
133 154 181
134 154 181
134 154 181
134 154 181
134 154 181
134 155 181
133 154 181
133 154 181
134 154 181
133 153 180
135 155 181
133 154 181
133 154 181
134 154 181
134 154 181
133 154 181
133 154 181
133 154 181
133 154 181
133 154 181
133 154 181
134 154 181
134 154 181
133 154 181
134 154 180
134 154 181
134 154 181
134 154 181
134 154 181
133 153 180
133 154 181
134 154 181
134 154 181
133 154 180
134 154 181
134 154 181
133 154 181
134 154 181
133 153 180
133 154 180
133 154 181
132 153 180
134 154 181
134 154 181
135 155 181
133 154 181
134 154 181
133 154 181
134 154 181
133 154 181
134 154 181
134 154 181
134 154 181
134 154 181
133 153 180
134 154 181
135 155 181
134 154 181
133 154 181
133 154 181
134 154 181
134 154 181
134 154 181
133 153 180
133 154 181
134 154 181
133 154 181
134 154 181
134 154 181
134 154 181
135 155 181
134 154 181
134 154 181
134 154 181
134 154 181
134 154 181
135 155 181
134 154 181
134 154 180
134 154 181
134 154 181
133 154 181
133 154 181
135 154 180
134 154 181
134 154 181
135 155 181
133 154 181
133 154 181
134 154 181
134 155 181
135 155 181
132 153 180
134 154 181
134 154 180
134 154 181
134 154 181
133 154 181
134 154 180
135 155 181
134 154 181
134 154 181
135 155 181
133 154 181
135 155 181
133 153 180
134 154 181
133 154 181
134 154 180
134 154 180
134 154 181
134 154 180
133 153 179
133 154 181
134 154 181
135 155 181
135 155 181
133 154 181
133 154 181
134 154 181
134 154 181
134 154 181
134 154 181
133 154 180
135 155 181
133 154 181
133 154 181
134 154 181
134 154 181
134 154 181
133 154 181
134 154 181
134 154 181
134 154 181
134 154 181
134 154 181
133 154 181
134 154 181
133 154 181
134 154 181
134 154 181
134 154 181
133 154 181
134 154 181
132 153 181
133 154 181
134 154 181
133 153 180
133 154 181
133 154 180
134 154 181
134 154 181
134 154 181
132 153 180
134 154 181
135 155 181
133 153 180
132 153 181
133 154 181
134 155 181
133 154 181
134 154 181
134 154 181
134 154 181
133 154 181
134 154 181
133 154 181
134 154 181
134 154 181
134 154 181
134 154 181
135 154 180
134 154 181
135 154 180
133 154 181
133 154 181
133 154 181
133 154 181
133 154 181
133 154 181
134 155 181
134 154 181
133 154 181
134 154 181
133 154 181
134 154 181
134 154 181
134 154 181
134 154 181
134 154 181
133 154 181
133 154 181
133 154 180
133 154 181
134 154 181
134 154 181
134 154 181
134 154 181
135 155 181
134 154 181
133 154 181
134 154 181
134 154 180
133 154 180
133 154 181
133 154 181
134 154 181
134 154 181
133 153 180
134 154 181
134 154 181
134 154 181
134 154 181
134 154 181
134 154 181
134 154 181
133 154 181
134 154 181
133 154 181
134 154 181
134 154 181
134 154 181
133 154 181
134 154 181
134 154 181
134 154 181
134 155 181
134 154 181
133 154 181
134 154 181
133 154 181
134 154 181
134 154 181
133 154 181
134 154 181
134 154 181
135 155 181
134 154 181
134 154 181
134 154 181
135 155 181
134 154 181
133 154 181
133 154 181
134 154 181
133 154 181
134 154 181
134 154 181
135 155 181
135 155 180
133 154 180
133 154 181
134 154 181
134 154 181
133 154 181
133 154 181
133 154 181
134 154 180
133 154 181
134 154 181
134 155 181
134 154 181
133 153 180
134 154 181
134 154 181
134 154 181
133 154 181
134 154 181
134 154 181
133 154 181
134 154 181
133 154 181
134 154 181
134 154 181
134 154 181
133 154 181
133 154 181
134 154 181
133 154 181
135 155 181
133 154 181
133 154 180
133 154 181
133 154 181
134 154 181
134 154 181
134 154 181
134 154 181
133 154 181
134 154 181
133 154 181
134 155 181
135 155 181
134 154 181
134 154 181
134 154 181
134 154 181
133 154 181
134 154 181
133 154 180
134 154 181
134 154 181
134 154 181
133 154 181
133 154 181
133 154 181
134 154 181
135 155 181
133 154 181
134 154 181
134 154 181
133 154 181
134 154 181
134 154 181
134 154 181
134 154 181
133 154 181
133 154 181
134 154 181
133 154 180
134 154 181
134 154 181
134 154 181
133 154 181
135 155 181
133 154 180
133 154 181
133 154 181
134 154 181
133 154 181
135 155 181
133 154 181
134 154 181
133 154 181
134 154 181
133 154 181
134 154 181
134 155 181
133 154 181
135 155 181
133 154 181
134 155 181
134 154 181
134 154 181
133 153 180
134 154 181
134 154 181
134 154 181
134 153 180
133 153 180
133 154 181
134 154 181
134 154 181
133 154 181
134 154 181
135 155 181
133 153 180
135 155 181
133 154 181
134 154 181
134 154 181
134 154 181
134 154 180
133 154 181
134 154 180
134 154 181
134 154 181
134 154 181
134 154 180
134 154 181
134 154 181
134 154 181
134 154 180
134 154 181
134 154 181
134 155 181
133 154 181
133 154 181
134 154 181
134 154 181
133 154 181
133 154 181
134 154 181
133 154 181
133 154 180
133 154 181
135 155 181
134 154 181
135 155 181
133 154 181
133 154 181
134 154 181
135 155 181
134 154 181
134 154 181
134 154 181
134 154 181
134 153 180
134 154 181
134 154 181
134 154 181
132 153 179
133 154 181
133 154 181
134 154 181
134 154 181
134 154 181
133 154 181
134 154 181
133 154 181
133 154 181
134 154 181
134 154 181
134 154 181
133 153 180
134 154 181
134 154 181
133 154 181
134 154 181
134 154 181
134 154 181
134 154 181
134 154 181
133 154 181
135 155 181
134 154 181
134 154 181
134 154 181
133 154 181
134 154 180
134 154 181
134 154 181
133 153 180
135 155 181
134 154 181
134 154 181
134 154 181
134 154 181
133 154 181
134 154 181
133 154 181
134 154 181
134 154 181
133 154 181
134 154 181
133 154 181
135 155 181
134 154 181
133 154 181
134 155 181
134 154 181
133 154 181
134 155 181
133 154 181
134 154 181
133 153 180
135 155 181
133 154 181
133 154 181
133 154 181
133 154 181
134 154 181
134 154 181
134 154 180
134 154 181
134 154 181
133 154 181
134 154 181
134 154 180
134 154 181
133 154 181
134 154 181
134 153 179
133 154 181
134 154 181
134 154 181
134 154 181
134 154 181
134 154 181
133 153 180
133 154 181
134 154 181
134 154 181
133 154 181
133 154 181
134 154 181
135 155 181
133 154 181
133 154 180
132 153 181
134 154 181
134 154 181
134 154 181
134 154 181
133 154 181
135 155 181
133 154 180
134 154 181
134 155 181
134 154 181
133 154 181
134 154 180
133 154 181
134 154 181
135 155 181
134 154 181
134 154 181
135 155 181
134 154 180
134 154 181
134 154 181
134 154 181
133 154 181
134 154 181
133 154 181
134 154 181
134 154 181
134 154 181
134 154 181
133 154 181
133 154 181
133 154 180
134 154 181
133 154 181
134 155 181
134 154 181
133 153 180
133 154 181
134 154 181
133 154 181
134 154 181
133 153 180
133 154 181
134 154 180
134 154 180
134 154 181
134 154 181
133 154 181
133 154 181
134 154 181
134 154 181
134 154 181
134 154 181
133 154 181
135 155 181
133 153 180
134 154 181
134 154 181
134 154 181
133 154 181
133 154 181
134 154 181
133 154 181
134 154 181
133 154 181
133 154 181
134 154 181
134 155 181
134 154 181
134 154 181
134 154 181
134 154 181
134 154 181
133 154 181
133 154 181
133 154 181
134 154 181
134 154 181
134 154 181
133 154 181
133 153 180
134 154 181
134 154 180
133 154 181
134 154 181
134 154 181
134 154 181
132 153 181
134 154 181
134 154 181
134 154 181
133 154 181
133 154 181
134 154 181
133 154 181
134 154 181
134 154 181
133 154 181
134 154 181
133 154 181
134 154 181
133 154 181
134 154 181
133 154 181
133 154 181
134 154 181
134 154 181
134 154 181
134 154 181
133 154 181
134 154 181
133 154 181
134 154 181
134 154 181
134 154 181
134 154 181
133 154 181
134 154 181
135 155 181
133 154 181
134 154 181
134 154 180
134 154 181
133 154 181
133 154 181
134 154 181
134 154 181
134 154 181
134 154 181
134 154 181
134 155 181
133 154 181
133 154 181
134 154 181
134 155 181
133 154 181
134 154 181
135 155 181
134 154 181
134 154 181
133 154 181
133 154 181
133 154 181
133 154 181
134 154 181
134 154 180
133 154 181
133 154 181
133 154 181
134 154 181
134 154 181
133 154 181
134 154 181
133 154 181
133 154 181
134 154 181
133 153 180
134 154 180
134 154 181
133 154 181
134 154 181
134 154 181
135 155 181
133 154 181
134 155 181
133 154 181
134 154 181
134 154 181
134 154 181
134 155 181
134 154 181
134 154 181
133 154 181
134 154 181
134 154 181
134 154 181
134 154 181
134 154 181
134 154 181
133 154 181
133 154 181
134 154 181
135 155 181
133 154 181
133 154 181
134 154 181
134 154 181
133 154 181
134 154 181
134 154 181
133 154 181
133 154 180
134 154 181
134 154 181
133 154 181
133 154 181
134 155 181
134 154 181
133 154 181
134 154 181
134 154 181
133 154 181
134 154 181
134 154 181
133 154 181
134 154 181
133 154 181
134 154 181
134 155 181
135 155 181
133 154 180
133 153 180
134 154 181
133 154 181
134 154 181
133 154 181
134 154 181
134 154 181
133 154 181
133 154 181
134 154 181
133 154 181
134 154 181
134 154 181
135 155 181
134 154 181
133 154 181
134 154 181
135 155 181
134 154 181
133 154 181
133 154 181
133 154 181
134 154 181
134 154 181
134 154 181
134 154 181
134 154 181
134 154 181
134 154 181
134 154 181
134 154 181
134 154 181
134 154 181
134 154 181
134 154 181
134 154 181
133 154 181
134 154 181
134 154 181
135 154 180
134 154 181
134 154 181
133 154 181
135 155 181
134 154 181
133 154 181
134 154 181
134 154 181
134 154 181
133 154 181
134 154 181
134 154 181
135 155 181
134 154 181
134 154 181
135 155 181
133 154 181
134 154 181
134 154 181
134 154 181
133 154 181
134 154 181
134 154 181
134 154 181
133 154 181
134 154 181
134 154 181
134 154 181
133 154 181
133 154 180
134 154 181
134 154 181
133 154 181
133 154 181
133 154 181
133 154 181
134 154 181
134 154 181
133 154 181
133 154 180
134 154 181
133 154 181
133 154 180
134 154 181
134 154 181
133 154 180
133 153 180
134 154 180
134 154 180
133 154 181
134 154 181
134 154 181
134 154 181
134 154 181
134 154 181
135 155 181
133 154 181
134 154 181
134 154 180
134 154 181
133 154 181
133 154 181
133 154 181
134 154 181
134 154 181
133 154 181
133 154 181
134 154 181
133 153 180
134 154 181
134 154 181
133 154 181
133 154 181
134 154 181
133 153 180
134 154 181
134 154 181
134 154 181
134 155 181
134 154 181
134 154 181
134 154 181
134 154 181
133 154 180
133 154 181
134 154 181
133 154 181
133 154 181
133 153 180
133 154 181
134 154 181
134 154 181
134 154 181
133 154 181
133 154 181
134 154 181
133 154 181
133 154 181
134 154 181
133 154 181
133 154 181
134 154 181
134 154 181
133 154 181
134 154 181
134 154 181
134 154 181
134 154 180
133 154 181
134 154 181
134 154 181
134 154 181
135 155 181
134 154 181
133 154 181
133 154 180
134 154 181
134 154 181
134 154 181
134 154 181
134 154 181
134 154 181
133 154 181
134 154 181
134 154 181
134 154 181
133 154 181
134 154 181
134 154 181
133 154 181
134 154 181
133 154 181
133 154 181
134 154 180
134 154 181
134 154 181
134 154 181
133 154 181
134 154 181
132 153 180
133 154 180
134 154 181
133 154 180
134 154 181
134 154 181
133 154 180
133 154 181
134 154 181
133 154 181
133 154 181
134 154 180
134 154 181
133 154 181
134 154 181
133 154 181
134 154 181
134 154 181
135 155 181
134 154 181
133 154 181
133 154 181
134 154 181
133 154 181
133 154 181
134 154 180
133 154 181
134 154 180
133 154 181
134 154 181
134 155 181
134 154 181
132 153 180
134 154 181
135 155 181
134 154 181
134 154 181
134 154 181
133 154 181
135 155 181
134 154 181
133 154 181
133 154 181
134 154 181
134 154 181
134 154 181
132 152 179
133 154 181
134 154 181
134 154 181
134 154 181
134 154 181
134 154 181
133 154 181
133 154 181
133 154 181
133 154 181
134 154 181
134 154 181
133 154 181
134 155 181
133 154 181
134 154 181
134 154 181
134 154 181
134 154 181
133 154 181
133 154 181
133 154 181
134 154 180
134 154 181
133 154 181
133 154 180
134 154 181
133 154 181
134 154 181
134 154 181
134 154 181
134 154 181
133 153 180
133 154 181
133 154 181
133 154 181
134 154 181
133 154 181
135 155 181
134 155 181
134 154 180
134 154 180
133 154 181
133 154 181
133 154 181
134 154 181
134 154 181
134 154 181
133 154 181
134 154 181
134 154 181
133 153 180
134 154 181
134 154 181
135 155 181
134 154 181
133 154 181
133 154 181
134 154 181
133 154 181
134 154 181
133 154 181
134 154 180
134 154 181
134 154 181
134 154 181
134 154 180
134 154 181
133 154 181
134 154 181
134 154 180
134 154 181
134 154 181
134 154 181
133 154 180
134 154 181
134 154 181
133 154 181
133 154 181
134 154 181
134 154 180
134 154 181
134 154 181
134 154 180
134 154 181
133 154 180
134 154 181
133 154 181
133 154 181
133 154 181
133 154 181
133 154 181
134 154 181
134 155 181
134 154 181
134 154 181
134 154 181
134 154 180
134 154 181
134 154 181
134 154 181
134 154 181
134 154 181
134 154 181
134 155 181
134 154 181
134 154 181
134 154 181
134 154 181
134 154 181
134 154 181
134 154 181
133 154 181
133 154 181
133 154 181
133 154 181
134 154 180
134 154 181
134 155 181
134 154 181
134 154 181
133 154 181
134 154 181
134 154 181
133 154 181
135 155 181
134 154 181
133 154 181
133 154 181
133 153 180
134 155 181
133 154 181
134 154 181
134 154 181
133 154 181
134 154 181
134 154 181
134 154 181
134 155 181
134 155 181
134 154 181
134 154 181
134 154 181
134 154 181
134 154 181
134 154 181
134 154 181
134 154 181
134 154 181
133 153 180
133 154 181
134 154 181
133 154 181
133 154 181
134 154 181
134 155 181
134 154 181
134 154 181
134 154 181
134 154 181
133 154 181
134 154 181
134 154 181
134 154 181
134 154 181
134 154 181
133 154 181
134 154 181
134 154 181
133 154 181
134 154 181
134 155 181
133 154 180
134 154 181
135 155 181
134 154 181
134 154 181
134 154 181
134 154 181
134 154 181
133 154 181
134 154 181
134 154 181
134 154 181
134 154 181
133 154 181
134 154 181
134 154 181
134 154 181
133 154 181
134 154 181
134 154 181
133 154 181
134 154 181
133 154 181
134 154 181
134 154 181
134 154 181
134 154 181
133 154 181
133 154 181
133 154 181
135 155 181
134 155 181
134 154 181
133 154 181
134 154 181
134 154 180
133 154 181
134 154 181
134 154 181
134 154 181
133 154 180
133 154 181
134 154 181
134 154 180
133 154 181
134 154 181
135 155 181
134 154 181
133 154 181
133 154 181
134 154 181
133 154 181
134 154 180
132 153 180
133 154 181
134 154 181
134 154 181
134 154 181
133 154 180
133 154 181
134 154 181
134 154 181
134 154 181
134 154 181
134 154 181
133 154 181
135 155 181
134 154 181
134 154 181
133 154 181
134 154 181
134 154 181
133 154 181
132 153 180
134 154 181
133 154 181
134 154 181
133 154 181
132 153 180
134 154 181
134 154 181
133 154 181
134 154 181
134 154 181
134 154 181
134 154 181
133 154 181
134 154 181
132 153 180
134 154 181
133 154 181
133 154 181
134 154 180
133 154 180
134 154 181
133 154 181
134 154 181
134 154 181
134 154 181
134 154 181
134 154 181
134 154 181
134 154 181
133 153 180
133 154 181
134 154 181
134 154 181
133 154 180
135 155 181
135 155 181
134 154 181
133 154 181
134 154 180
133 154 181
134 154 181
133 154 181
133 154 181
134 154 181
133 153 180
133 154 181
133 153 180
134 154 181
134 154 181
134 155 181
134 154 181
133 154 181
134 154 181
133 154 181
134 154 180
134 154 181
133 154 181
134 154 181
133 154 181
134 154 181
133 154 181
133 153 180
134 154 181
134 154 181
133 154 181
135 155 181
134 154 181
133 153 180
133 153 180
134 154 180
133 154 181
134 154 181
134 154 180
133 154 181
133 154 180
134 155 181
133 154 181
134 154 181
134 154 181
133 153 180
133 154 181
133 154 181
133 154 181
135 155 181
133 153 180
134 154 181
134 154 181
133 154 181
134 154 181
133 154 181
133 153 180
133 154 181
133 153 180
133 154 181
134 154 181
134 155 181
134 154 181
134 154 181
134 154 181
133 153 180
134 154 181
133 154 181
133 154 181
133 154 181
133 154 181
133 154 181
134 154 181
133 154 180
135 155 181
134 154 180
133 154 180
135 155 181
134 154 181
133 154 181
134 154 181
133 154 181
134 154 180
134 154 181
134 154 181
133 154 181
134 154 181
134 154 181
135 155 181
133 153 180
134 155 181
133 154 181
134 154 181
133 154 181
134 154 181
134 154 181
133 154 181
134 154 181
133 154 181
134 154 181
135 155 181
134 154 181
134 154 181
133 154 181
134 155 181
134 154 181
134 154 181
134 154 181
133 153 180
134 154 181
134 154 181
134 154 180
134 154 181
134 154 181
134 154 181
133 154 181
134 154 181
132 153 180
134 154 181
134 154 181
134 154 181
134 154 181
133 154 181
133 153 180
134 154 181
134 154 181
134 154 181
134 154 181
133 153 180
134 154 181
134 154 181
134 154 181
133 154 181
134 154 181
134 154 181
134 154 181
133 154 181
134 154 180
133 154 181
133 154 181
133 154 181
133 154 181
133 154 181
133 154 180
133 154 181
134 154 181
134 154 181
134 154 181
134 154 181
133 154 181
134 154 181
133 154 181
133 153 180
134 154 181
135 155 181
133 154 181
134 154 181
133 154 181
133 154 181
133 154 181
133 153 180
134 154 181
132 153 181
134 154 181
133 154 180
134 154 181
133 154 181
133 154 181
134 154 181
133 153 180
133 153 180
134 154 181
134 154 181
134 154 181
134 154 181
133 154 181
134 154 181
134 154 181
133 154 181
133 154 181
134 154 181
134 154 181
133 153 180
135 155 181
133 154 181
134 154 181
133 154 181
133 154 181
134 154 180
134 154 181
134 154 181
134 154 181
134 154 181
133 154 181
133 154 181
134 154 181
133 154 181
134 154 181
134 154 181
134 154 181
134 154 181
133 154 181
134 154 181
133 154 181
134 154 181
134 154 181
134 154 181
133 154 181
134 154 181
133 154 181
133 154 181
133 154 181
134 154 181
134 154 181
134 154 181
134 154 181
134 154 181
134 154 181
133 154 181
133 154 180
134 154 181
134 154 181
133 154 181
133 154 181
134 154 181
133 154 181
133 154 181
134 154 181
134 154 181
134 154 181
134 154 181
133 154 181
134 154 181
134 154 181
134 154 181
134 154 181
133 154 181
134 154 181
134 154 181
133 154 181
134 154 181
134 154 181
135 155 181
134 154 181
134 154 181
134 154 181
134 154 181
135 155 181
134 154 181
134 154 181
133 154 181
133 154 181
134 154 181
133 154 181
134 154 181
134 154 181
134 155 181
133 154 181
134 154 181
133 154 181
134 154 181
134 155 181
133 154 180
133 154 181
134 154 181
133 154 181
133 154 180
134 154 180
133 154 180
134 154 181
134 154 181
134 154 181
134 154 181
134 154 181
134 154 181
134 155 181
134 154 181
133 154 181
134 154 181
134 154 181
133 154 181
134 154 181
134 154 181
134 154 181
133 154 181
133 154 181
134 155 181
132 153 181
133 154 181
134 154 181
135 155 181
134 154 181
133 154 181
134 154 181
135 155 181
134 154 181
134 154 181
134 154 181
134 154 181
133 154 181
134 154 181
134 154 181
133 154 181
134 154 181
133 154 181
134 154 181
134 154 181
134 154 181
134 154 181
134 154 181
133 154 181
133 154 181
133 154 181
133 154 180
133 154 181
134 154 181
134 154 181
134 154 181
135 155 181
134 154 181
134 154 181
134 154 181
134 154 181
134 154 181
134 154 181
133 154 181
134 154 181
135 155 181
134 154 181
134 154 181
133 154 181
133 154 181
133 154 181
134 154 181
133 154 181
134 154 181
134 154 181
133 154 181
134 154 181
133 154 181
133 154 181
134 154 181
135 155 181
134 154 181
134 154 181
134 154 181
133 154 181
133 154 181
133 154 180
134 154 181
134 154 181
133 153 180
133 153 180
133 154 181
133 154 181
134 154 181
134 154 181
133 154 181
134 154 181
134 155 181
134 154 181
134 154 181
134 154 181
134 154 181
133 154 180
134 154 181
134 154 181
134 154 181
134 154 181
133 154 181
133 154 181
133 154 181
134 154 181
134 154 181
133 154 180
133 154 181
134 154 181
133 154 181
133 154 180
134 154 181
135 155 181
134 154 181
133 154 181
133 154 181
133 154 181
133 154 181
134 154 181
134 154 181
134 154 181
133 154 181
133 154 181
134 154 181
134 154 181
134 154 181
134 154 181
134 154 181
134 154 181
134 154 181
134 154 181
133 154 181
134 154 181
133 154 181
134 154 181
134 154 181
134 154 181
134 154 181
135 155 181
133 154 181
132 153 181
134 155 181
134 154 181
134 154 181
134 154 181
134 154 181
135 155 181
133 154 181
133 154 180
134 154 181
134 154 181
133 154 181
134 154 181
135 155 181
133 154 181
133 154 181
134 154 181
134 154 181
134 154 180
134 154 181
133 154 180
134 154 181
133 154 180
133 154 181
134 154 181
134 154 181
133 154 181
134 154 181
134 155 181
133 154 181
133 153 180
133 154 181
133 154 181
133 154 181
133 153 180
134 154 181
133 154 181
133 154 181
134 154 181
134 154 181
134 154 181
134 154 181
134 154 181
133 154 181
133 154 181
133 153 180
134 154 181
134 154 181
134 154 181
133 154 181
134 154 181
133 154 181
134 154 181
134 154 181
134 154 181
134 155 181
133 154 181
134 154 181
133 154 181
134 154 181
133 154 181
133 154 181
134 154 180
133 154 181
134 154 181
134 154 181
133 154 181
134 154 181
135 155 181
134 155 181
134 154 181
134 154 181
133 154 181
134 154 181
132 153 181
134 154 181
133 154 181
134 154 181
133 154 181
133 154 181
134 154 181
134 154 181
134 154 181
134 154 181
133 154 181
133 154 181
134 154 181
134 154 181
133 153 180
134 154 181
133 154 181
133 153 180
133 153 180
134 154 181
134 154 181
134 154 181
134 154 181
134 154 181
133 154 181
134 154 181
133 154 181
133 154 181
134 155 181
134 154 181
134 154 181
133 154 180
134 154 181
134 154 181
132 153 180
134 154 180
134 155 181
133 154 181
134 154 180
134 154 181
134 154 181
134 154 181
135 155 181
134 154 181
133 154 181
134 154 181
134 154 181
134 154 180
134 154 181
133 154 181
134 154 181
134 154 180
133 154 181
134 154 181
133 154 181
134 154 181
133 154 181
133 153 180
133 154 181
133 154 181
134 154 181
133 154 181
133 154 181
133 154 181
134 154 181
133 154 181
133 154 181
134 154 181
134 154 181
134 154 181
134 154 181
133 154 181
134 154 181
134 154 180
133 154 181
133 154 181
134 154 181
134 154 181
134 154 181
133 154 181
134 154 181
132 153 181
133 154 181
134 154 181
134 154 181
134 154 181
133 154 181
133 154 180
135 155 181
134 154 181
133 154 181
133 154 181
134 154 181
135 155 181
133 154 181
134 154 181
133 154 181
135 155 181
134 154 181
134 154 181
134 154 180
134 154 181
133 154 181
134 154 181
134 154 181
134 154 180
134 154 181
133 154 181
134 154 181
134 154 181
134 154 181
134 154 181
134 155 181
134 154 181
133 154 180
133 154 181
134 154 181
133 154 181
134 154 181
134 154 180
134 154 181
134 154 181
134 154 181
133 154 181
135 155 181
133 154 181
133 154 181
133 154 181
134 154 181
133 154 181
135 155 181
133 154 181
133 154 181
134 154 181
134 154 181
134 154 181
134 154 181
134 154 181
134 154 181
134 154 181
134 154 181
134 154 181
134 154 181
133 154 181
134 154 181
134 154 181
134 154 181
134 155 181
134 154 181
134 154 181
133 154 181
134 154 181
135 155 181
133 154 181
135 155 181
134 154 181
134 154 181
133 153 180
133 154 181
134 154 181
133 154 181
134 154 181
133 154 181
134 154 181
134 154 181
132 153 180
133 154 181
133 154 181
134 154 181
133 154 181
134 154 181
134 154 181
134 154 181
134 154 181
134 154 181
132 153 180
133 154 181
133 153 180
134 154 181
133 154 181
134 154 181
134 154 181
134 154 181
134 154 181
134 154 181
133 154 181
134 154 181
133 154 181
133 154 181
133 154 181
134 154 181
133 154 181
133 154 181
134 154 181
134 154 181
134 154 181
134 154 181
134 154 181
134 154 181
133 154 181
134 154 181
134 154 181
133 154 181
133 154 181
134 154 181
134 154 181
134 154 181
133 154 181
134 154 181
133 154 180
134 154 181
135 155 181
134 154 181
134 154 180
134 154 181
134 154 180
135 155 181
134 154 181
134 154 181
133 154 181
133 154 180
134 154 181
133 154 181
133 154 181
133 154 181
133 154 181
134 154 180
134 154 181
135 155 181
134 154 181
134 155 181
134 154 181
134 154 181
133 154 181
134 154 181
134 154 181
134 154 181
134 154 180
134 154 181
134 154 180
134 154 181
133 154 181
134 154 181
134 154 181
134 154 180
134 154 181
133 154 180
133 154 181
134 154 181
134 155 181
133 154 181
134 154 181
134 154 181
134 154 181
134 153 180
134 154 181
134 154 181
134 154 181
133 154 181
133 154 181
134 154 181
134 154 181
134 154 181
133 154 181
134 154 181
134 154 181
134 154 181
133 154 181
134 154 181
134 154 181
133 154 181
134 154 181
133 154 181
134 154 181
133 154 181
134 154 181
134 154 181
134 154 181
133 154 180
134 154 181
134 154 181
134 154 181
133 154 181
134 154 181
135 155 181
133 154 181
134 154 181
134 154 181
134 154 181
134 154 180
134 154 181
133 154 181
134 154 181
134 154 181
133 154 180
134 154 180
133 154 181
134 154 181
133 154 181
134 154 181
133 154 181
134 154 181
133 154 181
134 154 181
134 154 181
133 154 180
133 154 181
134 154 181
134 154 181
133 154 181
134 155 181
133 154 181
134 154 181
134 154 181
134 154 181
133 154 180
133 154 181
134 154 181
133 154 181
133 154 180
134 154 181
133 154 181
133 154 181
134 154 181
134 154 180
133 154 181
133 154 181
134 154 181
134 154 181
134 154 181
134 154 181
134 154 181
134 154 181
134 154 181
134 154 181
134 154 181
134 154 181
133 154 181
134 154 181
134 154 181
133 154 181
134 154 181
134 154 180
132 153 180
133 153 180
134 154 181
134 154 181
134 154 181
133 154 181
134 154 180
135 155 181
133 154 180
132 153 181
133 154 181
133 154 181
134 154 181
133 154 181
134 154 181
134 154 181
134 154 181
134 154 181
133 154 181
133 154 181
133 154 181
134 154 181
134 154 181
133 153 180
133 154 180
134 154 181
134 154 181
134 154 181
133 154 180
133 154 181
134 154 181
135 155 181
134 154 181
133 154 181
133 154 181
133 154 181
133 154 180
133 153 180
133 153 180
134 154 181
134 154 181
134 154 181
133 154 181
133 154 181
133 154 181
133 154 181
134 154 181
133 154 180
133 154 181
134 154 181
134 154 180
134 154 181
134 154 181
134 154 181
133 154 181
134 154 180
133 154 181
134 154 181
134 154 181
135 155 181
133 154 181
133 154 181
134 154 181
133 154 181
133 154 181
133 154 181
134 154 181
134 154 181
133 154 181
133 154 181
134 154 181
134 154 181
134 154 181
134 154 181
133 154 180
134 154 181
132 153 181
134 154 181
135 155 181
133 154 181
135 155 181
133 154 181
134 154 181
134 154 181
133 154 181
133 153 180
133 153 180
133 154 181
135 155 181
133 154 181
134 154 181
133 154 181
133 154 181
133 154 181
134 154 181
134 154 181
134 154 181
134 154 181
134 154 181
134 154 181
134 154 181
133 154 180
134 154 181
134 154 181
134 154 181
133 154 181
134 154 181
134 155 181
134 154 180
134 154 181
133 154 181
134 154 181
133 153 180
134 154 181
134 154 181
134 154 181
133 154 181
133 154 181
134 154 180
134 154 181
133 154 181
134 154 181
133 154 181
134 154 180
134 154 181
134 154 180
133 154 180
133 154 181
134 154 181
134 154 181
134 154 181
134 154 181
133 154 181
134 154 181
134 154 181
134 154 181
134 154 181
134 154 181
133 154 181
134 154 181
134 154 181
134 154 181
134 155 181
133 154 181
133 154 181
133 154 181
133 154 181
134 154 181
133 154 181
134 154 181
134 154 181
133 153 180
133 154 181
135 155 181
134 154 181
135 155 181
133 154 181
133 154 180
134 154 181
133 154 180
134 154 181
133 154 181
134 154 181
134 154 181
133 154 181
133 154 181
135 155 181
134 154 181
134 154 181
133 154 181
134 154 180
134 154 181
134 154 181
133 154 181
135 155 181
134 154 181
133 154 181
134 154 181
133 154 181
134 154 181
133 154 181
134 154 181
133 154 181
134 154 181
134 154 181
133 154 181
135 155 181
134 154 181
133 154 181
134 154 181
133 154 181
134 154 181
134 154 181
134 154 181
133 154 181
133 153 180
132 153 181
134 154 181
133 154 181
134 154 181
133 154 181
134 154 181
134 154 181
134 154 181
134 154 181
134 154 181
133 153 180
134 154 181
133 154 181
134 154 181
135 155 181
134 154 181
134 154 181
134 154 181
133 154 181
134 154 181
133 154 181
134 154 181
134 154 181
134 155 181
133 154 180
134 154 181
134 154 181
135 155 181
134 154 181
134 154 181
134 154 181
134 154 181
134 154 181
134 154 181
133 154 181
133 154 181
135 155 181
134 154 180
134 154 181
133 154 181
134 154 181
134 154 181
134 154 181
133 154 181
134 155 181
134 154 181
133 154 181
135 155 181
134 154 181
134 155 181
134 154 181
134 154 181
134 154 181
134 154 180
135 155 181
135 155 181
135 155 181
134 154 181
134 155 181
134 154 181
134 155 181
133 154 181
133 154 181
134 154 181
133 154 181
134 154 181
133 154 181
134 154 181
134 154 180
134 154 181
134 154 181
134 154 180
134 154 181
134 154 181
133 154 180
135 155 181
134 154 181
134 154 181
135 155 181
133 154 181
133 154 181
134 154 181
133 154 181
134 155 181
134 154 181
133 154 181
133 154 181
134 155 181
133 154 181
133 154 181
133 154 181
134 154 181
135 155 181
133 154 181
134 154 181
134 154 181
133 154 181
134 154 181
134 154 181
134 154 181
134 154 181
134 154 181
133 154 180
134 154 181
135 154 180
134 154 181
134 154 181
134 154 181
133 154 181
134 154 181
134 154 181
134 154 181
134 154 181
134 154 181
134 154 181
134 154 181
134 154 181
134 154 181
133 153 180
134 154 181
133 154 181
135 155 181
134 154 181
134 154 181
134 154 181
134 154 180
133 153 180
133 153 179
134 154 181
133 154 181
134 155 181
133 154 181
133 154 181
134 154 181
133 154 181
133 154 181
134 154 181
134 154 181
134 154 181
134 154 181
133 154 181
133 154 181
133 154 181
133 154 181
134 154 181
134 154 180
133 154 181
133 154 181
133 154 181
134 154 181
134 154 181
133 154 181
133 154 181
134 154 181
134 154 181
134 155 181
133 154 181
133 154 181
134 155 181
133 154 181
133 154 181
136 155 181
133 154 181
134 154 180
134 154 181
133 154 180
134 154 181
134 154 180
134 154 181
134 154 181
133 154 181
134 154 181
133 154 181
134 154 181
132 153 181
133 154 181
135 155 181
134 154 181
134 154 181
133 154 181
133 154 180
133 154 181
134 154 181
134 154 181
134 154 181
134 154 181
134 154 180
134 154 181
133 154 180
134 154 181
134 154 181
133 154 180
133 154 181
134 154 181
134 154 180
134 154 181
133 154 181
134 154 181
134 154 181
133 153 180
133 154 181
134 154 180
135 155 181
134 154 181
134 154 181
133 154 181
134 154 181
133 154 181
134 154 181
133 154 181
134 154 181
134 154 181
133 154 181
134 154 181
134 154 181
133 154 180
133 154 181
133 154 181
134 154 181
134 154 181
134 154 181
133 153 180
133 154 181
133 154 181
134 154 181
133 154 181
134 154 181
133 154 181
134 154 181
134 155 181
134 154 181
134 154 181
133 154 181
132 153 180
133 154 181
133 154 181
134 154 181
134 154 181
134 154 181
134 154 181
133 154 181
134 154 181
134 154 181
134 154 181
134 154 181
133 154 181
134 154 181
134 154 181
134 155 181
135 155 181
134 154 181
134 154 181
134 154 181
134 154 181
134 154 181
134 154 181
134 154 181
135 155 181
134 154 181
133 154 181
135 155 181
133 154 181
134 154 181
134 154 181
134 154 181
133 154 181
134 154 181
133 154 181
134 154 180
133 154 181
134 154 181
134 154 181
134 154 181
133 154 181
134 154 181
133 154 181
133 154 181
133 154 181
134 154 181
134 154 181
133 154 181
134 154 181
134 154 181
134 154 181
133 154 180
133 154 181
134 154 181
134 154 181
134 154 181
134 154 181
134 154 181
134 154 181
135 155 181
133 154 180
134 154 181
135 155 181
134 154 181
134 154 181
134 154 181
133 154 181
134 154 181
134 154 181
134 154 181
134 154 181
134 154 181
134 154 181
133 154 181
134 154 181
133 154 181
134 154 181
134 154 181
133 154 181
133 154 181
134 154 181
134 154 181
134 155 181
133 154 181
133 154 181
134 154 181
134 154 181
134 154 181
135 155 181
134 154 180
133 154 181
134 154 181
133 154 181
134 154 181
133 154 181
134 154 181
133 154 181
134 154 181
133 154 181
134 154 181
134 154 181
133 154 180
134 154 181
135 155 181
134 154 181
134 154 181
134 154 181
134 154 181
134 154 181
134 154 181
133 154 181
133 154 181
135 155 181
133 154 181
135 155 181
134 154 181
133 154 181
134 154 181
134 154 181
134 154 181
134 154 181
133 154 181
134 154 181
134 154 181
133 154 181
134 154 181
134 154 181
134 154 181
133 154 181
134 154 181
134 154 180
134 154 181
134 154 181
134 154 181
133 154 181
134 154 180
133 154 180
134 154 181
134 154 181
134 154 181
133 154 181
133 154 181
133 153 180
134 154 181
134 154 181
134 154 181
134 154 180
134 154 181
134 154 181
134 154 181
134 154 181
134 154 181
134 154 181
133 154 181
134 154 181
133 154 181
134 154 181
134 154 181
134 154 181
134 154 181
135 155 181
133 154 180
134 154 181
134 154 181
134 154 180
134 154 181
134 154 181
134 154 181
134 154 181
134 154 181
134 154 181
134 154 181
134 154 181
134 155 181
133 154 181
134 154 181
133 154 181
133 154 181
134 154 181
134 154 181
133 154 181
135 155 181
133 154 181
134 154 181
133 154 180
133 154 181
134 154 181
133 154 181
132 153 180
134 154 181
133 154 181
133 154 181
133 154 181
133 154 181
134 155 181
133 154 181
134 154 181
133 154 181
134 154 181
134 154 181
134 154 181
135 155 181
133 154 181
133 154 181
135 155 181
134 154 181
133 154 181
134 154 181
133 154 181
134 154 181
134 154 181
133 154 180
133 154 181
134 154 181
134 154 181
135 155 181
134 154 181
134 154 181
134 154 181
133 154 181
133 154 181
133 154 181
133 154 181
133 154 181
134 154 181
134 154 181
134 154 181
133 154 181
133 154 181
134 154 181
134 154 181
134 154 181
134 154 181
134 154 181
133 154 181
134 154 181
133 154 181
133 154 181
134 154 181
133 154 181
134 154 181
133 154 180
134 154 181
134 154 181
133 154 181
133 154 181
134 154 181
134 154 181
135 155 181
134 154 181
134 154 181
133 154 181
133 154 181
134 154 181
134 154 181
134 154 181
134 154 181
134 154 181
133 154 181
133 154 181
134 154 181
133 154 181
133 154 181
133 154 181
135 155 181
134 154 181
133 154 181
133 154 181
133 153 180
134 154 181
135 155 181
133 154 181
133 154 180
134 154 181
133 154 181
134 154 181
133 154 181
134 154 181
134 154 181
134 154 181
133 154 181
134 154 181
133 154 181
134 154 181
135 155 181
134 154 181
134 154 181
133 154 180
134 154 181
133 154 181
133 154 181
133 154 181
133 154 181
134 154 181
133 154 181
134 154 181
133 154 180
133 154 181
134 154 181
134 154 181
133 154 181
135 155 181
133 154 181
133 154 181
134 154 180
134 154 181
133 154 181
134 154 181
133 154 181
133 154 181
134 154 181
135 155 181
133 154 181
133 154 181
134 154 181
133 154 181
134 154 181
133 154 181
134 155 181
133 154 181
134 154 181
134 154 181
133 154 181
134 154 181
133 154 181
134 154 180
135 155 181
134 155 181
133 154 181
133 154 181
135 155 181
133 154 181
134 154 180
134 154 181
134 154 181
133 154 181
135 155 181
134 154 181
134 155 181
134 154 181
134 154 181
135 155 181
133 154 180
134 154 181
133 154 181
133 154 181
133 153 180
133 154 181
134 154 181
134 154 180
134 154 181
134 154 181
133 154 181
135 155 181
133 154 181
134 154 181
134 154 181
135 155 181
133 154 181
134 154 181
134 154 181
134 154 181
133 154 181
134 154 181
134 155 181
134 154 180
134 154 181
134 154 181
133 154 181
134 154 181
133 154 181
134 154 181
135 155 181
134 154 180
134 154 181
133 154 181
134 154 181
133 154 181
134 154 181
134 154 181
133 154 181
134 154 181
133 154 180
134 154 181
134 154 181
134 154 181
134 154 181
134 154 181
134 154 181
134 154 180
134 154 181
133 154 181
134 154 181
134 154 181
133 154 181
134 154 181
134 154 181
133 154 181
134 154 181
134 154 181
133 154 181
134 154 180
134 154 180
133 154 181
134 154 181
133 154 181
134 154 181
133 154 181
134 154 181
134 154 181
133 154 181
134 154 181
133 154 181
134 154 181
133 154 181
133 154 181
133 154 181
133 154 181
134 154 181
134 154 180
134 154 181
135 155 181
134 154 181
132 153 180
135 155 181
134 154 181
133 154 180
134 154 181
134 154 181
133 154 181
133 154 181
134 154 181
133 154 181
134 154 181
134 154 181
133 154 181
134 154 181
135 155 181
134 154 180
133 154 181
134 154 181
134 155 181
134 154 181
134 154 181
133 154 181
134 154 181
133 154 181
133 154 181
134 154 181
134 154 181
134 154 181
134 154 181
133 154 181
133 154 181
134 154 181
134 154 180
133 154 181
133 154 181
134 154 181
134 154 181
134 154 181
133 153 180
134 154 181
134 154 181
133 154 181
134 154 181
134 154 181
135 155 181
133 154 181
133 154 180
134 154 181
134 154 181
133 154 181
134 154 181
134 154 181
134 154 181
133 154 181
133 154 181
134 154 181
133 153 180
133 154 181
134 154 181
134 154 181
134 154 181
134 154 181
133 154 181
133 154 181
134 154 181
134 154 181
134 155 181
134 154 181
133 154 181
135 155 181
133 154 181
134 154 181
134 154 181
134 154 181
134 154 181
134 154 181
134 154 181
134 154 181
134 154 181
135 155 181
133 154 181
134 154 181
133 153 180
134 154 181
133 154 181
133 154 181
133 154 181
134 154 181
134 154 181
133 154 180
133 154 180
134 154 180
134 154 181
134 154 181
135 155 181
133 154 181
133 153 180
133 153 180
134 154 181
134 154 181
134 154 181
134 154 181
133 154 181
134 154 181
134 154 181
134 154 181
133 154 181
134 154 181
133 154 181
134 154 181
133 154 181
133 154 181
135 155 181
133 154 180
133 154 181
134 154 181
134 154 180
134 154 181
134 154 181
134 154 181
133 154 181
134 154 181
134 154 181
134 154 181
134 154 181
133 154 181
134 154 180
134 154 181
134 154 181
134 154 181
135 155 181
133 154 180
134 154 181
133 154 181
134 154 181
133 154 181
134 154 181
134 154 181
133 154 181
133 154 181
133 154 181
133 154 181
134 154 181
134 154 181
133 154 181
133 154 181
134 154 181
134 154 181
134 154 181
134 154 181
134 154 181
134 154 181
135 155 181
134 154 181
133 154 180
133 154 181
134 154 181
133 154 180
134 154 181
134 154 181
133 154 181
133 154 181
135 155 181
133 154 181
133 154 181
133 154 181
134 154 181
134 154 181
134 154 181
134 154 181
133 154 181
134 154 181
134 154 181
134 154 181
134 154 181
134 154 181
133 154 181
133 154 181
134 155 181
133 154 180
134 154 181
133 154 181
134 154 181
133 154 181
133 154 181
133 154 181
134 154 181
134 154 181
134 154 181
134 154 181
134 154 181
133 154 181
134 154 181
134 154 181
134 154 181
133 154 181
134 154 181
134 154 181
133 154 181
133 154 181
133 154 181
134 154 181
133 154 181
133 154 181
134 154 181
134 154 181
134 154 181
134 154 181
134 154 181
134 154 181
134 155 181
134 154 181
133 154 180
134 154 181
134 154 181
133 154 181
133 154 180
132 153 181
134 154 181
134 154 181
134 154 181
133 154 181
134 154 181
134 154 181
134 155 181
133 154 181
134 154 181
134 154 181
133 154 181
134 154 181
134 154 181
134 154 181
134 154 181
133 154 181
133 154 181
133 154 181
134 154 181
133 154 181
134 154 181
134 154 181
134 154 181
134 154 181
134 154 181
134 154 181
135 155 181
134 155 181
134 154 181
134 154 181
135 155 181
134 154 181
134 154 181
133 154 181
134 154 181
134 154 181
133 154 181
134 154 181
133 154 181
134 154 181
134 154 181
133 154 181
133 154 181
134 154 181
134 154 181
134 154 181
135 155 181
134 154 181
133 154 181
134 154 181
134 154 181
134 154 181
133 154 181
133 154 181
133 154 181
134 154 181
134 154 181
134 154 181
134 154 181
133 154 181
133 154 181
134 154 181
133 154 181
134 154 181
134 154 181
134 154 181
133 154 181
134 154 181
134 154 181
135 155 181
133 154 181
134 154 181
134 154 181
133 154 181
134 154 181
134 154 181
133 154 181
134 154 181
134 154 181
134 154 181
134 154 181
135 155 181
134 154 181
134 154 181
134 154 181
134 154 181
133 154 181
133 154 180
135 155 181
134 154 181
134 154 181
133 153 180
134 154 181
134 154 181
134 154 181
134 154 181
134 154 181
134 154 181
134 154 181
135 155 181
134 154 181
133 154 181
134 154 181
134 154 181
134 154 181
134 154 181
134 154 181
133 154 181
134 154 181
134 154 181
134 154 181
134 154 181
133 154 181
134 154 181
134 154 181
133 153 180
133 154 181
134 154 181
133 154 180
134 155 181
134 154 181
134 154 181
134 154 181
133 154 181
135 155 181
133 154 181
133 154 180
133 154 180
134 154 181
134 154 180
134 154 181
134 154 181
133 154 181
134 154 181
134 154 181
133 154 181
133 153 180
134 155 181
134 154 181
134 154 181
135 155 181
133 154 181
134 154 181
133 154 181
134 154 181
134 154 181
133 154 181
133 153 180
134 154 181
134 155 181
134 154 181
133 154 181
134 154 181
134 154 181
135 155 181
133 154 181
134 154 181
133 154 181
133 154 181
133 154 181
134 154 181
133 154 181
133 153 180
134 154 181
133 154 181
133 154 181
134 154 181
134 154 181
133 154 181
134 154 181
133 154 181
133 154 181
133 153 180
134 154 181
134 155 181
135 155 181
135 155 181
133 154 181
134 154 181
133 154 181
133 154 181
132 154 181
134 154 181
133 154 181
134 154 181
134 154 180
134 154 181
134 154 181
133 154 181
134 154 181
134 154 181
134 154 181
133 154 181
134 154 181
135 155 181
133 154 181
134 154 180
134 154 181
133 154 181
133 154 181
134 154 181
133 154 181
134 154 181
134 154 181
133 154 181
134 154 181
134 154 181
134 154 181
134 154 181
133 154 181
135 155 181
134 154 181
135 155 181
133 154 181
133 153 180
134 154 180
134 154 181
134 154 181
133 153 180
134 154 181
135 155 181
134 154 181
134 154 181
134 154 181
133 154 181
134 154 181
134 154 181
133 154 181
133 154 181
134 154 181
134 154 181
133 154 181
134 154 181
133 154 181
134 154 181
133 154 181
133 154 181
133 154 181
133 154 181
133 154 181
133 154 181
134 154 180
134 154 181
133 154 181
133 154 181
134 154 181
134 154 181
134 154 181
134 154 181
134 154 181
134 154 181
133 154 181
134 154 181
135 155 181
135 155 181
134 154 181
134 154 181
134 154 181
135 155 181
134 154 181
134 154 181
134 154 181
134 154 181
134 154 181
135 155 181
134 154 181
135 155 181
133 153 180
133 154 181
134 154 181
135 155 181
134 154 181
134 154 181
134 154 181
134 154 181
133 153 180
133 154 181
134 154 181
135 155 181
134 154 181
133 154 181
133 154 181
134 154 181
133 154 181
134 154 181
134 154 181
133 154 181
133 154 181
134 154 181
134 154 181
134 155 181
134 154 181
134 154 181
133 154 181
134 154 181
134 154 181
134 154 181
134 154 181
133 154 180
134 154 181
134 155 181
134 154 181
134 154 181
134 155 181
133 154 181
134 154 181
133 154 181
134 154 181
134 154 181
134 154 181
134 154 181
134 154 181
133 154 181
133 154 181
134 154 181
133 154 181
134 154 181
133 154 181
134 154 181
134 154 180
134 154 181
134 154 181
134 154 181
134 154 181
134 154 181
133 154 181
133 154 181
133 154 181
133 154 181
134 154 181
133 153 180
134 154 181
134 154 181
133 154 181
134 154 181
134 154 181
134 154 180
133 154 181
135 155 181
134 154 181
133 154 181
133 154 181
133 154 181
135 155 181
134 154 181
135 155 181
134 154 181
134 154 181
133 154 181
134 154 181
134 154 181
134 154 181
133 154 181
133 154 181
133 154 181
134 154 181
134 154 181
134 154 181
134 154 181
134 154 181
134 154 181
134 154 181
134 154 181
134 154 181
134 154 181
133 154 181
133 153 180
135 155 181
133 154 181
134 154 181
133 154 181
134 154 181
133 154 181
134 154 181
133 153 180
134 154 181
134 154 181
134 154 181
133 154 181
134 154 181
134 154 181
134 154 181
134 154 181
134 154 181
135 155 181
134 154 181
133 154 181
133 154 181
134 154 181
134 154 181
134 154 181
134 154 181
133 154 181
134 154 181
134 154 181
133 153 180
135 155 181
133 154 181
134 154 181
133 154 181
134 154 181
134 154 181
133 154 181
134 154 181
134 154 181
134 154 181
134 154 181
134 154 181
134 154 181
133 154 181
133 154 181
134 154 181
133 154 180
133 154 181
134 154 181
134 154 181
134 154 181
134 154 181
133 154 181
133 154 181
134 154 181
134 154 181
133 154 181
133 154 181
134 154 181
134 154 181
134 154 181
134 154 181
133 154 180
133 154 181
134 154 181
133 154 181
134 154 181
134 154 181
134 154 181
133 154 181
134 154 181
133 154 181
134 154 180
133 154 181
133 153 180
134 154 181
134 154 181
134 154 181
135 155 181
134 154 181
133 154 181
134 154 181
134 154 181
134 154 181
134 154 181
134 154 181
133 154 181
134 154 181
134 154 181
134 154 181
133 154 181
134 154 181
133 154 181
134 154 181
134 154 180
134 154 181
134 154 181
134 154 181
133 154 181
134 154 181
134 154 181
134 154 181
133 154 181
133 154 181
134 154 181
133 154 181
134 154 181
133 154 181
133 154 180
133 154 181
133 154 181
133 154 181
134 154 181
134 154 181
134 154 181
133 153 180
133 154 181
134 154 181
134 154 181
134 154 181
133 154 181
133 154 181
134 154 181
134 154 181
134 154 181
133 154 181
133 154 181
133 154 181
134 154 181
134 154 181
133 154 181
133 154 181
134 154 181
132 153 180
134 154 181
135 155 181
134 154 181
134 154 180
134 154 181
134 154 181
133 154 181
134 154 181
133 154 181
134 154 181
134 154 181
134 154 181
134 154 181
133 154 181
133 154 181
134 154 181
133 154 181
134 154 181
133 153 180
133 154 181
133 154 181
133 154 181
134 154 181
134 154 181
133 154 181
134 154 181
133 154 181
134 154 181
134 154 180
135 155 181
134 154 181
134 154 181
135 155 181
133 154 181
135 155 181
134 154 181
134 154 181
134 154 181
134 154 181
133 154 181
134 154 181
135 155 181
134 154 181
134 154 181
133 154 181
133 154 181
134 154 181
134 154 181
133 154 181
133 154 181
134 154 181
134 154 181
134 154 181
133 154 181
134 154 181
134 154 181
134 154 181
134 154 180
133 154 181
135 155 181
134 154 181
133 154 181
134 154 181
134 154 181
133 153 180
134 154 181
134 154 181
133 154 180
134 154 180
133 154 181
133 154 181
133 154 180
134 154 181
134 154 181
134 154 181
134 154 181
133 154 181
133 154 181
134 154 181
134 154 181
134 154 181
133 154 181
134 154 181
133 154 181
134 154 181
134 154 181
134 154 181
133 154 180
134 154 181
134 154 181
134 154 181
133 154 181
134 154 181
134 154 181
134 154 181
134 154 181
134 154 181
134 154 181
133 154 181
134 154 181
134 154 181
134 154 181
134 154 181
134 154 181
134 154 181
133 153 180
133 154 181
134 154 181
134 155 181
133 154 181
134 154 181
134 154 181
134 154 181
133 154 181
134 154 181
134 154 181
134 154 181
135 155 181
134 154 181
133 154 181
134 154 181
134 155 181
134 154 181
133 154 181
134 154 180
134 154 181
134 154 181
134 154 181
133 154 181
133 154 181
133 154 181
135 155 181
134 154 181
133 154 181
133 154 180
133 154 181
134 154 181
134 154 181
133 153 180
133 154 181
134 154 181
134 154 181
134 155 181
134 154 181
134 154 181
133 154 181
133 154 181
134 154 181
134 154 181
133 154 181
134 154 181
134 154 181
134 154 181
134 154 181
134 154 181
133 154 181
133 154 181
133 153 180
134 154 181
133 154 181
133 153 180
133 154 181
133 154 181
133 154 181
134 154 181
133 154 181
134 154 181
133 154 181
134 154 181
134 154 180
134 154 181
134 154 181
134 154 181
133 154 181
134 154 181
134 154 181
133 154 181
134 154 181
134 154 181
134 154 181
134 154 181
133 154 181
135 155 181
134 154 181
134 154 181
133 154 181
133 153 180
133 154 181
134 154 181
133 154 181
133 154 180
134 154 181
133 154 181
134 154 181
135 155 181
133 154 181
133 154 180
134 154 181
133 154 181
134 154 181
133 154 181
133 154 181
134 154 181
133 154 181
134 154 181
134 154 181
133 154 181
134 154 181
134 154 181
133 154 181
133 154 181
134 154 181
135 155 181
134 154 181
133 154 181
134 154 180
134 154 181
133 154 181
133 154 181
134 154 181
134 154 181
134 154 181
134 154 181
133 154 180
133 154 181
134 154 181
133 154 181
134 154 181
134 154 181
132 154 181
134 154 181
134 154 181
134 154 181
134 154 181
135 155 181
134 154 181
134 154 181
134 154 181
133 153 180
134 154 181
134 154 181
134 154 181
134 154 180
134 154 181
133 154 181
134 154 181
134 154 181
135 155 181
134 154 181
133 154 181
135 155 181
134 154 181
133 154 181
134 154 181
135 155 181
134 154 181
133 154 180
133 154 181
134 154 181
134 155 181
133 154 181
132 153 180
135 155 181
133 154 181
133 154 181
134 154 181
133 154 181
133 154 181
134 154 181
134 154 181
134 154 181
133 154 181
134 154 181
134 154 181
134 154 181
134 154 181
133 154 181
134 154 180
134 154 181
134 154 181
133 154 181
134 154 181
133 154 181
134 154 181
134 154 181
134 154 181
134 154 181
134 154 181
134 154 181
135 155 181
134 154 181
133 154 181
133 154 181
134 154 181
134 154 181
134 154 181
133 154 181
134 154 181
134 155 181
133 154 181
135 155 181
134 155 181
133 154 181
134 155 181
134 154 181
134 154 181
134 154 181
133 154 181
134 154 180
134 154 181
134 154 181
133 154 181
134 154 181
133 154 181
134 155 181
135 155 181
133 154 181
134 154 181
135 155 181
133 154 181
134 154 181
134 154 181
134 154 181
134 154 181
134 154 181
134 154 181
134 154 181
134 154 181
134 154 181
133 154 181
134 155 181
133 154 180
133 154 181
133 154 181
134 154 181
135 155 181
133 154 181
134 154 181
135 155 181
134 154 181
134 154 181
135 155 181
132 153 180
133 154 181
135 155 181
134 154 181
134 154 181
134 154 181
134 154 181
134 154 181
133 154 181
133 153 180
134 154 181
134 154 181
133 154 181
132 153 180
134 154 181
134 154 181
134 154 181
133 154 181
134 154 181
134 154 181
134 154 181
134 154 181
133 154 181
134 154 181
134 154 181
134 154 181
133 154 181
134 154 181
134 155 181
134 154 181
133 154 181
134 154 181
134 154 181
133 154 181
134 154 181
134 154 181
133 154 181
135 155 181
134 154 181
134 154 181
133 154 181
134 154 181
133 154 181
133 154 181
135 155 181
133 154 181
133 154 180
133 154 181
133 154 181
134 154 181
133 153 180
135 155 181
135 155 181
134 154 181
133 154 181
134 154 180
134 154 181
133 154 181
134 154 181
134 154 181
133 154 180
132 153 181
133 154 181
133 154 180
133 154 181
134 154 181
134 154 181
134 154 181
134 154 181
134 154 181
135 155 181
133 154 181
134 154 181
134 154 181
133 154 180
134 154 181
134 155 181
133 154 181
134 154 181
134 154 181
135 155 181
133 154 181
134 154 181
134 155 181
133 154 181
134 154 180
134 154 181
134 154 181
133 154 181
134 154 180
133 154 181
133 154 180
134 154 181
134 154 181
133 154 181
134 154 180
134 154 181
133 154 181
134 154 181
134 154 181
134 154 181
134 154 180
133 154 181
134 154 181
134 154 181
133 154 181
134 154 181
133 154 181
133 154 181
133 154 181
133 154 181
133 154 180
134 154 181
135 155 181
133 154 181
134 154 181
133 154 180
134 154 181
133 154 181
134 154 181
134 154 181
133 153 180
133 154 180
134 154 181
133 154 181
134 154 181
133 154 181
133 154 181
134 154 181
133 153 180
132 153 181
135 155 181
133 154 181
133 154 181
134 154 181
134 154 181
133 154 180
135 155 181
133 153 180
133 154 181
134 154 181
133 154 181
134 154 181
133 153 180
134 154 181
134 154 181
134 154 181
134 154 181
133 154 180
134 154 180
133 154 181
134 154 181
134 154 181
133 154 181
135 155 181
133 154 181
133 154 181
133 154 181
133 154 181
134 154 180
133 154 181
133 154 181
133 154 181
134 154 181
134 154 181
134 154 181
133 154 181
134 154 181
133 154 181
134 154 181
134 154 181
133 154 180
133 154 181
132 153 181
133 154 181
133 154 181
134 154 181
134 154 181
134 154 181
134 154 180
135 154 180
133 154 181
134 154 181
133 154 180
135 155 181
133 154 181
133 154 180
133 153 180
133 154 181
134 154 181
134 154 181
134 154 181
133 154 181
134 154 181
134 154 181
133 154 181
134 154 181
134 154 181
133 154 181
134 154 181
133 154 181
134 154 181
134 154 181
134 154 181
133 154 181
134 154 181
134 154 181
134 154 181
134 154 181
134 154 180
134 154 181
134 154 181
133 154 181
133 154 181
133 154 180
134 154 181
134 154 181
133 154 181
134 154 181
134 154 181
134 154 181
134 154 181
134 154 181
135 155 181
134 154 181
134 154 181
134 154 181
134 154 181
133 154 181
134 155 181
134 154 181
133 154 181
134 155 181
134 154 181
133 154 181
133 154 181
134 154 181
134 154 181
133 154 181
134 154 181
134 154 181
134 154 181
132 153 181
134 154 181
133 154 181
133 154 181
134 154 181
134 154 181
134 154 181
134 154 181
134 154 181
134 154 181
134 154 181
133 154 181
134 154 181
134 154 181
133 154 181
134 154 181
134 154 181
134 154 181
134 154 181
133 154 181
134 154 181
135 155 181
134 154 181
133 153 180
134 154 181
133 154 181
133 154 181
134 154 181
133 154 181
134 154 181
134 154 181
134 154 181
134 154 181
134 154 181
133 154 180
133 154 181
133 154 181
133 154 181
134 154 181
134 154 181
133 154 181
133 154 181
134 154 181
133 154 181
134 154 181
134 154 181
134 154 181
134 154 181
134 154 181
133 154 181
134 154 181
134 154 181
134 154 181
134 154 181
135 155 181
134 154 181
134 154 181
133 154 180
134 154 181
135 155 181
135 155 181
134 154 181
133 154 181
134 154 181
134 154 181
133 154 181
134 154 180
134 154 181
133 154 181
134 154 181
133 154 181
133 154 181
134 154 181
134 154 181
134 154 181
134 154 181
133 154 181
134 154 181
134 154 181
133 154 181
134 155 181
134 154 181
133 154 181
135 155 181
134 154 181
134 154 181
134 154 181
135 155 181
133 154 181
134 154 181
133 154 181
133 154 181
133 154 181
134 154 181
133 154 181
134 155 181
134 154 181
133 154 181
133 154 181
135 155 181
134 154 181
133 154 181
134 154 181
134 154 181
134 154 181
134 154 181
133 154 181
133 154 180
134 154 181
134 154 181
134 154 180
134 154 181
134 154 181
133 154 181
134 154 180
133 154 181
134 154 181
133 154 181
133 154 181
134 154 181
134 154 181
134 154 181
133 154 181
134 154 181
133 154 181
134 154 180
134 154 181
135 155 181
134 154 181
134 154 181
133 154 181
135 155 181
134 154 181
134 154 181
133 154 181
133 154 181
134 154 181
134 154 181
134 154 181
133 154 181
134 154 181
134 154 181
134 154 181
134 154 181
134 154 181
133 154 181
135 155 181
133 154 181
134 154 180
134 154 181
135 155 181
133 154 181
132 153 181
134 154 181
134 154 181
134 154 181
134 154 181
134 154 181
134 154 181
133 154 181
134 154 181
133 154 181
133 154 181
134 154 181
134 154 181
132 153 180
134 154 181
134 154 181
134 154 181
133 154 181
134 154 181
132 153 180
134 154 181
134 154 181
134 154 181
134 155 181
133 154 181
133 154 181
134 154 181
134 154 181
133 154 181
134 154 181
135 155 181
134 154 181
133 154 181
135 155 181
134 154 181
134 154 181
133 154 181
133 154 181
133 154 181
134 154 181
134 154 181
133 154 181
134 154 181
135 155 181
133 154 180
134 154 181
134 154 181
134 154 181
133 154 181
134 154 181
134 154 181
134 154 181
135 155 181
134 154 181
134 154 181
133 154 181
133 154 181
134 154 181
134 154 181
133 154 181
134 154 181
134 154 181
134 154 180
135 155 181
134 154 181
134 154 181
134 154 181
134 154 181
134 155 181
134 154 180
134 154 181
133 154 181
134 154 181
134 154 181
132 153 180
135 155 181
133 154 181
134 155 181
133 154 181
134 154 181
134 154 181
134 154 181
134 154 181
134 154 181
134 154 181
134 154 181
134 154 181
133 154 180
134 154 181
134 154 181
134 154 181
133 154 181
134 154 181
133 154 181
133 154 181
134 154 181
133 154 181
134 154 181
133 154 181
134 154 181
134 154 181
134 154 181
134 154 181
134 154 181
134 155 181
134 154 181
134 154 181
135 155 181
133 154 181
134 155 181
133 154 180
134 154 181
133 154 181
134 154 181
133 154 181
135 155 181
134 154 181
134 154 181
132 153 181
134 154 181
133 154 181
134 154 181
133 154 181
133 154 181
133 154 181
133 153 180
135 155 181
133 154 181
133 154 181
134 154 181
133 154 181
134 154 181
134 155 181
134 154 181
133 154 181
133 154 181
134 154 181
134 155 181
133 154 181
133 153 180
134 154 180
133 154 181
134 154 181
134 154 181
133 153 180
134 154 181
134 154 181
134 154 181
134 154 181
133 154 181
133 154 181
134 154 181
133 154 180
134 154 181
133 154 181
133 154 181
134 154 181
133 154 181
134 154 181
133 154 181
133 154 181
134 154 181
133 154 181
134 154 181
134 154 181
133 154 181
133 154 181
134 154 181
134 154 181
134 153 179
132 153 180
134 154 181
134 155 181
134 154 181
134 154 181
133 154 181
134 154 181
133 154 181
133 154 181
134 154 181
134 154 181
133 154 180
134 154 181
134 154 181
134 154 181
134 154 181
134 154 181
134 155 181
134 154 181
134 154 180
134 154 181
134 154 181
133 154 180
133 153 180
133 154 181
134 154 181
134 154 181
133 154 180
134 154 181
134 155 181
133 154 181
133 154 181
133 154 181
133 154 181
135 155 181
134 154 180
133 154 181
134 154 181
133 154 181
134 154 181
134 154 181
133 154 181
134 154 181
133 154 181
134 155 181
133 154 181
134 154 180
134 154 181
134 154 181
134 154 181
132 153 180
134 154 181
134 154 181
134 154 181
135 155 181
133 154 181
133 154 181
134 154 181
134 155 181
134 154 181
133 154 181
133 154 181
134 154 181
134 155 181
133 154 180
134 154 181
133 154 181
134 154 181
134 154 181
134 154 181
133 154 181
134 154 181
134 154 181
133 154 181
135 155 181
134 154 181
134 154 181
134 154 181
135 155 181
134 154 181
134 154 181
135 155 181
134 154 181
133 154 181
134 154 181
134 155 181
133 154 181
133 154 181
133 154 181
134 154 181
134 154 181
134 154 181
133 154 181
134 154 181
134 154 181
134 154 180
135 155 181
134 154 181
133 154 181
133 154 181
134 154 181
134 154 181
134 154 181
133 154 181
133 154 181
133 154 181
134 154 181
133 154 181
134 154 181
134 155 181
133 154 180
134 154 181
134 154 181
133 153 180
133 154 181
133 154 181
133 154 181
134 154 181
134 154 181
134 154 181
133 154 181
134 154 181
134 154 181
133 154 181
134 154 181
133 154 181
133 154 181
134 154 181
133 154 181
134 154 181
134 154 181
133 154 181
134 154 181
133 154 181
133 154 181
134 154 181
134 154 181
134 154 181
134 154 181
134 154 181
134 154 181
134 154 181
133 154 180
134 154 181
134 154 181
133 154 181
134 154 181
134 154 181
134 154 181
133 154 181
134 154 181
134 154 181
134 154 181
134 154 181
134 154 181
134 154 181
133 154 181
134 154 180
133 154 181
134 154 181
134 154 181
134 154 181
134 154 181
133 154 181
134 154 181
133 154 181
134 154 181
134 154 181
134 154 181
134 154 181
134 154 181
134 154 181
134 154 181
133 154 181
134 154 181
134 154 181
134 154 181
132 153 181
133 154 181
134 154 181
133 154 181
134 154 180
133 154 181
134 154 181
133 154 180
134 154 181
133 154 181
134 154 181
135 155 181
133 154 181
134 154 181
134 154 181
133 154 181
134 154 181
134 154 181
134 154 181
133 154 181
133 154 181
134 154 181
134 154 180
134 154 181
134 154 181
134 154 181
134 154 181
134 154 181
135 155 181
134 154 181
134 154 181
134 154 181
134 154 181
133 154 181
133 154 181
133 153 180
133 154 181
134 154 181
134 154 181
133 154 181
134 154 181
134 154 181
134 154 181
134 154 181
133 154 181
133 154 181
134 154 181
133 154 181
134 154 181
134 154 181
133 154 180
133 154 180
133 154 181
132 153 180
134 154 181
134 154 181
134 154 181
134 154 181
133 154 181
133 154 181
134 154 181
133 154 181
134 154 181
134 154 181
134 154 181
134 155 181
133 154 181
132 153 181
134 154 181
133 154 181
135 155 181
134 154 181
133 154 181
134 154 181
133 154 181
134 155 181
134 154 181
134 154 181
134 154 181
134 154 181
133 154 181
134 154 181
133 154 181
134 154 181
133 154 181
134 154 181
134 154 181
133 154 181
134 154 181
134 154 181
134 154 181
133 154 180
133 154 181
134 154 181
133 154 181
134 154 181
132 153 180
135 155 181
134 154 181
134 154 181
133 154 181
133 154 181
133 154 180
133 154 181
134 154 181
133 154 181
134 154 181
134 154 181
135 155 181
134 154 181
133 154 181
134 154 181
133 154 181
134 154 181
133 154 181
134 154 181
134 154 181
134 154 181
133 154 181
134 155 181
134 154 181
133 154 181
134 154 181
134 154 181
134 154 181
135 155 181
134 154 181
133 154 181
134 154 181
134 154 180
134 154 181
133 154 181
134 154 181
134 154 181
132 153 180
133 154 181
133 154 181
133 154 181
133 154 181
134 154 181
135 155 181
133 154 181
133 154 181
134 154 181
134 154 181
134 155 181
133 154 181
133 154 181
133 154 180
133 154 181
134 155 181
134 154 181
134 154 181
134 155 181
133 154 181
134 154 181
133 154 181
133 153 180
133 154 181
134 154 181
133 154 181
133 153 180
135 155 181
133 154 181
134 154 181
133 154 181
134 154 181
134 154 181
133 154 181
133 154 181
133 154 181
134 154 181
134 154 181
134 154 181
133 154 181
134 154 181
133 153 180
134 155 181
134 155 181
134 154 181
134 154 181
134 154 181
134 154 181
134 154 181
133 154 181
134 155 181
134 154 181
134 154 181
135 155 181
134 154 181
134 154 181
134 154 181
134 154 180
134 155 181
134 154 181
133 154 180
133 154 181
133 154 181
134 154 181
134 154 181
134 154 181
134 154 181
134 154 180
134 154 181
133 154 181
133 154 181
134 154 181
134 154 181
134 154 180
134 154 181
134 154 181
133 154 181
133 154 181
134 154 181
133 154 181
134 154 181
134 154 181
134 154 181
134 154 181
134 154 181
133 154 181
133 154 181
134 154 181
134 154 181
134 154 181
134 154 181
134 154 181
134 154 181
133 154 181
134 154 181
133 154 181
134 154 181
133 154 180
133 154 181
134 154 181
134 154 181
133 154 181
133 154 181
134 154 181
134 154 180
134 154 181
133 154 181
135 155 181
134 154 181
133 154 181
135 155 181
133 153 180
133 154 181
135 155 181
134 154 181
134 154 181
134 154 181
134 154 181
133 154 180
134 154 181
134 154 181
134 154 181
134 154 180
133 154 181
134 154 181
133 153 180
134 154 181
134 154 181
134 154 181
134 154 181
134 154 181
134 154 181
133 154 181
134 154 181
134 154 181
133 154 181
134 154 181
134 154 181
134 154 181
134 154 181
134 154 181
134 154 181
134 154 181
134 154 181
133 154 181
134 154 180
133 154 181
134 154 181
134 154 181
134 154 181
133 154 181
134 154 181
133 154 181
134 154 180
135 155 181
133 154 181
134 154 181
134 154 181
134 154 181
133 154 181
133 154 181
134 154 181
134 154 181
134 154 181
134 154 181
134 154 181
134 154 180
135 155 181
134 155 181
133 154 181
134 154 181
134 154 181
133 154 181
135 155 181
133 154 181
134 155 181
134 154 181
134 154 181
134 154 181
134 154 181
133 154 181
134 154 181
134 154 181
134 154 181
134 154 181
133 154 181
134 154 181
135 155 181
134 154 181
133 154 181
134 154 181
135 155 181
133 154 181
133 154 181
135 155 181
133 154 181
134 155 181
134 154 181
134 154 181
134 154 181
133 154 181
134 154 181
134 154 181
135 155 181
134 154 181
134 154 181
133 154 181
134 154 181
133 154 181
133 154 181
134 154 181
134 154 181
133 153 180
134 154 181
133 154 181
134 154 181
134 154 181
134 154 181
134 154 181
134 154 181
134 154 181
133 154 181
134 154 181
134 154 181
134 154 181
134 154 181
134 154 181
133 154 181
133 154 181
134 154 181
133 154 181
134 154 181
133 154 181
134 154 181
134 154 181
133 154 181
134 154 181
133 154 181
134 154 181
133 154 181
134 154 181
134 154 181
134 154 181
133 154 181
134 154 181
134 154 181
133 154 181
133 153 180
133 154 181
134 154 181
134 154 181
134 154 181
134 154 181
133 154 181
134 154 181
134 154 181
134 154 180
134 154 181
133 154 181
133 154 181
134 154 181
134 154 181
134 154 181
135 155 181
133 154 181
133 154 181
135 155 181
135 155 181
134 154 181
132 153 181
134 154 181
133 154 181
133 154 181
133 154 180
134 154 181
134 154 181
134 154 181
134 154 181
133 154 181
134 154 181
134 154 181
134 155 181
134 154 181
134 154 181
134 154 181
133 154 181
133 154 181
134 154 181
134 154 181
135 155 181
133 154 181
134 154 181
133 154 181
134 154 181
135 155 181
134 155 181
134 154 181
133 154 181
133 154 181
134 154 181
134 154 181
133 154 181
135 155 181
134 154 181
134 154 181
133 154 181
133 154 181
135 155 181
133 154 181
133 154 180
134 154 181
134 154 181
134 155 181
134 154 181
134 154 181
134 154 181
133 154 181
134 154 181
133 154 181
133 154 181
133 154 181
133 154 180
134 154 181
135 155 181
134 154 181
134 154 181
134 154 181
134 154 181
133 154 181
133 154 181
133 154 181
134 154 181
133 154 180
133 154 181
133 154 181
134 154 181
135 155 181
133 154 181
134 154 181
134 154 181
133 154 181
133 154 181
133 154 181
134 154 181
134 154 181
134 154 181
134 154 181
135 155 181
134 154 181
133 154 180
134 154 181
133 154 181
133 154 181
134 154 181
133 154 181
133 154 181
134 154 181
134 154 181
134 154 181
134 154 181
135 155 181
134 154 181
133 154 181
133 154 181
134 154 181
133 154 181
134 154 181
135 155 181
133 154 181
133 154 181
134 155 181
133 154 181
134 154 181
134 154 181
133 154 180
133 153 180
134 154 181
134 155 181
134 154 181
134 154 181
134 154 181
134 154 181
133 154 181
134 154 181
133 154 181
134 154 181
133 154 181
133 154 181
133 154 180
134 155 181
135 155 181
133 154 181
134 154 181
134 154 181
133 154 180
133 154 181
134 154 181
133 153 180
133 154 181
133 154 181
134 154 181
134 154 181
134 154 181
134 154 181
134 154 181
133 154 181
133 154 181
133 154 181
133 154 181
134 154 181
134 154 181
134 154 181
133 154 181
133 154 181
134 154 181
133 154 181
135 155 181
134 154 181
133 154 180
133 154 181
133 154 181
134 154 181
133 154 181
134 154 181
134 154 181
133 154 181
135 155 181
133 154 181
134 154 181
133 154 181
134 154 181
134 154 181
134 154 181
133 154 181
133 154 181
133 154 180
134 154 180
134 154 181
134 154 181
134 154 180
134 154 181
134 154 181
133 154 181
134 154 180
134 154 181
134 154 181
134 154 181
134 154 181
134 154 181
134 154 181
135 155 181
133 154 181
134 154 181
134 154 181
135 155 181
135 155 181
133 154 180
133 154 181
134 154 181
133 154 181
134 154 181
134 154 181
134 154 181
135 155 181
134 154 181
134 154 181
134 154 181
133 154 181
135 155 181
132 154 181
134 154 181
134 154 181
133 154 180
133 154 181
134 154 181
135 155 181
133 153 180
134 154 181
133 154 181
134 154 181
133 154 181
134 154 181
134 154 181
133 154 181
134 154 181
134 154 181
133 154 181
134 154 181
134 154 181
135 155 181
134 154 181
134 154 181
134 154 181
134 154 181
134 154 181
134 154 181
134 154 181
134 154 181
133 154 181
134 154 180
135 155 181
134 154 181
134 154 181
134 154 181
133 154 181
134 154 181
134 154 181
133 154 181
134 154 181
133 153 180
134 154 181
134 154 181
134 154 181
134 154 181
133 154 181
133 154 180
134 154 181
133 154 181
133 154 181
134 154 180
134 154 181
133 154 181
133 154 181
133 154 181
134 154 181
134 154 181
134 154 181
133 154 181
134 154 181
133 154 181
133 154 181
135 155 181
134 154 181
134 154 181
134 154 181
133 154 181
134 154 181
134 154 181
133 154 181
134 154 181
134 154 181
133 153 180
134 154 181
135 155 181
134 154 181
133 154 181
134 154 181
134 154 181
134 154 181
134 154 181
133 154 181
133 153 180
134 154 181
133 154 181
134 154 181
133 154 181
133 153 180
134 154 181
133 154 181
134 154 181
133 154 181
134 154 181
134 154 181
134 154 181
133 154 181
134 154 181
134 154 181
134 154 181
134 154 181
133 154 181
134 154 181
134 154 181
134 154 181
133 154 181
134 154 181
134 154 181
133 154 181
133 154 181
134 154 181
135 155 181
134 154 181
133 154 181
134 154 181
133 154 181
134 154 181
135 155 181
134 154 181
134 154 181
134 154 181
134 154 181
135 155 181
133 153 180
134 154 180
135 155 181
134 154 181
135 155 181
134 154 181
134 154 181
135 155 181
133 154 181
133 154 181
134 154 181
134 154 181
134 154 181
134 154 181
134 154 181
134 154 181
134 154 181
134 154 181
133 154 181
133 154 181
133 154 181
134 154 181
134 154 181
133 154 181
133 154 181
133 154 181
133 154 181
134 155 181
134 154 181
134 154 181
133 154 181
134 154 181
134 154 181
135 155 181
134 154 181
134 154 181
133 154 181
134 154 181
133 154 181
133 154 181
133 154 180
134 155 181
134 154 181
134 154 181
133 154 181
134 154 181
134 154 181
134 154 181
134 154 181
133 154 181
134 154 180
133 154 181
134 154 181
134 154 181
134 155 181
133 154 181
133 154 181
135 155 181
135 155 181
134 154 181
133 154 181
133 154 181
133 154 181
134 154 181
134 154 181
134 154 181
134 154 181
134 154 181
134 155 181
133 154 181
134 154 181
134 154 181
134 154 181
134 155 181
133 154 181
134 154 181
133 154 181
133 154 180
133 154 181
133 154 181
134 155 181
134 154 181
133 154 181
135 155 181
134 154 181
133 154 181
133 154 181
133 154 181
132 153 181
133 154 181
133 154 181
133 154 180
134 154 181
133 154 181
134 154 181
134 154 181
133 154 181
133 154 181
134 154 181
134 154 181
134 154 181
134 154 181
133 154 181
134 154 180
133 154 181
133 154 181
133 154 181
133 154 180
133 154 181
134 155 181
133 154 181
134 154 181
134 154 181
134 154 181
134 154 181
135 155 181
134 154 181
134 154 181
134 154 181
134 154 181
133 154 181
134 154 181
135 155 181
134 154 181
134 154 181
134 154 181
134 154 181
133 154 181
134 154 181
134 155 181
134 154 181
134 154 181
133 154 181
134 154 181
134 154 181
133 154 181
135 155 181
134 154 181
134 154 181
134 154 181
133 154 181
135 155 181
134 154 181
134 154 181
133 154 181
133 154 180
133 154 181
133 154 181
135 155 181
134 154 181
134 154 181
133 154 181
133 154 181
134 154 181
133 154 181
134 154 181
134 154 181
134 154 181
133 154 181
134 154 180
134 154 181
134 154 181
134 154 181
133 154 181
134 154 181
134 154 181
133 154 181
133 154 181
133 154 181
133 154 181
133 154 181
134 154 181
134 154 181
134 154 181
133 154 181
134 154 181
134 154 181
134 154 181
135 155 181
134 154 181
133 154 181
134 154 181
134 154 181
133 154 181
134 154 181
133 154 181
133 154 181
134 154 181
134 154 181
134 154 181
134 154 181
134 154 181
134 154 181
133 154 181
133 153 180
134 154 181
134 154 181
133 154 181
133 154 181
133 154 181
133 154 181
133 154 181
134 154 181
133 154 181
134 154 181
134 154 181
134 154 181
134 154 181
133 154 181
134 154 181
134 154 181
133 154 181
134 154 181
134 154 181
134 154 181
134 154 181
134 154 181
134 154 181
133 154 181
134 154 181
135 155 181
134 154 181
133 154 181
135 155 181
134 155 181
134 154 181
134 154 181
134 154 181
135 155 181
135 155 181
133 154 181
133 154 181
134 154 181
133 154 181
134 154 181
134 154 181
134 154 181
133 154 181
133 154 181
133 154 181
134 154 181
134 154 181
135 155 181
134 154 181
133 154 181
134 155 181
134 155 181
134 154 181
134 154 181
134 154 181
134 154 180
133 154 181
133 154 181
134 154 181
134 154 181
134 154 181
132 153 180
135 155 181
133 154 181
134 154 181
133 154 181
135 155 181
134 154 181
133 154 181
134 154 181
133 154 180
134 154 181
134 154 181
133 154 181
133 154 181
134 154 181
134 154 181
134 154 181
134 154 181
133 153 180
133 154 181
134 154 181
134 154 181
135 155 181
133 154 181
133 154 181
133 153 180
133 154 181
134 155 181
134 154 181
134 154 181
134 154 181
133 154 180
134 154 181
133 153 180
134 154 181
133 154 181
133 154 181
134 154 181
134 154 181
133 154 181
134 154 181
134 154 181
134 154 181
133 154 181
134 154 181
134 154 181
133 154 181
134 154 181
133 154 181
134 154 181
134 154 181
134 154 181
134 154 181
134 154 180
133 154 181
133 154 181
134 154 181
133 154 181
134 154 181
134 154 181
134 154 181
132 153 179
134 154 181
133 154 181
134 154 181
132 153 180
134 154 181
134 154 181
134 154 181
133 154 181
133 154 181
133 154 180
135 155 181
134 154 181
133 154 181
133 154 181
134 154 181
134 154 181
133 154 181
134 154 181
134 154 181
135 155 181
134 154 181
134 154 181
134 154 181
135 155 181
133 154 181
134 154 181
134 154 181
133 154 181
134 154 181
134 154 181
133 154 180
134 154 181
134 154 181
134 154 181
134 154 181
135 155 181
133 154 181
134 154 181
133 154 181
134 154 181
133 154 181
134 154 181
134 154 181
134 154 181
134 154 181
134 154 181
134 154 181
134 154 181
134 154 181
134 155 181
133 154 181
134 154 181
134 154 181
133 154 181
133 154 181
134 154 181
134 154 181
134 154 180
134 154 181
134 154 181
134 154 181
133 154 181
135 155 181
134 154 180
134 154 181
134 154 181
133 154 181
134 154 181
133 154 180
134 154 181
134 154 181
134 154 181
133 154 181
133 154 181
134 154 181
134 154 181
134 154 181
135 155 181
134 154 181
134 154 181
134 154 181
134 154 181
134 154 181
133 154 181
134 154 181
133 154 181
134 154 181
134 154 181
133 154 181
135 155 181
134 154 181
134 154 181
133 154 181
134 154 181
134 154 181
135 155 181
134 154 181
133 154 181
134 154 181
133 154 181
134 154 181
134 155 181
134 154 181
133 154 181
132 153 181
132 153 181
135 155 181
133 154 181
134 154 181
134 154 181
134 155 181
134 154 181
134 154 181
134 154 181
134 154 181
135 155 181
134 154 181
133 154 181
133 154 181
133 154 181
133 154 181
134 154 181
133 154 181
134 154 181
133 154 181
134 154 181
134 154 181
133 154 181
134 154 181
134 154 181
133 154 180
133 154 181
134 154 181
134 154 181
134 154 181
134 154 181
133 154 181
133 154 181
134 154 180
133 154 180
133 154 181
134 154 181
134 154 181
132 153 180
133 154 181
133 154 181
133 154 181
134 154 181
135 155 181
133 154 181
134 154 181
134 154 181
133 154 181
134 154 181
133 154 181
134 154 181
133 154 181
133 154 181
134 154 181
132 153 180
135 155 181
133 154 181
134 154 181
133 154 181
134 154 181
134 154 181
133 154 181
134 154 181
134 154 181
134 154 181
134 154 181
133 154 181
133 154 181
135 155 181
134 154 181
135 155 181
134 154 180
133 154 181
133 154 181
134 154 181
134 154 181
133 154 181
134 154 181
134 154 181
133 154 181
134 154 181
133 154 181
133 154 181
134 154 181
134 154 181
133 154 181
135 155 181
134 154 181
134 154 181
135 155 181
134 154 181
134 154 181
133 154 181
133 154 181
133 154 181
133 154 181
133 154 181
133 154 181
133 154 181
134 154 181
133 154 181
135 155 181
134 154 181
135 155 181
134 154 181
133 154 181
134 154 181
135 155 181
133 154 180
133 154 181
133 154 181
134 154 181
133 154 181
135 154 180
134 154 181
134 154 181
134 154 181
134 154 181
133 154 181
134 154 181
134 154 181
133 154 181
134 154 181
134 154 181
134 154 180
134 154 180
134 154 180
133 154 181
133 154 181
134 154 181
134 154 181
133 154 181
133 154 181
134 154 181
133 154 181
133 154 181
133 154 181
134 154 181
134 154 181
135 155 181
133 154 181
133 154 181
134 155 181
134 154 181
134 154 181
134 154 181
133 154 181
134 154 181
134 154 181
134 154 181
134 154 181
134 154 181
134 154 181
134 154 181
134 154 181
134 154 181
134 155 181
134 154 181
134 154 181
133 154 181
134 154 181
135 155 181
134 154 180
133 154 181
133 154 181
134 154 181
134 154 181
134 154 181
135 155 181
134 154 181
134 154 181
134 154 181
134 154 181
134 154 181
133 154 181
134 154 181
135 155 181
134 154 181
134 154 181
134 154 181
134 154 181
134 154 181
134 155 181
133 153 180
133 154 181
134 154 181
133 154 180
134 154 181
134 154 181
134 154 181
134 154 181
133 154 181
134 154 181
134 154 181
134 154 181
135 155 181
134 154 181
134 154 181
134 154 181
134 154 181
134 154 181
133 153 180
135 155 181
134 154 181
133 154 181
134 154 181
133 154 181
133 154 181
134 154 181
134 154 181
134 155 181
134 154 181
134 154 180
133 154 181
135 155 181
134 154 181
133 154 181
135 155 181
134 154 181
134 154 181
134 154 181
133 154 181
133 154 181
134 154 181
134 154 181
134 154 181
133 154 181
134 154 181
134 154 181
134 154 181
134 155 181
134 154 181
133 154 181
133 154 181
133 154 181
134 154 181
133 154 181
134 154 181
134 154 181
135 155 181
133 154 181
134 154 181
134 154 181
135 155 181
134 154 181
133 154 181
134 154 181
134 154 181
134 154 180
134 154 181
134 154 181
134 154 181
134 154 181
135 155 181
133 154 181
134 154 181
134 154 181
133 154 181
133 154 181
134 154 181
134 154 181
134 154 181
134 155 181
134 155 181
134 154 181
133 154 181
134 155 181
133 154 181
133 154 181
133 154 181
134 154 181
133 154 181
134 154 181
134 154 181
134 154 181
134 154 181
134 154 181
134 155 181
134 154 181
134 154 181
134 154 181
133 154 180
132 153 180
134 155 181
134 154 181
134 154 181
134 154 181
133 154 181
134 154 181
134 154 181
133 154 181
134 154 181
134 154 181
134 154 181
133 154 181
133 154 181
134 154 181
134 154 181
135 155 181
135 155 181
134 154 181
134 154 181
134 154 181
133 153 180
134 154 181
133 154 181
133 154 181
133 154 181
133 153 180
133 154 181
133 154 181
134 154 181
134 154 181
135 155 181
134 154 181
134 154 181
134 154 181
133 154 181
134 154 181
134 154 181
134 154 181
134 154 181
134 154 181
134 154 181
134 154 181
134 154 181
134 154 181
134 154 181
133 154 181
135 155 181
134 154 181
135 155 181
134 154 181
134 154 181
134 154 181
134 154 181
134 154 181
134 154 181
133 154 181
135 155 181
134 154 181
133 154 181
134 154 181
134 154 181
133 154 181
134 154 181
134 154 181
133 154 181
134 154 181
135 155 181
134 154 180
133 154 181
134 154 181
134 154 181
134 154 181
134 154 181
134 154 181
134 154 181
134 154 180
134 154 181
134 154 181
135 155 181
134 154 181
134 154 181
134 154 181
134 155 181
134 154 181
134 154 181
134 154 181
133 154 181
134 154 181
134 154 181
133 154 181
133 154 181
134 154 181
134 154 181
133 154 181
134 155 181
134 154 181
134 154 180
134 154 181
133 154 181
133 154 181
133 154 181
133 154 181
134 155 181
134 155 181
134 154 181
133 154 181
134 154 181
135 155 181
133 154 181
133 154 181
134 154 181
133 154 181
133 154 181
134 154 181
133 154 181
134 154 181
134 154 181
133 154 181
134 154 181
133 154 181
134 154 181
133 154 181
134 154 181
133 154 181
134 154 181
134 154 181
134 154 181
133 154 181
133 154 181
133 154 181
133 154 181
133 154 181
134 154 181
134 155 181
134 154 181
134 154 181
134 154 181
134 154 181
134 154 181
134 154 181
134 154 181
134 154 181
134 154 181
133 154 180
133 154 181
133 154 181
134 154 181
134 155 181
134 154 181
134 154 181
134 154 181
135 155 181
133 154 181
134 154 181
134 154 181
133 154 181
134 154 181
133 154 181
133 154 181
134 154 181
134 154 181
134 154 181
134 154 181
134 154 181
134 154 181
134 154 181
134 154 181
134 154 181
134 154 181
134 154 181
133 154 181
134 154 181
134 154 181
133 154 181
134 154 181
134 154 181
133 154 181
134 154 181
133 153 180
133 154 181
134 155 181
134 154 181
134 154 181
134 154 181
134 154 181
134 154 181
134 154 181
133 154 181
134 154 181
133 154 181
133 154 181
133 154 181
134 154 181
133 154 181
134 154 181
133 154 181
134 154 181
134 154 181
134 154 181
134 154 181
134 154 181
133 154 181
134 154 181
134 154 181
133 154 181
133 154 181
134 154 180
135 155 181
135 155 181
134 154 181
134 154 181
134 154 181
133 154 181
134 154 181
134 154 181
133 154 181
135 155 181
134 155 181
133 154 181
133 153 180
134 154 181
134 154 181
134 154 181
134 154 181
132 153 180
135 155 181
134 154 181
133 154 181
134 154 181
134 154 181
134 154 181
134 154 181
133 154 181
134 154 181
134 154 181
134 154 181
133 154 181
135 155 181
134 154 181
134 154 181
133 154 181
134 154 181
134 154 181
134 154 181
134 154 181
134 154 181
133 154 181
134 154 181
135 155 181
133 154 181
135 155 181
134 154 181
135 155 181
133 154 181
134 154 181
134 154 181
134 154 181
133 154 181
134 154 181
133 154 181
133 154 180
133 154 181
134 154 181
134 154 181
134 154 181
134 154 181
133 154 181
134 154 181
134 154 181
133 154 181
135 155 181
134 154 181
133 154 181
134 154 181
134 154 181
134 154 181
134 154 181
134 154 181
133 154 181
135 155 181
134 154 181
134 154 181
135 155 181
134 154 181
134 154 181
134 154 181
133 154 181
134 154 181
135 155 181
133 154 181
133 154 181
133 154 180
134 154 181
133 154 181
134 154 181
134 154 181
134 154 181
133 154 181
134 154 181
134 154 181
134 154 181
133 154 180
134 154 181
133 154 181
134 155 181
133 154 181
133 154 181
133 154 181
133 154 181
133 154 181
134 154 181
133 154 181
134 154 181
134 154 181
134 154 181
134 154 181
134 154 181
133 154 181
134 154 181
134 154 181
134 154 181
135 155 181
134 154 181
133 154 181
134 155 181
134 154 181
133 154 181
134 154 181
133 154 180
133 154 181
134 154 181
134 154 181
133 154 181
133 154 181
133 154 181
133 154 180
134 154 180
134 154 181
134 154 181
134 154 181
133 154 181
134 154 181
134 155 181
134 154 181
133 154 181
134 154 181
133 154 181
134 154 181
133 154 181
134 154 180
133 154 181
134 154 181
134 154 181
134 154 181
134 154 181
134 154 181
134 154 181
133 154 181
133 153 180
134 154 181
133 154 181
134 154 181
133 154 181
135 154 180
134 154 181
133 153 180
133 154 181
134 154 181
134 154 181
134 155 181
133 154 181
134 154 181
134 154 181
134 155 181
134 154 181
134 154 181
134 154 181
135 155 181
134 154 181
133 154 181
134 154 181
133 154 181
133 154 180
134 154 181
134 154 180
134 154 181
133 154 181
133 154 181
134 154 181
132 153 181
133 154 181
134 154 181
134 154 181
134 154 181
134 154 181
134 154 181
135 155 181
134 154 181
133 154 181
134 154 181
134 154 181
134 154 181
134 154 181
135 155 181
133 153 180
133 154 181
134 154 181
133 154 181
134 154 181
134 154 181
133 154 181
134 154 181
133 154 181
134 154 181
134 155 181
133 154 181
134 154 181
133 154 181
134 154 181
134 154 181
133 154 180
135 155 181
133 153 180
134 154 181
134 154 181
134 154 181
134 154 181
135 155 181
133 154 181
134 154 181
134 154 181
133 154 181
134 154 181
133 154 181
133 153 180
134 154 181
133 154 181
134 154 181
134 154 181
134 154 181
134 154 181
134 154 181
135 155 181
133 154 181
135 155 181
134 154 181
134 154 181
134 154 181
133 154 181
134 154 181
134 154 181
134 154 181
134 154 181
133 154 181
134 154 181
134 154 181
134 154 181
133 154 181
133 154 181
133 154 181
133 154 181
133 154 181
133 154 181
134 154 181
134 154 181
133 154 181
134 154 181
134 154 181
134 154 180
135 155 181
134 154 181
133 154 181
133 154 181
134 154 181
134 154 181
133 154 181
134 154 181
134 154 181
133 154 180
134 154 181
134 154 181
134 154 181
134 154 181
133 154 181
133 154 181
133 154 181
134 154 181
134 154 181
133 154 181
134 154 181
133 154 181
134 154 181
134 154 181
133 154 181
133 154 181
134 154 181
133 154 181
133 154 181
133 154 181
134 154 181
133 154 181
133 154 181
134 154 181
133 154 181
134 154 181
133 154 181
134 154 181
134 154 181
134 154 181
133 154 181
134 154 181
133 154 181
134 154 181
134 154 181
133 154 181
134 154 180
133 154 181
134 154 181
134 154 181
134 154 181
133 154 181
133 154 180
132 153 181
134 154 181
134 154 181
133 154 181
134 154 181
134 154 181
133 154 181
134 154 181
133 154 181
134 155 181
133 154 181
133 154 181
133 154 181
134 154 181
133 154 181
134 154 181
135 155 181
133 154 181
133 154 181
134 154 181
134 154 181
134 154 181
134 154 181
135 155 181
134 154 181
133 154 181
134 154 181
132 154 181
133 154 181
134 154 181
134 154 181
134 154 181
134 154 181
134 154 181
133 154 181
133 154 181
134 154 181
133 154 181
134 155 181
134 154 181
133 154 181
134 154 181
134 154 181
135 155 181
134 154 181
134 154 180
134 155 181
133 154 181
134 154 181
135 155 181
134 154 181
133 154 181
134 154 181
134 154 181
134 155 181
133 154 181
133 154 181
133 154 181
134 154 181
134 154 181
133 154 181
134 154 181
134 154 181
133 154 181
134 154 181
133 154 181
133 154 181
134 154 181
134 154 181
133 154 181
134 154 181
134 154 181
134 154 181
133 154 181
135 155 181
134 154 181
134 154 181
134 154 181
134 154 181
134 154 181
134 154 181
133 154 181
134 154 181
133 154 181
133 154 181
133 154 180
133 154 181
133 154 181
135 155 181
134 154 181
133 154 181
133 154 181
134 154 181
133 154 180
135 155 181
134 154 181
133 154 181
133 154 181
134 154 181
133 154 180
133 154 181
133 153 180
135 155 181
134 154 181
133 154 181
134 154 181
133 154 180
134 154 181
134 154 181
135 155 181
133 154 181
133 154 181
135 155 181
134 154 181
132 153 181
133 154 181
134 154 181
134 154 181
134 154 181
134 154 181
134 154 181
133 154 181
134 154 181
133 154 181
134 154 181
133 154 181
133 154 181
133 153 180
133 154 181
134 154 181
134 154 181
134 154 181
134 154 181
133 154 181
133 154 181
134 154 181
134 154 181
133 154 181
133 153 180
134 154 181
134 154 181
133 154 181
134 154 181
135 155 181
135 155 181
134 154 181
134 154 181
133 154 181
134 154 181
134 154 181
134 154 181
133 154 181
134 154 181
134 154 181
134 154 181
134 154 181
134 154 181
134 154 181
134 154 181
133 154 181
134 154 181
133 154 181
134 154 181
134 154 181
134 154 181
134 154 181
132 153 180
134 154 181
135 155 181
134 154 181
133 154 181
134 154 181
133 154 181
134 154 181
134 154 181
134 154 181
134 154 181
133 154 181
134 154 181
133 154 181
134 154 181
134 154 181
134 154 181
133 153 180
134 154 181
134 154 181
134 154 181
134 154 181
134 154 181
134 154 181
134 154 181
133 154 181
133 154 180
133 153 180
134 154 181
134 154 181
133 154 181
134 154 181
134 154 181
133 154 181
134 154 181
133 154 181
133 154 181
134 154 181
133 154 181
134 154 181
134 154 181
134 154 181
134 154 181
134 154 181
134 154 181
134 154 181
134 154 181
133 154 181
134 154 180
133 154 181
134 154 181
134 154 181
134 154 181
133 154 181
133 154 181
133 154 181
134 154 181
134 154 181
134 154 181
134 154 181
133 154 181
133 154 181
134 154 181
134 154 181
135 155 181
134 154 181
134 154 181
134 154 181
134 154 181
133 154 181
134 154 181
134 154 181
134 154 181
133 154 180
134 154 181
134 154 181
134 154 181
134 154 181
135 155 181
134 154 181
135 155 181
133 154 181
134 154 181
134 154 181
135 155 181
133 154 181
134 154 181
134 154 181
134 154 181
133 154 181
133 154 180
134 154 181
133 154 181
134 154 181
133 154 181
133 153 180
134 154 181
134 154 181
133 154 180
134 154 181
133 154 180
134 154 181
133 154 181
134 154 181
134 154 181
134 154 181
133 154 180
134 155 181
134 154 181
134 154 181
133 154 181
134 155 181
134 154 181
133 154 181
133 154 181
134 154 181
134 154 181
134 154 181
134 154 180
134 154 181
134 154 181
134 154 181
134 154 181
133 154 181
134 154 181
133 154 181
134 154 181
134 154 181
134 154 181
133 154 181
134 154 180
134 154 181
134 154 181
134 154 181
134 154 181
134 154 181
134 154 181
133 154 181
134 154 181
134 154 181
133 154 181
133 154 181
133 154 181
135 155 181
134 154 181
133 154 181
134 154 181
134 154 181
134 154 181
134 154 181
133 154 181
134 154 181
134 154 181
134 154 181
134 154 181
134 154 181
134 154 181
133 154 181
133 153 180
133 154 181
134 154 181
134 154 181
134 154 181
134 154 181
133 154 181
134 154 181
134 154 181
134 154 181
133 154 181
133 154 181
135 155 181
133 154 181
134 154 181
133 154 181
134 154 181
134 154 181
134 154 181
133 154 181
134 154 181
134 154 181
134 154 181
134 154 181
135 155 181
134 154 181
134 154 180
133 154 181
134 154 181
134 154 181
134 154 181
133 154 181
134 154 181
133 154 181
134 154 181
133 154 181
135 155 181
135 155 181
134 154 181
133 154 181
134 154 181
133 154 181
134 154 181
133 154 181
134 154 181
133 154 181
133 154 181
134 154 181
134 154 181
134 154 181
134 154 180
133 154 181
134 154 181
133 154 181
134 154 181
133 154 181
133 154 181
134 155 181
134 154 181
133 154 181
135 154 180
134 154 180
134 154 181
134 154 181
133 154 181
133 154 181
133 154 181
134 154 180
134 154 181
134 154 181
134 154 181
134 155 181
133 154 181
134 154 181
133 154 181
133 154 181
133 154 181
134 154 181
134 154 181
133 154 181
133 154 180
133 154 181
134 154 181
133 154 181
134 154 181
133 154 180
133 154 181
134 154 181
134 155 181
134 154 181
134 154 181
134 154 181
134 154 181
134 155 181
133 154 181
135 155 181
134 154 181
134 154 181
135 155 181
134 154 181
134 154 181
133 154 181
133 154 181
134 154 181
133 154 181
134 154 181
133 154 181
132 153 181
133 154 181
133 154 181
133 154 181
134 154 181
133 154 181
134 154 181
133 154 181
133 154 181
133 154 181
134 154 181
134 154 181
135 155 181
134 155 181
134 154 181
134 154 181
133 154 181
134 154 181
134 154 181
134 154 181
134 154 181
134 154 181
134 154 181
133 154 181
134 155 181
134 154 181
134 154 181
134 154 181
134 154 181
133 154 181
133 154 181
134 154 181
134 154 181
134 154 181
133 154 181
134 154 181
134 154 181
134 154 181
134 154 181
134 154 181
134 154 181
134 154 181
133 154 181
134 154 181
133 154 181
133 154 180
133 154 180
134 154 181
134 154 181
133 154 181
135 155 181
134 154 181
133 154 181
133 154 181
132 153 181
135 155 181
134 154 181
133 154 181
134 154 181
133 154 180
134 154 181
134 154 181
134 154 181
133 154 181
134 154 181
134 154 181
134 154 181
132 153 181
134 154 181
134 154 181
133 154 180
133 154 181
134 154 181
135 155 181
134 154 181
135 155 181
135 155 181
135 155 181
134 154 181
134 154 181
134 154 181
134 154 181
134 154 181
133 154 181
133 154 181
133 154 181
133 154 181
133 154 181
133 154 181
135 155 181
133 154 181
134 154 181
134 154 181
135 155 181
134 154 181
134 155 181
134 154 181
134 154 181
133 154 180
134 154 180
134 154 181
134 154 181
134 154 181
134 154 181
134 154 181
134 154 181
134 154 181
133 154 181
133 154 181
134 154 181
135 155 181
134 154 180
133 154 181
133 154 181
133 154 181
134 154 181
133 154 181
133 154 181
134 154 181
134 154 181
135 155 181
133 154 180
133 154 181
133 154 181
134 154 180
134 154 181
133 154 181
133 154 180
133 154 181
134 154 181
134 154 181
134 154 181
134 154 181
134 154 181
133 154 181
134 154 181
135 155 181
134 154 181
134 155 181
134 154 181
135 155 181
133 154 181
135 155 181
134 154 181
133 154 181
133 154 181
134 154 181
134 154 181
134 154 181
134 154 180
134 154 181
134 154 181
133 154 181
134 154 181
134 154 181
133 154 181
133 154 181
134 154 180
133 154 180
134 154 181
133 154 181
133 154 180
134 154 180
134 154 181
134 154 181
135 155 181
133 154 181
133 154 181
133 153 180
134 154 181
134 154 181
133 154 181
134 154 181
134 154 181
134 154 181
133 154 181
133 154 181
133 154 180
133 154 181
134 154 181
134 155 181
134 155 181
134 154 181
133 154 181
135 155 181
134 154 181
133 154 181
134 154 181
133 154 181
133 154 181
133 154 181
134 154 181
133 154 181
134 154 181
134 154 181
134 154 181
133 154 181
133 154 181
133 153 180
134 154 181
134 154 181
133 154 181
133 154 181
134 154 181
133 154 180
133 154 181
134 154 180
134 154 181
133 154 181
133 154 181
134 154 181
134 154 181
133 154 181
134 154 181
133 154 181
133 154 181
134 155 181
134 154 180
133 154 181
134 154 181
134 154 181
134 154 181
134 154 181
133 153 180
134 154 181
134 154 181
134 154 181
134 154 181
133 154 181
135 155 181
135 155 181
134 154 181
134 154 181
134 154 181
134 154 181
133 154 181
134 154 181
133 154 181
133 154 181
134 154 181
134 154 181
133 154 181
133 154 181
135 155 181
134 154 181
133 154 181
134 154 181
134 154 181
134 154 181
133 154 181
134 154 180
135 155 181
134 154 181
133 153 180
134 154 181
133 154 181
133 154 181
133 154 180
132 153 180
134 154 181
133 154 181
133 154 181
133 154 181
133 154 181
134 154 181
134 154 181
133 154 181
133 154 181
133 154 181
134 154 181
134 154 181
134 154 181
133 154 181
134 154 181
133 154 181
134 154 181
133 154 181
133 154 181
133 154 181
134 154 181
133 154 181
134 155 181
134 154 181
135 155 181
134 154 181
135 155 181
134 154 181
133 154 181
134 154 181
133 154 181
134 154 181
134 154 181
133 154 181
133 154 181
133 154 181
134 154 181
134 154 181
133 154 181
134 154 181
135 155 181
134 154 181
134 154 181
134 154 181
133 154 181
134 154 181
134 154 181
134 154 181
135 155 181
134 154 181
134 154 181
134 154 181
134 154 181
134 154 181
133 154 181
134 154 181
134 154 181
133 154 181
135 155 181
134 154 181
134 154 181
134 154 181
134 154 181
133 154 181
133 154 181
135 155 181
134 154 181
135 155 181
134 154 181
135 155 181
134 154 181
133 154 181
134 154 181
133 154 181
134 154 181
133 154 181
133 154 181
133 153 180
134 154 181
134 154 181
134 155 181
133 154 181
134 154 181
133 154 181
133 154 181
133 154 181
134 154 181
134 154 181
133 154 181
133 154 180
134 154 181
134 154 181
134 154 181
133 154 181
134 154 181
132 153 181
134 154 181
133 154 181
133 154 180
133 154 181
134 154 181
134 154 181
134 154 181
134 154 181
133 154 181
134 154 181
134 155 181
133 154 181
134 154 181
133 154 181
134 154 181
133 154 181
133 154 181
133 154 181
133 154 181
134 154 181
134 154 181
134 154 181
134 154 181
134 155 181
133 154 181
134 154 181
134 154 181
133 153 180
134 154 181
134 154 181
133 154 181
133 154 181
133 154 181
134 154 181
133 154 180
133 154 181
133 154 181
133 154 181
134 155 181
134 154 181
133 154 181
133 154 181
134 154 181
133 154 181
134 154 181
134 154 181
134 154 181
134 154 181
134 154 181
134 154 181
133 154 181
134 154 181
135 155 181
134 155 181
134 154 181
133 154 181
134 154 181
134 154 181
134 154 181
133 154 181
134 154 181
134 154 181
134 154 181
135 155 181
134 154 181
133 154 181
134 154 181
134 154 181
135 155 181
134 154 181
133 154 181
133 154 181
133 154 181
133 154 181
134 154 181
134 154 181
134 154 180
134 154 181
133 154 181
134 154 181
134 154 181
134 154 181
134 154 181
134 154 181
133 154 181
134 154 181
135 155 181
134 154 181
134 154 181
133 154 181
133 154 180
133 154 181
134 154 180
133 154 181
134 154 181
134 154 181
133 154 181
133 154 181
133 154 181
134 154 181
134 154 181
135 155 181
134 154 181
133 154 181
134 154 181
134 154 181
134 154 181
134 154 181
133 154 181
133 154 181
133 154 181
133 153 180
133 154 181
133 154 181
134 154 181
134 154 181
134 154 181
134 154 181
134 154 181
134 154 181
134 154 181
135 155 181
135 155 181
133 154 181
134 154 181
136 155 181
133 154 181
135 155 181
132 153 180
134 154 181
133 154 181
133 154 181
134 154 181
135 155 181
134 154 181
133 154 181
134 154 181
134 154 181
134 155 181
134 154 181
134 154 181
134 154 181
134 154 181
133 154 181
134 154 181
135 155 181
133 154 180
134 154 181
135 155 181
134 154 181
133 154 181
134 154 181
133 154 181
134 154 181
133 154 180
134 154 180
133 154 181
133 154 181
134 154 181
134 154 181
134 154 181
135 155 181
134 154 181
134 154 181
134 154 181
134 154 181
134 154 181
134 154 181
134 154 181
134 154 181
134 154 181
133 154 181
133 154 181
134 154 181
134 154 181
134 154 181
134 154 181
134 154 181
133 153 180
133 154 181
134 154 181
134 154 181
133 154 181
133 154 180
133 154 181
135 155 181
134 154 181
133 154 181
133 154 181
134 154 181
134 154 181
134 154 181
134 154 181
134 154 181
134 154 181
132 153 180
133 154 181
134 154 181
134 154 181
135 155 181
134 155 181
134 154 181
134 154 181
133 154 181
134 154 181
134 154 181
134 154 181
133 154 181
133 154 181
133 154 181
134 154 181
134 154 180
134 154 181
134 154 181
134 154 181
134 154 181
133 154 181
134 154 181
134 154 181
134 154 181
134 154 181
134 154 181
134 154 181
134 155 181
134 154 181
135 154 180
133 154 181
134 154 181
134 154 181
133 154 181
133 154 181
133 154 181
134 154 180
134 154 181
134 154 181
134 154 181
134 154 181
134 154 181
134 154 181
134 154 181
134 154 181
134 154 181
134 155 181
133 154 181
134 154 180
133 154 181
133 154 181
134 154 181
133 154 181
134 154 181
133 154 181
134 154 181
133 154 181
134 154 181
134 154 181
133 154 181
134 154 181
133 154 181
134 155 181
133 154 180
134 154 181
134 154 181
134 154 181
134 154 181
133 154 181
134 154 181
133 154 181
133 154 181
135 155 181
134 154 181
134 154 181
133 154 181
134 154 181
134 154 181
133 154 181
134 154 180
133 154 181
134 154 181
134 154 181
135 155 181
134 154 181
134 154 180
133 154 181
134 154 181
133 153 180
134 154 181
134 155 181
134 154 180
134 154 181
134 154 181
134 154 181
133 154 181
133 154 181
133 154 181
134 154 181
133 154 181
133 154 181
133 154 181
134 154 181
134 154 181
134 154 181
134 154 181
133 154 181
133 154 181
134 154 181
134 154 181
134 154 181
134 154 181
134 154 181
134 154 181
133 154 181
134 154 181
134 154 181
134 154 181
134 154 181
134 154 181
135 155 181
134 155 181
133 154 181
134 154 181
134 154 181
134 154 181
134 154 181
134 154 181
134 154 181
135 155 181
133 154 181
134 155 181
136 155 181
134 154 181
134 154 181
134 154 181
134 154 181
133 154 181
133 154 181
135 155 181
134 154 181
134 154 181
134 154 181
133 154 180
133 154 181
134 154 181
133 154 181
135 155 181
135 155 181
134 154 181
134 154 180
134 154 180
134 154 181
133 154 181
134 154 181
133 154 181
134 154 180
134 154 181
134 154 181
134 154 181
134 154 181
134 154 181
133 154 181
134 154 181
133 154 181
134 154 181
134 154 181
133 154 181
134 154 181
133 154 181
133 154 181
134 154 181
134 154 181
134 154 181
133 154 181
134 154 181
134 154 181
134 154 181
135 155 181
134 154 181
133 154 181
133 154 181
133 154 181
135 155 181
134 154 181
134 154 181
133 154 181
134 155 181
134 154 181
134 154 181
134 154 181
133 154 181
134 154 181
134 154 181
133 153 180
134 154 181
134 154 181
133 154 181
134 154 181
134 154 181
133 154 181
133 154 181
133 154 181
134 154 181
135 155 181
134 154 181
133 154 181
133 154 181
133 154 181
135 155 181
134 154 181
134 154 181
133 154 181
134 154 181
133 154 181
134 154 181
134 154 181
134 154 181
133 154 181
134 154 181
133 154 180
134 154 181
134 154 181
133 154 181
133 154 181
134 154 181
133 154 181
134 154 181
134 154 181
134 155 181
133 154 180
134 154 181
134 154 181
134 154 181
134 154 181
134 154 181
134 154 181
134 154 181
133 154 181
134 155 181
133 154 181
134 154 181
135 155 181
133 154 181
133 154 181
135 155 181
134 154 181
134 154 181
134 154 181
133 154 181
134 155 181
134 154 181
134 154 181
133 154 181
134 154 181
133 154 181
134 154 181
134 154 181
134 154 181
132 153 180
134 154 181
134 154 181
134 154 181
134 154 181
133 154 181
134 154 181
134 154 181
133 154 181
134 154 181
134 154 181
133 154 181
133 154 181
134 154 181
134 155 181
134 154 181
134 154 181
135 155 181
134 154 181
134 154 181
134 154 181
133 154 181
134 154 181
133 154 181
134 154 181
134 154 181
133 154 181
134 154 181
134 154 181
134 154 181
134 154 181
134 154 181
135 155 181
134 154 181
134 154 181
134 154 181
134 154 181
134 154 181
134 154 181
133 154 180
134 154 181
135 155 181
133 154 181
133 154 181
133 154 181
133 154 181
134 154 181
134 154 181
134 154 181
134 154 181
134 154 181
134 154 181
134 154 181
134 154 181
134 154 180
133 153 180
134 154 181
134 154 181
133 154 181
134 154 181
133 154 181
135 155 181
133 154 181
133 154 181
134 154 181
133 154 180
134 154 181
133 154 181
134 154 181
134 154 181
133 154 181
135 155 181
134 154 181
135 155 181
134 154 181
133 154 181
134 154 181
134 154 181
134 154 181
134 154 181
133 154 181
134 154 181
134 154 181
134 154 181
134 154 181
133 154 180
134 154 181
133 154 181
133 154 181
133 154 181
134 154 181
135 155 181
134 154 181
135 155 181
135 155 181
134 155 181
134 154 181
133 154 181
133 154 180
134 154 181
134 154 181
134 154 181
134 154 181
133 154 181
134 154 181
134 154 181
134 154 181
133 154 181
134 154 181
134 154 181
134 155 181
133 154 181
133 154 180
133 154 181
134 155 181
133 154 181
134 154 181
135 155 181
134 154 181
133 154 181
134 154 181
134 154 181
134 154 181
134 154 181
133 154 181
134 154 181
134 154 181
134 154 180
133 154 181
133 154 181
135 155 181
134 154 181
133 154 181
134 154 181
134 154 181
134 154 181
134 154 181
133 154 181
133 154 181
134 154 181
133 154 181
134 154 181
134 154 181
134 154 181
134 154 181
133 154 181
134 154 181
134 154 181
135 155 181
133 154 181
134 154 181
134 154 181
134 154 181
133 154 181
133 154 181
134 154 181
134 154 181
133 154 181
133 154 181
134 154 181
133 154 181
133 154 181
134 154 180
134 154 181
134 154 181
134 154 181
134 154 180
134 154 181
133 154 181
133 154 180
133 154 181
134 154 181
134 154 181
133 154 181
134 154 181
134 154 181
134 154 181
133 154 181
134 154 180
134 154 181
133 154 181
133 154 181
134 154 181
134 154 180
134 154 180
134 154 181
134 154 181
133 154 181
134 154 181
134 154 181
134 154 181
135 155 181
133 154 181
134 154 181
135 155 181
133 154 181
134 154 181
133 154 181
133 154 181
134 154 181
134 154 181
134 154 181
134 154 181
134 154 181
133 154 181
134 154 181
133 154 181
133 154 181
133 154 181
135 155 181
133 154 181
134 155 181
133 154 181
133 154 181
134 154 181
134 154 181
133 154 181
135 155 181
134 154 180
133 154 181
134 154 181
134 154 181
134 154 181
133 154 181
133 154 181
133 154 180
134 154 181
135 155 181
133 154 181
134 154 181
134 154 181
134 154 181
134 155 181
135 155 181
134 154 181
133 154 181
134 154 181
134 154 181
133 154 181
134 154 181
133 154 181
133 154 181
133 154 181
134 154 181
134 154 181
134 154 181
133 154 181
134 154 181
135 155 181
134 154 181
134 155 181
133 154 181
134 154 181
134 154 181
134 154 181
134 154 181
133 154 181
133 154 181
134 154 181
134 154 181
133 154 181
134 154 181
133 154 181
134 154 181
133 154 181
133 154 181
134 154 181
133 154 181
134 154 181
133 154 181
135 155 181
133 154 181
134 154 180
133 153 180
134 154 180
133 154 181
134 154 181
134 154 181
134 154 181
133 154 181
134 154 181
133 153 180
134 154 181
135 155 181
133 154 181
134 154 181
133 154 181
133 154 181
134 154 181
134 154 181
132 153 181
135 155 181
133 154 181
134 154 181
133 154 181
134 154 181
134 154 181
134 154 181
134 154 181
133 154 181
133 154 181
133 154 181
133 154 181
133 154 181
133 154 181
133 154 181
134 154 181
133 154 181
133 153 180
134 154 181
134 154 181
133 154 181
133 154 181
133 154 181
133 154 180
134 154 181
133 154 181
134 154 181
133 154 181
133 154 181
133 154 181
134 154 181
134 154 181
134 154 181
134 154 181
134 154 181
133 154 181
134 154 181
134 154 181
134 154 181
133 154 181
134 154 181
134 154 181
133 153 179
133 154 181
134 154 181
134 154 181
133 154 181
133 154 181
134 154 181
134 154 181
133 154 181
134 154 180
134 154 181
134 154 181
134 154 181
133 154 181
134 154 181
134 155 181
134 154 181
133 154 181
134 155 181
133 154 181
134 154 181
133 154 181
133 154 181
133 154 181
134 154 181
134 154 181
134 154 181
134 154 181
134 154 181
133 154 181
133 154 181
134 154 181
134 154 181
134 154 181
134 154 181
134 154 181
135 155 181
132 154 181
135 155 181
134 154 181
134 154 181
133 154 181
133 154 181
135 155 181
134 154 181
133 154 181
135 155 181
135 155 181
133 154 181
134 154 181
134 154 180
133 154 181
134 154 181
133 154 181
134 154 181
134 154 181
134 154 181
133 154 181
134 154 181
134 154 181
134 154 181
135 155 181
135 155 181
133 154 181
133 154 181
134 154 181
134 154 181
134 154 181
134 154 181
134 154 181
133 154 181
133 154 181
133 154 181
134 155 181
134 154 181
134 154 181
133 154 181
134 154 181
133 154 181
133 154 180
133 154 181
133 154 181
133 154 181
134 154 181
133 154 181
133 154 181
133 154 181
134 155 181
135 155 181
133 154 181
134 154 181
134 154 181
133 154 181
134 154 181
134 154 181
134 154 181
134 154 181
133 154 181
133 154 181
134 154 181
133 154 181
133 154 181
133 154 181
134 154 181
134 154 181
133 154 181
134 154 181
134 154 181
134 154 181
135 155 181
133 154 181
134 154 181
133 154 181
133 154 181
133 154 181
134 154 180
134 154 181
134 154 181
134 154 181
134 154 181
134 154 181
134 154 181
134 154 181
135 155 181
133 154 181
134 154 181
134 154 181
133 154 181
134 154 181
134 154 181
134 154 181
134 154 181
134 154 181
134 154 181
135 155 181
134 154 181
134 154 181
135 155 181
134 154 181
133 154 181
134 154 181
135 155 181
135 155 181
134 154 181
134 154 181
134 155 181
133 154 181
133 154 181
134 154 181
134 155 181
133 154 181
133 154 181
134 154 181
133 154 181
133 153 180
134 154 181
134 154 181
134 154 181
134 154 181
133 154 181
134 154 181
133 154 181
133 154 181
133 154 181
133 154 180
134 154 181
134 154 181
134 154 181
133 154 181
134 154 181
134 155 181
133 154 181
134 154 181
134 154 181
134 154 181
134 154 180
133 154 181
134 154 181
134 154 181
134 154 181
134 154 181
134 154 181
134 154 181
134 154 181
133 154 181
133 154 181
134 154 181
133 154 181
134 154 181
133 154 181
134 154 181
134 154 181
133 154 181
134 154 181
134 154 181
133 154 181
132 153 180
134 154 181
133 154 181
134 154 181
134 154 181
134 154 181
133 154 181
133 154 181
133 154 181
135 155 181
134 154 181
134 154 180
134 154 181
134 154 181
135 155 181
134 154 181
135 155 181
134 154 181
134 154 181
133 154 181
133 154 181
133 154 181
133 154 181
134 154 181
134 154 181
134 154 181
134 154 181
134 154 181
134 154 181
134 154 181
134 154 181
135 155 181
134 154 181
134 154 181
134 154 181
134 154 181
133 154 181
134 154 181
134 154 181
133 154 181
134 154 181
134 154 181
134 154 181
133 154 181
134 154 181
134 154 181
134 154 181
133 154 181
134 154 181
134 154 181
134 155 181
134 154 181
133 154 181
134 154 181
135 155 181
134 154 181
133 154 181
134 154 181
133 154 180
134 154 181
134 154 181
133 154 181
133 154 181
133 154 181
134 154 181
133 154 181
134 154 181
134 154 181
134 154 181
134 154 181
134 154 181
133 154 181
134 154 181
133 153 180
134 154 181
134 154 181
134 154 181
133 154 181
134 154 181
134 154 181
134 155 181
133 154 180
134 154 181
134 154 181
133 154 181
135 155 181
134 154 181
133 154 181
134 154 181
134 154 181
134 154 181
134 154 181
134 154 181
134 155 181
134 154 181
133 154 181
133 154 181
133 154 181
134 154 181
133 154 181
134 154 181
134 154 180
133 154 181
134 154 181
135 155 181
134 154 181
133 154 181
133 154 181
134 154 181
135 155 181
134 154 181
134 154 181
133 154 181
134 154 180
134 154 181
133 154 181
134 154 181
133 154 181
133 154 181
134 154 181
134 155 181
133 154 181
133 153 180
134 154 181
134 154 181
134 154 181
134 154 181
134 154 181
134 154 181
134 154 181
133 154 181
134 154 181
134 154 181
134 154 181
134 154 181
135 155 181
134 154 181
133 154 181
134 154 181
133 154 181
134 154 181
133 154 181
133 154 181
134 154 181
134 154 181
133 154 181
134 154 181
134 154 181
134 154 181
134 154 181
134 154 181
134 154 181
134 154 181
133 154 181
134 154 181
134 154 181
134 154 181
134 154 181
134 154 181
133 154 181
134 154 181
134 154 181
134 154 181
133 154 181
134 154 181
134 154 181
133 154 181
134 155 181
134 154 181
134 154 181
134 154 181
134 154 181
134 154 181
134 154 181
134 154 181
133 154 181
134 154 180
134 154 181
133 154 181
133 154 181
133 154 181
134 154 181
134 154 181
133 154 181
134 154 181
134 154 181
134 154 181
133 154 181
133 154 181
134 154 181
133 154 181
133 154 181
134 154 181
133 154 181
133 154 181
134 154 181
134 154 181
134 154 181
133 154 181
133 154 181
135 155 181
134 154 181
133 154 181
133 154 181
133 154 181
134 154 181
134 154 181
133 154 181
134 154 181
134 154 181
134 154 181
133 154 181
134 154 181
134 154 180
134 154 181
133 154 180
134 154 181
134 154 181
134 154 181
134 154 181
133 154 181
134 154 181
133 154 181
134 154 181
134 154 180
134 154 181
133 154 181
135 155 181
134 154 181
134 154 181
134 154 181
134 154 181
134 154 181
133 154 181
133 154 181
133 154 181
133 154 181
134 154 181
133 154 180
134 154 181
134 154 181
133 154 181
134 154 181
133 154 181
133 154 181
133 154 181
133 154 181
134 154 181
134 154 181
134 154 180
135 155 181
134 154 181
133 154 181
133 154 181
134 154 181
133 154 181
134 154 181
133 154 181
133 154 181
134 154 181
133 154 181
134 154 181
133 154 181
135 155 181
134 154 181
134 154 181
133 154 181
134 154 181
134 154 181
133 154 181
133 154 181
134 154 181
134 154 181
134 154 181
134 154 181
134 154 181
133 154 181
134 154 181
134 154 181
133 154 181
134 154 181
134 154 181
134 154 181
133 154 181
134 154 181
134 154 181
133 154 181
134 154 181
133 154 181
133 154 181
133 154 180
134 154 181
134 154 181
133 154 181
134 154 181
134 154 181
134 154 181
133 154 181
133 154 181
133 154 181
133 154 180
134 154 181
134 154 181
134 154 181
134 154 181
134 154 181
133 154 181
134 154 181
134 155 181
134 154 181
134 154 181
134 154 181
135 155 181
134 154 181
134 154 181
133 154 181
133 154 181
135 155 181
134 154 181
134 154 181
133 154 181
134 154 181
133 154 181
134 154 181
134 154 181
134 154 181
133 154 181
134 154 181
135 155 181
134 154 181
134 154 181
133 154 181
134 154 181
134 154 181
133 154 181
135 155 181
133 154 181
133 154 181
133 154 181
134 155 181
134 154 181
134 154 181
134 154 180
133 154 181
133 154 181
133 154 181
134 154 181
134 154 181
134 154 180
134 154 181
134 154 181
133 154 181
133 154 181
134 154 181
135 155 181
133 154 181
134 154 180
133 154 181
133 154 181
133 154 181
134 155 181
134 155 181
134 154 181
133 154 181
133 154 181
133 154 181
134 154 181
133 154 181
134 154 181
134 154 181
134 154 181
134 154 181
133 154 181
134 155 181
134 154 181
134 154 181
135 155 181
135 155 181
133 154 181
133 154 181
134 154 181
134 154 181
134 154 181
134 154 181
135 155 181
133 154 181
133 154 181
134 154 181
134 155 181
133 154 181
133 154 181
134 154 181
133 154 181
134 154 181
133 154 181
134 154 181
134 154 181
134 154 181
134 154 181
134 154 181
134 154 181
133 154 181
134 154 181
134 154 181
133 154 181
133 154 181
134 154 181
134 154 181
134 154 181
133 154 181
134 155 181
134 154 181
134 154 181
134 154 181
134 154 181
133 154 181
134 154 181
134 154 181
134 154 181
133 154 181
132 153 180
133 154 181
134 154 181
134 154 181
134 154 181
134 154 181
134 154 181
134 154 181
134 154 181
134 154 181
134 154 181
133 154 181
134 154 181
134 154 181
134 154 181
133 154 181
135 155 181
134 154 181
134 154 181
133 154 181
134 154 181
134 154 181
134 154 181
134 154 181
135 155 181
135 155 181
133 154 181
134 154 181
134 154 181
133 154 181
134 154 181
134 154 181
134 154 181
133 154 181
134 154 181
134 154 181
134 154 181
133 154 180
133 154 181
134 155 181
133 154 181
133 154 181
134 154 181
134 155 181
134 154 180
134 154 181
134 154 181
134 154 181
135 154 180
134 154 181
134 154 181
133 154 181
134 154 181
134 154 181
133 154 181
134 154 181
134 154 181
134 154 181
134 154 181
133 154 181
134 154 181
134 154 181
133 154 181
133 154 181
134 154 181
134 154 181
134 154 181
134 154 181
134 154 181
134 154 181
134 154 181
134 154 181
134 154 181
133 154 181
134 154 181
134 154 181
133 154 181
133 154 181
133 154 181
134 154 181
134 154 181
134 154 181
133 154 181
134 154 181
134 154 181
134 154 181
134 154 180
133 154 181
134 154 181
133 154 181
134 154 181
134 154 181
133 154 181
134 154 181
134 154 181
133 154 181
133 154 181
134 154 180
134 154 181
134 154 181
134 154 181
134 154 181
134 155 181
133 154 181
134 154 180
134 154 181
134 154 181
134 154 181
133 154 181
134 154 181
134 154 181
133 154 181
134 154 181
134 154 181
133 154 181
134 154 181
133 154 181
134 154 181
134 154 181
133 154 181
133 153 179
134 154 181
133 154 181
134 154 181
133 154 181
133 154 181
135 155 181
133 154 181
133 154 181
134 154 181
134 154 181
134 154 181
133 154 181
134 154 180
134 154 181
134 154 181
134 154 181
134 154 181
134 154 181
133 154 181
133 154 181
133 154 181
133 154 181
134 154 181
135 155 181
134 154 181
134 154 181
134 154 181
134 154 181
134 154 181
134 154 181
135 155 181
135 155 181
133 154 181
134 155 181
133 154 181
134 154 181
134 154 181
134 154 181
134 154 181
133 154 181
133 154 181
134 154 181
134 154 181
133 154 181
132 153 181
134 155 181
134 155 181
134 154 181
134 154 181
134 154 181
134 154 181
134 154 181
134 154 181
134 154 181
134 154 181
134 154 181
134 154 180
134 154 181
135 155 181
134 154 181
135 155 181
133 154 181
134 154 181
134 154 181
134 154 181
134 154 181
133 154 181
134 154 181
134 154 181
134 154 181
134 154 180
134 154 180
134 154 181
134 154 181
133 154 181
134 154 181
134 154 181
133 154 181
134 154 181
134 154 181
135 155 181
133 154 181
134 154 181
134 154 181
133 154 181
133 154 181
133 154 181
133 154 181
133 154 181
134 154 181
133 154 181
133 154 181
134 154 181
134 154 181
133 154 181
134 154 181
134 154 181
134 155 181
133 154 181
134 154 181
134 155 181
134 154 181
134 154 181
134 154 181
134 154 181
133 154 181
134 154 181
134 154 181
133 154 181
134 154 181
133 154 181
133 154 180
133 154 181
134 154 181
134 154 181
134 154 181
134 155 181
134 155 181
134 154 181
135 155 181
134 154 181
134 154 181
134 154 181
133 154 181
134 154 181
134 154 181
133 154 181
133 154 180
133 154 181
134 154 181
133 154 181
135 155 181
134 154 181
133 154 181
134 154 181
133 154 181
133 154 181
134 154 181
133 154 181
133 154 181
135 155 181
133 154 181
134 154 181
134 154 181
134 154 181
134 154 181
133 154 181
133 154 181
133 154 181
133 154 181
134 154 181
133 154 181
132 153 180
134 154 181
134 154 181
133 154 180
134 154 181
133 154 181
134 154 181
134 154 181
134 154 181
135 155 181
134 154 181
133 154 181
134 154 181
135 155 181
134 154 181
133 154 181
134 154 181
134 154 181
134 154 181
134 154 181
133 154 181
133 154 181
134 154 181
133 154 181
135 155 181
133 154 181
133 154 181
133 154 181
135 155 181
134 154 181
135 155 181
133 154 181
134 154 181
133 154 181
132 153 181
134 154 181
133 154 181
134 154 181
133 154 181
133 154 181
133 154 181
134 154 181
133 154 181
133 154 181
134 154 181
134 154 181
134 154 181
133 154 181
133 154 181
134 154 181
134 154 181
135 155 181
133 154 181
134 154 181
133 154 181
134 154 181
134 154 181
134 154 181
134 155 181
133 154 181
134 154 181
134 154 181
134 154 181
133 154 181
134 154 181
134 154 181
134 154 181
134 154 180
134 154 181
134 154 181
134 154 181
133 154 181
134 154 181
134 154 181
135 155 181
133 154 181
134 154 181
135 155 181
133 154 181
133 154 181
134 154 181
134 154 180
133 154 181
134 154 181
134 154 181
134 154 181
133 154 181
133 154 181
134 154 181
134 154 181
133 154 181
133 154 181
133 154 181
133 154 181
133 154 181
132 153 180
134 154 181
134 154 181
133 154 181
133 154 181
134 154 181
133 154 181
133 154 181
134 154 181
135 155 181
133 154 181
134 154 181
134 154 181
133 154 181
134 154 181
133 154 181
133 154 181
135 155 181
134 154 181
134 154 181
134 154 181
134 154 181
132 153 180
134 154 181
134 154 181
133 154 180
134 154 181
134 154 181
134 154 181
135 155 181
134 155 181
134 154 181
134 154 181
135 155 181
134 154 181
134 154 181
134 154 181
133 154 181
133 154 181
134 154 181
133 154 181
133 154 181
133 154 181
134 154 181
133 154 180
134 154 181
134 155 181
134 154 181
133 154 181
133 154 181
134 154 180
133 154 181
134 154 181
134 154 181
134 154 181
134 155 181
133 154 181
133 153 180
133 154 181
134 154 181
134 154 181
134 154 181
134 155 181
133 154 181
133 154 181
133 154 181
133 154 180
133 154 181
133 154 181
133 154 181
134 154 181
134 154 181
133 154 181
133 154 181
133 154 180
134 154 181
133 154 181
134 154 181
133 154 181
134 154 181
134 154 181
134 154 181
134 154 181
134 154 181
135 155 181
134 154 181
135 155 181
134 154 181
134 154 181
134 154 181
134 154 181
134 154 181
133 154 181
134 154 181
134 154 181
134 154 181
135 155 181
133 154 181
134 154 181
133 154 181
133 154 180
133 154 181
134 154 181
133 153 179
133 153 180
133 154 181
133 154 181
133 154 181
133 154 181
133 154 181
132 153 181
134 154 181
134 154 180
134 154 181
134 154 181
134 154 181
134 154 181
133 154 181
134 154 181
134 154 181
134 154 180
133 154 181
134 154 181
134 154 181
133 154 181
134 154 181
134 154 181
133 154 181
133 154 181
134 154 181
134 154 181
134 154 181
133 154 181
134 154 181
134 154 181
134 154 181
134 154 180
134 154 181
133 154 181
133 154 181
134 154 181
133 154 181
133 154 180
133 154 181
132 153 181
133 154 181
134 154 181
134 154 181
134 154 181
133 154 180
134 154 181
133 154 181
133 153 180
133 154 181
134 154 181
134 154 181
134 154 181
134 154 181
134 154 181
134 154 181
134 154 181
134 154 181
132 153 181
134 154 181
133 154 181
133 154 181
134 154 181
135 155 181
134 154 181
134 154 180
134 155 181
133 154 181
134 154 181
133 154 181
134 154 181
134 154 181
133 154 181
133 154 181
134 154 181
133 154 181
134 154 181
134 154 180
133 154 181
134 154 181
133 154 181
133 154 181
133 154 181
134 154 181
133 154 181
133 154 181
133 154 181
134 154 181
134 154 181
135 155 181
132 153 181
134 154 181
134 154 181
134 154 181
134 154 181
134 154 181
133 154 181
133 154 181
134 154 181
133 154 180
134 154 181
134 154 181
133 154 181
133 154 181
134 155 181
133 154 181
134 154 181
134 154 181
133 154 181
132 153 181
133 154 181
133 154 181
134 154 181
133 154 180
134 154 181
134 154 181
134 154 181
134 154 181
134 154 181
134 154 181
134 154 181
134 154 181
133 154 180
135 155 181
134 154 181
134 154 181
133 154 181
134 154 181
134 154 181
134 154 181
134 154 181
134 154 181
133 154 181
133 154 181
134 154 181
134 154 181
134 154 181
133 154 181
133 154 181
134 154 181
133 154 181
132 153 181
134 154 181
134 154 181
134 154 181
134 154 181
135 155 181
134 154 180
134 154 181
134 154 181
133 154 181
134 154 181
134 154 181
133 154 181
134 154 181
133 154 181
133 154 181
134 154 181
133 154 180
133 154 181
134 154 181
134 155 181
134 154 180
134 154 181
133 154 181
134 154 181
133 154 180
134 154 181
134 154 181
134 154 181
133 154 181
135 155 181
134 154 181
134 154 181
134 154 181
134 154 181
133 154 181
133 154 181
134 154 181
135 155 181
134 155 181
134 154 181
134 154 181
134 154 181
134 154 181
134 154 181
133 154 181
135 155 181
134 154 181
135 155 181
134 154 181
133 154 181
134 154 181
133 154 181
134 154 181
134 154 180
134 154 181
134 154 181
133 154 181
133 154 181
133 154 181
134 154 181
133 154 181
134 154 180
134 154 181
134 154 181
134 154 181
133 154 181
134 154 181
133 154 180
134 154 181
134 154 181
134 154 181
134 154 181
134 154 181
135 155 181
134 154 181
134 154 181
134 154 181
134 154 181
133 154 181
134 155 181
134 154 181
134 154 181
134 154 181
133 154 181
134 154 181
135 155 181
133 154 181
134 154 181
134 154 181
133 154 181
134 154 181
134 154 181
133 154 181
133 154 181
133 154 181
134 154 181
134 154 181
133 154 181
133 154 181
134 154 181
133 154 181
134 154 181
134 154 181
133 154 181
134 154 181
133 154 181
133 154 181
134 154 181
133 154 181
134 154 181
134 154 181
134 154 181
133 154 181
134 154 181
134 154 181
133 153 180
133 154 181
134 154 181
134 154 181
133 154 181
132 153 180
134 154 181
134 154 181
134 154 181
134 154 181
135 155 181
134 154 181
134 154 181
134 154 181
133 154 181
133 154 181
134 154 181
134 154 181
133 154 181
136 155 181
134 154 181
134 154 181
135 155 181
134 154 181
133 154 181
134 154 181
133 154 181
133 154 181
134 154 181
134 154 181
134 154 181
134 154 180
134 154 181
133 154 181
134 154 181
135 155 181
133 154 181
134 154 181
133 154 181
133 154 181
134 154 181
134 154 181
134 154 181
134 154 180
133 154 181
134 154 181
134 154 181
135 155 181
134 154 181
134 155 181
133 154 181
134 154 181
134 154 181
133 154 181
133 154 181
134 154 181
133 154 181
134 154 181
134 155 181
133 154 181
134 154 181
134 154 181
134 154 181
133 154 181
134 154 181
133 154 181
134 154 180
134 154 181
133 154 181
133 154 181
133 154 181
134 154 181
133 154 181
134 154 181
134 154 181
134 154 181
134 154 181
133 154 181
133 154 181
134 154 181
134 154 181
134 154 181
134 154 181
133 154 181
133 154 180
134 155 181
134 154 181
134 155 181
134 154 181
133 154 181
133 154 181
134 154 181
133 154 181
133 154 181
133 154 181
134 154 181
134 154 181
134 154 181
134 155 181
134 154 181
134 154 181
134 154 181
134 155 181
134 154 181
134 154 181
133 154 180
133 154 181
133 154 181
134 154 181
134 154 181
134 154 181
133 154 181
133 154 181
134 154 181
134 154 181
134 154 181
134 154 181
133 154 181
134 154 180
134 154 181
133 154 181
134 154 181
134 154 181
134 154 181
134 154 181
134 154 181
133 154 181
134 154 181
133 154 181
134 154 181
133 154 181
134 154 181
133 154 181
134 154 181
134 154 181
133 154 181
134 154 181
133 154 180
133 154 180
134 154 181
134 154 181
134 154 181
133 154 180
134 154 181
133 154 181
134 154 180
133 153 180
134 154 181
134 155 181
133 154 181
134 154 181
134 154 181
134 154 181
135 155 181
134 154 181
134 154 181
133 154 181
134 154 181
134 154 181
134 154 181
134 154 181
134 154 181
134 154 181
134 154 181
134 154 181
134 154 181
134 154 181
133 154 180
134 154 181
133 154 181
133 154 181
134 154 180
133 154 181
134 154 181
133 154 181
133 154 181
133 154 181
134 154 181
134 154 181
134 154 181
133 154 180
134 154 181
134 154 181
134 155 181
134 154 181
134 154 181
134 154 181
134 154 181
134 154 181
134 155 181
134 154 181
133 154 181
134 154 181
134 154 181
134 154 181
134 154 181
134 154 181
133 154 181
133 154 181
134 154 181
134 154 181
133 154 181
133 154 181
134 154 181
134 154 181
134 154 180
133 154 181
134 155 181
133 154 181
133 154 181
135 155 181
134 154 181
134 154 181
134 154 181
133 154 181
134 154 181
134 155 181
133 154 181
134 154 181
133 154 181
133 154 181
134 154 181
134 154 181
133 154 180
133 154 181
134 154 181
133 154 181
134 154 181
134 154 181
133 154 181
134 154 181
133 154 181
133 154 181
133 154 181
133 154 181
133 154 181
134 154 181
135 155 181
133 154 181
134 154 181
133 154 181
133 154 181
134 154 181
134 154 181
133 154 181
133 154 181
134 154 181
134 154 181
134 154 181
134 154 181
134 154 181
133 154 180
134 154 181
135 155 181
135 155 181
134 154 181
134 154 181
134 154 181
135 155 181
134 154 181
133 154 181
133 154 181
133 154 181
134 154 181
133 154 181
133 154 181
135 155 180
134 154 181
134 154 181
133 154 181
134 154 181
133 154 181
133 154 180
133 154 181
134 154 181
134 155 181
134 154 181
133 154 181
133 154 181
134 154 181
133 154 181
134 154 181
134 154 180
133 154 181
134 154 181
135 155 181
133 154 181
134 154 181
133 154 181
134 154 181
133 154 181
133 154 181
134 154 181
133 154 181
134 154 181
134 154 181
133 154 181
133 154 181
133 154 181
134 154 181
134 154 181
133 154 180
134 154 181
133 154 181
133 153 180
134 154 181
134 154 181
134 154 181
134 154 181
135 155 181
134 154 180
135 155 181
134 154 181
134 154 181
133 154 181
133 154 181
134 154 181
134 154 181
134 154 181
134 154 181
133 154 181
134 154 181
134 154 181
134 154 181
134 154 181
133 154 181
134 154 181
133 154 181
133 154 181
133 154 181
134 154 181
134 154 181
135 155 181
134 154 181
134 154 181
134 154 181
133 154 181
133 153 180
134 154 181
133 154 181
134 154 181
134 154 181
133 154 181
133 154 181
133 154 181
134 154 181
134 154 180
133 154 181
134 154 181
133 154 181
133 154 181
134 154 181
134 154 181
134 154 181
133 154 181
133 154 181
133 154 180
134 154 181
133 154 181
134 154 181
135 155 181
134 154 181
133 154 181
133 154 181
133 154 181
135 155 181
134 154 181
133 154 181
133 154 181
133 154 181
134 154 181
134 154 181
133 154 181
133 154 180
134 154 181
134 155 181
133 154 181
134 154 181
134 154 181
135 155 181
134 154 181
134 154 181
134 154 181
134 154 181
133 154 181
133 154 181
133 154 181
134 154 181
133 154 181
134 154 181
133 154 181
134 154 181
134 154 181
133 154 181
134 154 181
134 154 181
134 154 181
133 154 181
134 154 181
135 155 181
133 154 181
134 154 181
134 154 181
134 154 181
134 154 180
134 154 181
134 154 181
133 154 181
135 155 181
133 154 181
133 154 181
134 154 181
133 154 181
133 154 180
133 154 181
134 154 181
134 154 181
132 153 180
133 154 181
134 154 181
133 154 181
133 154 181
134 154 181
135 155 181
133 154 181
134 154 181
134 154 181
134 154 181
133 154 181
133 154 181
134 154 181
133 154 181
133 154 180
133 154 181
134 154 181
134 154 181
133 154 181
134 154 181
134 154 181
133 154 181
134 154 181
133 154 181
135 155 181
133 154 181
133 154 181
134 154 181
134 154 181
133 154 181
133 154 181
133 154 181
134 154 181
133 154 181
135 155 181
133 154 180
134 154 181
135 155 181
134 154 181
135 155 181
134 154 181
134 154 181
134 154 181
134 154 181
134 154 181
133 154 181
133 154 181
135 155 181
134 154 181
134 154 181
133 154 181
133 154 181
134 154 181
133 154 181
133 154 180
134 154 181
133 154 180
134 154 181
134 154 181
134 154 181
134 154 180
132 153 181
134 154 181
133 154 181
134 154 181
133 154 181
135 155 181
134 154 181
134 154 181
134 154 181
134 154 181
133 154 181
134 154 181
134 154 181
133 154 181
134 154 181
133 154 181
133 154 181
134 154 180
134 154 181
134 154 181
134 154 181
133 154 181
134 154 181
133 154 181
135 155 181
134 154 181
134 154 181
133 154 180
134 154 181
133 154 181
133 154 181
133 154 181
134 154 180
133 154 181
134 154 181
133 154 181
133 154 181
134 154 181
134 154 181
134 154 181
133 154 181
134 154 181
134 154 181
134 154 181
134 154 181
134 154 181
134 154 181
135 155 181
133 154 181
134 154 181
134 154 181
134 155 181
133 154 180
134 154 181
134 154 181
134 154 181
134 154 181
133 154 181
135 155 181
134 154 181
134 154 181
134 154 181
134 154 181
133 154 181
134 154 181
134 154 181
133 154 181
134 154 180
133 154 181
135 155 181
134 154 181
133 154 181
134 154 181
134 154 180
133 153 180
133 154 181
134 154 181
134 154 181
134 154 181
134 154 181
134 154 181
134 154 180
133 154 181
134 154 181
133 154 181
134 154 181
134 154 181
134 154 181
135 155 181
133 154 181
133 154 181
134 154 181
134 154 181
134 154 181
134 154 181
134 154 181
134 154 181
133 154 181
133 154 181
133 154 181
133 154 181
134 154 181
134 154 181
133 154 181
133 154 181
135 155 181
134 154 181
135 154 180
133 154 181
133 154 181
134 154 181
134 154 181
133 154 181
134 154 181
134 154 181
134 154 181
133 154 181
134 154 181
134 154 181
134 154 181
135 154 180
133 154 181
134 154 181
133 154 181
133 154 181
134 154 181
134 154 181
134 154 181
134 154 181
133 154 181
133 154 181
133 154 181
134 154 181
134 154 181
134 154 181
134 154 181
133 154 180
133 154 181
134 154 180
134 154 181
133 154 181
134 154 181
134 154 181
133 154 181
134 154 181
133 154 181
134 154 181
133 154 181
134 154 181
133 154 181
134 154 181
134 154 181
133 154 181
134 154 181
134 154 181
134 154 181
134 154 181
134 154 181
134 154 181
134 154 181
134 154 181
133 154 181
135 155 181
134 154 181
134 154 180
134 154 181
133 154 181
134 154 181
134 154 181
134 154 181
134 155 181
133 154 181
134 154 181
133 154 180
133 154 181
135 155 181
134 154 181
133 154 181
134 154 181
133 154 181
134 154 181
133 154 181
133 154 181
134 154 181
133 154 181
134 154 181
133 154 181
134 154 181
134 154 181
134 154 181
134 154 181
134 154 181
134 154 181
133 154 180
134 154 181
134 154 181
134 154 181
133 154 181
134 154 181
134 154 181
134 154 181
134 154 181
133 154 181
134 155 181
133 154 181
133 153 180
135 155 181
133 154 181
133 154 181
134 154 181
134 154 181
134 154 181
134 154 181
133 154 181
133 154 181
135 155 181
133 154 181
134 154 181
133 154 181
134 154 181
133 153 180
134 155 181
134 154 181
134 154 181
134 154 181
134 154 181
134 154 181
133 154 181
134 154 180
133 154 181
135 155 181
135 155 181
134 154 181
133 154 181
133 154 181
134 154 181
134 154 181
133 154 181
134 154 181
134 154 181
134 154 181
133 154 181
133 154 181
134 154 181
134 154 181
133 154 181
134 154 181
133 154 181
133 154 181
134 154 181
134 154 181
134 154 181
133 154 181
134 154 181
134 154 181
134 154 181
135 155 181
133 154 181
134 154 181
134 154 181
134 154 181
133 154 181
134 154 181
134 154 181
134 154 181
133 154 181
134 154 181
134 154 181
134 154 181
133 154 181
133 154 181
134 154 181
134 154 181
133 154 181
134 154 181
134 154 181
134 154 181
134 154 181
135 155 181
134 154 181
134 154 181
134 154 181
133 154 181
133 153 180
134 154 181
133 154 181
134 154 181
133 154 181
134 154 181
135 155 181
134 155 181
135 155 181
134 154 181
134 154 181
133 154 181
134 154 181
133 154 181
134 154 181
134 154 181
133 154 181
134 154 181
133 154 181
134 154 181
134 154 180
134 154 181
134 154 181
134 154 181
134 154 181
135 155 181
133 154 181
133 154 180
134 154 181
133 154 181
133 154 181
134 154 181
134 154 181
133 154 181
134 154 181
134 154 181
134 154 181
133 154 181
134 154 181
133 154 181
134 154 181
134 154 181
134 154 180
134 154 181
133 154 181
134 154 181
134 154 181
133 154 181
135 155 181
134 154 181
134 155 181
134 154 181
134 154 181
134 154 180
133 154 181
133 154 181
134 154 181
134 154 181
134 154 181
134 154 181
134 154 181
133 154 180
133 154 181
133 154 181
134 154 181
134 155 181
134 154 181
133 154 181
134 154 181
132 153 181
134 154 181
134 154 181
134 154 181
134 154 181
134 154 181
133 154 181
135 155 181
133 154 181
135 155 181
134 154 181
134 154 181
134 154 181
134 154 181
135 155 181
134 154 181
134 154 181
133 154 181
134 154 181
134 154 181
134 154 181
134 154 181
135 155 181
134 154 181
135 155 181
134 154 181
134 154 181
133 154 181
133 154 181
133 154 181
134 154 181
134 154 181
134 154 180
134 154 181
134 154 181
133 154 181
133 154 181
133 154 181
135 155 181
133 154 181
133 154 181
134 154 181
134 154 181
134 154 181
134 154 181
134 154 181
133 154 181
134 154 181
133 154 181
135 155 181
134 154 181
134 154 181
133 154 181
134 154 181
133 154 181
133 154 181
133 154 181
133 154 181
133 154 181
134 154 181
133 154 181
134 154 181
134 154 181
134 154 181
133 154 181
134 154 181
134 154 181
133 154 181
133 154 181
134 154 181
134 154 181
133 154 181
134 154 181
134 154 181
133 154 181
134 154 180
134 154 181
133 154 181
133 154 181
134 154 181
134 154 181
134 154 181
133 154 181
134 154 181
134 154 181
135 155 181
134 154 181
134 154 181
134 155 181
133 154 181
133 154 181
133 154 180
133 154 181
134 154 181
134 154 181
134 154 181
134 154 181
133 153 179
134 154 181
135 155 181
133 154 181
133 154 181
134 154 181
134 154 181
134 154 181
133 154 181
133 154 181
134 154 181
134 154 181
135 155 181
134 154 181
134 154 181
133 154 181
134 154 181
134 154 181
134 154 181
134 154 181
134 154 181
133 154 181
134 154 181
133 154 181
134 154 181
133 154 181
133 154 181
134 154 181
134 154 181
135 155 181
133 154 181
133 154 181
133 154 181
134 154 181
133 154 181
133 154 181
134 154 181
133 154 181
134 154 181
133 154 181
134 154 181
133 154 181
134 154 181
135 155 181
134 154 181
133 154 181
134 154 181
134 154 181
134 154 181
133 154 181
133 154 181
134 154 181
133 154 181
134 154 181
134 154 181
134 154 181
134 154 181
133 154 180
134 154 181
134 154 181
133 154 181
134 154 181
134 155 181
134 154 181
133 154 181
133 154 181
134 154 181
133 154 181
133 154 181
133 154 181
133 154 181
134 154 181
134 154 181
133 154 181
134 154 181
134 154 181
134 154 181
134 154 181
134 154 181
134 154 181
133 154 181
134 154 181
134 154 181
134 154 181
134 154 181
134 154 181
133 154 181
133 154 181
134 154 181
133 154 181
134 154 181
134 154 181
133 154 181
134 154 181
134 154 181
134 154 181
133 154 181
133 154 181
134 155 181
134 154 181
133 154 181
134 154 181
134 154 181
134 154 181
133 154 181
133 154 181
133 154 181
134 154 181
134 154 181
134 154 181
133 154 181
134 154 181
134 154 181
133 154 181
134 154 181
133 154 181
133 154 181
133 154 181
134 154 181
134 154 181
133 154 181
134 154 181
134 154 181
134 154 181
134 154 181
134 154 181
134 154 181
134 154 181
135 155 181
133 154 181
134 154 181
133 154 181
134 154 181
134 154 181
133 154 180
134 154 181
134 154 181
134 154 181
134 154 181
134 154 181
134 154 181
134 155 181
133 154 181
134 154 181
135 155 181
134 154 181
134 154 181
134 154 181
134 154 181
134 154 181
134 154 181
134 154 181
134 154 181
134 154 180
134 154 181
134 154 181
134 154 181
134 154 181
134 154 181
134 154 181
134 154 181
133 154 181
132 153 180
134 154 181
134 154 181
134 154 181
134 154 181
134 154 181
134 154 181
135 155 181
134 155 181
134 154 181
134 154 181
133 154 181
134 154 181
134 154 180
134 154 181
134 154 181
135 155 181
134 154 181
134 154 181
134 154 181
134 154 181
134 154 181
134 154 181
135 155 181
133 154 181
134 154 181
134 154 181
134 154 181
134 154 181
134 154 181
134 154 181
134 154 181
133 154 181
133 154 180
135 155 181
133 154 181
134 154 180
133 154 181
134 154 181
133 154 181
134 154 181
134 154 181
135 155 181
133 154 181
135 155 181
133 154 181
134 154 181
133 154 181
134 154 181
134 154 181
134 154 181
134 154 181
134 154 181
133 154 181
133 154 181
135 155 181
133 154 181
134 154 181
133 154 181
134 154 180
134 154 181
133 154 181
134 154 181
133 154 181
134 154 181
135 155 181
134 154 181
134 154 181
133 154 181
133 154 180
134 154 181
133 154 181
134 154 181
134 154 181
133 154 181
134 154 181
133 154 181
134 154 180
134 154 181
134 154 181
133 154 181
133 154 181
134 154 181
134 154 181
134 154 180
133 154 180
134 154 181
134 154 181
134 154 181
134 154 181
134 154 181
135 155 181
135 155 181
133 154 181
133 154 181
134 154 181
133 154 181
134 154 181
133 154 181
134 154 181
133 154 180
134 154 181
133 154 181
134 154 181
134 154 181
134 154 181
133 154 181
133 154 181
134 154 181
134 154 181
135 155 181
134 154 181
134 154 181
134 154 181
135 155 181
134 154 181
135 155 181
134 154 181
134 154 181
134 154 181
133 154 181
134 154 181
134 154 181
134 154 181
134 155 181
134 155 181
135 155 181
134 154 181
133 154 181
134 154 181
134 154 181
133 153 180
134 154 181
134 154 181
134 154 181
134 154 181
134 155 181
133 154 181
134 154 181
133 154 181
134 154 181
134 154 181
133 154 181
133 154 181
134 154 181
134 154 181
134 154 181
134 154 181
134 154 181
133 154 181
134 154 181
134 154 181
133 154 181
134 154 181
134 154 181
134 154 181
134 154 181
133 154 181
133 154 181
135 155 181
134 155 181
134 154 181
134 155 181
133 154 181
134 154 181
134 154 181
133 154 180
133 154 181
134 154 181
134 154 181
133 154 181
134 154 181
133 154 181
134 154 181
134 154 180
134 154 181
134 154 181
135 155 181
134 154 180
134 154 181
133 154 181
134 154 181
134 154 181
134 154 181
133 154 181
133 154 181
134 154 181
133 154 181
134 154 181
134 154 181
134 154 181
134 154 181
133 154 180
133 154 181
134 154 181
134 154 181
134 154 181
133 154 181
134 154 181
133 154 181
134 154 181
133 153 180
134 154 181
134 154 181
134 154 181
134 154 181
134 154 181
135 155 181
134 154 181
133 154 181
134 154 181
134 154 181
133 154 181
133 154 181
133 154 181
134 155 181
134 154 181
133 154 181
133 154 181
133 154 180
135 155 181
134 154 181
134 154 180
134 154 181
134 154 181
134 154 181
133 154 181
133 154 181
133 154 181
135 155 181
134 154 181
134 154 181
134 154 181
133 154 181
134 154 181
134 154 181
134 154 181
134 154 181
134 154 181
133 154 181
133 154 181
134 154 181
134 154 181
134 154 181
134 154 181
133 154 181
134 154 181
134 154 181
134 154 181
134 154 181
133 154 180
134 154 181
136 155 181
134 154 181
134 154 181
134 154 181
134 154 181
134 155 181
134 154 181
134 154 181
133 154 180
135 155 181
134 154 181
134 154 181
134 154 181
133 154 181
134 154 181
134 154 181
134 154 181
134 154 181
134 154 181
133 154 181
133 154 181
134 154 181
133 154 180
134 154 181
134 154 181
134 154 181
133 154 180
134 154 181
133 154 180
134 154 180
134 154 181
133 154 181
133 154 181
134 154 181
133 154 181
134 154 181
134 155 181
133 154 181
134 154 181
134 154 181
134 154 181
134 154 181
133 154 181
134 154 181
133 154 181
133 154 181
134 154 181
134 154 180
134 154 181
134 154 181
135 155 181
133 154 181
134 154 181
134 154 181
134 154 181
134 154 181
133 154 181
134 154 181
134 154 181
133 154 181
133 154 181
134 154 181
134 154 181
133 154 181
134 154 181
133 154 181
133 154 181
135 155 181
133 154 181
134 154 181
133 154 180
134 154 181
134 154 181
134 154 181
133 154 181
133 154 181
134 154 181
133 154 181
134 154 181
134 154 181
133 154 181
133 154 181
134 154 181
133 154 181
134 155 181
133 154 181
133 154 181
134 154 181
133 154 180
133 154 181
134 154 181
133 154 181
135 155 181
135 155 181
134 154 181
134 154 181
135 155 181
133 154 181
133 154 180
133 154 181
134 154 181
134 154 181
134 155 181
134 154 181
133 154 181
134 154 181
133 154 180
134 154 181
133 154 181
134 154 181
135 155 181
133 154 181
134 154 181
133 154 181
134 154 181
134 154 181
133 154 181
133 154 181
133 154 181
133 154 181
134 154 181
132 153 181
133 154 181
133 153 180
134 154 181
133 154 181
133 154 181
134 154 181
133 154 181
134 154 181
133 154 181
133 154 181
134 154 180
134 154 181
134 154 181
134 154 181
135 155 181
134 155 181
133 154 181
134 154 181
134 155 181
133 154 181
134 154 181
134 154 181
134 154 181
133 154 181
134 154 181
133 154 181
133 154 181
134 154 181
134 154 181
134 155 181
134 154 181
133 154 181
134 154 181
133 154 181
134 154 181
134 154 180
133 154 181
135 155 181
134 154 181
134 154 181
133 154 181
134 154 181
134 154 181
134 154 181
134 154 181
133 154 181
134 154 181
133 154 181
133 154 181
134 154 181
134 154 181
132 153 181
134 154 181
134 154 181
133 153 180
134 154 181
134 154 181
133 154 181
135 155 181
134 154 181
134 154 181
133 154 181
133 154 180
134 154 181
133 154 181
134 154 181
133 154 180
134 154 181
135 155 181
134 154 181
134 155 181
133 154 181
134 154 181
133 154 181
134 154 181
134 154 181
134 154 180
134 154 181
133 154 181
133 154 181
134 154 181
134 154 181
134 154 181
134 154 181
133 154 181
133 154 181
133 154 181
133 154 181
134 154 181
134 154 181
133 153 180
134 154 181
134 154 181
133 154 181
134 154 181
134 154 180
134 154 181
134 154 181
133 154 181
134 154 181
134 154 181
133 154 181
135 155 181
135 155 181
133 154 181
133 154 181
134 154 181
133 154 181
134 154 181
134 154 181
134 154 181
133 154 181
134 154 181
133 154 181
134 154 181
134 154 180
134 154 181
134 154 181
134 154 181
134 154 181
133 154 181
133 154 181
134 154 181
133 154 181
134 154 181
133 153 180
134 154 181
133 153 180
133 154 181
134 155 181
134 155 181
133 154 181
134 154 181
133 154 181
134 154 181
134 154 181
134 154 181
134 154 181
134 154 181
133 154 181
133 154 181
134 154 181
134 154 181
133 154 181
133 154 180
134 154 181
134 154 181
133 154 181
133 154 181
133 154 181
133 154 181
134 154 181
135 155 181
135 155 181
133 154 181
134 154 181
134 154 181
134 154 181
134 154 181
134 154 181
133 154 181
134 154 181
134 154 181
135 155 181
134 154 181
135 155 181
134 154 181
134 154 181
134 154 181
133 154 181
133 154 181
134 154 181
134 154 181
134 154 181
133 154 181
133 154 181
134 154 181
134 154 180
134 154 181
134 154 181
132 153 181
134 154 181
133 154 181
134 154 181
134 154 181
133 154 181
134 154 181
133 154 181
134 154 181
134 154 181
134 154 181
135 155 181
134 154 181
134 154 181
133 154 181
134 154 181
134 154 181
134 154 181
134 154 181
135 155 181
134 154 181
134 154 181
135 155 181
133 154 180
133 154 181
134 154 181
134 154 180
134 154 181
134 154 181
133 154 181
134 154 181
134 154 181
134 154 181
133 154 181
134 154 181
134 154 181
133 154 181
133 154 181
134 154 181
134 154 181
134 154 181
134 154 181
135 155 181
133 154 181
134 154 181
134 154 181
134 154 181
134 154 181
133 154 181
134 154 181
134 154 181
134 154 181
134 154 181
134 154 181
133 154 181
134 154 181
134 154 181
133 154 181
134 154 181
133 154 181
134 154 181
134 154 180
133 154 181
133 154 181
133 154 181
134 154 181
134 154 181
133 154 181
134 154 181
134 155 181
135 155 181
134 154 181
133 154 181
134 154 181
134 154 181
133 154 181
134 154 181
134 154 181
133 154 181
134 154 181
133 154 181
134 154 181
133 154 181
134 154 181
134 154 181
134 154 181
134 154 181
134 154 181
134 154 181
134 154 181
134 154 181
133 154 181
134 154 181
133 154 181
133 154 181
134 154 181
134 154 180
134 154 181
133 154 181
133 154 181
134 155 181
134 154 181
134 154 181
134 154 181
134 154 181
134 154 181
134 154 181
133 154 181
134 154 181
134 154 181
134 154 180
133 154 181
134 154 181
133 154 181
133 154 180
134 154 181
133 154 181
134 154 181
134 154 181
134 154 181
134 154 181
133 154 181
134 154 181
133 154 181
133 154 181
134 154 181
134 154 181
133 154 181
132 153 181
133 154 181
133 154 180
134 154 181
134 154 181
134 154 181
133 154 181
134 154 181
134 154 181
133 154 181
134 154 181
134 154 181
134 154 181
134 154 180
133 154 180
134 154 181
134 154 181
134 154 181
134 154 181
134 154 181
134 154 181
134 154 181
134 154 181
134 154 181
134 154 181
134 154 181
134 154 181
135 155 181
133 154 181
134 154 181
134 154 180
133 154 181
133 154 181
134 154 181
134 154 181
133 154 181
134 154 181
133 154 181
134 154 181
133 154 181
134 154 181
133 154 181
134 154 181
133 154 181
133 154 181
133 154 181
134 154 181
134 154 181
133 154 181
134 154 181
133 154 181
134 154 181
132 154 181
133 154 181
134 154 181
134 154 181
134 154 181
134 154 181
133 154 181
133 154 181
134 154 181
134 154 181
133 154 181
133 154 181
134 154 181
133 154 181
133 154 181
134 154 181
134 154 181
134 154 181
133 154 181
134 154 181
134 154 181
134 154 181
134 154 181
133 154 181
134 154 181
134 154 181
133 154 181
132 154 181
134 154 181
134 154 181
134 154 180
134 154 181
134 154 181
134 154 181
133 153 180
134 154 181
134 154 181
133 154 181
134 154 181
134 155 181
133 154 181
133 154 181
134 154 181
134 154 181
134 154 181
133 154 181
134 154 181
134 154 181
134 154 181
134 154 181
133 154 180
133 154 181
134 154 181
134 154 181
133 153 180
134 154 181
133 154 181
133 154 181
134 154 181
133 154 181
134 154 181
134 154 181
134 154 181
134 154 181
134 155 181
133 154 181
133 154 181
135 155 181
134 154 181
134 154 181
133 154 181
133 154 181
133 154 181
135 155 181
135 155 181
134 154 181
133 154 181
133 154 181
134 155 181
134 154 181
134 154 181
133 154 181
134 154 181
133 154 181
134 154 181
134 154 181
134 155 181
134 154 181
134 154 181
134 154 181
134 154 181
133 154 181
133 154 181
133 154 181
133 154 181
134 154 181
135 155 181
134 154 181
134 154 181
134 154 181
134 154 181
133 154 181
134 154 181
134 154 181
134 154 181
134 154 181
133 154 181
134 154 181
133 154 181
134 154 181
133 154 181
134 154 181
134 154 181
134 154 181
134 154 181
134 154 181
134 154 180
133 154 181
134 154 181
134 154 181
134 154 181
133 154 181
134 154 181
134 154 181
133 154 181
134 154 181
133 154 181
133 154 181
134 154 181
134 154 181
134 154 181
134 154 181
134 154 181
133 154 181
133 154 181
133 154 180
135 155 181
133 154 181
133 154 181
134 154 181
134 154 181
134 154 181
133 154 181
134 154 181
134 155 181
134 154 181
134 154 181
133 153 180
134 154 181
133 154 181
134 154 181
134 154 181
134 154 181
134 154 181
134 154 181
134 154 181
134 154 181
134 154 181
133 154 181
133 154 181
133 154 181
134 154 181
134 154 181
134 154 181
133 154 181
134 154 181
134 154 181
135 155 181
133 154 181
134 154 181
134 154 181
133 154 181
134 154 181
133 154 181
134 154 180
133 154 180
134 154 181
134 154 181
134 154 181
134 154 181
134 154 181
134 154 181
133 153 180
134 154 181
134 154 181
134 154 181
134 154 181
134 154 181
134 154 181
134 154 181
134 154 181
133 154 181
134 154 181
134 154 181
134 154 181
135 155 181
134 154 181
133 154 181
134 154 181
133 154 181
133 154 181
134 154 181
134 154 180
135 155 181
134 154 181
134 154 181
133 154 181
134 154 181
133 154 181
133 154 180
134 154 181
133 154 181
134 154 181
135 155 181
134 154 181
134 154 181
134 154 181
134 154 181
133 154 181
133 154 181
134 154 181
133 154 181
134 155 181
134 154 181
133 154 181
134 154 181
134 154 181
133 154 181
133 154 181
135 155 181
134 154 181
135 155 181
134 154 181
134 154 181
134 154 181
135 155 181
134 154 181
134 154 181
134 154 181
134 154 181
134 154 181
134 154 181
134 155 181
134 154 181
133 154 181
134 154 181
133 154 181
133 154 181
133 154 180
134 154 181
134 154 181
133 154 181
135 155 181
133 154 181
134 154 181
134 154 181
133 154 181
134 154 181
134 154 181
135 155 181
134 154 181
134 154 181
134 154 181
134 154 181
133 154 181
133 154 181
134 154 181
134 154 181
135 155 181
135 155 181
134 154 181
133 154 181
134 154 181
134 154 181
133 154 181
134 154 181
134 154 181
134 154 181
135 155 181
134 154 181
135 155 181
134 154 181
134 154 181
133 154 181
134 154 181
134 154 181
134 154 181
133 154 181
134 154 181
134 154 181
134 154 181
133 154 181
134 154 181
134 154 181
133 154 181
134 154 181
133 154 181
133 154 181
133 154 181
134 154 181
134 154 181
133 154 181
133 154 181
134 155 181
134 154 181
134 154 181
134 154 181
133 154 180
134 154 181
134 154 181
133 154 181
134 154 181
134 154 181
134 154 181
134 154 181
134 154 181
134 154 181
134 154 181
134 154 181
134 154 181
133 154 181
134 154 181
134 154 181
134 154 181
134 154 181
134 154 181
133 154 181
133 153 180
134 154 181
134 154 181
133 154 181
134 154 181
134 155 181
134 154 181
134 154 181
134 154 181
134 154 181
134 154 181
133 154 181
134 154 181
133 154 181
134 154 181
134 154 181
134 155 181
134 154 181
133 154 181
134 154 181
134 154 181
133 154 181
134 154 181
133 154 181
134 155 181
134 154 181
134 154 181
134 154 181
133 154 181
133 154 181
135 155 181
134 154 181
134 154 180
133 154 181
134 154 181
134 154 181
133 154 181
134 154 181
134 154 181
134 154 181
134 154 181
133 154 181
135 155 181
133 154 181
133 154 181
134 154 181
134 154 181
134 154 181
134 154 181
134 154 181
133 154 181
134 154 181
134 154 181
133 154 181
134 154 181
134 154 181
133 154 181
134 154 181
134 154 181
134 154 181
134 154 181
133 154 181
133 154 181
134 154 181
134 154 181
134 154 181
134 154 181
133 153 180
133 154 181
134 154 181
133 154 181
134 154 181
134 154 181
134 154 181
134 154 181
134 154 181
133 154 180
134 154 181
133 154 181
133 154 181
134 154 181
134 154 181
134 154 181
133 154 181
134 154 180
133 154 181
133 154 181
133 154 181
133 154 181
133 154 181
134 154 181
133 154 181
133 153 180
133 154 181
134 154 181
134 155 181
134 154 181
134 154 180
134 154 181
133 154 181
134 154 181
134 155 181
134 154 181
133 154 181
133 154 181
133 154 180
133 154 181
134 154 181
134 154 181
133 154 181
134 154 181
134 154 181
135 155 181
134 154 181
134 155 181
133 154 181
134 154 181
134 154 181
134 154 181
135 155 181
134 154 180
133 154 181
134 154 181
133 154 180
133 154 181
134 154 181
133 154 181
134 154 181
133 154 181
133 154 181
134 154 181
134 154 181
134 154 181
133 154 181
133 154 181
134 154 180
134 154 181
134 154 181
134 154 181
134 154 181
134 154 181
133 154 181
134 154 181
134 154 181
133 154 181
134 154 181
134 154 181
133 154 181
133 154 181
134 154 181
134 155 181
134 154 181
134 154 181
134 154 181
134 154 181
134 154 181
133 154 181
135 155 181
134 154 181
134 154 181
133 154 181
134 154 181
135 155 181
134 154 181
133 154 181
134 154 181
133 154 180
134 154 181
134 154 181
133 154 181
134 154 181
134 154 181
133 154 181
133 154 181
134 154 181
133 154 181
133 154 181
134 154 181
134 154 181
133 154 181
134 154 181
133 154 181
134 154 181
134 154 181
134 154 181
134 154 181
134 154 181
134 154 181
134 154 181
134 154 181
133 154 181
134 154 181
134 154 181
133 154 181
134 154 181
134 154 181
134 154 181
134 154 181
135 155 181
134 154 181
134 154 181
133 154 181
134 154 181
132 154 181
133 154 181
134 154 181
134 154 181
134 154 181
134 154 181
134 154 181
134 154 181
134 154 181
134 155 181
134 154 181
134 154 181
134 154 181
133 154 181
134 154 181
134 154 181
134 155 181
134 154 181
133 154 181
134 154 181
133 154 181
134 154 181
134 154 181
134 154 181
134 154 181
134 154 181
134 154 181
134 154 181
134 154 181
133 154 180
133 154 181
133 154 181
133 154 181
134 154 181
134 154 181
133 154 181
134 154 181
134 154 181
134 154 181
135 155 181
134 154 181
133 154 181
133 154 181
133 154 181
133 154 180
134 154 181
133 154 181
133 154 181
134 154 181
134 154 181
134 154 181
134 154 181
134 154 181
133 154 181
134 154 181
134 154 181
133 154 181
135 155 181
133 154 181
134 154 181
134 154 181
134 154 181
134 154 181
135 155 181
133 154 181
133 154 181
135 155 181
133 154 181
134 154 181
133 154 181
134 154 181
134 154 181
133 154 181
134 154 181
135 155 181
134 154 181
135 155 181
134 154 181
134 154 181
134 154 181
134 154 181
133 154 181
134 154 181
134 154 181
134 154 181
134 154 181
134 154 181
133 154 181
135 155 181
134 154 181
134 154 181
134 154 181
133 154 181
134 154 181
133 154 181
134 154 181
134 155 181
135 155 181
134 154 180
133 154 180
134 154 181
134 154 181
134 154 181
133 154 181
134 154 181
135 155 181
134 154 181
134 154 181
134 154 180
134 154 181
134 154 181
134 154 181
133 154 181
133 154 181
134 155 181
132 153 181
134 154 181
133 154 181
134 154 181
134 155 181
134 154 181
134 154 181
134 154 181
133 154 181
133 154 181
134 154 181
134 154 181
134 154 181
134 154 181
133 154 181
133 154 181
134 154 181
133 154 181
134 155 181
134 154 181
134 154 181
134 154 181
134 154 181
134 154 181
133 154 181
134 154 181
134 154 181
132 153 180
134 154 181
133 154 181
134 154 181
134 154 181
133 153 180
133 154 181
133 154 181
133 154 181
134 154 181
135 155 181
135 155 181
134 154 181
133 154 181
134 154 181
134 154 181
133 154 181
134 154 181
134 154 181
133 154 181
134 154 181
134 154 181
133 154 181
133 154 181
134 154 181
134 154 181
133 154 181
134 154 181
133 154 181
133 154 181
134 154 181
133 154 181
133 154 181
135 155 181
134 154 181
134 154 181
134 154 181
133 154 181
133 154 181
135 155 181
134 154 181
134 154 181
134 154 181
134 154 180
134 154 181
134 154 181
134 154 180
134 155 181
134 154 181
134 154 181
134 154 181
134 154 181
134 154 181
133 154 181
133 154 181
134 154 181
134 154 181
133 154 181
133 154 181
133 154 181
134 154 181
134 154 181
133 154 181
134 154 181
134 154 181
134 154 181
134 154 181
133 154 181
134 154 181
134 154 181
133 154 181
134 154 181
134 154 181
133 154 181
133 154 181
134 154 181
133 154 181
133 154 181
134 154 181
134 154 181
134 154 181
134 154 181
134 154 181
135 155 181
133 154 181
134 154 181
134 154 181
134 154 181
134 154 181
134 154 181
133 154 181
133 154 181
134 154 181
134 154 181
134 154 181
133 154 181
134 154 181
134 154 181
133 154 181
133 154 181
134 154 181
134 155 181
134 154 181
135 155 181
134 154 181
134 154 181
133 154 181
133 154 181
133 154 181
133 154 181
133 154 181
135 155 181
134 154 181
134 154 181
133 154 181
134 154 181
133 154 181
134 154 181
133 153 180
133 154 180
135 155 181
134 154 181
133 154 181
134 154 181
134 154 181
133 154 181
133 154 181
133 154 181
134 154 181
134 154 181
134 154 181
133 154 181
133 154 181
133 154 181
134 154 181
134 154 181
134 154 181
134 154 181
133 154 181
133 154 181
134 154 181
134 154 181
134 154 181
134 154 181
134 154 181
134 154 181
133 154 181
134 154 181
134 154 181
134 154 180
133 154 181
133 154 181
134 154 181
135 155 181
134 154 181
135 155 181
134 154 180
133 154 181
134 154 181
133 154 181
134 154 181
134 154 181
134 154 181
134 154 181
134 154 181
134 154 181
134 154 181
133 154 181
135 155 181
134 154 181
134 154 181
134 154 181
133 154 181
134 154 181
134 154 181
134 154 181
134 154 181
135 155 181
133 154 181
134 154 181
134 154 181
134 154 181
134 154 181
133 154 181
133 154 181
134 154 181
135 155 181
134 154 181
134 154 181
133 154 181
133 154 181
134 154 181
134 154 181
134 154 181
134 154 181
133 154 181
134 154 181
135 155 181
135 155 181
134 154 181
134 154 181
134 154 181
134 154 181
134 154 181
133 154 181
134 154 181
134 154 181
134 155 181
133 154 181
134 154 181
133 153 180
134 154 181
134 154 181
134 154 181
135 155 181
134 154 181
133 154 181
133 154 181
134 154 181
134 154 181
134 154 181
133 154 181
134 154 181
133 154 181
134 154 181
132 153 181
134 154 181
134 154 181
133 154 181
134 154 181
134 154 181
134 154 181
134 154 181
134 154 181
134 154 181
134 154 181
134 154 181
134 154 181
135 155 181
134 154 181
134 154 181
133 154 181
134 154 181
134 154 181
134 154 181
135 155 181
134 154 181
134 154 181
134 154 181
133 154 181
134 154 181
134 154 181
133 154 181
133 154 181
134 154 181
134 154 181
134 154 181
133 154 181
134 154 181
134 154 181
133 154 181
134 154 181
134 154 181
133 154 181
133 154 181
133 154 181
135 155 181
133 154 181
133 154 181
134 154 181
133 154 181
134 154 181
134 154 181
135 155 181
133 154 181
133 154 181
133 154 181
134 154 181
134 154 181
135 155 181
134 154 181
134 154 181
133 154 181
134 154 181
134 154 181
133 154 181
134 154 181
133 154 181
134 154 181
133 154 181
134 154 181
134 154 181
134 154 181
134 154 181
134 154 181
133 154 180
133 154 181
134 154 181
133 154 181
133 154 181
133 154 181
135 155 181
133 154 181
134 154 181
134 154 181
134 154 181
133 154 181
134 154 180
133 154 181
134 154 181
133 154 181
133 154 181
133 154 181
134 155 181
133 154 181
134 154 181
134 154 181
134 154 181
134 154 181
134 154 181
134 154 181
133 154 181
134 154 180
133 154 181
134 154 181
135 155 181
134 154 181
133 154 181
134 154 181
133 154 181
133 154 181
133 154 181
133 154 181
133 154 181
134 154 181
133 154 181
134 154 181
133 154 181
133 154 181
134 155 181
134 154 181
134 154 181
133 154 181
134 154 181
134 154 181
133 154 181
135 155 181
134 154 181
133 154 181
134 154 180
134 154 181
133 154 181
132 153 181
134 154 181
134 154 181
133 154 181
134 154 181
134 154 181
134 154 181
134 154 181
134 154 181
134 154 181
134 154 181
134 154 181
133 154 181
134 154 181
133 154 181
135 155 181
134 154 181
133 154 180
133 154 181
133 154 181
133 154 181
133 154 181
135 154 180
134 154 181
133 154 181
133 154 181
133 153 180
134 154 181
133 154 181
132 153 180
133 154 181
134 154 181
133 154 181
134 154 181
133 154 181
133 154 181
134 154 181
134 154 181
134 155 181
133 154 181
134 155 181
134 154 181
134 154 181
134 154 181
134 155 181
134 154 181
133 154 180
133 154 181
134 154 181
134 154 181
134 154 181
133 154 181
135 155 181
134 154 181
134 155 181
133 154 181
133 154 181
133 154 181
134 154 181
134 154 181
134 154 181
134 154 181
134 154 181
134 154 181
133 154 181
133 154 181
134 154 181
134 154 181
134 154 181
134 154 181
133 154 181
134 154 181
134 154 181
133 154 181
133 154 181
134 154 181
134 154 181
133 154 181
133 154 181
133 154 181
133 154 180
134 154 181
134 154 181
134 154 181
135 155 181
133 154 181
134 154 181
134 154 181
133 154 181
134 154 181
134 155 181
134 154 181
134 154 181
134 154 181
134 154 181
133 153 180
135 155 181
133 154 181
133 154 181
133 154 181
133 154 181
133 154 181
134 154 181
134 154 181
134 154 181
134 154 181
133 154 180
133 154 181
134 154 181
134 154 181
133 154 181
134 154 181
135 155 181
135 155 181
134 154 181
133 154 181
134 154 181
134 154 181
133 154 181
134 154 181
133 154 181
134 154 181
134 154 181
134 154 181
134 154 181
133 154 181
134 154 181
134 154 181
134 154 181
134 154 181
134 154 181
133 154 181
133 154 181
134 154 181
133 153 180
134 154 181
134 154 181
134 154 181
134 154 181
134 154 181
135 155 181
133 153 180
134 154 181
134 154 181
135 155 181
134 154 181
134 154 181
134 154 181
134 154 181
134 154 181
134 154 181
134 154 181
133 154 181
133 154 181
134 154 181
134 154 181
134 154 180
133 154 181
135 155 181
134 154 181
134 154 181
134 154 181
134 154 181
133 154 181
134 154 181
133 154 181
134 154 181
133 154 181
134 154 181
134 154 181
134 154 181
134 154 181
133 154 181
134 154 181
134 154 181
134 154 181
133 154 181
134 154 181
134 154 181
133 154 181
135 155 181
133 154 181
134 154 181
134 154 181
133 154 181
133 154 181
135 155 181
134 154 181
134 154 181
133 154 181
133 154 181
134 154 181
134 154 180
134 154 181
134 154 181
134 154 181
134 154 181
133 154 181
134 154 181
135 155 181
133 154 181
134 154 181
134 154 181
133 154 181
134 154 181
134 154 181
133 154 181
134 154 181
134 154 181
133 154 181
134 154 181
134 154 181
133 154 180
133 154 180
134 154 181
134 154 181
133 154 181
135 155 181
133 154 181
134 154 181
134 154 181
133 154 181
134 154 181
133 154 181
134 154 181
135 155 181
134 154 181
134 154 181
134 154 181
133 154 181
134 154 180
134 154 181
134 154 181
134 154 181
134 154 181
134 154 181
134 154 181
134 154 181
133 154 181
135 155 181
134 154 181
133 154 181
134 154 181
134 154 180
133 154 181
133 154 181
134 154 181
133 154 181
134 154 181
134 154 181
133 154 181
134 154 181
133 154 181
133 154 181
134 154 181
134 154 181
134 154 181
133 154 181
134 154 181
134 154 181
133 154 181
134 154 181
135 155 181
133 154 181
134 154 181
134 154 181
133 154 181
133 154 181
133 154 181
133 154 181
133 153 180
134 154 181
133 154 181
134 155 181
135 155 181
134 154 181
134 154 181
133 154 181
134 154 181
133 154 181
133 154 180
134 154 181
134 154 181
135 155 181
134 154 181
134 154 181
134 154 181
134 154 181
133 154 181
133 154 181
134 154 181
133 154 181
134 154 181
134 154 181
133 154 181
134 154 181
134 154 181
134 154 181
134 154 181
134 154 181
134 154 181
133 154 181
135 155 181
134 154 181
134 154 181
133 154 180
134 154 181
133 154 181
133 154 181
133 154 181
134 154 181
135 155 181
134 154 181
134 154 181
134 154 181
133 154 181
134 155 181
134 154 181
134 154 181
133 154 180
134 154 181
133 154 181
134 154 181
133 154 181
134 154 181
134 154 181
133 154 181
134 154 180
134 154 181
133 154 181
134 154 181
134 154 181
133 154 181
133 154 181
134 154 181
133 154 181
134 154 181
134 154 181
134 154 181
133 154 181
134 154 181
133 154 181
133 154 181
134 154 180
134 154 181
134 154 181
134 155 181
134 154 181
133 154 181
134 154 181
133 154 181
134 154 181
134 154 181
135 155 181
133 154 181
134 154 181
133 154 181
134 154 181
134 154 181
134 154 181
133 154 181
134 154 181
134 154 181
134 154 181
133 154 181
133 154 181
133 154 181
133 154 181
134 154 181
134 154 181
133 154 181
134 154 181
134 154 181
134 154 180
134 154 180
134 154 181
133 154 181
134 154 181
133 154 181
134 154 181
134 154 181
133 154 181
133 154 181
134 154 181
134 154 181
134 154 181
133 154 180
134 154 181
134 154 181
133 154 181
134 154 181
133 154 181
133 154 181
133 154 181
134 154 181
133 154 181
133 154 181
133 154 181
134 154 181
134 154 181
134 154 180
134 155 181
134 154 181
134 154 181
134 154 181
134 154 181
134 154 181
134 154 181
134 154 181
134 154 181
134 154 181
133 154 181
134 154 181
134 154 181
133 154 181
133 154 181
134 154 181
134 154 181
133 154 181
134 154 181
134 154 181
134 154 181
133 154 181
133 154 181
134 154 181
133 154 181
133 154 180
134 154 181
133 154 181
134 154 181
134 154 181
133 154 181
133 154 181
135 155 181
133 154 181
133 154 181
134 154 181
134 154 181
134 154 181
132 153 181
134 154 181
133 154 181
133 154 181
134 154 181
134 154 181
134 154 181
135 155 181
134 154 181
133 154 180
134 154 181
133 153 180
134 154 181
134 154 181
134 154 181
134 154 181
133 154 181
134 154 181
134 154 181
134 154 181
133 154 181
133 154 181
135 155 181
134 154 181
133 154 180
134 154 181
133 154 181
134 154 181
134 154 181
133 154 181
134 154 181
134 154 181
134 154 181
134 154 181
134 154 181
133 154 180
134 154 181
133 154 181
134 154 181
133 154 181
132 153 180
134 154 181
134 154 181
134 154 181
133 154 181
134 154 181
133 154 181
134 154 181
134 154 181
134 154 181
134 154 181
133 154 181
133 154 181
134 154 181
133 154 181
134 154 181
134 154 181
134 154 181
133 154 181
134 154 181
134 154 181
133 154 181
134 154 181
134 154 181
134 154 181
133 154 181
133 154 181
134 154 181
134 154 181
134 154 181
134 154 181
134 154 181
133 154 181
133 154 181
134 154 181
134 154 181
135 155 181
134 154 181
134 154 180
135 155 181
133 154 181
134 154 181
135 155 181
132 153 180
135 155 181
133 154 181
134 154 181
133 154 181
134 154 180
134 154 181
133 153 180
134 154 181
133 154 180
133 154 181
133 154 181
134 154 181
134 154 181
133 154 181
134 154 181
134 154 181
134 154 181
134 155 181
134 154 181
134 154 181
134 154 181
134 154 181
134 154 181
134 154 181
134 154 181
133 154 181
134 154 181
134 154 181
135 155 181
134 154 181
134 154 181
135 155 181
134 154 181
133 154 181
133 154 181
134 154 181
134 154 181
134 154 181
134 154 181
134 154 181
135 155 181
133 153 180
134 154 181
133 153 180
133 154 181
134 154 181
133 154 181
133 154 181
134 154 181
133 154 181
133 154 181
134 155 181
133 154 181
133 154 181
134 154 181
134 154 181
133 154 180
134 154 181
133 154 181
133 154 181
133 153 180
134 154 181
134 154 181
134 154 180
133 154 181
134 154 181
134 154 181
134 154 181
135 155 181
134 154 181
134 154 181
134 154 181
134 154 181
134 154 181
134 154 181
133 154 181
134 154 181
135 155 181
134 154 181
133 154 181
134 154 181
134 154 181
133 154 181
133 154 181
134 154 181
134 154 181
133 154 181
134 154 181
134 154 181
134 154 181
134 154 181
134 154 181
133 154 181
134 154 181
134 154 181
135 155 181
134 154 181
133 154 181
133 154 181
134 154 181
134 154 181
134 154 181
134 154 181
133 154 181
133 154 181
133 154 181
133 154 181
134 154 181
134 154 181
136 155 181
133 154 181
134 154 181
133 154 181
134 154 181
134 154 181
133 154 181
134 154 181
134 154 181
134 154 181
134 154 181
134 154 181
133 154 181
134 154 181
133 154 181
134 154 181
133 154 181
133 154 181
134 154 181
133 154 180
133 154 181
134 154 181
133 154 181
133 154 180
134 154 181
133 154 181
135 155 181
134 154 181
133 154 181
134 154 181
133 154 180
133 154 181
133 154 181
133 154 181
133 154 181
134 154 181
133 154 181
134 154 181
134 154 181
134 154 181
133 154 181
133 154 181
135 155 181
134 154 181
134 154 181
134 154 181
134 154 181
133 154 181
134 154 181
134 154 181
133 154 181
133 154 181
134 154 181
133 154 181
132 153 181
134 154 181
134 154 181
134 154 181
134 154 181
134 154 181
134 154 181
134 154 181
134 154 181
134 154 181
133 154 180
134 154 181
133 154 181
134 154 181
134 154 181
134 154 181
134 154 181
134 154 181
134 154 181
134 155 181
134 155 181
134 154 181
134 154 181
133 154 181
134 154 181
133 153 180
133 154 181
134 154 181
134 154 181
134 154 181
134 154 181
134 154 181
133 154 181
134 154 181
134 154 181
134 154 181
133 154 181
133 154 180
134 154 181
134 154 181
134 154 181
134 154 181
134 154 181
134 154 181
134 154 181
134 154 181
134 154 181
134 154 181
134 154 181
134 154 181
134 154 181
133 154 181
133 154 181
134 154 181
134 154 181
134 154 181
134 154 181
134 154 181
134 154 180
133 154 181
133 154 181
133 154 181
135 155 181
134 154 181
134 154 181
134 154 181
134 154 180
133 154 181
133 154 181
134 154 181
133 154 181
134 154 181
134 154 181
133 153 180
134 154 180
134 154 181
134 154 181
134 154 181
133 154 181
134 154 181
133 154 181
134 154 181
134 154 181
133 154 181
133 154 181
134 154 181
133 154 181
134 154 181
135 155 181
134 154 181
134 154 181
134 154 181
134 154 181
134 154 181
134 154 181
134 154 181
133 154 181
134 154 181
134 154 181
134 154 181
133 154 181
133 154 181
133 154 181
134 154 181
133 154 181
133 154 181
133 154 181
134 154 181
134 154 181
134 154 181
133 154 181
133 154 181
134 154 180
134 154 181
134 154 181
133 154 181
134 154 181
133 154 181
134 154 181
133 154 181
133 154 181
133 154 181
134 154 181
134 154 181
133 154 181
133 154 181
134 154 181
133 154 181
133 154 181
134 154 181
134 154 181
134 154 181
134 154 181
133 153 180
133 154 181
133 154 181
134 154 181
133 154 181
133 154 181
133 154 181
134 154 181
135 155 181
133 154 181
133 154 180
133 154 181
134 154 181
133 154 180
133 154 180
134 154 181
134 154 181
133 154 181
134 154 181
134 154 181
134 154 181
134 154 181
135 155 181
133 154 181
134 154 181
134 154 181
134 154 181
133 154 181
134 154 181
135 155 181
134 154 180
134 154 181
133 154 181
134 154 181
134 154 181
134 154 181
134 154 181
133 154 181
134 154 181
134 154 181
134 155 181
134 154 181
134 154 181
132 153 181
134 154 181
133 154 181
133 154 181
134 154 181
133 154 181
134 154 181
134 154 181
134 154 181
133 153 180
133 154 181
134 154 181
134 154 180
133 154 181
134 154 181
133 154 181
133 154 181
134 154 181
133 154 181
133 154 181
133 154 181
134 154 181
133 154 181
134 154 181
133 154 181
134 154 181
134 154 181
133 154 181
134 154 181
133 154 181
134 154 181
134 154 181
133 154 181
134 154 181
133 154 181
133 154 181
134 154 181
134 154 181
134 154 181
133 154 181
133 154 181
134 154 180
134 154 181
134 154 181
133 154 181
133 154 181
134 154 181
134 154 181
133 154 181
133 154 181
134 154 181
134 154 181
133 154 181
134 154 181
133 154 181
134 154 181
134 154 181
134 154 181
134 154 181
134 154 181
134 154 181
133 154 181
134 154 181
135 155 181
133 154 181
134 154 181
133 154 181
133 154 181
134 154 181
134 154 181
134 154 181
134 154 181
134 154 181
134 154 181
134 154 181
135 155 181
134 154 181
133 154 180
134 154 181
134 154 181
133 154 181
133 154 181
134 154 181
134 154 181
133 154 181
133 154 181
134 154 181
134 154 181
134 154 180
134 154 181
134 154 180
133 154 181
134 154 181
134 154 181
133 154 181
134 154 181
134 154 181
134 154 181
134 154 181
134 154 181
133 154 181
134 154 181
133 154 181
134 154 180
133 154 181
135 155 181
135 155 181
134 154 181
134 154 181
134 154 181
134 154 181
134 154 181
134 155 181
133 154 181
134 154 181
134 154 181
133 154 181
133 154 181
133 154 181
132 153 180
133 154 181
134 154 181
134 154 181
134 154 181
134 154 181
134 154 181
133 154 181
134 154 181
134 154 181
134 154 181
133 154 181
134 154 181
132 154 181
134 154 181
134 154 181
134 154 181
133 153 180
133 154 181
133 154 181
133 154 181
134 154 181
134 154 181
134 154 181
133 154 181
134 154 181
135 155 181
134 154 181
134 154 181
134 154 181
133 154 181
134 154 181
133 153 180
133 154 181
134 155 181
133 154 181
134 154 181
133 154 181
133 154 181
134 154 181
134 154 181
134 154 181
135 155 181
134 154 181
134 154 181
134 154 181
134 154 181
134 154 181
134 154 181
133 154 181
134 154 181
134 154 181
133 154 181
134 154 181
133 154 181
133 153 180
133 154 181
133 154 181
135 155 181
134 154 181
133 154 181
134 154 181
134 154 181
134 154 181
134 154 181
134 154 181
135 155 181
134 154 181
134 154 181
134 154 181
134 154 181
134 154 181
133 154 181
133 154 181
134 154 181
134 154 180
134 154 181
134 154 181
133 154 181
133 154 181
133 154 181
133 154 181
134 154 181
134 154 181
134 154 181
134 154 181
133 154 181
133 154 180
134 154 181
134 154 181
134 154 181
133 154 181
134 154 181
134 154 181
133 154 181
135 155 181
133 154 181
134 154 181
134 154 181
134 154 181
134 154 181
133 154 181
134 154 181
134 154 181
134 154 181
133 154 181
133 154 181
133 154 181
134 154 181
133 154 181
133 154 181
133 154 181
133 154 181
133 154 181
133 154 181
133 154 181
134 154 181
133 154 181
134 154 181
133 154 181
134 154 181
133 154 181
134 154 181
133 154 181
133 154 181
134 154 181
133 154 181
133 154 181
134 155 181
134 154 181
133 154 181
132 153 181
134 154 181
134 154 181
133 154 181
134 154 181
134 154 181
134 154 181
134 154 181
134 154 180
133 154 181
133 154 181
134 154 181
134 154 181
134 154 181
133 154 181
134 154 181
134 154 181
134 154 181
134 154 181
133 154 181
133 154 181
133 154 181
133 154 181
133 154 181
134 154 181
133 154 181
133 154 181
134 154 181
134 154 181
133 154 181
133 154 181
133 154 181
134 154 181
134 155 181
133 154 181
134 154 181
134 154 181
133 154 181
134 154 181
133 153 180
134 154 181
133 154 181
134 154 181
134 154 181
133 154 181
134 154 181
134 154 181
133 154 181
133 154 180
133 154 181
133 154 181
134 154 181
134 154 180
134 154 181
134 154 181
133 154 180
133 154 181
133 154 181
134 154 181
133 154 181
134 154 181
134 154 181
133 154 181
133 154 181
135 155 181
133 154 181
133 154 180
134 154 181
134 154 181
133 154 181
135 155 181
133 154 180
135 155 181
133 154 180
133 154 181
134 154 181
134 154 181
133 154 181
135 155 181
134 154 181
134 155 181
134 154 181
134 154 181
134 155 181
133 154 181
133 154 181
134 154 181
134 154 181
133 154 181
134 154 181
135 155 181
134 154 181
135 155 181
134 154 181
134 154 180
133 154 181
133 154 181
133 154 181
134 154 181
134 154 181
133 154 181
134 154 181
133 154 181
134 154 181
134 155 181
133 154 181
134 154 181
133 154 181
134 154 181
134 154 181
134 154 181
134 154 181
134 154 180
134 154 181
134 154 181
134 154 181
134 154 181
133 154 181
133 154 181
133 154 181
134 154 181
133 154 181
134 154 181
134 154 181
134 154 181
134 154 181
133 154 180
135 155 181
133 154 181
134 154 181
134 154 181
134 154 181
134 154 181
133 154 181
134 154 181
134 154 181
133 154 181
134 154 181
133 154 181
134 154 181
133 154 181
133 154 181
133 154 181
134 154 181
134 154 181
134 154 180
134 154 181
133 154 181
134 154 181
134 154 181
133 154 181
132 154 181
133 154 181
134 154 181
133 154 181
134 154 181
135 155 181
134 154 181
134 154 181
134 154 181
134 154 181
134 155 181
134 154 181
133 154 181
134 154 181
133 154 181
135 155 181
133 154 181
134 154 181
134 154 181
134 154 181
134 154 181
134 154 181
134 154 181
133 154 181
133 153 180
133 154 181
134 154 181
134 154 181
133 154 181
133 154 181
134 154 181
134 154 181
133 154 181
134 154 181
134 154 181
134 154 181
133 154 181
133 154 181
133 154 181
134 154 181
134 154 180
133 154 181
134 154 181
135 155 181
134 155 181
135 155 181
134 154 181
133 154 181
133 154 181
134 154 181
134 154 181
133 154 180
134 154 181
134 154 181
133 154 181
134 154 181
134 154 181
134 154 181
134 154 181
134 154 181
133 154 181
134 154 181
134 154 181
134 154 181
133 153 180
134 154 181
134 154 181
133 154 181
133 154 181
134 154 181
134 154 180
134 154 181
133 154 181
134 154 181
133 154 181
133 154 181
133 154 181
133 154 181
135 155 181
134 154 181
133 154 181
134 155 181
134 154 181
134 154 181
133 154 181
134 154 181
133 154 181
134 154 181
134 154 181
135 155 181
133 154 181
132 154 181
134 154 181
134 154 181
134 154 181
134 154 181
134 154 181
134 154 181
133 154 181
134 154 181
134 154 181
134 154 181
134 154 181
133 154 181
135 155 181
134 155 181
133 154 181
133 154 181
134 154 181
134 154 181
134 154 181
133 154 181
133 154 181
134 154 181
134 154 181
133 154 181
134 154 181
134 154 181
133 154 181
133 154 181
132 153 181
134 154 181
134 154 181
134 154 181
134 154 181
135 155 181
133 154 181
133 153 180
134 154 181
134 154 181
133 154 181
133 154 181
134 154 181
134 154 181
134 154 181
134 154 181
134 154 181
134 154 181
133 154 181
133 154 181
134 154 181
134 154 181
134 154 181
134 154 181
134 154 181
133 154 181
134 154 181
134 154 181
134 154 181
135 155 181
134 154 181
135 155 181
133 154 181
134 154 181
134 154 181
133 154 181
134 154 181
134 154 181
133 154 181
133 154 181
134 154 181
133 154 181
135 155 181
134 154 181
133 154 181
133 154 181
134 154 181
134 154 181
134 154 180
133 154 181
133 154 181
133 154 181
134 154 181
134 154 181
134 154 181
135 155 181
135 155 181
134 154 181
134 154 181
133 154 181
134 154 181
133 154 181
133 154 181
133 154 181
134 154 181
134 154 181
134 154 181
133 154 181
134 154 181
134 154 181
134 154 181
134 154 181
133 154 181
135 155 181
133 154 181
134 154 181
134 154 181
135 155 181
134 154 181
133 154 181
134 154 181
134 154 181
134 154 181
134 154 180
134 154 181
133 154 181
134 154 181
133 154 181
134 154 181
134 154 181
134 154 180
133 154 181
133 154 181
134 154 181
134 154 181
132 153 181
134 154 181
133 154 181
134 154 181
134 154 181
134 154 181
134 154 181
134 154 181
134 154 181
133 154 181
133 154 180
134 154 181
134 154 181
134 154 181
135 154 180
135 155 181
134 154 181
134 154 181
135 155 181
134 154 181
133 154 181
133 154 181
134 154 181
134 154 181
133 154 181
133 154 181
133 154 181
133 154 181
133 154 181
134 154 181
134 154 181
134 154 181
134 154 181
134 154 181
133 154 181
133 154 181
134 154 181
134 154 181
134 155 181
133 154 181
134 154 181
134 154 181
133 154 181
134 154 181
134 154 181
134 155 181
134 154 181
134 154 181
134 154 181
134 154 181
134 154 181
134 154 181
134 154 181
134 154 181
133 154 181
134 154 181
133 154 181
133 154 181
135 155 181
134 154 181
133 154 181
134 154 181
134 154 180
133 154 181
134 154 181
133 154 180
133 154 181
134 154 181
133 154 181
134 155 181
133 154 181
135 155 181
134 154 181
134 154 181
134 155 181
133 154 181
135 155 181
135 155 181
134 154 181
134 154 181
134 154 181
134 154 181
134 154 181
134 154 181
133 154 181
133 154 181
133 154 181
134 154 181
135 155 181
134 154 181
135 155 181
133 154 181
133 154 181
133 154 181
134 154 181
134 154 181
133 154 181
134 154 181
133 154 181
135 155 181
133 154 180
133 154 181
134 154 181
134 154 180
134 154 181
134 154 181
133 154 181
133 154 181
134 154 181
134 154 181
134 154 181
134 154 181
134 154 181
133 154 181
133 154 181
135 155 181
134 154 180
133 154 181
134 154 181
134 154 181
134 154 181
134 154 181
133 154 181
133 154 181
134 154 181
133 154 180
133 154 181
134 154 181
133 154 181
133 154 181
133 154 181
133 154 181
134 154 181
134 154 181
133 154 181
134 154 181
134 154 181
133 154 181
134 154 181
135 155 181
134 154 181
134 154 181
134 154 181
133 154 181
134 154 181
133 154 181
134 154 181
135 155 181
134 154 181
134 154 181
134 154 181
133 154 181
133 154 181
134 154 181
134 154 181
132 153 181
133 154 181
135 155 181
133 154 181
134 154 181
134 154 181
133 154 181
134 154 181
133 154 181
134 154 181
134 154 181
134 154 181
134 154 181
134 154 181
134 154 181
133 154 181
134 154 181
134 154 181
134 154 181
134 154 181
133 154 181
134 154 181
134 154 181
134 154 181
134 154 181
133 154 181
134 154 181
133 154 181
134 154 181
133 154 181
133 154 180
134 154 181
134 154 181
133 154 181
134 154 181
133 154 181
134 154 181
134 154 181
134 154 181
134 154 180
134 154 181
134 154 181
135 155 181
133 154 181
133 154 181
134 154 181
133 154 181
134 154 181
134 154 181
134 154 181
134 154 181
134 154 181
134 154 181
133 153 180
133 154 180
133 154 181
133 154 181
134 154 181
134 154 181
134 154 181
134 154 181
134 154 181
133 154 180
134 154 181
134 154 181
133 154 181
134 154 181
134 154 181
134 154 181
133 154 181
133 154 181
133 153 180
134 154 181
133 154 181
133 154 181
133 154 181
135 155 181
135 155 181
133 154 181
133 154 181
134 154 181
134 154 181
133 154 181
134 154 181
134 155 181
134 154 181
134 154 181
133 154 181
134 154 181
134 154 181
133 154 181
134 154 181
133 154 181
134 154 181
134 154 181
134 154 181
134 154 181
134 154 181
134 154 181
135 155 181
134 154 181
134 154 181
133 154 181
134 154 181
133 154 181
134 154 181
133 154 181
134 154 181
134 154 181
134 154 181
134 154 181
134 154 181
134 154 181
134 154 181
134 154 181
133 154 181
135 155 181
134 154 181
134 154 181
134 154 181
134 154 181
133 154 181
134 154 181
133 154 181
134 154 181
134 154 181
134 155 181
134 155 181
134 154 181
134 154 180
135 155 181
134 154 181
134 154 181
134 154 181
134 154 181
134 154 181
134 154 181
133 154 181
134 154 181
133 154 181
133 154 181
133 154 181
134 154 181
134 154 181
133 154 181
134 154 181
134 155 181
133 154 181
133 154 181
134 154 181
134 154 180
133 154 181
133 154 181
134 154 181
134 154 181
134 154 181
133 154 181
134 154 181
134 154 180
134 154 181
134 154 181
133 154 181
134 154 181
135 155 181
133 154 181
134 154 181
135 155 181
135 155 181
134 154 181
133 154 181
134 154 181
134 154 181
134 154 181
134 154 181
133 154 181
133 154 181
134 154 181
133 154 181
134 154 181
133 154 181
133 154 180
133 154 181
134 154 181
133 154 181
133 154 181
135 155 181
133 154 180
134 154 181
134 155 181
134 154 181
135 155 181
133 154 181
134 154 181
134 154 181
134 155 181
133 154 181
134 154 181
134 154 181
134 154 181
133 154 181
134 154 181
133 154 181
135 155 181
134 154 181
133 154 181
133 154 181
132 153 181
134 154 181
134 154 181
134 154 181
133 154 181
134 154 181
134 154 181
133 154 181
134 154 181
133 154 181
135 155 181
134 154 181
133 154 181
133 154 181
135 155 181
134 154 181
133 154 181
133 154 181
134 154 181
134 154 181
133 154 181
134 154 181
134 154 181
134 154 181
134 154 181
134 154 181
134 154 181
134 154 181
134 154 181
134 154 181
133 154 181
134 154 181
134 154 181
135 155 181
134 155 181
134 154 181
133 154 181
134 154 181
133 154 181
134 154 181
134 154 181
134 154 181
134 154 181
134 154 181
134 154 181
134 154 181
134 154 181
134 154 181
134 154 181
133 154 181
134 154 181
134 154 181
134 154 181
133 154 181
135 155 181
134 154 181
134 154 181
134 154 181
133 154 181
134 154 181
134 154 181
134 154 181
134 154 181
134 154 180
134 154 181
134 154 181
133 154 181
133 154 181
135 155 181
135 155 181
133 154 181
133 154 181
134 154 181
134 154 181
134 154 181
134 154 181
135 155 181
135 155 181
134 154 181
134 154 181
134 154 181
133 154 181
134 154 181
133 154 181
134 154 181
134 154 180
134 154 181
133 154 181
134 154 181
134 154 181
133 154 181
134 154 181
134 154 181
134 154 181
133 154 181
135 155 181
134 154 181
133 154 181
133 154 181
134 154 181
134 154 181
134 155 181
134 154 181
133 154 181
134 155 181
134 155 181
134 154 181
133 154 181
134 154 181
134 155 181
134 154 180
134 154 181
133 154 181
134 154 181
134 154 181
135 155 181
134 155 181
135 155 181
133 154 181
134 154 181
133 154 181
134 154 181
133 154 181
134 154 181
133 154 181
134 154 181
134 154 181
133 154 181
134 154 181
134 154 181
134 154 181
134 154 181
134 154 181
133 154 181
134 154 181
134 155 181
134 154 181
134 154 181
134 154 180
134 154 181
134 155 181
134 154 181
134 154 181
134 154 181
133 154 180
134 154 181
133 154 181
134 154 181
134 154 181
134 154 181
133 154 180
134 155 181
133 154 181
133 154 181
133 154 181
134 154 181
133 154 181
133 154 181
133 154 181
133 154 181
135 155 181
133 154 181
134 154 181
134 154 181
133 154 181
134 154 181
135 155 181
134 154 181
133 154 181
134 155 181
133 154 181
134 154 181
134 154 181
133 154 180
133 154 180
134 154 181
133 154 181
134 154 181
133 154 181
133 154 181
134 154 181
133 154 181
135 155 181
133 154 181
133 153 180
134 155 181
134 154 181
134 154 181
133 154 181
133 154 181
133 154 181
133 154 181
133 154 181
133 154 181
134 154 181
133 154 180
134 155 181
134 154 181
134 154 181
133 154 181
134 154 181
134 154 181
134 154 181
134 154 181
134 154 181
134 154 181
134 154 180
133 154 181
133 154 181
133 154 181
133 154 181
133 154 181
134 154 181
133 154 181
134 154 181
134 154 180
133 154 181
134 154 181
134 154 181
133 154 181
134 154 181
133 154 181
134 154 181
134 154 181
133 154 181
133 154 181
133 153 180
134 154 180
134 154 181
134 154 181
134 154 181
133 154 180
134 154 180
134 154 181
134 154 181
134 154 181
134 154 181
134 154 181
134 154 181
134 154 181
134 155 181
134 154 181
134 154 181
134 154 181
134 154 181
134 154 181
133 154 181
133 154 180
134 154 181
134 154 181
133 154 181
134 154 181
133 154 181
133 154 181
134 154 181
133 154 181
133 154 181
134 154 181
134 154 180
134 154 181
133 154 181
134 154 181
134 154 181
134 154 181
134 154 181
134 154 181
134 154 181
134 154 181
134 154 181
134 154 181
134 154 181
135 155 181
134 154 181
133 154 181
134 154 181
134 154 181
134 154 181
134 154 181
134 154 181
134 154 181
134 154 181
134 154 181
133 154 181
134 154 181
134 154 181
134 154 181
133 154 180
134 154 181
134 154 181
134 154 181
134 154 181
133 154 180
134 154 181
134 154 181
134 154 181
134 154 181
134 154 181
134 154 181
134 154 181
134 154 181
133 154 181
134 154 181
134 154 181
134 154 181
134 154 181
134 154 181
134 154 181
133 154 181
134 155 181
134 154 181
134 154 181
133 154 181
134 154 181
134 154 181
134 154 181
134 154 181
133 153 180
134 154 181
133 154 181
134 154 181
134 154 181
134 154 181
134 154 181
134 154 181
134 154 181
134 154 181
133 154 181
134 154 181
133 154 181
133 154 181
134 154 181
134 154 181
133 154 181
134 154 180
133 154 180
133 154 181
134 154 181
133 154 181
134 154 181
134 154 181
134 154 181
133 154 180
133 154 181
134 154 181
134 154 181
134 154 181
135 155 181
133 154 181
133 154 181
135 155 181
134 154 181
134 154 181
133 154 181
134 154 181
134 154 180
134 154 181
133 154 181
133 154 181
133 154 181
134 154 181
134 154 181
134 154 181
134 154 181
134 154 181
134 154 181
134 154 181
134 154 181
134 154 181
134 154 181
133 154 181
133 154 181
134 154 181
133 154 180
134 155 181
133 154 181
134 154 181
135 155 181
133 154 181
133 154 181
133 154 181
133 154 181
134 154 181
134 154 181
134 154 181
134 154 181
133 154 181
133 154 181
133 154 181
134 154 181
134 154 181
133 154 181
133 154 181
134 154 181
134 154 181
134 154 181
133 154 181
134 154 181
134 154 181
134 154 181
134 154 181
133 154 181
134 154 181
134 154 181
133 154 181
134 154 181
134 154 181
134 154 181
134 154 181
135 155 181
134 154 181
133 154 181
133 154 181
133 154 181
134 154 181
133 154 180
133 154 181
134 154 181
133 154 181
134 154 181
135 155 181
134 154 181
134 154 181
134 154 181
134 154 181
134 154 181
134 154 181
133 154 181
134 154 181
133 154 181
133 154 181
134 154 181
134 154 181
134 154 181
134 154 181
133 154 181
134 154 181
133 154 181
133 154 181
133 154 181
134 154 181
133 154 181
134 154 181
134 154 181
132 153 181
133 154 181
134 154 181
134 154 181
135 155 181
134 154 181
133 154 181
133 154 181
134 154 181
134 154 181
134 154 181
134 154 181
134 154 181
134 154 181
134 154 181
133 154 180
134 154 181
134 154 181
134 154 181
133 154 181
134 154 181
134 154 181
133 154 181
133 154 181
134 154 181
133 154 181
134 154 181
133 154 181
134 154 181
133 154 181
134 154 181
134 154 181
135 155 181
134 154 181
134 154 181
134 154 181
134 154 181
134 154 181
134 154 181
134 154 181
134 154 181
134 154 181
134 154 181
135 155 181
134 155 181
134 154 181
134 154 181
134 154 181
135 155 181
133 154 181
134 154 181
134 154 181
135 155 181
134 154 181
133 154 181
134 154 181
133 154 181
133 154 181
134 154 181
134 154 181
134 154 181
132 153 181
134 154 181
133 154 181
134 154 181
134 154 181
134 154 181
134 154 181
133 154 181
133 154 181
133 154 181
134 154 181
133 154 181
134 154 181
134 154 181
134 154 181
134 154 180
134 154 181
134 154 181
134 154 181
134 154 181
134 154 181
134 154 181
134 154 181
134 154 181
134 154 181
134 154 181
134 154 181
133 154 181
134 154 181
134 154 181
133 154 181
133 154 181
134 154 181
134 154 181
134 154 181
134 154 181
135 155 181
134 154 181
134 154 181
134 154 181
135 155 181
133 154 181
135 155 181
133 154 181
134 154 181
133 154 181
134 154 181
134 154 181
135 155 181
133 153 180
134 154 181
134 154 181
134 154 181
134 154 181
133 154 181
133 154 181
135 155 181
134 154 181
134 154 181
133 154 181
133 154 181
134 154 181
134 154 181
134 154 181
134 154 181
134 154 181
134 154 181
133 154 181
134 154 181
134 154 181
133 154 181
134 154 181
134 154 181
134 154 181
134 154 181
133 154 181
133 154 181
133 154 181
134 154 181
133 154 180
134 154 181
134 154 181
135 155 181
134 154 181
133 154 181
133 154 181
134 154 181
134 154 181
133 154 181
134 154 181
133 154 181
133 154 181
135 155 181
133 154 181
133 154 181
134 154 181
134 154 181
135 155 181
134 154 181
134 154 181
134 154 181
134 154 181
134 154 180
134 154 181
134 154 181
134 154 181
134 154 181
134 154 181
133 154 180
134 154 181
133 154 181
133 154 181
134 154 181
134 154 181
133 154 181
133 154 181
134 154 181
133 154 181
133 154 181
133 154 181
134 154 181
134 154 181
133 154 181
134 154 181
133 154 181
134 154 181
134 154 181
133 154 181
134 154 181
134 154 181
133 154 181
134 154 181
135 155 181
134 154 181
133 154 181
134 154 181
134 154 181
134 154 181
133 153 180
134 154 181
134 154 181
134 154 181
134 154 180
134 154 181
134 154 181
134 154 181
133 154 181
135 155 181
134 155 181
133 154 181
133 153 179
134 154 181
133 154 181
133 154 181
134 154 181
133 154 181
133 154 181
134 154 181
134 154 181
134 154 181
135 155 181
134 154 181
134 154 181
133 154 181
133 154 181
133 154 181
133 154 181
134 154 181
133 154 180
132 153 181
134 154 181
134 154 181
135 155 181
133 154 181
135 155 181
134 154 181
134 154 181
133 154 181
134 154 181
133 154 181
134 154 181
134 155 181
134 154 181
133 154 181
134 154 181
134 154 181
135 155 181
133 154 180
134 155 181
133 154 181
133 154 181
133 154 181
133 153 180
134 154 181
135 155 181
134 154 181
134 154 181
134 155 181
135 155 181
134 154 181
134 154 181
134 154 181
133 154 181
133 154 181
134 154 181
133 154 181
134 154 181
133 154 181
134 154 181
134 154 181
133 154 181
133 154 181
134 154 181
134 154 181
134 154 181
134 154 181
134 154 181
133 154 181
133 154 181
133 154 181
134 154 181
134 154 181
134 154 181
133 154 181
133 154 181
133 154 180
134 154 181
133 154 181
134 154 181
134 154 181
134 154 181
134 154 181
134 154 181
135 155 181
134 154 181
134 154 181
134 154 180
133 154 181
134 154 180
133 154 181
134 154 181
134 154 181
134 154 181
134 154 181
134 154 181
134 155 181
134 154 181
135 155 181
133 154 181
134 154 181
133 154 181
135 155 181
134 154 181
134 154 181
134 154 181
134 154 181
134 154 181
134 154 181
134 154 181
134 154 181
133 154 181
134 154 181
133 154 181
134 154 181
133 154 181
133 154 181
134 154 181
134 154 181
134 154 181
134 155 181
134 154 181
133 153 180
134 154 181
133 154 181
134 154 181
134 154 181
133 154 181
134 154 181
134 154 181
134 154 181
134 154 181
134 154 181
134 154 181
133 154 181
134 154 181
133 154 181
134 154 181
134 154 181
134 154 181
135 155 181
134 154 181
134 154 181
134 155 181
134 154 181
134 154 181
134 154 181
134 154 181
134 154 181
134 154 181
133 154 181
133 154 181
133 154 181
134 154 181
134 154 181
134 154 181
135 155 181
134 154 181
134 154 181
133 154 181
134 154 181
133 154 181
134 154 181
133 154 181
134 154 181
133 154 181
134 154 181
133 154 181
134 154 181
134 154 181
134 154 181
134 154 181
134 154 181
134 154 181
134 154 181
134 154 181
134 154 181
134 154 181
134 154 181
134 154 181
133 154 181
134 154 181
133 154 181
133 154 181
134 154 181
134 154 181
135 155 181
134 154 181
133 154 181
135 155 181
135 155 181
135 155 181
134 154 181
134 154 181
134 154 181
134 154 181
135 155 181
134 154 181
134 155 181
133 154 181
133 154 181
134 154 181
133 154 181
134 154 181
134 154 181
134 154 181
134 154 181
133 154 181
135 155 181
133 154 181
133 154 181
133 153 180
133 154 181
133 154 181
134 154 181
133 154 181
133 154 181
134 154 181
134 154 181
134 154 181
133 154 181
133 154 181
133 154 181
133 154 181
134 154 181
133 154 181
134 154 180
134 154 181
134 154 181
134 154 181
134 154 181
134 154 181
134 154 181
133 154 180
134 154 181
133 154 181
133 154 181
134 154 181
133 154 181
134 154 181
134 154 181
135 155 181
133 154 181
134 154 181
134 154 181
134 154 181
134 154 181
134 154 181
134 154 181
133 154 181
134 154 181
134 154 181
134 154 181
134 154 181
134 154 181
134 154 181
133 154 181
134 154 181
134 155 181
133 154 181
134 154 181
134 154 181
134 154 181
134 154 181
134 154 181
133 154 181
134 154 181
133 154 181
134 154 181
134 154 181
134 154 180
133 154 181
134 154 181
134 154 181
134 154 181
133 154 181
134 154 181
134 154 181
133 154 181
134 154 181
134 154 181
133 154 181
134 154 181
134 155 181
133 154 181
133 154 181
133 154 181
134 155 181
134 154 181
134 154 181
133 154 181
134 154 181
134 154 181
134 154 181
134 154 181
134 154 181
132 153 181
134 154 181
133 154 181
134 154 181
134 154 181
135 155 181
134 154 181
133 154 181
133 154 181
134 154 181
134 154 181
135 155 181
134 154 181
134 154 181
133 154 181
134 154 181
133 154 181
133 154 181
133 154 181
134 154 181
134 154 181
132 153 180
133 154 181
133 154 181
134 154 181
134 154 181
134 154 181
133 154 181
134 154 181
134 154 180
135 155 181
133 154 181
134 154 181
133 154 181
134 154 181
133 154 181
134 154 181
134 154 181
133 154 181
133 154 181
134 154 181
134 154 181
135 155 181
134 154 181
134 154 180
133 154 181
134 154 181
134 154 181
134 155 181
133 154 181
134 154 181
134 154 181
134 154 181
134 155 181
134 154 180
134 154 181
134 154 181
134 154 181
134 154 181
134 154 181
133 154 180
134 154 181
134 154 180
133 154 181
135 155 181
133 154 181
133 154 181
134 154 181
134 154 181
133 154 181
135 155 181
135 155 181
134 154 181
133 154 181
133 154 181
134 154 181
134 154 181
134 154 181
133 154 181
134 155 181
133 154 181
133 154 181
135 155 181
133 154 181
134 154 181
132 153 181
134 154 181
133 154 181
133 154 181
134 154 181
134 154 181
134 154 181
134 154 181
134 154 181
134 154 181
134 154 181
134 154 181
133 154 181
134 154 181
134 154 181
133 154 181
133 154 180
134 154 181
134 154 181
134 155 181
134 154 181
133 154 181
134 154 181
134 154 181
134 154 181
134 154 181
133 154 181
134 154 181
134 154 181
134 155 181
133 154 181
134 154 181
134 154 181
133 154 181
133 154 181
132 153 181
134 154 181
134 154 181
135 155 181
134 154 181
134 154 180
134 154 181
134 154 181
134 154 181
133 153 180
134 154 181
133 154 181
134 154 181
135 155 181
134 154 181
134 154 181
134 154 181
133 154 181
134 154 181
134 154 181
133 154 181
133 154 181
134 154 181
134 154 181
135 155 181
134 154 181
134 154 181
134 154 181
134 154 181
133 154 181
133 154 181
133 154 181
135 155 181
134 154 181
134 154 181
134 154 181
134 154 181
135 155 181
134 154 181
133 154 181
133 154 181
134 154 181
133 154 181
134 155 181
133 154 181
134 154 181
134 154 181
133 154 181
133 154 181
133 154 181
133 154 180
134 154 181
134 154 181
133 154 181
134 154 181
134 154 181
135 155 181
133 154 181
134 154 181
134 154 181
133 154 181
133 154 181
133 154 181
133 154 181
133 154 181
134 154 181
134 154 181
134 154 181
135 155 181
133 154 181
133 154 181
134 154 181
134 155 181
134 154 181
134 154 181
134 154 181
135 155 181
134 154 181
134 154 181
134 154 181
133 154 181
134 154 181
133 154 181
134 154 181
134 154 181
133 154 181
133 154 181
134 154 181
134 154 181
134 154 181
133 153 180
133 154 181
134 154 181
134 154 181
134 154 181
134 154 181
134 154 181
134 154 181
134 154 181
133 154 181
134 154 181
134 154 181
134 154 181
133 154 181
134 154 181
133 154 181
134 154 181
134 154 181
134 154 181
134 154 181
134 154 181
134 154 181
134 154 181
133 154 181
133 154 181
133 154 181
133 154 181
134 154 181
134 154 181
133 154 180
134 154 181
133 154 181
135 155 181
135 155 181
133 154 181
134 154 181
135 155 181
134 154 181
133 154 181
133 154 181
134 154 181
134 154 181
133 154 181
134 154 181
135 155 181
134 154 181
133 154 181
134 154 181
134 154 181
133 154 181
133 154 181
134 154 181
135 155 181
133 154 181
134 154 181
133 154 181
134 154 181
134 154 181
133 154 181
134 154 181
134 154 180
134 154 181
134 154 181
133 154 181
134 154 181
133 154 181
133 154 181
133 154 181
135 155 181
135 155 181
133 154 181
134 154 181
133 154 181
134 154 181
134 154 180
133 154 181
134 154 181
134 154 181
134 154 181
133 154 181
134 154 181
133 154 181
133 154 181
133 154 181
133 154 181
133 154 181
134 154 181
134 154 181
134 154 181
133 154 181
134 154 181
133 154 181
134 154 181
133 154 181
135 155 181
133 154 181
133 154 181
134 154 181
134 154 181
133 154 181
133 154 181
133 154 180
133 154 181
134 154 181
134 154 180
134 154 181
133 154 181
134 154 181
134 154 181
133 153 180
134 154 181
134 154 181
134 154 181
133 154 181
134 154 181
133 154 181
134 154 181
135 155 181
134 154 181
134 154 181
134 154 181
134 154 181
133 154 181
133 154 181
134 154 181
134 154 181
134 154 181
133 154 181
134 154 181
134 154 181
134 154 181
134 154 181
134 154 180
133 154 180
134 154 181
135 155 181
134 154 181
133 154 181
134 154 181
134 154 181
133 154 181
135 155 181
133 154 181
134 154 181
135 155 181
134 154 181
134 154 181
133 154 181
134 154 181
133 154 181
133 154 181
134 154 181
134 154 181
134 154 181
133 154 181
135 155 181
133 154 181
134 154 181
133 154 181
133 154 181
134 154 181
134 154 181
134 154 181
134 154 181
135 155 181
133 154 181
133 154 181
135 155 181
134 154 181
133 153 180
134 154 181
133 153 180
133 154 180
133 154 181
134 154 181
134 154 181
134 154 181
134 154 181
134 154 181
134 154 181
134 154 181
133 154 181
133 154 181
133 154 181
134 154 181
132 153 181
134 154 181
133 154 181
134 154 181
133 154 181
134 154 181
134 154 181
134 154 180
133 154 181
133 154 181
133 154 181
133 154 181
134 154 181
133 154 181
134 154 180
133 154 181
134 154 181
134 154 181
133 153 180
134 154 181
133 154 181
134 154 181
133 154 181
134 154 181
134 155 181
133 154 181
134 154 181
133 154 180
134 154 181
134 154 181
133 154 181
133 154 181
133 154 181
134 154 181
134 154 181
134 154 181
133 154 181
133 154 181
133 154 181
133 154 181
134 154 181
135 155 181
134 154 181
134 154 181
133 154 181
133 154 180
134 154 181
134 154 181
134 154 181
134 154 181
134 154 181
133 154 181
133 154 181
134 154 181
134 154 181
134 154 181
133 154 181
133 154 181
133 154 181
133 154 181
134 154 181
133 154 181
134 154 181
134 154 181
134 154 181
133 154 181
134 154 181
134 154 181
134 154 181
135 155 181
134 154 181
133 154 181
134 154 181
133 154 181
134 154 181
133 154 181
133 154 181
134 154 181
135 155 181
133 154 181
133 154 181
133 154 181
134 154 180
133 154 181
135 155 181
133 154 181
133 154 181
134 154 181
134 154 181
133 154 181
134 155 181
134 154 181
133 154 181
134 154 181
134 154 181
134 154 181
134 154 181
134 154 181
134 154 181
133 154 181
134 154 181
133 154 181
134 154 181
133 154 180
134 154 181
133 154 181
134 154 181
134 154 181
133 154 181
133 154 181
134 154 181
135 155 181
133 154 181
135 155 181
133 154 181
134 154 181
133 154 181
134 154 181
134 154 181
133 154 181
133 154 181
134 154 181
134 154 181
134 154 181
133 154 181
134 154 181
135 155 181
134 154 181
134 154 181
134 154 181
133 154 181
133 154 181
134 154 181
134 154 180
134 155 181
134 154 181
135 155 181
133 154 181
134 154 181
134 154 181
134 155 181
135 155 181
134 154 181
135 155 181
133 154 181
134 154 180
134 154 181
133 154 181
134 154 181
134 154 181
134 154 181
134 154 180
134 154 181
134 154 181
133 154 181
135 155 181
134 154 181
133 154 181
133 154 181
134 154 181
134 154 181
134 154 181
134 154 180
133 154 181
133 154 181
134 154 181
134 154 181
134 154 181
134 154 181
134 154 181
134 154 181
133 154 181
134 154 181
134 154 181
134 154 181
134 154 181
135 155 181
133 154 181
134 154 181
133 154 181
135 155 181
134 154 181
134 154 181
134 154 181
134 154 181
134 154 181
135 155 181
134 154 181
134 154 181
133 154 181
134 154 181
133 154 181
133 154 181
133 154 181
134 154 181
133 154 181
134 154 181
134 154 181
134 154 181
134 154 181
134 154 181
133 154 181
134 154 181
134 154 181
134 155 181
134 154 181
133 154 181
133 154 181
134 154 181
134 154 181
132 153 181
134 154 181
134 154 181
134 155 181
134 154 181
134 154 181
134 154 181
133 154 181
134 154 181
134 154 181
134 154 181
133 154 181
134 154 181
134 154 181
134 154 181
134 154 181
134 154 181
134 155 181
133 154 181
134 154 181
134 154 181
134 154 181
134 154 181
133 154 181
134 154 181
133 154 181
135 155 181
133 154 181
133 154 181
134 154 181
133 154 181
134 154 181
134 154 181
134 154 181
134 154 181
134 154 181
133 154 181
134 154 181
132 153 181
134 154 181
134 154 181
134 154 181
134 154 181
134 154 181
134 154 181
134 154 181
134 154 181
133 154 180
133 154 181
134 154 181
134 154 181
134 154 181
134 155 181
134 154 181
133 154 181
134 154 181
134 154 181
134 154 181
135 155 181
133 154 181
134 154 181
134 154 181
134 154 181
133 154 181
134 154 181
133 154 181
133 154 181
134 154 181
135 155 181
133 154 181
134 154 181
132 153 180
133 154 181
134 154 181
134 154 181
134 154 181
134 154 181
134 154 181
133 154 181
134 154 181
134 154 181
133 154 181
133 154 181
134 154 181
134 154 181
134 154 181
133 154 181
134 154 181
133 154 181
133 154 180
134 154 181
133 154 181
133 154 181
135 155 181
134 154 181
134 154 181
134 154 181
134 154 181
134 154 181
133 154 181
133 154 180
133 154 181
134 154 181
134 155 181
134 154 181
133 154 181
134 154 181
134 154 181
132 153 180
133 154 181
134 154 181
133 154 181
133 154 181
134 154 181
134 154 181
134 154 181
133 154 181
133 154 181
134 154 181
135 155 181
134 154 181
134 154 181
134 154 181
134 154 181
134 154 181
133 154 181
133 154 181
134 155 181
134 154 181
134 154 181
134 154 181
134 154 181
134 154 181
134 154 181
134 154 181
134 154 181
134 154 181
134 154 181
133 154 181
134 154 181
134 154 181
133 154 181
135 155 181
134 154 181
134 154 181
134 154 181
134 154 181
134 154 181
133 154 181
134 154 181
134 154 181
134 155 181
134 154 181
133 154 181
133 154 181
133 154 181
134 154 181
134 154 181
134 154 181
133 154 180
134 154 181
134 154 181
133 154 181
134 154 181
134 154 181
133 154 181
133 154 181
133 154 181
134 154 181
133 154 181
133 154 181
133 154 181
134 154 181
133 154 181
134 154 181
133 154 181
134 154 181
134 154 181
133 154 181
134 154 181
133 154 181
133 154 181
133 154 181
133 154 181
134 154 180
133 154 181
134 154 181
134 154 181
134 155 181
133 154 181
134 154 180
134 154 181
133 154 180
134 154 181
134 154 181
133 154 181
134 154 181
134 154 181
134 154 181
134 154 181
134 154 181
133 154 181
134 154 181
134 155 181
134 154 181
135 155 181
133 154 181
133 154 181
134 154 181
134 154 181
133 154 181
134 154 181
134 154 181
133 154 180
133 154 181
135 155 181
134 154 181
134 154 181
134 154 181
133 154 181
134 154 181
133 154 181
134 154 181
134 154 181
134 154 181
133 154 181
134 154 181
133 154 181
133 154 181
133 154 181
134 154 181
134 154 181
133 154 181
134 154 181
133 154 181
134 154 181
134 154 180
134 154 181
133 153 180
133 154 181
134 154 181
134 154 181
134 154 180
133 154 181
133 154 181
134 154 180
134 154 181
135 155 181
133 154 181
134 154 181
134 154 181
133 154 181
134 154 181
134 154 181
134 154 181
134 154 181
134 154 181
133 154 181
134 154 181
134 155 181
134 154 181
134 154 181
134 154 181
135 155 181
134 154 181
133 154 181
133 154 181
134 154 181
133 153 180
134 154 181
134 154 181
133 154 181
134 154 181
134 154 181
135 155 181
134 154 181
133 154 181
134 154 181
133 154 180
134 154 181
134 154 181
134 154 181
133 153 180
134 154 181
134 154 181
134 154 181
133 154 180
134 154 181
134 154 181
134 154 181
134 154 181
133 154 181
133 154 181
133 154 181
134 154 181
133 154 181
134 154 181
134 154 181
133 154 180
134 154 181
133 154 181
133 154 181
134 154 181
134 154 181
134 155 181
135 155 181
134 154 181
135 155 181
134 154 181
134 154 181
133 154 181
133 154 180
134 154 181
134 154 181
134 154 181
133 154 181
134 154 181
134 154 181
133 154 181
133 153 179
134 154 181
133 154 181
134 154 181
135 155 181
133 154 181
134 154 181
134 155 181
133 154 181
134 154 181
134 154 181
134 154 181
133 154 181
133 154 181
134 155 181
133 154 181
133 154 181
134 154 181
134 154 181
133 154 181
134 154 181
134 154 181
135 155 181
134 154 181
133 154 181
134 154 181
134 154 181
134 154 181
133 154 181
133 154 181
135 155 181
134 154 181
135 155 181
134 154 181
134 154 181
134 154 181
134 154 181
133 154 181
133 154 181
133 154 181
133 154 181
133 154 181
133 154 181
133 154 181
135 155 181
135 155 181
133 154 181
134 154 181
134 154 181
134 154 181
133 154 181
133 154 181
133 154 180
133 154 181
134 154 181
134 154 181
133 153 180
134 154 181
134 154 181
135 155 181
133 154 181
134 154 181
134 154 181
134 154 181
134 154 181
133 154 181
134 154 181
134 154 181
134 154 181
134 154 181
134 154 181
133 154 181
135 155 181
134 154 181
134 154 181
134 154 181
134 154 181
134 154 181
134 154 181
134 154 181
134 154 181
134 154 181
134 154 181
133 154 181
133 154 181
133 154 181
133 154 181
134 154 181
134 154 181
133 154 181
134 154 181
134 154 181
134 154 181
134 154 181
133 154 181
134 154 181
133 154 181
133 154 181
134 154 181
135 155 181
134 154 181
133 154 181
133 154 181
135 155 181
133 154 181
134 154 181
134 154 181
133 154 181
133 154 180
134 154 181
134 154 181
133 154 181
133 154 181
134 154 181
134 154 181
133 154 181
133 154 181
134 154 181
134 154 181
133 154 181
134 154 181
134 154 181
133 154 181
133 154 181
134 154 181
134 155 181
133 154 181
135 155 181
134 154 181
134 154 181
133 154 181
133 154 181
133 154 181
134 154 181
133 154 181
134 154 181
134 154 181
134 154 181
133 154 181
133 154 181
133 154 181
133 154 181
133 154 181
134 154 181
134 154 181
133 154 181
134 154 181
133 154 181
135 155 181
134 155 181
134 154 181
134 154 181
133 154 181
133 154 181
135 155 181
134 154 181
134 154 181
134 154 181
133 154 181
135 155 181
133 154 181
133 153 180
133 154 181
134 154 181
135 155 181
134 154 181
133 154 181
133 154 181
134 154 181
134 154 180
133 154 181
134 154 181
134 154 181
133 154 181
134 154 181
134 154 181
133 154 181
133 154 181
134 154 181
134 154 181
135 155 181
133 154 181
135 155 181
135 155 181
134 154 181
134 154 181
134 154 181
133 154 181
133 154 181
133 154 181
134 154 181
135 155 181
134 154 181
133 154 181
134 154 181
134 154 181
134 154 181
134 154 181
133 154 181
134 154 181
134 154 181
133 154 181
134 154 181
134 154 181
134 154 181
134 154 181
133 154 180
134 154 181
134 154 181
134 154 181
134 154 181
133 154 181
135 155 181
134 154 181
134 154 181
134 154 181
134 154 181
134 154 181
134 154 181
133 154 181
134 154 181
132 154 181
134 154 181
134 154 181
133 154 181
134 154 181
134 154 181
134 154 181
134 155 181
134 154 181
134 154 181
134 154 181
133 154 181
133 154 181
134 154 181
134 154 181
133 154 181
135 155 181
134 154 181
134 154 181
133 154 181
133 154 181
134 154 181
133 154 181
134 154 181
134 154 181
133 154 181
134 154 181
133 154 180
134 154 181
134 154 181
133 154 180
133 154 181
133 154 181
134 154 181
133 154 180
134 154 181
135 155 181
133 154 181
134 155 181
134 154 181
134 154 181
134 154 181
133 154 181
134 154 181
133 154 180
134 154 181
134 154 181
134 154 181
134 154 181
133 154 180
134 154 181
133 154 181
134 154 181
133 154 180
133 154 181
134 154 181
135 155 181
134 154 181
133 154 180
135 155 181
134 154 181
135 155 181
134 154 181
133 154 181
134 154 181
134 154 181
135 155 181
134 154 181
134 154 181
133 154 181
134 154 181
134 154 181
134 154 181
133 154 181
134 154 181
134 154 181
134 154 181
134 154 181
135 155 181
133 154 181
134 154 181
134 154 181
135 155 181
134 154 181
134 154 181
134 154 181
133 154 181
134 154 181
134 154 181
135 155 181
133 154 181
135 155 181
134 154 181
134 154 181
134 155 181
133 154 181
134 154 181
134 154 181
134 154 181
134 154 181
133 154 181
134 154 181
133 154 180
133 154 181
133 154 180
134 154 181
134 154 181
133 154 181
134 154 181
132 153 181
133 154 181
134 154 181
134 154 181
134 154 181
133 154 181
133 154 181
135 155 181
133 154 181
134 154 181
134 154 181
134 154 181
133 154 181
134 154 181
134 154 181
134 154 181
133 154 181
135 155 181
134 155 181
134 154 181
133 154 181
134 154 181
134 155 181
133 154 181
134 154 180
134 154 181
134 154 181
133 154 181
134 154 181
134 154 181
133 154 181
134 154 181
133 154 181
134 154 181
134 154 181
134 154 181
133 154 181
133 154 181
134 154 181
133 154 181
133 154 181
133 154 181
134 154 181
133 154 181
133 154 181
134 154 181
133 154 181
134 154 181
133 153 180
132 153 181
134 154 181
134 155 181
133 154 181
134 154 181
133 154 181
134 154 181
133 154 181
134 154 181
133 154 181
133 154 181
134 154 181
133 154 181
134 154 181
134 154 181
134 154 181
134 154 181
134 154 181
134 154 180
134 154 181
132 154 181
134 154 181
133 154 181
133 154 181
134 154 181
134 154 181
134 154 181
133 154 181
133 154 181
133 154 181
134 154 181
135 155 181
135 155 181
133 154 180
134 154 181
134 154 181
134 155 181
133 154 181
135 155 181
133 154 181
134 154 181
133 154 181
133 154 181
134 154 181
133 154 181
134 154 181
134 154 181
133 154 181
134 154 181
133 154 181
134 154 181
134 154 181
133 154 181
134 154 181
134 154 181
132 153 180
134 154 181
134 154 180
133 154 181
134 154 181
134 154 181
134 154 181
133 154 181
133 153 180
133 154 181
133 154 181
135 155 181
134 154 181
133 154 181
134 154 181
134 154 181
133 154 181
134 154 181
134 154 181
134 155 181
133 154 181
133 154 181
133 154 181
134 154 181
134 154 181
135 155 181
133 154 181
134 154 181
134 155 181
134 154 181
134 154 181
134 154 181
134 154 181
135 155 181
133 154 181
133 154 181
134 154 181
134 154 181
133 154 181
133 154 181
133 154 181
134 154 181
133 154 181
134 155 181
134 154 181
133 154 181
133 154 181
134 154 181
134 154 181
134 154 181
134 154 181
132 153 180
133 154 181
134 154 181
134 154 181
134 154 181
134 154 181
135 155 181
134 154 181
134 154 181
133 154 181
133 154 180
134 154 181
133 153 180
134 154 181
134 154 181
133 154 181
134 154 181
134 154 181
134 154 181
133 154 181
134 154 181
134 154 181
134 155 181
134 154 181
134 154 181
134 155 181
134 154 181
133 154 181
134 154 181
134 154 181
133 154 181
134 155 181
135 155 181
134 154 181
134 154 181
133 154 181
133 154 181
134 154 181
134 154 181
133 154 181
133 154 181
133 154 181
133 154 181
134 154 181
134 154 180
134 154 181
134 154 180
133 154 181
134 154 181
133 154 181
134 154 181
133 154 181
133 154 181
133 154 180
132 153 181
134 154 181
134 154 181
134 154 181
134 154 181
134 154 181
134 154 181
134 154 181
134 154 181
133 154 181
134 154 181
134 154 181
134 154 181
133 154 181
133 154 181
134 154 181
133 154 180
134 154 181
134 154 181
134 155 181
134 154 181
134 154 181
133 154 180
133 154 181
134 154 181
134 154 181
134 154 181
133 154 181
134 154 181
134 154 181
134 154 181
134 154 181
135 155 181
133 154 181
134 154 181
133 154 181
134 154 181
133 154 181
133 154 181
134 154 181
134 154 181
134 154 181
134 154 181
133 154 180
134 154 181
134 154 181
133 154 181
134 154 181
133 154 181
133 153 180
133 154 181
134 154 181
135 155 181
134 154 181
133 154 180
132 153 181
134 154 181
134 154 180
133 154 181
133 154 181
133 154 181
133 154 181
134 154 181
134 155 181
134 155 181
133 154 181
134 154 181
133 154 181
134 154 181
133 154 181
134 154 181
134 154 181
134 155 181
134 155 181
134 154 181
134 154 180
134 154 181
133 154 181
135 155 181
134 154 181
134 154 181
134 154 181
134 154 181
134 154 181
134 154 181
133 154 181
134 154 181
134 154 181
133 154 181
133 154 181
134 154 181
134 154 181
134 155 181
135 155 181
133 154 181
134 154 181
134 154 181
134 154 181
134 154 181
133 154 181
133 154 181
134 154 181
133 154 181
134 154 181
133 154 181
133 154 181
134 154 181
133 154 181
134 154 181
134 154 181
134 154 181
133 154 181
133 154 181
133 154 181
133 154 181
133 154 181
134 155 181
134 154 181
133 154 181
134 154 180
133 154 181
133 154 181
134 154 181
134 154 181
134 154 181
134 154 181
134 154 181
134 154 181
133 154 181
133 154 181
134 154 181
134 154 181
134 154 181
134 154 181
134 154 181
135 155 181
134 154 181
134 154 181
134 154 181
133 154 181
134 154 181
134 154 181
134 154 181
134 154 181
135 155 181
134 154 181
134 154 181
133 154 181
133 154 180
133 154 181
133 154 181
133 154 181
134 154 181
135 155 181
135 155 181
134 154 181
134 154 181
133 154 181
134 154 181
133 154 181
133 154 181
134 154 181
134 154 181
133 154 181
133 154 181
134 154 181
134 154 181
134 154 181
133 154 181
134 154 180
133 154 181
134 154 181
133 154 181
134 154 181
134 154 181
134 154 181
133 154 181
133 154 181
133 154 181
135 155 181
134 154 180
134 154 181
134 154 181
135 155 181
133 154 181
133 154 181
134 154 181
133 154 181
134 154 181
134 155 181
133 154 181
134 155 181
133 154 181
133 154 181
134 154 181
134 154 181
134 155 181
134 154 181
134 154 181
134 154 181
134 154 181
134 154 181
134 154 181
134 154 181
134 154 181
135 154 180
133 154 181
134 154 181
134 154 181
133 154 181
133 154 181
134 154 181
134 154 181
133 154 181
134 155 181
134 154 181
135 155 181
134 154 181
134 154 181
134 154 181
134 154 181
133 154 181
133 154 181
134 154 181
134 154 181
134 154 181
133 154 180
134 154 181
134 154 181
133 154 181
134 154 181
134 154 181
133 154 181
134 154 181
134 154 181
133 154 181
134 154 181
133 154 181
133 154 181
133 154 181
134 154 181
134 154 181
134 155 181
133 154 181
134 154 181
134 154 181
133 154 181
134 154 181
133 154 181
134 154 181
133 154 181
134 154 181
134 154 181
134 154 181
134 154 181
134 154 181
133 153 180
133 154 181
135 155 181
134 154 181
134 154 181
135 155 181
133 154 181
133 154 181
134 154 181
133 154 181
133 154 181
135 155 181
133 154 181
134 154 181
133 154 181
134 154 180
133 154 181
133 154 181
134 154 181
134 154 181
134 154 181
134 154 181
133 154 180
134 154 181
134 155 181
134 154 181
133 154 181
134 154 181
133 154 181
134 154 180
135 155 181
134 154 181
134 154 180
134 154 181
134 154 181
134 154 181
133 154 181
133 154 180
134 154 181
133 154 181
133 154 180
134 154 181
133 154 181
134 154 181
133 154 180
134 154 181
135 155 181
134 154 181
134 154 181
133 154 181
134 154 181
133 153 180
134 154 181
134 154 181
134 155 181
134 154 181
134 154 181
134 154 181
134 154 181
133 154 181
134 154 181
134 154 181
135 155 181
134 154 181
134 154 181
133 154 181
133 154 181
133 154 181
134 154 180
133 154 181
134 154 181
135 154 180
134 154 181
134 154 181
134 154 181
134 154 181
134 154 181
133 154 181
134 154 181
133 154 181
134 154 181
133 154 181
134 154 181
133 154 181
134 154 181
133 154 181
134 154 181
134 154 181
134 154 181
133 154 181
133 154 181
133 154 180
133 154 181
134 154 181
134 154 181
134 155 181
133 154 181
134 154 181
133 154 181
134 154 181
134 154 181
134 154 181
134 155 181
133 154 181
134 154 181
134 154 181
134 154 181
134 154 181
134 154 181
134 155 181
133 154 181
133 154 181
134 154 181
133 154 181
133 154 181
134 154 181
134 154 181
133 154 181
134 154 181
134 154 181
133 154 181
133 154 181
134 154 181
134 154 181
135 155 181
135 155 181
134 154 181
134 154 181
133 154 181
134 154 181
132 153 180
134 154 181
134 154 181
134 154 181
134 154 181
134 154 181
133 154 181
133 154 181
134 154 181
134 154 181
134 154 181
134 154 181
134 154 181
133 154 181
134 154 181
134 154 181
134 154 181
133 154 181
134 154 181
134 154 181
133 154 181
134 154 181
133 154 181
134 154 181
133 154 181
133 154 181
135 155 181
133 154 181
134 154 181
134 154 181
134 154 181
133 154 181
133 154 181
133 154 181
134 154 181
134 154 181
134 154 181
133 154 181
134 154 181
134 154 181
133 154 181
134 154 181
134 154 181
134 154 181
134 155 181
133 154 181
134 154 181
134 154 181
133 154 181
133 154 181
134 154 181
134 154 181
133 154 181
134 154 181
133 154 180
134 155 181
133 154 181
134 154 181
134 154 181
134 154 181
134 154 181
134 155 181
133 154 181
133 154 181
133 154 181
134 154 181
134 154 181
134 154 181
133 154 181
134 154 181
133 154 181
